jkpark150901/flame_robotics_drt/experiment/inspection_ik/session_20260716_101733/inspection_ik_dda_rb10_1300e_raw_fallback_20260716_101829.csv
iteration,err_norm,position_error,orientation_error,tcp_x,tcp_y,tcp_z,q0_dda_joint_linear_track,q1_dda_joint_carriage,q2_dda_joint_base,q3_dda_joint_shoulder,q4_dda_joint_elbow,q5_dda_joint_wrist1,q6_dda_joint_wrist2,q7_dda_joint_wrist3
0,3.7994330498229503,3.144198096962958,1.717768699266726,0.47255,3.7499999999986655,2.697,0.0,0.0,0.0,0.0,0.0,0.0,0.0,0.0
1,2.8536027274470093,2.2193749548437594,1.5658105364011092,1.5898561256390493,3.4689257371203963,2.694888099138975,1.1293363322418422,-0.1696689870282147,-0.12065674686094756,-0.07761972633887677,0.0263364620099222,0.12307323496090593,-0.09414596763865309,0.14294995679061345
2,4.830058564762392,2.571449506307464,2.969274002251825,1.9105967491452602,4.243166559569922,2.2806315447480356,2.1399868202521777,0.40075114452014765,-2.106455166676477,0.25264672684671297,-1.10459935402912,-2.039939017714459,1.7136464183697013,3.14
3,3.439792014636406,2.3199070367682766,2.1034871861535414,1.6406702296886682,3.834777676477515,2.2319117089784575,0.9151156262046767,0.3588203754025539,-1.7251724432927573,0.27090551666249185,0.9895483163827443,-3.14,1.2766100436960668,3.14
4,2.4712982591622814,1.9130013448921257,1.3895539891965616,1.6681382337340909,3.1633699457649143,2.577059995234757,1.623577771888375,-0.3458298115002089,-1.6611067484749915,-0.24850981874912825,0.5075640805369948,-2.0585583175118787,0.5751643928105371,3.14
5,1.6409821241715496,1.3230228593503022,0.9119296343483814,2.014349492733411,2.5254750543321833,2.556709818185095,1.7211859577196569,-0.9234962553503157,-1.7981598696440235,0.2817899046649801,-0.09628258376643772,-1.731451093873799,0.0679680872516184,2.9449743466937464
6,1.1351493834969555,0.9579081103473545,0.5901407512022686,2.2278507431231787,2.405657665585057,2.2729660800710616,1.419822671560695,-1.0,-1.6898666893921777,0.7935089562175076,-0.1851467729745496,-2.1444254297059326,-0.2227345221759649,3.0271604863784356
7,0.8896296879646352,0.7967262671437504,0.38667515110270456,2.4101665693316097,2.4483708128004684,2.1256393362681574,1.4492623900709505,-1.0,-1.621697322337332,0.9488394263513977,-0.17545540346354863,-2.252442722712904,-0.418262786002762,3.0051067268486737
8,0.758288507397728,0.7137679944994234,0.2510113176987032,2.5379496648593936,2.4868435761657723,2.0149542141015364,1.4922260080401049,-1.0,-1.5797437607673146,1.0557861234649064,-0.18350617173876863,-2.3593191523556287,-0.5470262259274037,3.0261433281930383
9,0.683308681771448,0.6629374878265436,0.16272602921420623,2.6276185658308995,2.50075910713207,1.9323179749767772,1.5338263576555782,-1.0,-1.5696740327886722,1.133654754280157,-0.1979907949771168,-2.4546452697385255,-0.6297046273048246,3.067209319265072
10,0.6323882758919914,0.6231810713426724,0.10583587303293203,2.6897485721137135,2.494568122413281,1.8706006145063963,1.568304447172592,-1.0,-1.580526777787188,1.1914772964009261,-0.21331166508190244,-2.5346830839048895,-0.683109731442311,3.1158106556627354
11,0.59251031917064,0.5870690481953335,0.07905354374618709,2.7322949640415923,2.4757782680205445,1.8248386890773323,1.595846774312376,-1.0,-1.6031306225675557,1.2344271279088943,-0.22780486021963456,-2.600726907046898,-0.7184433097956725,3.14
12,0.5632426857664301,0.5552118538753478,0.0940557585686449,2.7597755006948383,2.45269192932808,1.791604796910903,1.616098608167512,-1.0,-1.6289775677785643,1.2657056072396606,-0.24021577206701064,-2.653077767757155,-0.74257487519812,3.14
13,0.5431026007174601,0.5289537669184109,0.12250278192862767,2.7757507312544876,2.4307782845971153,1.7677799662869391,1.6291830584044509,-1.0,-1.6528229566592496,1.2881469314790235,-0.24997226166977404,-2.6929564656935394,-0.7594600089573863,3.14
14,0.5292573716590878,0.5071814147991022,0.1505553025034604,2.7843503983018962,2.4111583140635684,1.7507491113773677,1.6374415608448467,-1.0,-1.6738610920150763,1.3041879392172626,-0.25754428156507225,-2.7234281459604253,-0.7714765144590815,3.14
15,0.5198142260281053,0.48918820132342855,0.175012264992792,2.788404264473563,2.3942115396537633,1.7386518716813517,1.642576661125812,-1.0,-1.6919015759114775,1.3155472933664727,-0.26333112825336463,-2.74678203904943,-0.7801415384260428,3.14
16,0.5134473862681913,0.4744211273643756,0.19551067516012177,2.789780068352309,2.3799212052723373,1.7301331255910224,1.6457437189454769,-1.0,-1.7070687952957344,1.3234764271382229,-0.2676626336946545,-2.764739524357621,-0.7864554674485481,3.14
17,0.5092101581576085,0.46239458292558583,0.21238894905278918,2.789670958033671,2.36807406242803,1.7241955847496244,1.6476941057567303,-1.0,-1.7196361990150943,1.3289006983746323,-0.27080990291033225,-2.778602017796465,-0.7910955219889794,3.14
18,0.5064274956992861,0.45266970320896877,0.22614422943269089,2.7888144579887792,2.35837443909871,1.7201046529941195,1.648901812619112,-1.0,-1.7299339700430874,1.3325072359268992,-0.2729959271208761,-2.7893564396095,-0.7945298085551027,3.14
19,0.5046238812190098,0.4448541134587472,0.23727527511900853,2.787649495889895,2.3505076272655807,1.7173218865535074,1.6496587539188106,-1.0,-1.7382982159319986,1.3348049563288593,-0.2744042431442926,-2.7977520527535966,-0.7970872704195293,3.14
20,0.5034697150412862,0.43860459794539924,0.2462340492986172,2.7864246304375286,2.3441732967578957,1.71545584970175,1.6501411827660317,-1.0,-1.745044280105929,1.3361683977654253,-0.2751857770796113,-2.8043576308971545,-0.7990021047975282,3.14
21,0.5027403071628882,0.43362745928155355,0.2534128221510956,2.785270447665534,2.3391013390765067,1.7142248068662687,1.6504538343758675,-1.0,-1.7504542098300686,1.3368709349697743,-0.27546433164083717,-2.8096046258817404,-0.8004428113478891,3.14
22,0.5022848736750777,0.4296760437421293,0.2591441475693896,2.7842467746914368,2.3350576312085103,1.7134281769376647,1.6506582714256437,-1.0,-1.7547724609828008,1.3371103005251137,-0.2753410959071832,-2.8138200324191134,-0.8015316646686117,3.14
23,0.5020036825015488,0.4265463151032401,0.2637056932798181,2.783372740624045,2.3318442429751842,1.7129247732291089,1.6507905724110958,-1.0,-1.7582062452747818,1.3370281924210585,-0.27489842637415507,-2.817251488497639,-0.8023580349274843,3.14
24,0.5018316501324597,0.42407149308937747,0.26732673961112186,2.782645443168315,2.3292967968014335,1.712616375585365,1.650872086012827,-1.0,-1.7609283229591655,1.3367252247805061,-0.27420305190483946,-2.8200864444719755,-0.8029876501343792,3.14
25,0.5017268473179926,0.4221165210983147,0.2701949666570693,2.782051211914036,2.3272805726544448,1.7124354793144478,1.6509158056440638,-1.0,-1.7630809089939283,1.3362722033127237,-0.2733087980648407,-2.8224667754467134,-0.8034691204670874,3.14
26,0.5016626074254723,0.42057283471332646,0.2724629036171112,2.7815721631377492,2.3256862655845563,1.7123362780447005,1.6509300509477223,-1.0,-1.7647799042840915,1.335718526026748,-0.2722588965872936,-2.824499891310778,-0.8038385812618473,3.14
27,0.5016222005333866,0.41935367306234783,0.2742537635516884,2.7811898265067265,2.3244258861107086,1.7122881132817402,1.6509205364917372,-1.0,-1.7661190063584862,1.335098365991127,-0.27108793157674804,-2.826267161278819,-0.8041230242754701,3.14
28,0.5015952910127257,0.4183900228032095,0.2756665627078412,2.78088699688413,2.3234290437436886,1.7122707761535354,1.6508915007894605,-1.0,-1.767173468086519,1.3344351685360776,-0.2698234674807217,-2.8278302868991076,-0.8043427039088527,3.14
29,0.501575610823158,0.41762719420776856,0.2767805165218635,2.78064854385986,2.32263970795257,1.7122711788293081,1.650846304137127,-1.0,-1.7680034043446229,1.3337448864604813,-0.26848740024819423,-2.8292361141094164,-0.8045128853125395,3.14
30,0.5015594483707438,0.4170219811017536,0.2776587535871431,2.780461635047163,2.3220134589701944,1.7122810242860853,1.650787736489287,-1.0,-1.7686566243119022,1.3330382835332686,-0.267097070213436,-2.830520262044383,-0.8046451210129913,3.14
31,0.5015446772572709,0.4165403354143673,0.27835141319761636,2.78031565053904,2.321515197876338,1.7122951940077702,1.6507181736133638,-1.0,-1.7691710105994134,1.332322558960092,-0.26566617220992633,-2.8317098577308193,-0.8047481878393785,3.14
32,0.5015301383912077,0.41615548167442945,0.278898201699665,2.7802019525616393,2.3211172656335175,1.7123106454705121,1.6506396580264595,-1.0,-1.76957648841173,1.3316024827597728,-0.2642054950415808,-2.8328255967944105,-0.8048287778795816,3.14
33,0.5015152510610668,0.41584639978233473,0.27933048377524056,2.780113603764173,2.3207979143748663,1.7123256672997833,1.6505539452443463,-1.0,-1.769896636758799,1.3308811826244524,-0.26272351881969064,-2.8338832969556353,-0.8048920105066406,3.14
34,0.5014997709938971,0.4155966114160257,0.27967298065473095,2.78004508453102,2.3205400752263294,1.7123393824922313,1.6504625355848392,-1.0,-1.770149994820545,1.3301606848616843,-0.26122689500110075,-2.83489507017981,-0.8049418136495218,3.14
35,0.5014836419228056,0.4153932139548389,0.2799451404991604,2.779992034101897,2.320330371640278,1.7123514217393327,1.6503667007758775,-1.0,-1.770351113402779,1.3294422833782837,-0.2597208304116618,-2.835870208187101,-0.8049812090669088,3.14
36,0.5014669060895927,0.41522611442998,0.280162238319843,2.7799510255579323,2.3201583334720715,1.7123617120603012,1.6502675089741323,-1.0,-1.7705113961952739,1.328726789433719,-0.2582093932377113,-2.836815852436743,-0.8050125268036459,3.14
37,0.5014496515120841,0.4150874240239012,0.2803362547686654,2.7799193766462724,2.3200157736205553,1.7123703426713495,1.6501658491243034,-1.0,-1.7706397695766196,1.3280146993801458,-0.256695755994745,-2.8377375019209032,-0.8050375671458597,3.14
38,0.5014319819119604,0.41497098073204386,0.28047657549570093,2.7798949942977087,2.3198962953215476,1.7123774819259,1.6500624544883018,-1.0,-1.7707432137719894,1.3273063064199626,-0.2551823878705534,-2.8386393987523255,-0.805057723457124,3.14
39,0.501414000403474,0.4148719738828466,0.2805905458345401,2.779876248874112,2.3197949038154446,1.712383327539535,1.6499579248550675,-1.0,-1.7708271826691657,1.3266017744352279,-0.2536712065919529,-2.839524821527793,-0.8050740757198567,3.14
40,0.5013958013775452,0.41478664931841663,0.28068390947114863,2.7798618736456224,2.3197077009912084,1.712388078144316,1.6498527469728337,-1.0,-1.7708959347236193,1.3259011863126178,-0.2521636980608261,-2.8403963089672306,-0.8050874620305248,3.14
41,0.5013774671368021,0.4147120782593909,0.28076115450299066,2.779850885130456,2.319631645735928,1.7123919182314131,1.64974731290134,-1.0,-1.77095279319116,1.3252045752489865,-0.2506610104153304,-2.841255830734536,-0.8050985334250729,3.14
42,0.5013590671769939,0.4146459763263017,0.28082578586173584,2.7798425203761314,2.3195643661467296,1.712395011275923,1.6496419361539236,-1.0,-1.7710003503976421,1.32451194479048,-0.2491640278589983,-2.8421049181637215,-0.805107796043795,3.14
43,0.5013406588499293,0.4145865619821086,0.2808805393808289,2.7798361878192224,2.3195040125707305,1.7123974976813836,1.6495368656436626,-1.0,-1.771040627831585,1.3238232814776292,-0.24767342852598906,-2.8429447644843364,-0.805115643641299,3.14
44,0.5013222886647599,0.4145324459053547,0.28092754974932155,2.779831428924012,2.3194491427171684,1.7123994954106792,1.649432297550793,-1.0,-1.7710752014530227,1.3231385626839742,-0.2461897297784695,-2.8437763017954247,-0.8051223827065137,3.14
45,0.5013039938048152,0.41448254459753475,0.28096848211355213,2.779827888316583,2.3193986319191024,1.7124011019797518,1.6493283852923233,-1.0,-1.7711052996726786,1.3224577613641155,-0.2447133236286421,-2.844600260277685,-0.8051282519078872,3.14
46,0.501285803631342,0.41443601295563515,0.28100463508084234,2.7798252905788665,2.319351603087855,1.7124023970169364,1.6492252478066187,-1.0,-1.7711318798957052,1.3217808488398375,-0.24324450441380602,-2.8454172138104283,-0.8051334371684736,3.14
47,0.5012677410607915,0.41439219167185576,0.2810370212646341,2.77982342224286,2.319307372069144,1.7124034449275183,1.6491229763742996,-1.0,-1.7711556882772417,1.3211077963601443,-0.24178349040259667,-2.8462276151629298,-0.805138083367467,3.14
48,0.5012498237690685,0.4143505662160498,0.2810664302185497,2.7798221178332057,2.3192654050333683,1.7124042974146334,1.649021640189887,-1.0,-1.7711773063450693,1.3204385759101545,-0.2403304406526556,-2.8470318231766725,-0.8051423034321473,3.14
49,0.5012320652132267,0.4143107348603736,0.28109347757782444,2.7798212490546303,2.3192252852614947,1.7124049957371397,1.6489212908823578,-1.0,-1.7711971873587578,1.319773160571881,-0.23888546815648515,-2.847830123784827,-0.8051461854077796,3.14
50,0.5012144754804464,0.41427238375905157,0.2811186434100149,2.779820716418575,2.3191866872619507,1.7124055726618825,1.6488219661616876,-1.0,-1.7712156846541158,1.3191115246275482,-0.2374486500883296,-2.8486227462825315,-0.805149797958541,3.14
51,0.5011970619829413,0.414235267530409,0.28114230213096597,2.779820442759762,2.3191493566047288,1.712406054111062,1.6487236927457434,-1.0,-1.7712330737330646,1.3184536435233325,-0.23602003578851558,-2.849409875932312,-0.8051531946496809,3.14
52,0.5011798300204517,0.4141991941286193,0.2811647458324782,2.7798203682160576,2.3191130942124127,1.7124064605279485,1.64862648869945,-1.0,-1.7712495694750447,1.3177994937647926,-0.2345996529830012,-2.8501916637379097,-0.8051564172821083,3.14
53,0.5011627832316942,0.4141640130588736,0.2811862024670987,2.779820446340912,2.319077744124562,1.7124068079941728,1.6485303652973116,-1.0,-1.7712653395448974,1.3171490527857537,-0.23318751262704504,-2.850968234027904,-0.8051594984897554,3.14
54,0.5011459239543002,0.4141296061978409,0.28120685002036916,2.779820641092231,2.3190431839682857,1.7124071091345037,1.6484353285016284,-1.0,-1.7712805148362871,1.3165022988140254,-0.23178361267663017,-2.8517396903435683,-0.8051624637630669,3.14
55,0.5011292535103308,0.4140958806439163,0.2812268275537106,2.7798209244994787,2.319009317536929,1.7124073738437195,1.6483413801324234,-1.0,-1.7712951976052476,1.3158592107461071,-0.2303879410245386,-2.852506120012628,-0.8051653330255991,3.14
56,0.5011127724318202,0.41406276314864987,0.28124624380763014,2.7798212748557063,2.3189760690107044,1.712407609866869,1.6482485187911053,-1.0,-1.7713094678042562,1.3152197680363495,-0.2290004777858061,-2.8532675977039057,-0.8051681218625156,3.14
57,0.5010964806383678,0.4140301957797836,0.2812651839033874,2.779821675315943,2.318943378456088,1.7124078232601734,1.6481567405881445,-1.0,-1.7713233880146921,1.3145839506021968,-0.2276211970765386,-2.854024188191092,-0.8051708424778757,3.14
58,0.5010803775766051,0.4139981325435396,0.28128371456294193,2.7798221128102427,2.318911198321047,1.712408018755629,1.6480660397152587,-1.0,-1.771337007287689,1.3139517387450705,-0.2262500683982754,-2.854775948502393,-0.8051735044405982,3.14
59,0.5010644623294853,0.4139665367539863,0.2813018881745063,2.7798225772004916,2.318879490705741,1.7124082000484966,1.6479764088945796,-1.0,-1.7713503641349122,1.3133231130854235,-0.22488705771527984,-2.8555229295930755,-0.8051761152657496,3.14
60,0.5010487337017754,0.4139353789842276,0.2813197459588264,2.77982306062607,2.318848225237062,1.71240837002338,1.647887839730709,-1.0,-1.7713634888573786,1.312698054510103,-0.22353212829280517,-2.856265177647179,-0.8051786808675028,3.14
61,0.5010331902868354,0.41390463547069817,0.28133732043503357,2.7798235569959378,2.318817377413396,1.712408530931635,1.6478003229862765,-1.0,-1.7713764053588401,1.312076544130102,-0.22218524134931705,-2.8570027350909015,-0.8051812059120872,3.14
62,0.5010178305187087,0.4138742868703233,0.28135463734097604,2.779824061594246,2.3187869273155113,1.7124086845303454,1.64771384879734,-1.0,-1.7713891325578253,1.3114585632469042,-0.22084635656391569,-2.857735641381721,-0.8051836940928068,3.14
63,0.5010026527127169,0.41384431729248083,0.28137171712868936,2.779824570774022,2.318756858602563,1.7124088321910351,1.6476284068415457,-1.0,-1.7714016854871841,1.310844093325837,-0.21951543247106323,-2.8584639336230366,-0.8051861483443254,3.14
64,0.5009876550970574,0.41381471354497146,0.28138857612904034,2.779825081719189,2.3187271577301116,1.712408974984619,1.6475439864692456,-1.0,-1.7714140761503143,1.3102331159750749,-0.2181924267676035,-2.859187647043034,-0.8051885710096299,3.14
65,0.5009728358373736,0.41378546454664905,0.2814052274586995,2.779825592259648,2.3186978133410214,1.7124091137477164,1.647460576805595,-1.0,-1.7714263141879338,1.3096256129291604,-0.2168772965515218,-2.859906815367866,-0.8051909639701152,3.14
66,0.5009581930558447,0.41375656086985113,0.2814216817265061,2.779826100727542,2.318668815790989,1.7124092491343885,1.6473781668299408,-1.0,-1.7714384073973357,1.3090215660361135,-0.21556999850758032,-2.8606214711125606,-0.8051933287469397,3.14
67,0.500943724845994,0.4137279943839157,0.28143794758357765,2.779826605845521,2.318640156778919,1.7124093816564756,1.6472967454374536,-1.0,-1.7714503621367812,1.308420957247376,-0.21427048905160748,-2.861331645807866,-0.8051956665799921,3.14
68,0.5009294292841696,0.41369975797742375,0.28145403215178183,2.77982710663986,2.3186118290589395,1.7124095117150304,1.6472163014868846,-1.0,-1.7714621836404514,1.3078237686099876,-0.21297872444260837,-2.8620373701772195,-0.805197978489417,3.14
69,0.500915304438424,0.4136718453417611,0.2814699413574509,2.779827602372897,2.318583826216014,1.7124096396248127,1.6471368238374902,-1.0,-1.7714738762637574,1.307229982260511,-0.21169466086982958,-2.862738674274859,-0.805200265323552,3.14
70,0.5009013483753724,0.4136442508024336,0.28148568019132486,2.7798280924904804,2.3185561424910626,1.7124097656333626,1.6470583013775,-1.0,-1.7714854436744163,1.3066395804203255,-0.2104182545203305,-2.863435587593681,-0.8052025277962779,3.14
71,0.5008875591654732,0.4136169691875803,0.2815012529110576,2.7798285765810924,2.3185287726446626,1.7124098899358555,1.646980723045993,-1.0,-1.7714968890012976,1.3060525453919891,-0.2091494616313818,-2.8641281391495306,-0.8052047665161212,3.14
72,0.5008739348870948,0.41358999572546173,0.28151666319896573,2.77982905434405,2.318501711850788,1.7124100126866697,1.6469040778496318,-1.0,-1.7715082149503834,1.3054688595564308,-0.2078882385310531,-2.8648163575471233,-0.8052069820089327,3.14
73,0.5008604736296115,0.41356332596450524,0.28153191428494573,2.7798295255647587,2.3184749556139375,1.712410134008389,1.6468283548753908,-1.0,-1.7715194238951186,1.3048885053707902,-0.20663454166960785,-2.865500271031673,-0.8052091747355601,3.14
74,0.5008471734957713,0.413536955710941,0.2815470090422586,2.779829990095456,2.3184484997044974,1.7124102539988146,1.6467535433001637,-1.0,-1.7715305179468162,1.3043114653667582,-0.20538832764374126,-2.8661799075293675,-0.805211345105622,3.14
75,0.5008340326034822,0.4135108809801216,0.2815619500621821,2.779830447840236,2.3184223401082957,1.712410372736424,1.6466796323979447,-1.0,-1.7715414990095295,1.3037377221493067,-0.20414955321524708,-2.866855294679163,-0.8052134934882443,3.14
76,0.5008210490871491,0.41348509795851096,0.28157673971219793,2.7798308987433815,2.318396472987213,1.7124104902846164,1.6466066115451177,-1.0,-1.7715523688228298,1.303167258395719,-0.2029181753253472,-2.8675264598578125,-0.8052156202204314,3.14
77,0.500808221098664,0.4134596029739839,0.28159138018137864,2.779831342780294,2.3183708946484103,1.7124106066950269,1.6465344702242766,-1.0,-1.7715631289951599,1.3026000568548515,-0.20169415110564445,-2.86819343019962,-0.8052177256135928,3.14
78,0.5007955468081224,0.41343439247259667,0.28160587351577143,2.7798317799504293,2.318345601520263,1.7124107220100935,1.6464631980269049,-1.0,-1.7715737810298504,1.3020361003465755,-0.20047743788644595,-2.8688562326120857,-0.8052198099586358,3.14
79,0.5007830244043342,0.4134094630004039,0.28162022164602224,2.7798322102718003,2.3183205901335304,1.7124108362650707,1.646392784655167,-1.0,-1.7715843263454212,1.3014753717613545,-0.19926799320303923,-2.869514893788345,-0.8052218735299377,3.14
80,0.5007706520951678,0.4133848111892038,0.28163442640893444,2.7798326337766954,2.318295857106591,1.7124109494895854,1.6463232199230131,-1.0,-1.7715947662914302,1.3009178540599293,-0.1980657748003743,-2.8701694402171136,-0.8052239165884477,3.14
81,0.5007584281077673,0.41336043374534515,0.2816484895643148,2.7798330505083526,2.318271399133857,1.7124110617088557,1.646254493756752,-1.0,-1.7716051021608539,1.30036353027308,-0.1968707406365037,-2.8708198981906827,-0.8052259393841102,3.14
82,0.5007463506886745,0.4133363274409207,0.28166241280813764,2.7798334605183626,2.3182472129766567,1.7124111729446376,1.6461865961952105,-1.0,-1.7716153351997674,1.299812383501451,-0.19568284888505583,-2.871466293811393,-0.8052279421577588,3.14
83,0.5007344181038751,0.4133124891068223,0.28167619778285236,2.7798338638646536,2.318223295456054,1.7124112832159617,1.6461195173895775,-1.0,-1.7716254666149192,1.2992643969154212,-0.19450205793695488,-2.872108652996928,-0.8052299251425978,3.14
84,0.5007226286387803,0.4132889156272425,0.28168984608546327,2.7798342606099196,2.3181996434471586,1.712411392539711,1.646053247603002,-1.0,-1.7716354975796658,1.2987195537550065,-0.19332832640155395,-2.87274700148468,-0.8052318885653635,3.14
85,0.5007109805981745,0.41326560393531003,0.2817033592738532,2.7798346508204035,2.3181762538746185,1.712411500931066,1.6459877772100038,-1.0,-1.771645429238629,1.2981778373297905,-0.192161613107311,-2.8733813648353936,-0.805233832647235,3.14
86,0.5006994723061167,0.4132425510096033,0.2817167388717793,2.7798350345649365,2.3181531237090156,1.712411608403856,1.6459230966957394,-1.0,-1.771655262711359,1.2976392310188705,-0.19100187710210834,-2.8740117684362465,-0.8052357576045497,3.14
87,0.5006881021058242,0.41321975387135346,0.28172998637279034,2.7798354119142075,2.318130249963984,1.7124117149708302,1.645859196655164,-1.0,-1.7716649990952194,1.2971037182708165,-0.1898490776532945,-2.874638237503486,-0.8052376636493673,3.14
88,0.5006768683595298,0.4131972095821836,0.2817431032433336,2.779835782940183,2.318107629693877,1.7124118206438723,1.6457960677921069,-1.0,-1.771674639467668,1.2965712826036393,-0.18870317424750976,-2.875260797084723,-0.8052395509899152,3.14
89,0.5006657694483312,0.41317491524226646,0.2817560909252171,2.779836147715664,2.318085259991869,1.7124119254341632,1.6457337009182893,-1.0,-1.771684184888066,1.2960419076047636,-0.1875641265903425,-2.875879472060956,-0.8052414198309412,3.14
90,0.5006548037720211,0.41315286798881046,0.2817689508375702,2.779836506313935,2.3180631379884016,1.7124120293523153,1.6456720869522945,-1.0,-1.7716936363991211,1.295515576931003,-0.18643189460585444,-2.8764942871483785,-0.8052432703739951,3.14
91,0.5006439697489127,0.4131310649947981,0.2817816843784159,2.779836858808493,2.318041260849887,1.712412132408469,1.6456112169185093,-1.0,-1.771702995028041,1.2949922743085376,-0.18530643843600278,-2.8771052669000254,-0.805245102817653,3.14
92,0.5006332658156626,0.4131095034679297,0.28179429292593805,2.779837205272845,2.318019625777624,1.7124122346123747,1.6455510819460417,-1.0,-1.7717122617874637,1.2944719835328888,-0.18418771843998233,-2.8777124357072816,-0.8052469173576984,3.14
93,0.5006226904270812,0.41308818064971875,0.28180677783950536,2.7798375457803366,2.317998230006875,1.7124123359734549,1.6454916732676248,-1.0,-1.771721437676215,1.2939546884688935,-0.18307569519350533,-2.878315817801291,-0.8052487141872688,3.14
94,0.5006122420559506,0.41306709381471385,0.28181914046052486,2.779837880404036,2.3179770708060685,1.7124124365008537,1.6454329822185105,-1.0,-1.7717305236799266,1.2934403730506752,-0.1819703294880323,-2.878915437254281,-0.8052504934969764,3.14
95,0.500601919192828,0.41304624026981485,0.2818313821131265,2.77983820921663,2.3179561454761046,1.7124125362034723,1.6453750002353615,-1.0,-1.7717395207715492,1.2929290212816136,-0.1808715823299649,-2.8795113179808225,-0.8052522554750061,3.14
96,0.5005917203458642,0.4130256173536666,0.28184350410475967,2.7798385322903516,2.3179354513497374,1.7124126350900029,1.6453177188551407,-1.0,-1.7717484299117814,1.2924206172343082,-0.17977941493980892,-2.8801034837390356,-0.8052540003071994,3.14
97,0.500581644040604,0.4130052224361112,0.2818555077266782,2.7798388496969237,2.3179149857910177,1.7124127331689498,1.6452611297140056,-1.0,-1.7717572520494327,1.2919151450505397,-0.17869378875131456,-2.8806919581317523,-0.8052557281771235,3.14
98,0.5005716888198032,0.4129850529176897,0.28186739425437435,2.779839161507517,2.3178947461947885,1.7124128304486503,1.6452052245462039,-1.0,-1.7717659881217362,1.2914125889412256,-0.17761466541059828,-2.881276764607648,-0.8052574392661317,3.14
99,0.5005618532432351,0.41296510622918137,0.28187916494793713,2.779839467792711,2.3178747299862206,1.7124129269372892,1.6451499951829767,-1.0,-1.7717746390546198,1.2909129331863736,-0.17654200677525067,-2.8818579264623407,-0.8052591337534148,3.14
100,0.5005521358875017,0.41294537983117063,0.28189082105239,2.7798397686224767,2.317854934620372,1.7124130226429106,1.6450954335514694,-1.0,-1.7717832057629452,1.290416162135029,-0.17547577491343355,-2.882435466839468,-0.8052608118160477,3.14
101,0.5005425353458482,0.41292587121364177,0.2819023637979793,2.779840064066151,2.3178353575817803,1.7124131175734285,1.64504153167365,-1.0,-1.7717916891507235,1.2899222602052176,-0.17441593210296863,-2.8830094087317457,-0.8052624736290296,3.14
102,0.5005330502279759,0.4129065778955931,0.28191379440043374,2.7798403541924306,2.3178159963840734,1.712413211736634,1.644988281665236,-1.0,-1.7718000901113085,1.2894312118838855,-0.17336244083041957,-2.883579774982007,-0.8052641193653209,3.14
103,0.5005236791598563,0.41288749742466335,0.28192511406121556,2.779840639069355,2.3177968485695937,1.7124133051402022,1.6449356757346316,-1.0,-1.771808409527576,1.2889430017268326,-0.1723152637901691,-2.884146588284229,-0.8052657491958779,3.14
104,0.5005144207835486,0.41286862737677665,0.28193632396774176,2.7798409187643065,2.31777791170904,1.7124133977916984,1.6448837061818748,-1.0,-1.7718166482720892,1.2884576143586426,-0.1712743638834926,-2.884709871184546,-0.8052673632896832,3.14
105,0.5005052737570196,0.4128499653557956,0.2819474252935988,2.779841193344001,2.317759183401118,1.7124134896985808,1.6448323653975927,-1.0,-1.7718248072072544,1.287975034472609,-0.1702397042176287,-2.88526964608225,-0.8052689618137756,3.14
106,0.5004962367539609,0.4128315089931845,0.28195841919874043,2.7798414628744914,2.3177406612722047,1.7124135808682062,1.6447816458619695,-1.0,-1.7718328871854676,1.2874952468306562,-0.1692112481048479,-2.8858259352307845,-0.8052705449332778,3.14
107,0.5004873084636131,0.4128132559476792,0.2819693068296808,2.7798417274211604,2.3177223429760114,1.7124136713078324,1.644731540143723,-1.0,-1.7718408890492552,1.2870182362632556,-0.1681889590615198,-2.886378760738724,-0.8052721128114227,3.14
108,0.5004784875905889,0.4127952039049677,0.2819800893196749,2.779841987048728,2.3177042261932685,1.7124137610246215,1.6446820408990928,-1.0,-1.771848813631408,1.2865439876693396,-0.1671728008071797,-2.88692814457075,-0.8052736656095792,3.14
109,0.5004697728546977,0.41277735057737347,0.28199076778890014,2.779842241821247,2.3176863086314037,1.7124138500256416,1.644633140870838,-1.0,-1.771856661755111,1.2860724860162094,-0.16616273726359426,-2.887474108548615,-0.8052752034872761,3.14
110,0.5004611629907738,0.41275969370354443,0.28200134334462484,2.779842491802106,2.3176685880242305,1.71241393831787,1.644584832887246,-1.0,-1.77186443423407,1.2856037163394387,-0.16515873255382746,-2.8880166743521,-0.8052767266022258,3.14
111,0.5004526567485034,0.4127422310481493,0.282011817081373,2.7798427370540373,2.3176510621316444,1.7124140259081948,1.6445371098611528,-1.0,-1.7718721318726327,1.285137663742776,-0.1641607510013062,-2.8885558635199646,-0.805278235110348,3.14
112,0.5004442528922595,0.4127249604015772,0.2820221900810907,2.779842977639113,2.3176337287393203,1.712414112803418,1.6444899647889704,-1.0,-1.7718797554659087,1.28467431339804,-0.16316875712888684,-2.889091697450892,-0.8052797291657916,3.14
113,0.5004359502009285,0.4127078795796393,0.2820324634133061,2.779843213618751,2.317616585658414,1.712414199010254,1.6444433907497293,-1.0,-1.771887305799886,1.284213650545013,-0.16218271565792186,-2.889624197404423,-0.8052812089209567,3.14
114,0.5004277474677491,0.4126909864232794,0.2820426381352775,2.7798434450537237,2.3175996307252706,1.7124142845353347,1.644397380904128,-1.0,-1.771894783651545,1.2837556604913296,-0.16120259150732724,-2.890153384501888,-0.8052826745265158,3.14
115,0.5004196435001478,0.41267427879828483,0.2820527152921556,2.779843672004152,2.317582861801135,1.71241436938521,1.6443519284935917,-1.0,-1.7719021897889708,1.2833003286123625,-0.16022834979265108,-2.8906792797273266,-0.8052841261314361,3.14
116,0.5004116371195734,0.41265775459499937,0.28206269591712646,2.7798438945295194,2.317566276771865,1.7124144535663481,1.6443070268393472,-1.0,-1.7719095249714634,1.2828476403511047,-0.15925995582514288,-2.8912019039284087,-0.8052855638829988,3.14
117,0.5004037271613404,0.41264141172804564,0.28207258103156596,2.7798441126886697,2.3175498735476516,1.712414537085138,1.6442626693414994,-1.0,-1.7719167899496453,1.2823975812180473,-0.15829737511082412,-2.8917212778173416,-0.8052869879268203,3.14
118,0.5003959124744678,0.41262524813604484,0.2820823716451746,2.7798443265398114,2.317533650062737,1.7124146199478902,1.6442188494781254,-1.0,-1.7719239854655693,1.2819501367910555,-0.15734057334955975,-2.8922374219717746,-0.8052883984068723,3.14
119,0.5003881919215231,0.4126092617813422,0.282092068756133,2.7798445361405295,2.3175176042751406,1.71241470216084,1.6441755608043747,-1.0,-1.771931112252822,1.2815052927152397,-0.1563895164341314,-2.8927503568356987,-0.8052897954655011,3.14
120,0.5003805643784672,0.4125934506497366,0.2821016733512358,2.779844741547779,2.317501734166388,1.7124147837301442,1.6441327969515787,-1.0,-1.7719381710366287,1.2810630347028247,-0.15544417044931183,-2.893260102720337,-0.8052911792434476,3.14
121,0.5003730287344998,0.4125778127502119,0.28211118640602856,2.7798449428179004,2.317486037741241,1.712414864661888,1.6440905516263735,-1.0,-1.7719451625339533,1.2806233485330143,-0.15450450167094057,-2.8937666798050308,-0.8052925498798663,3.14
122,0.500365583891907,0.4125623461146714,0.2821206088849496,2.7798451400066155,2.3174705130274305,1.712414944962081,1.6440488186098277,-1.0,-1.771952087453601,1.2801862200518548,-0.1535704765650015,-2.8942701081381195,-0.8052939075123445,3.14
123,0.5003582287659127,0.4125470487976753,0.28212994174146383,2.779845333169037,2.3174551580753935,1.712415024636663,1.644007591756584,-1.0,-1.771958946496316,1.279751635172093,-0.15264206178670206,-2.894770407637815,-0.8052952522769204,3.14
124,0.500350962284529,0.4125319188761829,0.28213918591819204,2.7798455223596727,2.3174399709580165,1.7124151036915012,1.6439668649940076,-1.0,-1.771965740354879,1.2793195798730346,-0.15171922417955358,-2.8952675980930698,-0.8052965843081021,3.14
125,0.5003437833884089,0.41251695444929404,0.28214834234705094,2.779845707632427,2.3174249497703734,1.7124151821323927,1.6439266323213455,-1.0,-1.771972469714205,1.278890040200396,-0.15080193077445414,-2.8957616991644395,-0.8052979037388858,3.14
126,0.5003366910307003,0.4125021536379985,0.28215741194937277,2.779845889040613,2.3174100926294754,1.7124152599650673,1.643886887808894,-1.0,-1.771979135251437,1.2784630022661558,-0.14989014878877244,-2.896252730384938,-0.8052992107007733,3.14
127,0.5003296841769035,0.41248751458492244,0.28216639563604035,2.7798460666369467,2.3173953976740176,1.7124153371951858,1.6438476255971752,-1.0,-1.7719857376360404,1.278038452248404,-0.14898384562543437,-2.89674071116089,-0.8053005053237904,3.14
128,0.5003227618047273,0.4124730354540828,0.2821752943076104,2.7798462404735615,2.3173808630641304,1.7124154138283425,1.6438088398961253,-1.0,-1.771992277529896,1.277616376391186,-0.14808298887201085,-2.8972256607727758,-0.8053017877365042,3.14
129,0.5003159229039504,0.41245871443064064,0.2821841088544364,2.7798464106020075,2.3173664869811352,1.7124154898700656,1.6437705249842876,-1.0,-1.771998755587391,1.2771967610043469,-0.14718754629980765,-2.8977075983760687,-0.80530305806604,3.14
130,0.5003091664762794,0.41244454972066064,0.28219284015679985,2.7798465770732586,2.3173522676273004,1.712415565325819,1.643732675208019,-1.0,-1.7720051724555097,1.2767795924633705,-0.1462974858629579,-2.8981865430020717,-0.8053043164380987,3.14
131,0.5003024915352133,0.41243053955086856,0.2822014890850169,2.779846739937715,2.3173382032255994,1.712415640201003,1.6436952849807014,-1.0,-1.7720115287739218,1.2763648572092192,-0.14541277569751576,-2.8986625135587434,-0.8053055629769741,3.14
132,0.5002958971059064,0.4124166821684179,0.2822100564995748,2.779846899245212,2.317324292019477,1.7124157145009544,1.6436583487819652,-1.0,-1.7720178251750713,1.275952541748168,-0.14453338412055297,-2.8991355288315215,-0.8053067978055685,3.14
133,0.5002893822250337,0.4124029758406538,0.28221854325123963,2.7798470550450185,2.317310532272612,1.7124157882309485,1.6436218611569176,-1.0,-1.7720240622842627,1.27554263265164,-0.14365927962925712,-2.8996056074841405,-0.80530802104541,3.14
134,0.5002829459406581,0.4123894188548801,0.28222695018117466,2.7798472073858496,2.3172969222686848,1.7124158613961993,1.6435858167153838,-1.0,-1.7720302407197468,1.2751351165560352,-0.14279043090003224,-2.9000727680594425,-0.8053092328166688,3.14
135,0.5002765873120989,0.4123760095181336,0.2822352781210574,2.779847356315866,2.3172834603111485,1.7124159340018597,1.6435502101311543,-1.0,-1.7720363610928052,1.2747299801625618,-0.14192680678760164,-2.9005370289801826,-0.8053104332381725,3.14
136,0.5002703054097999,0.412362746156954,0.282243527893195,2.7798475018826787,2.3172701447230013,1.7124160060530262,1.6435150361412403,-1.0,-1.7720424240078343,1.2743272102370609,-0.14106837632411323,-2.9009984085498304,-0.8053116224274228,3.14
137,0.5002640993152019,0.4123496271171615,0.2822517003106304,2.7798476441333566,2.3172569738465603,1.7124160775547335,1.6434802895451384,-1.0,-1.7720484300624275,1.273926793609834,-0.14021510871824683,-2.9014569249533664,-0.8053128005006102,3.14
138,0.5002579681206167,0.4123366507636367,0.2822597961772625,2.7798477831144295,2.317243946043245,1.7124161485119607,1.6434459652041031,-1.0,-1.7720543798474562,1.2735287171754635,-0.13936697335432413,-2.90191259625807,-0.8053139675726303,3.14
139,0.500251910929098,0.4123238154800991,0.28226781628794423,2.7798479188718943,2.317231059693351,1.7124162189296297,1.6434120580404283,-1.0,-1.7720602739471507,1.2731329678926346,-0.13852393979142102,-2.9023654404143047,-0.8053151237570987,3.14
140,0.5002459268543199,0.4123111196688922,0.28227576142860167,2.779848051451217,2.317218313195837,1.7124162888126064,1.6433785630367348,-1.0,-1.7720661129391793,1.2727395327839552,-0.13768597776248212,-2.9028154752562982,-0.805316269166366,3.14
141,0.5002400150204506,0.4122985617507685,0.282283632376336,2.77984818089734,2.3172057049681074,1.7124163581657024,1.643345475235269,-1.0,-1.772071897394727,1.2723483989357713,-0.13685305717343826,-2.9032627185029156,-0.8053174039115328,3.14
142,0.5002341745620332,0.4122861401646787,0.2822914298995281,2.779848307254686,2.3171932334458045,1.712416426993674,1.6433127897372053,-1.0,-1.7720776278785724,1.2719595534979848,-0.136025148102326,-2.9037071877584286,-0.8053185281024644,3.14
143,0.5002284046238644,0.412273853367561,0.28229915475793804,2.7798484305671636,2.3171808970825927,1.712416495301223,1.643280501701961,-1.0,-1.7720833049491642,1.2715729836838652,-0.13520222079841004,-2.9041489005132792,-0.8053196418478052,3.14
144,0.5002227043608757,0.4122616998341358,0.28230680770282374,2.7798485508781687,2.317168694349956,1.7124165630930017,1.6432486063465146,-1.0,-1.7720889291586968,1.2711886767698626,-0.13438424568130808,-2.9045878741448377,-0.8053207452549933,3.14
145,0.5002170729380143,0.41224967805670065,0.2823143894770229,2.7798486682305934,2.317156623736991,1.7124166303736073,1.6432170989447357,-1.0,-1.7720945010531846,1.2708066200954184,-0.1335711933401182,-2.9050241259181564,-0.8053218384302743,3.14
146,0.5002115095301285,0.4122377865449265,0.2823219008150677,2.7798487826668286,2.317144683750203,1.712416697147587,1.6431859748267188,-1.0,-1.7721000211725355,1.2704268010627742,-0.13276303453254906,-2.905457672986718,-0.8053229214787154,3.14
147,0.5002060133218516,0.4122260238256592,0.28232934244327323,2.7798488942287696,2.3171328729133074,1.7124167634194367,1.6431552293781275,-1.0,-1.772105490050624,1.2700492071367788,-0.13195974018405282,-2.905888532393179,-0.8053239945042195,3.14
148,0.5002005835074861,0.4122143884427202,0.2823367150798455,2.7798490029578167,2.317121189767028,1.7124168291936035,1.6431248580395441,-1.0,-1.7721109082153617,1.2696738258446945,-0.1311612813869605,-2.906316721070106,-0.8053250576095387,3.14
149,0.5001952192908958,0.4122028789567132,0.2823440194349687,2.7798491088948873,2.3171096328689065,1.712416894474485,1.6430948563058283,-1.0,-1.7721162761887692,1.2693006447760014,-0.13036762939962032,-2.9067422558407126,-0.8053261108962871,3.14
150,0.5001899198853913,0.4121914939448295,0.2823512562109049,2.7798492120804137,2.317098200793104,1.7124169592664296,1.6430652197254816,-1.0,-1.7721215944870456,1.2689296515822013,-0.12957875564553853,-2.907165153419583,-0.8053271544649555,3.14
151,0.5001846845136189,0.41218023200065607,0.28235842610208806,2.779849312554352,2.3170868921302112,1.7124170235737384,1.6430359439000202,-1.0,-1.7721268636206378,1.2685608339766186,-0.12879463171252356,-2.907585430413399,-0.8053281884149233,3.14
152,0.5001795124074537,0.41216909173398597,0.2823655297952143,2.7798494103561837,2.3170757054870568,1.712417087400666,1.6430070244833532,-1.0,-1.7721320840943078,1.2681941797342011,-0.12801522935183215,-2.9080031033216556,-0.8053292128444719,3.14
153,0.5001744028078926,0.41215807177063524,0.2823725679693386,2.779849505524919,2.317064639486524,1.7124171507514192,1.64297845718117,-1.0,-1.772137256407201,1.2678296766913202,-0.12724052047731924,-2.9084181885373774,-0.8053302278507977,3.14
154,0.5001693549649462,0.4121471707522544,0.28237954129596,2.77984959809911,2.317053692767363,1.7124172136301596,1.6429502377503344,-1.0,-1.7721423810529124,1.2674673127455678,-0.12647047716458978,-2.9088307023478244,-0.8053312335300247,3.14
155,0.5001643681375334,0.41213638733614644,0.2823864504391109,2.7798496881168426,2.3170428639840064,1.712417276041005,1.6429223619982827,-1.0,-1.7721474585195516,1.267107075855554,-0.12570507165015424,-2.909240660935197,-0.8053322299772169,3.14
156,0.5001594415933797,0.41212572019508725,0.2823932960554513,2.779849775615753,2.3170321518063917,1.7124173379880265,1.6428948257824327,-1.0,-1.772152489289808,1.2667489540407033,-0.12494427633058651,-2.909648080377335,-0.8053332172863906,3.14
157,0.500154574608912,0.4121151680171472,0.2824000787943497,2.7798498606330204,2.317021554919779,1.7124173994752516,1.6428676250095966,-1.0,-1.7721574738410149,1.266392935381049,-0.1241880637616849,-2.9100529766484122,-0.805334195550527,3.14
158,0.5001497664691578,0.4121047295055123,0.2824067992979731,2.779849943205382,2.3170110720245765,1.712417460506665,1.6428407556354012,-1.0,-1.772162412645213,1.2660390080170267,-0.12343640665763607,-2.9104553656196255,-0.8053351648615837,3.14
159,0.5001450164676452,0.41209440337831277,0.28241345820137137,2.7798500233691295,2.3170007018361636,1.7124175210862091,1.642814213663717,-1.0,-1.772167306169212,1.2656871601492676,-0.12268927789018177,-2.91085526305988,-0.805336125310507,3.14
160,0.5001403239063013,0.41208418836844724,0.2824200561325545,2.7798501011601218,2.3169904430847184,1.7124175812177835,1.6427879951460895,-1.0,-1.7721721548746532,1.2653373800383902,-0.12194665048778879,-2.911252684636468,-0.8053370769872437,3.14
161,0.5001356880953584,0.41207408322341554,0.2824265937125899,2.779850176613779,2.316980294515049,1.7124176409052456,1.6427620961811797,-1.0,-1.772176959218069,1.2649896560047915,-0.12120849763482183,-2.911647645915748,-0.8053380199807523,3.14
162,0.500131108353252,0.41206408670514705,0.28243307155566694,2.7798502497650945,2.31697025488642,1.7124177001524121,1.6427365129142117,-1.0,-1.7721817196509444,1.2646439764284367,-0.12047479267071912,-2.9120401623638115,-0.805338954379015,3.14
163,0.5001265840065269,0.41205419758983614,0.28243949026919385,2.7798503206486376,2.316960322972391,1.7124177589630603,1.6427112415364251,-1.0,-1.7721864366197757,1.2643003297486488,-0.11974550908917138,-2.9124302493471514,-0.8053398802690491,3.14
164,0.5001221143897424,0.4120444146677751,0.28244585045386655,2.7798503892985558,2.316950497560644,1.712417817340926,1.6426862782845328,-1.0,-1.7721911105661292,1.2639587044638967,-0.11902062053730385,-2.9128179221333252,-0.8053407977369172,3.14
165,0.5001176988453792,0.4120347367431943,0.28245215270374935,2.7798504557485777,2.316940777452829,1.7124178752897061,1.6426616194401877,-1.0,-1.772195741926699,1.263619089131583,-0.11830010081486096,-2.9132031958916094,-0.8053417068677398,3.14
166,0.5001133367237433,0.4120251626340972,0.2824583976063599,2.7798505200320265,2.316931161464394,1.7124179328130589,1.6426372613294546,-1.0,-1.772200331133364,1.2632814723678312,-0.11758392387339456,-2.913586085693655,-0.8053426077457047,3.14
167,0.5001090273828794,0.4120156911721052,0.2824645857427356,2.779850582181811,2.316921648424432,1.7124179899146046,1.642613200322285,-1.0,-1.772204878613245,1.262945842847271,-0.11687206381545488,-2.9139666065141343,-0.805343500454079,3.14
168,0.5001047701884747,0.41200632120229536,0.2824707176875165,2.7798506422304405,2.3169122371755186,1.712418046597924,1.6425894328320036,-1.0,-1.7722093847887601,1.2626121893028261,-0.11616449489378464,-2.9143447732313863,-0.8053443850752193,3.14
169,0.5001005645137717,0.41199705158304983,0.2824767940090208,2.779850700210021,2.316902926573558,1.712418102866562,1.6425659553147947,-1.0,-1.7722138500776796,1.2622805005254965,-0.11546119151051658,-2.9147206006280553,-0.8053452616905822,3.14
170,0.5000964097394821,0.41198788118589774,0.28248281526931296,2.779850756152266,2.3168937154876286,1.7124181587240257,1.6425427642691997,-1.0,-1.7722182748931807,1.261950765364144,-0.1147621282163736,-2.9150941033917266,-0.8053461303807345,3.14
171,0.5000923052536941,0.4119788088953663,0.28248878202428085,2.779850810088497,2.3168846027998313,1.7124182141737867,1.6425198562356171,-1.0,-1.7722226596439008,1.2616229727252763,-0.11406727970987236,-2.9154652961155567,-0.8053469912253642,3.14
172,0.5000882504517908,0.4119698336088275,0.2824946948237134,2.7798508620496447,2.3168755874051365,1.7124182692192804,1.642497227795809,-1.0,-1.7722270047339914,1.2612971115728298,-0.11337662083653,-2.915834193298902,-0.80534784430329,3.14
173,0.5000842447363588,0.41196095423635165,0.28250055421135617,2.7798509120662613,2.3168666682112367,1.7124183238639055,1.6424748755724141,-1.0,-1.7722313105631695,1.2609731709279526,-0.11269012658807381,-2.916200809347939,-0.8053486896924713,3.14
174,0.5000802875171099,0.41195216970055903,0.2825063607250009,2.779850960168517,2.3168578441384,1.7124183781110276,1.6424527962284656,-1.0,-1.77223557752677,1.2606511398687863,-0.11200777210165427,-2.9165651585762826,-0.8053495274700189,3.14
175,0.5000763782107924,0.41194347893647537,0.2825121148965416,2.7798510063862074,2.3168491141193224,1.712418431963976,1.6424309864669144,-1.0,-1.7722398060157962,1.2603310075302483,-0.11132953265906118,-2.9169272552056027,-0.8053503577122039,3.14
176,0.5000725162411107,0.4119348808913882,0.28251781725204755,2.779851050748756,2.3168404770989848,1.7124184854260474,1.6424094430301577,-1.0,-1.7722439964169718,1.2600127631038123,-0.11065538368594274,-2.9172871133662297,-0.8053511804944679,3.14
177,0.5000687010386435,0.41192637452470404,0.28252346831183583,2.7798510932852176,2.3168319320345114,1.7124185385005042,1.6423881626995736,-1.0,-1.7722481491127888,1.2596963958372907,-0.10998530075102837,-2.9176447470977642,-0.8053519958914321,3.14
178,0.5000649320407623,0.4119179588078085,0.28252906859052945,2.7798511340242853,2.316823477895028,1.712418591190575,1.6423671422950623,-1.0,-1.7722522644815581,1.2593818950346138,-0.10931925956535392,-2.9180001703496754,-0.8053528039769078,3.14
179,0.5000612086915504,0.41190963272392744,0.28253461859712947,2.7798511729942916,2.3168151136615225,1.7124186434994564,1.6423463786745902,-1.0,-1.7722563428974578,1.2590692500556109,-0.1086572359814908,-2.9183533969818996,-0.8053536048239043,3.14
180,0.5000575304417257,0.41190139526798997,0.2825401188350795,2.7798512102232134,2.316806838326709,1.7124186954303122,1.6423258687337396,-1.0,-1.772260384730581,1.2587584503157896,-0.1079992059927779,-2.918704440765434,-0.8053543985046392,3.14
181,0.500053896748563,0.41189324544649375,0.28254556980233,2.779851245738674,2.316798650894893,1.7124187469862746,1.6423056094052646,-1.0,-1.772264390346983,1.2584494852861163,-0.10734514573255687,-2.919053315382925,-0.8053551850905468,3.14
182,0.5000503070758149,0.41188518227736837,0.28255097199140244,2.779851279567949,2.316790550381831,1.7124187981704435,1.6422855976586523,-1.0,-1.77226836010873,1.2581423444927948,-0.10669503147341043,-2.9194000344292537,-0.805355964652288,3.14
183,0.5000467608936364,0.4118772047898456,0.28255632588944907,2.7798513117379686,2.3167825358146055,1.7124188489858891,1.642265830499689,-1.0,-1.7722722943739428,1.2578370175170452,-0.10604883962640423,-2.9197446114121175,-0.805356737259758,3.14
184,0.5000432576785087,0.4118693120243255,0.28256163197832396,2.779851342275324,2.316774606231488,1.7124188994356486,1.6422463049700298,-1.0,-1.7722761934968447,1.2575334939948843,-0.10540654674033136,-2.9200870597526065,-0.8053575029820961,3.14
185,0.5000397969131662,0.4118615030322505,0.282566890734634,2.7798513712062665,2.316766760681812,1.7124189495227309,1.642227018146774,-1.0,-1.7722800578278053,1.2572317636169026,-0.10476812950096084,-2.920427392785778,-0.8053582618876939,3.14
186,0.500036378086522,0.41185377687597446,0.2825721026298067,2.779851398556714,2.316758998225845,1.7124189992501142,1.6422079671420478,-1.0,-1.772283887713386,1.2569318161280434,-0.10413356473028858,-2.920765623761224,-0.8053590140442041,3.14
187,0.5000330006935938,0.4118461326286375,0.28257726813014594,2.7798514243522567,2.3167513179346604,1.7124190486207462,1.6421891491025882,-1.0,-1.7722876834963837,1.2566336413273824,-0.103502829385792,-2.9211017658436385,-0.8053597595185485,3.14
188,0.5000296642354333,0.4118385693740395,0.28258238769689414,2.779851448618154,2.3167437188900104,1.7124190976375464,1.642170561209333,-1.0,-1.7722914455158745,1.256337229067904,-0.1028759005596879,-2.9214358321133784,-0.8053604983769272,3.14
189,0.5000263682190544,0.41183108620651954,0.28258746178629196,2.7798514713793474,2.316736200184207,1.7124191463034049,1.6421522006770177,-1.0,-1.7722951741072563,1.2560425692562809,-0.1022527554781933,-2.9217678355670214,-0.8053612306848261,3.14
190,0.5000231121573643,0.4118236822308293,0.2825924908496292,2.779851492660453,2.3167287609199954,1.7124191946211842,1.642134064753773,-1.0,-1.7722988696022923,1.2557496518526514,-0.10163337150078965,-2.92209778911792,-0.8053619565070252,3.14
191,0.5000198955690911,0.411816356562017,0.2825974753333132,2.7798515124857763,2.3167214002104353,1.7124192425937166,1.6421161507207311,-1.0,-1.7723025323291517,1.255458466870398,-0.10101772611949024,-2.9224257055967504,-0.8053626759076074,3.14
192,0.500016717978717,0.4118091083253033,0.28260241567891436,2.779851530879309,2.316714117178779,1.7124192902238082,1.6420984558916336,-1.0,-1.7723061626124523,1.2551690043759252,-0.10040579695811103,-2.922751597752062,-0.8053633889499653,3.14
193,0.5000135789164114,0.4118019366559675,0.2826073123232285,2.7798515478647308,2.316706910958356,1.7124193375142376,1.642080977612445,-1.0,-1.772309760773301,1.2548812544884367,-0.09979756177154435,-2.9230754782508166,-0.80536409569681,3.14
194,0.5000104779179592,0.41179484069922656,0.282612165698329,2.7798515634654186,2.316699780692452,1.7124193844677553,1.6420637132609712,-1.0,-1.772313327129334,1.2545952073797146,-0.09919299844503625,-2.9233973596789298,-0.8053647962101786,3.14
195,0.5000074145246995,0.4117878196101241,0.2826169762316228,2.779851577704444,2.316692725534197,1.7124194310870862,1.6420466602464816,-1.0,-1.7723168619947576,1.2543108532738967,-0.09859208499346661,-2.9237172545418053,-0.8053654905514419,3.14
196,0.5000043882834583,0.411780872553414,0.28262174434590376,2.7798515906045864,2.316685744646452,1.712419477374927,1.642029816009337,-1.0,-1.772320365680386,1.2540281824472543,-0.09799479956063278,-2.924035175264867,-0.8053661787813119,3.14
197,0.500001398746481,0.41177399870344683,0.28262647045940575,2.779851602188321,2.3166788372016907,1.7124195233339503,1.6420131780206184,-1.0,-1.772323838493683,1.253747185227971,-0.09740112041853671,-2.9243511341940867,-0.8053668609598494,3.14
198,0.4999984454713726,0.41176719724406086,0.28263115498585345,2.779851612477836,2.3166720023818925,1.7124195689668007,1.6419967437817649,-1.0,-1.772327280738798,1.2534678519959197,-0.09681102596667458,-2.9246651435965085,-0.8053675371464716,3.14
199,0.4999955280210308,0.41176046736846983,0.2826357983345178,2.779851621495029,2.31666523937843,1.7124196142760986,1.6419805108242123,-1.0,-1.7723306927166054,1.2531901731824422,-0.09622449473133035,-2.9249772156607703,-0.8053682073999588,3.14
200,0.49999264596358567,0.4117538082791554,0.2826404009102659,2.7798516292615134,2.3166585473919614,1.7124196592644392,1.6419644767090378,-1.0,-1.772334074724742,1.2529141392701257,-0.09564150536487226,-2.9252873624976194,-0.8053688717784626,3.14
201,0.49998979887233586,0.4117472191877601,0.2826449631136053,2.7798516357986163,2.316651925632323,1.712419703934392,1.641948639026606,-1.0,-1.7723374270576442,1.2526397407925836,-0.09506203664505246,-2.925595596140429,-0.8053695303395124,3.14
202,0.49998698632568894,0.41174069931497764,0.28264948534074524,2.7798516411273884,2.316645373318419,1.7124197482885026,1.6419329953962238,-1.0,-1.7723407500065844,1.2523669683342316,-0.09448606747430996,-2.925901928545706,-0.8053701831400225,3.14
203,0.4999842079070995,0.4117342478904521,0.28265396798364134,2.779851645268603,2.3166388896781207,1.7124197923292916,1.6419175434657949,-1.0,-1.7723440438597076,1.2520958125300683,-0.09391357687907693,-2.926206371593599,-0.8053708302362995,3.14
204,0.4999814632050107,0.4117278641526713,0.2826584114300346,2.779851648242763,2.31663247394816,1.712419836059256,1.641902280911481,-1.0,-1.772347308902067,1.2518262640654534,-0.09334454400908793,-2.9265089370884008,-0.8053714716840488,3.14
205,0.4999787518127946,0.41172154734886535,0.2826628160635178,2.779851650070096,2.3166261253740266,1.7124198794808687,1.6418872054373643,-1.0,-1.7723505454156598,1.2515583136758863,-0.09277894813669271,-2.9268096367590486,-0.8053721075383814,3.14
206,0.49997607332869326,0.41171529673490426,0.2826671822635685,2.7798516507705657,2.3166198432098675,1.7124199225965795,1.6418723147751177,-1.0,-1.772353753679462,1.2512919521467865,-0.09221676865617189,-2.927108482259621,-0.805372737853821,3.14
207,0.4999734273557614,0.4117091115751981,0.28267151040560373,2.7798516503638715,2.316613626718385,1.7124199654088148,1.6418576066836756,-1.0,-1.7723569339694625,1.2510271703132718,-0.091657985083056,-2.9274054851698312,-0.8053733626843106,3.14
208,0.49997081350180983,0.4117029911425971,0.2826758008610211,2.7798516488694527,2.3166074751707377,1.7124200079199778,1.6418430789489107,-1.0,-1.7723600865586977,1.2507639590599393,-0.09110257705344774,-2.927700656995515,-0.8053739820832185,3.14
209,0.49996823137934904,0.4116969347182954,0.2826800539972497,2.7798516463064886,2.3166013878464433,1.7124200501324491,1.6418287293833118,-1.0,-1.7723632117172854,1.2505023093206444,-0.0905505243233473,-2.9279940091691192,-0.8053745961033459,3.14
210,0.499965680605532,0.4116909415917319,0.28268427017779324,2.7798516426939055,2.316595364033281,1.7124200920485875,1.6418145558256692,-1.0,-1.7723663097124576,1.2502422120782817,-0.09000180676798115,-2.9282855530501837,-0.8053752047969321,3.14
211,0.49996316080209996,0.4116850110604958,0.2826884497622751,2.779851638050376,2.3165894030271934,1.7124201336707288,1.64180055614076,-1.0,-1.7723693808085939,1.2499836583645647,-0.08945640438113367,-2.9285752999258206,-0.805375808215662,3.14
212,0.49996067159532964,0.4116791424302325,0.2826925931064784,2.7798516323943243,2.316583504132196,1.7124201750011876,1.6417867282190408,-1.0,-1.7723724252672535,1.2497266392598079,-0.08891429727448215,-2.9288632610111915,-0.8053764064106713,3.14
213,0.4999582126159764,0.4116733350145477,0.28269670056240065,2.7798516257439267,2.3165776666602786,1.712420216042256,1.6417730699763398,-1.0,-1.772375443347208,1.2494711458927066,-0.08837546567693523,-2.9291494474499817,-0.8053769994325536,3.14
214,0.4999557834992236,0.4116675881349171,0.28270077247828324,2.7798516181171187,2.3165718899313177,1.7124202567962064,1.641759579353557,-1.0,-1.7723784353044731,1.2492171694401182,-0.08783988993397386,-2.929433870314868,-0.8053775873313661,3.14
215,0.4999533838846281,0.41166190112059414,0.282704809198666,2.779851609531594,2.316566173272979,1.7124202972652875,1.6417462543163641,-1.0,-1.7723814013923391,1.2489647011268457,-0.08730755050699593,-2.9297165406079873,-0.8053781701566356,3.14
216,0.49995101341607057,0.4116562733085205,0.28270881106442086,2.779851600004807,2.3165605160206333,1.71242033745173,1.6417330928549088,-1.0,-1.7723843418614027,1.2487137322254178,-0.08677842797266412,-2.929997469261399,-0.8053787479573647,3.14
217,0.4999486717417001,0.41165070404323395,0.2827127784127993,2.7798515895539775,2.3165549175172613,1.712420377357741,1.6417200929835263,-1.0,-1.7723872569595978,1.2484642540558721,-0.08625250302225651,-2.9302766671375458,-0.8053793207820378,3.14
218,0.4999463585138893,0.4116451926767845,0.28271671157747114,2.7798515781960953,2.3165493771133687,1.7124204169855104,1.641707252740448,-1.0,-1.7723901469322245,1.2482162579855378,-0.08572975646102063,-2.9305541450297117,-0.8053798886786264,3.14
219,0.4999440733891796,0.41163973856864383,0.2827206108885635,2.7798515659479173,2.3165438941668985,1.7124204563372047,1.6416945701875179,-1.0,-1.7723930120219809,1.2479697354288193,-0.0852101692075306,-2.930829913662476,-0.8053804516945956,3.14
220,0.49994181602823246,0.41163434108561947,0.28272447667270284,2.7798515528259746,2.3165384680431425,1.7124204954149724,1.641682043409911,-1.0,-1.7723958524689911,1.2477246778469786,-0.08469372229304746,-2.9311039836921635,-0.8053810098769092,3.14
221,0.4999395860957822,0.41162899960177074,0.28272830925305925,2.7798515388465734,2.3165330981146575,1.7124205342209415,1.6416696705158558,-1.0,-1.772398668510835,1.24748107674792,-0.08418039686088234,-2.931376365707293,-0.8053815632720358,3.14
222,0.4999373832605854,0.4116237134983236,0.2827321089493742,2.7798515240257995,2.316527783761182,1.7124205727572215,1.641657449636359,-1.0,-1.7724014603825773,1.247238923685974,-0.08367017416576311,-2.9316470702290225,-0.8053821119259542,3.14
223,0.4999352071953745,0.41161848216358804,0.28273587607801187,2.7798515083795183,2.3165225243695495,1.712420611025902,1.6416453789249337,-1.0,-1.7724042283167953,1.2469982102616826,-0.08316303557320408,-2.931916107711591,-0.8053826558841588,3.14
224,0.4999330575768099,0.4116133049928741,0.28273961095198713,2.7798514919233788,2.3165173193336086,1.7124206490290523,1.6416334565573307,-1.0,-1.772406972543608,1.2467589281215838,-0.08265896255887861,-2.932183488542758,-0.805383195191665,3.14
225,0.4999309340854335,0.411608181388413,0.282743313881012,2.779851474672817,2.316512168054141,1.7124206867687253,1.6416216807312745,-1.0,-1.7724096932907034,1.2465210689579973,-0.08215793670799504,-2.932449223044238,-0.8053837298930151,3.14
226,0.49992883640562213,0.41160311075927486,0.2827469851715281,2.7798514566430566,2.3165070699387815,1.7124207242469527,1.6416100496661992,-1.0,-1.7724123907833655,1.246284624508811,-0.0816599397146756,-2.9327133214721344,-0.8053842600322828,3.14
227,0.4999267642255424,0.4115980925212901,0.28275062512674304,2.7798514378491106,2.3165020244019368,1.71242076146575,1.6415985616029907,-1.0,-1.7724150652445028,1.2460495865572663,-0.08116495338133849,-2.9329757940173704,-0.8053847856530792,3.14
228,0.4999247172371057,0.41159312609697124,0.28275423404667,2.779851418305789,2.316497030864708,1.7124207984271131,1.6415872148037307,-1.0,-1.7724177168946735,1.2458159469317462,-0.08067295961808275,-2.9332366508061143,-0.8053853067985576,3.14
229,0.4999226951359226,0.4115882109154332,0.2827578122281631,2.7798513980276947,2.3164920887548126,1.7124208351330206,1.6415760075514434,-1.0,-1.7724203459521137,1.245583697505562,-0.0801839404420768,-2.933495901900205,-0.8053858235114186,3.14
230,0.49992069762125924,0.41158334641231886,0.28276135996495394,2.77985137702923,2.3164871975065062,1.7124208715854319,1.6415649381498447,-1.0,-1.7724229526327624,1.245352830196742,-0.07969787797694945,-2.9337535572975733,-0.8053863358339155,3.14
231,0.4999187243959956,0.41157853202972244,0.2827648775476765,2.7798513553246,2.31648235656051,1.7124209077862904,1.6415540049230972,-1.0,-1.7724255371502877,1.2451233369678179,-0.07921475445218422,-2.9340096269326588,-0.8053868438078589,3.14
232,0.4999167751665785,0.4115737672161137,0.28276836526392213,2.779851332927808,2.316477565363932,1.7124209437375215,1.6415432062155626,-1.0,-1.772428099716113,1.2448952098256156,-0.07873455220251675,-2.9342641206768274,-0.8053873474746219,3.14
233,0.49991484964298344,0.4115690514262654,0.2827718233982539,2.779851309852669,2.3164728233701948,1.7124209794410334,1.6415325403915644,-1.0,-1.772430640539441,1.2446684408210436,-0.07825725366733516,-2.934517048338783,-0.8053878468751452,3.14
234,0.4999129475386702,0.4115643841211797,0.28277525223225686,2.779851286112799,2.3164681300389622,1.7124210148987165,1.6415220058351454,-1.0,-1.7724331598272798,1.2444430220488834,-0.07778284139008348,-2.934768419664978,-0.8053883420499414,3.14
235,0.4999110685705412,0.41155976476801426,0.28277865204455727,2.7798512617216296,2.316463484836066,1.712421050112446,1.6415116009498363,-1.0,-1.7724356577844673,1.2442189456475785,-0.07731129801766803,-2.9350182443400197,-0.8053888330391,3.14
236,0.4999092124589011,0.41155519284001196,0.28278202311086453,2.7798512366924033,2.3164588872334337,1.7124210850840784,1.6415013241584193,-1.0,-1.7724381346136957,1.243996203799027,-0.07684260629986693,-2.935266531987076,-0.8053893198822926,3.14
237,0.49990737892741655,0.4115506678164302,0.28278536570400603,2.7798512110381743,2.316454336709019,1.7124211198154553,1.641491173902699,-1.0,-1.7724405905155352,1.2437747887283723,-0.07637674908874258,-2.935513292168276,-0.8053898026187767,3.14
238,0.49990556770307526,0.4115461891824712,0.2827886800939503,2.7798511847718195,2.3164498327467333,1.7124211543084014,1.6414811486432759,-1.0,-1.772443025688458,1.2435546927037942,-0.07591370933805705,-2.935758534385109,-0.8053902812874011,3.14
239,0.4999037785161457,0.411541756429212,0.28279196654784594,2.779851157906028,2.316445374836371,1.712421188564725,1.6414712468593207,-1.0,-1.7724454403288623,1.2433359080363027,-0.07545347010269055,-2.936002268078821,-0.80539075592661,3.14
240,0.49990201110014226,0.41153736905353755,0.2827952253300522,2.779851130453316,2.316440962473548,1.7124212225862179,1.6414614670483527,-1.0,-1.7724478346310948,1.2431184270795304,-0.0749960145380628,-2.9362445026308084,-0.8053912265744478,3.14
241,0.4999002651917797,0.41153302655807106,0.2827984567021687,2.7798511024260195,2.3164365951596286,1.7124212563746575,1.64145180772602,-1.0,-1.7724502087874743,1.2429022422295255,-0.07454132589955771,-2.9364852473630085,-0.8053916932685633,3.14
242,0.49989854053094124,0.4115287284511107,0.2828016609230694,2.7798510738363023,2.3164322724016624,1.712421289931805,1.6414422674258828,-1.0,-1.772452562988314,1.242687345924547,-0.07408938754195024,-2.936724511538288,-0.8053921560462142,3.14
243,0.4998968368606372,0.41152447424656013,0.2828048382489301,2.779851044696153,2.3164279937123156,1.7124213232594052,1.641432844699199,-1.0,-1.772454897421945,1.242473730644859,-0.07364018291883703,-2.9369623043608284,-0.8053926149442714,3.14
244,0.49989515392696776,0.4115202634638652,0.28280798893325887,2.779851015017394,2.3164237586098073,1.71242135635919,1.6414235381147133,-1.0,-1.7724572122747364,1.2422613889125251,-0.0731936955820695,-2.9371986349765082,-0.8053930699992237,3.14
245,0.49989349147908774,0.41151609562794994,0.282811113226926,2.7798509848116773,2.3164195666178453,1.7124213892328728,1.6414143462584458,-1.0,-1.7724595077311192,1.2420503132912062,-0.0727499091811902,-2.937433512473285,-0.8053935212471812,3.14
246,0.49989184926917013,0.4115119702691516,0.28281421137819607,2.7798509540904868,2.316415417265561,1.7124214218821554,1.6414052677334863,-1.0,-1.7724617839736072,1.241840496385955,-0.07230880746287172,-2.9376669458815723,-0.8053939687238806,3.14
247,0.49989022705236674,0.4115078869231584,0.2828172836327541,2.779850922865145,2.316411310087446,1.7124214543087217,1.6413963011597918,-1.0,-1.7724640411828185,1.2416319308430142,-0.0718703742703587,-2.937898944174614,-0.8053944124646881,3.14
248,0.49988862458677874,0.4115038451309488,0.2828203302337373,2.7798508911468125,2.316407244623294,1.7124214865142435,1.6413874451739827,-1.0,-1.7724662795374964,1.2414246093496135,-0.07143459354291269,-2.9381295162688588,-0.805394852504605,3.14
249,0.49988704163341396,0.41149984443872706,0.28282335142175724,2.779850858946489,2.3164032204181333,1.7124215185003762,1.6413786984291425,-1.0,-1.7724684992145305,1.2412185246337686,-0.07100144931526026,-2.938358671024328,-0.8053952888782702,3.14
250,0.49988547795615895,0.4114958843978647,0.282826347434935,2.7798508262750152,2.3163992370221704,1.7124215502687623,1.6413700595946221,-1.0,-1.772470700388978,1.2410136694640788,-0.07057092571704335,-2.938586417244986,-0.8053957216199652,3.14
251,0.49988393332174047,0.4114919645648404,0.28282931850892873,2.7798507931430785,2.3163952939907277,1.712421581821029,1.641361527355845,-1.0,-1.7724728832340826,1.2408100366495276,-0.07014300697227283,-2.938812763679103,-0.805396150763618,3.14
252,0.4998824074996921,0.41148808450117935,0.28283226487695284,2.779850759561208,2.316391390884185,1.71242161315879,1.641353100414113,-1.0,-1.7724750479212965,1.2406076190392827,-0.06971767739878514,-2.9390377190196193,-0.8053965763428067,3.14
253,0.4998809002623224,0.4114842437733966,0.28283518676981523,2.7798507255397826,2.3163875272679206,1.7124216442836449,1.6413447774864187,-1.0,-1.772477194620299,1.2404064095224954,-0.06929492140770124,-2.939261291904504,-0.8053969983907634,3.14
254,0.4998794113846811,0.41148044195293737,0.2828380844159411,2.7798506910890324,2.316383702712253,1.7124216751971801,1.6413365573052547,-1.0,-1.772479323499017,1.2402064010281035,-0.06887472350288903,-2.9394834909171137,-0.8053974169403781,3.14
255,0.4998779406445242,0.4114766786161206,0.28284095804139525,2.779850656219035,2.3163799167923838,1.7124217059009674,1.6413284386184301,-1.0,-1.772481434723644,1.2400075865246327,-0.06845706828042807,-2.9397043245865486,-0.8053978320242027,3.14
256,0.4998764878222838,0.4114729533440822,0.2828438078699096,2.779850620939724,2.316376169088341,1.7124217363965653,1.6413204201888851,-1.0,-1.772483528458659,1.2398099590199985,-0.06804194042807744,-2.9399238013880042,-0.8053982436744545,3.14
257,0.4998750527010378,0.41146926572271963,0.28284663412291433,2.7798505852608884,2.3163724591849237,1.7124217666855204,1.6413125007945113,-1.0,-1.7724856048668471,1.23961351156131,-0.0676293247247462,-2.940141929743122,-0.8053986519230197,3.14
258,0.49987363506647225,0.41146561534263515,0.28284943701955845,2.7798505491921723,2.316368786671644,1.7124217967693636,1.6413046792279709,-1.0,-1.7724876641093166,1.2394182372346743,-0.0672192060399669,-2.9403587180203385,-0.8053990568014576,3.14
259,0.49987223470685815,0.4114620017990837,0.28285221677673733,2.779850512743079,2.3163651511426773,1.712421826649615,1.64129695429652,-1.0,-1.7724897063455183,1.2392241291649995,-0.06681156933337162,-2.9405741745352305,-0.8053994583410038,3.14
260,0.49987085141301324,0.41145842469191607,0.2828549736091167,2.7798504759229723,2.3163615521968017,1.7124218563277807,1.6412893248218345,-1.0,-1.772491731733264,1.2390311805158012,-0.06640639965417097,-2.9407883075508585,-0.8053998565725738,3.14
261,0.49986948497827655,0.41145488362552757,0.2828577077291538,2.7798504387410787,2.316357989437351,1.7124218858053535,1.6412817896398366,-1.0,-1.7724937404287444,1.2388393844890078,-0.06600368214063572,-2.9410011252781083,-0.8054002515267668,3.14
262,0.499868135198474,0.4114513782088039,0.2828604193471342,2.7798504012064886,2.316354462472157,1.7124219150838151,1.6412743476005234,-1.0,-1.7724957325865474,1.2386487343247663,-0.06560340201958138,-2.9412126358760293,-0.8054006432338684,3.14
263,0.4998668018718951,0.4114479080550713,0.28286310867117503,2.779850363328155,2.3163509709134997,1.7124219441646336,1.6412669975677978,-1.0,-1.772497708359675,1.2384592233012506,-0.06520554460585527,-2.9414228474521718,-0.8054010317238555,3.14
264,0.4998654847992545,0.4114444727820408,0.2828657759072725,2.7798503251149036,2.316347514378055,1.712421973049264,1.641259738419304,-1.0,-1.772499667899562,1.2382708447344686,-0.06481009530182658,-2.941631768062921,-0.8054014170263981,3.14
265,0.49986418378367187,0.4114410720117634,0.2828684212593067,2.7798502865754227,2.3163440924868457,1.7124220017391514,1.641252569046259,-1.0,-1.7725016113560923,1.23808359197807,-0.064417039596879,-2.941839405713828,-0.8054017991708637,3.14
266,0.4998628986306362,0.4114377053705727,0.2828710449290762,2.779850247718277,2.316340704865186,1.7124220302357256,1.6412454883532932,-1.0,-1.772503538877617,1.237897458423157,-0.06402636306690604,-2.942045768359943,-0.8054021781863204,3.14
267,0.49986162914798227,0.41143437248904147,0.2828736471163141,2.7798502085519,2.3163373511426375,1.712422058540407,1.6412384952582866,-1.0,-1.77250545061097,1.2377124374980923,-0.06363805137380932,-2.9422508639061378,-0.80540255410154,3.14
268,0.49986037514585935,0.4114310730019288,0.28287622801871615,2.7798501690845994,2.316334030952956,1.7124220866546023,1.641231588692211,-1.0,-1.7725073467014862,1.2375285226683108,-0.06325209026499913,-2.942454700207436,-0.8054029269450014,3.14
269,0.49985913643670554,0.411427806548133,0.2828787878319601,2.7798501293245583,2.3163307439340457,1.7124221145797074,1.6412247675989737,-1.0,-1.772509227293017,1.2373457074361296,-0.06286846557289803,-2.9426572850693336,-0.8054032967448936,3.14
270,0.4998579128352195,0.4114245727706422,0.2828813267497274,2.779850089279837,2.3163274897279087,1.7124221423171062,1.6412180309352604,-1.0,-1.7725110925279468,1.2371639853405605,-0.062487163214446945,-2.9428586262481193,-0.8054036635291194,3.14
271,0.4998567041583324,0.4114213713164879,0.2828838449637289,2.7798500489583753,2.3163242679805975,1.7124221698681719,1.6412113776703832,-1.0,-1.77251294254721,1.2369833499571223,-0.062108169190613946,-2.9430587314511967,-0.805404027325298,3.14
272,0.4998555102251825,0.41141820183669936,0.28288634266372104,2.7798500083679922,2.3163210783421713,1.7124221972342646,1.6412048067861278,-1.0,-1.7725147774903054,1.2368037948976547,-0.061731469585905786,-2.9432576083373974,-0.8054043881607683,3.14
273,0.4998543308570904,0.41141506398625505,0.2828888200375297,2.779849967516388,2.3163179204666458,1.7124222244167338,1.6411983172766038,-1.0,-1.7725165974953134,1.2366253138101302,-0.06135705056788198,-2.943455264517298,-0.8054047460625919,3.14
274,0.4998531658775282,0.4114119574240371,0.28289127727108,2.7798499264111443,2.3163147940119484,1.7124222514169178,1.6411919081480977,-1.0,-1.7725184026989111,1.23644790037847,-0.0609848983866715,-2.9436517075535313,-0.8054051010575564,3.14
275,0.49985201511209737,0.4114088818127873,0.2828937145483975,2.7798498850597326,2.316311698639874,1.7124222782361447,1.6411855784189264,-1.0,-1.7725201932363877,1.236271548322359,-0.06061499937449204,-2.9438469449610967,-0.805405453172178,3.14
276,0.4998508783885026,0.4114058368190618,0.2828961320516511,2.7798498434695054,2.31630863401604,1.7124223048757299,1.641179327119291,-1.0,-1.7725219692416592,1.2360962513970613,-0.06024733994517214,-2.9440409842076694,-0.8054058024327049,3.14
277,0.4998497555365268,0.41140282211318663,0.282898529961158,2.779849801647703,2.31630559980984,1.712422331336979,1.6411731532911356,-1.0,-1.7725237308472845,1.235922003393237,-0.05988190659367557,-2.944233832713906,-0.8054061488651194,3.14
278,0.499848646388004,0.41139983736921404,0.2829009084554087,2.779849759601458,2.3163025956944017,1.7124223576211872,1.641167055988007,-1.0,-1.7725254781844797,1.2357487981367594,-0.059518685895628455,-2.9444254978537474,-0.8054064924951423,3.14
279,0.4998475507767979,0.41139688226487897,0.28290326771109187,2.7798497173377914,2.316299621346544,1.7124223837296377,1.6411610342749121,-1.0,-1.7725272113831327,1.235576629488533,-0.05915766450684918,-2.944615986954724,-0.8054068333482342,3.14
280,0.4998464685387751,0.41139395648155763,0.28290560790310315,2.7798496748636157,2.3162966764467336,1.7124224096636043,1.6411550872281826,-1.0,-1.7725289305718182,1.2354054913443122,-0.05879882916288045,-2.9448053072982523,-0.805407171449599,3.14
281,0.4998453995117828,0.4113910597042241,0.28290792920457725,2.779849632185734,2.3162937606790424,1.7124224354243496,1.641149213935338,-1.0,-1.772530635877811,1.23523537763452,-0.05844216667852412,-2.9449934661199357,-0.8054075068241868,3.14
282,0.49984434353562335,0.4113881916214093,0.2829102317868976,2.779849589310851,2.3162908737311065,1.712422461013126,1.6411434134949532,-1.0,-1.7725323274271019,1.2350662823240686,-0.05808766394737864,-2.945180470609858,-0.8054078394966969,3.14
283,0.49984330045203307,0.4113853519251597,0.28291251581972143,2.7798495462455595,2.316288015294085,1.7124224864311761,1.6411376850165211,-1.0,-1.7725340053444105,1.2348981994121802,-0.05773530794137906,-2.94536632791288,-0.8054081694915796,3.14
284,0.49984227010465665,0.4113825403109954,0.28291478147099386,2.779849502996355,2.3162851850626165,1.7124225116797314,1.6411320276203256,-1.0,-1.7725356697531993,1.234731122932208,-0.057385085710339075,-2.9455510451289295,-0.8054084968330397,3.14
285,0.49984125233902493,0.4113797564778715,0.28291702890697146,2.77984945956963,2.3162823827347836,1.712422536760015,1.6411264404373094,-1.0,-1.7725373207756878,1.2345650469514582,-0.05703698438149635,-2.9457346293132924,-0.805408821545039,3.14
286,0.4998402470025339,0.411377000128138,0.28291925829223824,2.779849415971673,2.3162796080120684,1.7124225616732376,1.6411209226089456,-1.0,-1.7725389585328655,1.234399965571014,-0.05669099115905964,-2.945917087476902,-0.8054091436512988,3.14
287,0.49983925394442014,0.4113742709675005,0.28292146978972016,2.7798493722086812,2.3162768605993183,1.7124225864206015,1.6411154732871143,-1.0,-1.7725405831445056,1.2342358729255571,-0.0563470933237588,-2.946098426586622,-0.8054094631753025,3.14
288,0.49983827301574063,0.4113715687049799,0.28292366356071463,2.7798493282867462,2.3162741402047,1.712422611003301,1.6411100916339725,-1.0,-1.7725421947291788,1.2340727631831931,-0.056005278232397246,-2.9462786535655345,-0.8054097801402986,3.14
289,0.49983730406934834,0.411368893052876,0.28292583976488994,2.77984928421187,2.316271446539668,1.7124226354225167,1.6411047768218343,-1.0,-1.7725437934042652,1.2339106305452774,-0.05566553331740655,-2.9464577752932195,-0.8054100945693026,3.14
290,0.4998363469598736,0.41136624372672786,0.2829279985603252,2.7798492399899555,2.3162687793189214,1.7124226596794219,1.6410995280330465,-1.0,-1.7725453792859682,1.2337494692462387,-0.05532784608640401,-2.946635798606038,-0.8054104064851,3.14
291,0.4998354015437014,0.41136362044527924,0.2829301401035057,2.7798491956268134,2.3162661382603713,1.7124226837751808,1.6410943444598696,-1.0,-1.7725469524893271,1.2335892735534064,-0.05499220412175217,-2.946812730297407,-0.8054107159102487,3.14
292,0.4998344676789502,0.41136102293043725,0.28293226454935805,2.7798491511281593,2.316263523085099,1.7124227077109473,1.6410892253043559,-1.0,-1.7725485131282295,1.233430037766838,-0.054658595080121206,-2.9469885771180815,-0.8054110228670811,3.14
293,0.4998335452254506,0.41135845090723894,0.2829343720512567,2.7798491064996225,2.316260933517321,1.7124227314878668,1.6410841697782352,-1.0,-1.7725500613154241,1.2332717562191455,-0.054327006692053224,-2.947163345776424,-0.8054113273777073,3.14
294,0.4998326340447267,0.4113559041038137,0.2829364627610433,2.7798490617467366,2.3162583692843546,1.7124227551070748,1.6410791771027948,-1.0,-1.772551597162533,1.2331144232753255,-0.0539974267615295,-2.9473370429386816,-0.8054116294640168,3.14
295,0.4998317339999721,0.4113533822513472,0.2829385368290448,2.779849016874951,2.316255830116578,1.7124227785696973,1.6410742465087667,-1.0,-1.7725531207800633,1.2329580333325876,-0.05366984316553976,-2.947509675229255,-0.8054119291476809,3.14
296,0.49983084495603647,0.4113508850840493,0.28294059440408825,2.7798489718896215,2.3162533157474003,1.7124228018768521,1.6410693772362122,-1.0,-1.7725546322774206,1.2328025808201835,-0.05334424385365393,-2.9476812492309685,-0.8054122264501558,3.14
297,0.49982996677939684,0.41134841233911296,0.28294263563351757,2.7798489267960247,2.3162508259132206,1.7124228250296476,1.641064568534412,-1.0,-1.7725561317629193,1.2326480601992387,-0.05302061684759641,-2.9478517714853387,-0.8054125213926838,3.14
298,0.4998290993381465,0.4113459637566867,0.2829446606632118,2.7798488815993445,2.316248360353399,1.7124228480291832,1.6410598196617523,-1.0,-1.7725576193437957,1.2324944659625827,-0.05269895024082241,-2.948021248492838,-0.8054128139962969,3.14
299,0.49982824250196894,0.4113435390798331,0.28294666963759496,2.779848836304685,2.3162459188102167,1.71242287087655,1.6410551298856164,-1.0,-1.7725590951262191,1.2323417926345823,-0.05237923219809714,-2.948189686713162,-0.8054131042818178,3.14
300,0.49982739614212346,0.4113411380545027,0.2829486626996568,2.7798487909170646,2.3162435010288482,1.71242289357283,1.6410504984822774,-1.0,-1.772560559215303,1.2321900347709727,-0.052061450955076596,-2.9483570925654883,-0.805413392269863,3.14
301,0.499826560131424,0.41133876042949497,0.28295063999097203,2.7798487454414205,2.3162411067573236,1.7124229161190967,1.6410459247367888,-1.0,-1.7725620117151175,1.2320391869586917,-0.05174559481789141,-2.9485234724287395,-0.8054136779808446,3.14
302,0.499825734344219,0.411336405956427,0.2829526016517043,2.7798486998826077,2.3162387357464955,1.7124229385164151,1.641041407942881,-1.0,-1.7725634527286998,1.231889243815714,-0.05143165216273268,-2.9486888326418406,-0.805413961434973,3.14
303,0.49982491865637746,0.4113340743897021,0.2829545478206298,2.7798486542454044,2.3162363877500103,1.7124229607658408,1.6410369474028552,-1.0,-1.7725648823580649,1.2317401999908857,-0.051119611435440034,-2.9488531795039776,-0.8054142426522584,3.14
304,0.4998241129452665,0.41133176548647704,0.2829564786351517,2.779848608534505,2.3162340625242726,1.7124229828684228,1.6410325424274808,-1.0,-1.7725663007042178,1.231592050163759,-0.05080946115109226,-2.949016519274851,-0.8054145216525131,3.14
305,0.4998233170897353,0.41132947900662903,0.28295839423131314,2.7798485627545295,2.316231759828413,1.7124230048252,1.6410281923358931,-1.0,-1.772567707867164,1.2314447890444296,-0.05050118989359992,-2.949178858174931,-0.8054147984553544,3.14
306,0.4998225309700954,0.41132721471272565,0.2829602947438109,2.7798485169100196,2.3162294794242593,1.7124230266372042,1.6410238964554922,-1.0,-1.7725691039459197,1.231298411373373,-0.050194786315300555,-2.9493402023857085,-0.8054150730802055,3.14
307,0.4998217544681076,0.41132497236999344,0.2829621803060143,2.779848471005441,2.3162272210763035,1.712423048305459,1.641019654121844,-1.0,-1.7725704890385232,1.2311529119212818,-0.04989023913655587,-2.9495005580499463,-0.8054153455462986,3.14
308,0.49982098746695824,0.41132275174628713,0.28296405104997135,2.7798484250451843,2.3162249845516714,1.712423069830979,1.6410154646785813,-1.0,-1.7725718632420446,1.231008285488905,-0.04958753714535134,-2.949659931271927,-0.8054156158726762,3.14
309,0.49982022985124747,0.41132055261205874,0.28296590710643305,2.779848379033569,2.316222769620092,1.7124230912147718,1.6410113274773075,-1.0,-1.772573226652597,1.2308645269068859,-0.049286669196897996,-2.9498183281177006,-0.8054158840781936,3.14
310,0.49981948150696814,0.4113183747403282,0.2829677486048594,2.779848332974838,2.3162205760538668,1.7124231124578366,1.6410072418774986,-1.0,-1.7725745793653467,1.2307216310356017,-0.04898762421323655,-2.9499757546153282,-0.8054161501815209,3.14
311,0.49981874232149326,0.4113162179066547,0.2829695756734367,2.779848286873163,2.3162184036278433,1.7124231335611648,1.6410032072464091,-1.0,-1.7725759214745223,1.2305795927650054,-0.04869039118284365,-2.950132216755128,-0.8054164142011445,3.14
312,0.49981801218355554,0.41131408188910495,0.2829713884390924,2.7798482407326466,2.316216252119381,1.7124231545257391,1.6409992229589796,-1.0,-1.7725772530734263,1.2304384070144654,-0.04839495916024038,-2.9502877204899165,-0.8054166761553697,3.14
313,0.49981729098323263,0.41131196646822593,0.282973187027505,2.779848194557321,2.316214121308327,1.7124231753525363,1.6409952883977423,-1.0,-1.7725785742544442,1.2302980687326073,-0.04810131726560283,-2.9504422717352483,-0.805416936062322,3.14
314,0.4998165786119325,0.4113098714270169,0.2829749715631214,2.7798481483511464,2.316212010976983,1.7124231960425245,1.6409914029527302,-1.0,-1.7725798851090546,1.2301585728971571,-0.04780945468437504,-2.950595876369655,-0.8054171939399498,3.14
315,0.49981587496237306,0.41130779655089866,0.28297674216916435,2.779848102118018,2.31620992091008,1.7124232165966649,1.6409875660213864,-1.0,-1.7725811857278382,1.2300199145147843,-0.04751936066688411,-2.9507485402348834,-0.8054174498060256,3.14
316,0.4998151799285726,0.4113057416276886,0.28297849896765237,2.7798480558617644,2.3162078508947497,1.712423237015909,1.640983777008475,-1.0,-1.772582476200488,1.2298820886209463,-0.047231024527957376,-2.9509002691361315,-0.805417703678148,3.14
317,0.49981449340582823,0.41130370644757075,0.2829802420794078,2.779848009586145,2.3162058007204966,1.7124232573012035,1.6409800353259925,-1.0,-1.7725837566158194,1.229745090279731,-0.046944435646541834,-2.951051068842281,-0.8054179555737438,3.14
318,0.4998138152907038,0.4113016908030692,0.2829819716240735,2.7798479632948556,2.3162037701791696,1.7124232774534862,1.6409763403930797,-1.0,-1.7725850270617782,1.2296089145837037,-0.0466595834653256,-2.95120094508613,-0.8054182055100699,3.14
319,0.49981314548101397,0.4112996944890215,0.2829836877201211,2.7798479169915264,2.316201759064936,1.7124232974736893,1.6409726916359377,-1.0,-1.7725862876254512,1.229473556653753,-0.04637645749036172,-2.951349903564626,-0.8054184535042147,3.14
320,0.49981248387580934,0.41129771730255216,0.282985390484866,2.779847870679726,2.3161997671742567,1.7124233173627352,1.640969088487741,-1.0,-1.7725875383930745,1.229339011638937,-0.046095047290693816,-2.9514979499390934,-0.8054186995731001,3.14
321,0.4998118303753603,0.411295759043045,0.2829870800344786,2.7798478243629585,2.316197794305855,1.7124233371215405,1.640965530388553,-1.0,-1.7725887794500428,1.2292052747163318,-0.045815342497984156,-2.951645089835463,-0.8054189437334832,3.14
322,0.49981118488114457,0.4112938195121185,0.2829887564840013,2.779847778044664,2.3161958402606952,1.7124233567510154,1.640962016785244,-1.0,-1.7725900108809185,1.2290723410908768,-0.045537332806143645,-2.9517913288444975,-0.8054191860019583,3.14
323,0.4998105472958316,0.4112918985136007,0.28299041994734997,2.7798477317282266,2.3161939048419553,1.7124233762520615,1.6409585471314088,-1.0,-1.7725912327694404,1.2289402059952266,-0.04526100797096386,-2.9519366725220157,-0.8054194263949583,3.14
324,0.49980991752326587,0.41128999585350023,0.2829920705373363,2.7798476854169674,2.316191987855,1.7124233956255752,1.6409551208872852,-1.0,-1.7725924451985327,1.228808864689598,-0.04498635780975129,-2.9520811263891176,-0.8054196649287569,3.14
325,0.49980929546845754,0.41128811133998544,0.28299370836567517,2.7798476391141462,2.316190089107357,1.7124234148724442,1.6409517375196732,-1.0,-1.7725936482503133,1.2286783124616225,-0.044713372200963775,-2.952224695932406,-0.8054199016194695,3.14
326,0.49980868103756415,0.41128624478335707,0.2829953335429989,2.7798475928229682,2.316188208408692,1.7124234339935493,1.6409483965018576,-1.0,-1.7725948420061028,1.2285485446261946,-0.0444420410838486,-2.9523673866042066,-0.8054201364830555,3.14
327,0.49980807413787964,0.4112843959960242,0.2829969461788607,2.779847546546578,2.3161863455707845,1.7124234529897673,1.6409450973135278,-1.0,-1.772596026546433,1.2284195565253246,-0.04417235445808313,-2.9525092038227867,-0.8054203695353199,3.14
328,0.49980747467781855,0.4112825647924804,0.28299854638175825,2.7798475002880627,2.316184500407502,1.712423471861965,1.640941839440701,-1.0,-1.7725972019510543,1.228291343527991,-0.043904302383417144,-2.9526501529725735,-0.8054206007919149,3.14
329,0.49980688256690436,0.4112807509892797,0.2830001342591351,2.779847454050455,2.3161826727347776,1.7124234906110039,1.6409386223756464,-1.0,-1.7725983682989452,1.228163901029993,-0.043637874979317384,-2.9527902394043704,-0.805420830268341,3.14
330,0.4998062977157542,0.4112789544050112,0.28300170991739615,2.7798474078367335,2.316180862370585,1.712423509237739,1.6409354456168093,-1.0,-1.7725995256683202,1.2280372244538031,-0.04337306242461402,-2.952929468435571,-0.8054210579799495,3.14
331,0.4998057200360678,0.4112771748602791,0.2830032734619199,2.779847361649817,2.3161790691349156,1.7124235277430182,1.640932308668736,-1.0,-1.7726006741366371,1.2279113092484228,-0.04310985495714915,-2.953067845350373,-0.8054212839419432,3.14
332,0.4998051494406128,0.41127541217767616,0.28300482499706403,2.7798473154925745,2.3161772928497566,1.7124235461276833,1.6409292110420008,-1.0,-1.772601813780606,1.2277861508892374,-0.04284824287342724,-2.9532053753999903,-0.8054215081693787,3.14
333,0.49980458584321225,0.4112736661817625,0.28300636462618145,2.779847269367821,2.3161755333390657,1.71242356439257,1.6409261522531333,-1.0,-1.772602944676197,1.22766174487787,-0.042588216528267935,-2.9533420638028614,-0.8054217306771675,3.14
334,0.4998040291587325,0.4112719366990432,0.28300789245162894,2.7798472232783187,2.316173790428749,1.712423582538507,1.6409231318245456,-1.0,-1.7726040668986471,1.2275380867420393,-0.04232976633446036,-2.9534779157448625,-0.8054219514800776,3.14
335,0.49980347930307045,0.4112702235579445,0.2830094085747778,2.7798471772267788,2.31617206394664,1.712423600566316,1.6409201492844614,-1.0,-1.7726051805224694,1.227415172035416,-0.04207288276241955,-2.953612936379512,-0.8054221705927352,3.14
336,0.4998029361931408,0.4112685265887936,0.2830109130960224,2.77984713121586,2.316170353722477,1.7124236184768147,1.6409172041668465,-1.0,-1.7726062856214595,1.2272929963374803,-0.041817556339844936,-2.953747130828177,-0.805422388029626,3.14
337,0.4998023997468636,0.4112668456237953,0.2830124061147964,2.7798470852481723,2.3161686595878805,1.7124236362708118,1.6409142960113388,-1.0,-1.7726073822687038,1.2271715552533802,-0.0415637776513808,-2.9538805041802805,-0.8054226038050966,3.14
338,0.4998018698831526,0.4112651804970113,0.2830138877295733,2.779847039326272,2.316166981376331,1.7124236539491118,1.640911424363179,-1.0,-1.7726084705365872,1.2270508444137906,-0.04131153733827851,-2.954013061493503,-0.8054228179333561,3.14
339,0.4998013465219032,0.41126353104433794,0.283015358037886,2.779846993452675,2.3161653189231495,1.7124236715125127,1.6409085887731463,-1.0,-1.7726095504967994,1.2269308594747723,-0.04106082609806086,-2.9541448077939845,-0.8054230304284778,3.14
340,0.49980082958398037,0.41126189710348654,0.2830168171363321,2.77984694762984,2.3161636720654757,1.7124236889618054,1.6409057887974856,-1.0,-1.7726106222203428,1.2268115961176336,-0.04081163468418829,-2.9542757480765283,-0.8054232413044,3.14
341,0.49980031899120764,0.41126027851396163,0.28301826512058037,2.779846901860184,2.3161620406422467,1.7124237062977765,1.6409030239978473,-1.0,-1.7726116857775405,1.2266930500487891,-0.04056395390572679,-2.9544058873047967,-0.8054234505749281,3.14
342,0.49979981466635437,0.4112586751170404,0.2830197020853916,2.779846856146073,2.3161604244941767,1.7124237235212056,1.640900293941218,-1.0,-1.7726127412380421,1.226575216999624,-0.040317774627018216,-2.954535230411513,-0.8054236582537355,3.14
343,0.4997993165331261,0.41125708675575273,0.28302112812461383,2.779846810489831,2.316158823463736,1.712423740632866,1.640897598199858,-1.0,-1.7726137886708317,1.226458092726354,-0.04007308776735187,-2.954663782298656,-0.8054238643543652,3.14
344,0.49979882451615076,0.41125551327486,0.28302254333120547,2.779846764893732,2.316157237395131,1.7124237576335257,1.6408949363512364,-1.0,-1.7726148281442347,1.226341673009889,-0.03982988430063854,-2.9547915478376576,-0.805424068890231,3.14
345,0.4997983385409699,0.4112539545208373,0.2830239477972329,2.779846719360009,2.316155666134287,1.7124237745239475,1.6408923079779691,-1.0,-1.7726158597259243,1.2262259536556974,-0.03958815525508585,-2.9549185318695947,-0.8054242718746192,3.14
346,0.499797858534026,0.41125241034185156,0.28302534161388815,2.7798466738908485,2.3161541095288234,1.7124237913048876,1.640889712667756,-1.0,-1.7726168834829286,1.226110930493669,-0.03934789171287608,-2.955044739205385,-0.8054244733206892,3.14
347,0.4997973844226539,0.4112508805877446,0.28302672487149355,2.7798466284883934,2.3161525674280394,1.7124238079770966,1.6408871500133182,-1.0,-1.7726178994816377,1.2259965993779813,-0.03910908480984544,-2.955170174625977,-0.8054246732414762,3.14
348,0.49979691613506716,0.4112493651100107,0.2830280976595148,2.7798465831547445,2.316151039682891,1.7124238245413195,1.6408846196123408,-1.0,-1.7726189077878098,1.225882956186964,-0.03887172573516521,-2.955294842882542,-0.8054248716498906,3.14
349,0.4997964536003492,0.4112478637617803,0.2830294600665631,2.7798465378919603,2.3161495261459732,1.712423840998296,1.640882121067409,-1.0,-1.7726199084665786,1.2257699968229652,-0.03863580573102488,-2.9554187486966623,-0.8054250685587212,3.14
350,0.499795996748442,0.4112463763978005,0.2830308121804151,2.7798464927020547,2.316148026671503,1.71242385734876,1.6408796539859507,-1.0,-1.7726209015824583,1.225657717212219,-0.038401316092317,-2.9555418967605203,-0.8054252639806351,3.14
351,0.49979554551013716,0.41124490287441645,0.2830321540880069,2.779846447587004,2.316146541115298,1.7124238735934396,1.6408772179801787,-1.0,-1.7726218871993522,1.2255461133047123,-0.038168248166323714,-2.9556642917370843,-0.8054254579281795,3.14
352,0.49979509981706344,0.4112434430495529,0.28303348587545685,2.779846402548742,2.3161450693347603,1.7124238897330581,1.640874812667031,-1.0,-1.7726228653805574,1.2254351810740531,-0.037936593352405595,-2.955785938260296,-0.8054256504137831,3.14
353,0.4997946596016791,0.4112419967826966,0.28303480762806643,2.7798463575891628,2.316143611188857,1.7124239057683337,1.640872437668114,-1.0,-1.7726238361887714,1.2253249165173397,-0.03770634310169155,-2.9559068409352514,-0.805425841449757,3.14
354,0.49979422479726016,0.4112405639348779,0.28303611943033163,2.77984631271012,2.3161421665381043,1.7124239216999768,1.6408700926096471,-1.0,-1.772624799686099,1.2252153156550294,-0.037477488916771225,-2.956027004338389,-0.805426031048296,3.14
355,0.49979379533789087,0.41123914436865266,0.2830374213659459,2.77984626791343,2.3161407352445447,1.7124239375286965,1.640867777122406,-1.0,-1.7726257559340586,1.2251063745308086,-0.037250022351388634,-2.956146433017667,-0.80542621922148,3.14
356,0.4997933711584535,0.4112377379480861,0.28303871351781784,2.779846223200871,2.3161393171717366,1.7124239532551928,1.640865490841668,-1.0,-1.7726267049935864,1.2249980892114647,-0.037023935010137884,-2.9562651314927475,-0.805426405981275,3.14
357,0.49979295219462166,0.4112363445387352,0.2830399959680714,2.77984617857418,2.3161379121847325,1.7124239688801624,1.6408632334071565,-1.0,-1.7726276469250453,1.2248904557867555,-0.036799218548160595,-2.956383104255174,-0.8054265913395345,3.14
358,0.4997925383828452,0.4112349640076306,0.28304126879805824,2.7798461340350626,2.3161365201500623,1.7124239844042966,1.6408610044629888,-1.0,-1.7726285817882284,1.2247834703692828,-0.03657586467084491,-2.9565003557685516,-0.8054267753080002,3.14
359,0.4997921296603469,0.41123359622326067,0.283042532088363,2.7798460895851793,2.3161351409357174,1.7124239998282815,1.6408588036576208,-1.0,-1.7726295096423663,1.224677129094364,-0.036353865133526446,-2.9566168904687227,-0.8054269578983037,3.14
360,0.4997917259651088,0.41123224105555417,0.2830437859188156,2.779846045226163,2.316133774411134,1.7124240151527983,1.6408566306437973,-1.0,-1.772630430546133,1.224571428119906,-0.0361332117411909,-2.956732712763944,-0.8054271391219672,3.14
361,0.4997913272358652,0.4112308983758658,0.28304503036849266,2.7798460009596067,2.3161324204471767,1.7124240303785223,1.6408544850784974,-1.0,-1.77263134455765,1.224466363626279,-0.0359138963481783,-2.956847827035062,-0.8054273189904051,3.14
362,0.4997909334120933,0.41122956805695665,0.28304626551572803,2.7798459567870673,2.3161310789161202,1.7124240455061244,1.6408523666228843,-1.0,-1.7726322517344946,1.2243619318161898,-0.03569591085788916,-2.956962237635685,-0.8054274975149246,3.14
363,0.49979054443400245,0.4112282499729805,0.28304749143812835,2.779845912710069,2.316129749691636,1.7124240605362715,1.6408502749422555,-1.0,-1.7726331521337035,1.2242581289145582,-0.035479247222492113,-2.9570759488923577,-0.8054276747067273,3.14
364,0.4997901602425279,0.411226943999467,0.28304870821256434,2.779845868730103,2.3161284326487745,1.7124240754696234,1.6408482097059909,-1.0,-1.772634045811779,1.2241549511683931,-0.03526389744263333,-2.957188965104732,-0.8054278505769097,3.14
365,0.49978978077932085,0.41122565001330724,0.2830499159151921,2.779845824848623,2.3161271276639512,1.7124240903068368,1.6408461705875046,-1.0,-1.7726349328246949,1.224052394846667,-0.03504985356714775,-2.9573012905457365,-0.805428025136465,3.14
366,0.4997894059867391,0.4112243678927356,0.2830511146214571,2.7798457810670527,2.3161258346149283,1.7124241050485625,1.6408441572641956,-1.0,-1.7726358132279014,1.223950456240195,-0.03483710769277181,-2.9574129294617477,-0.8054281983962838,3.14
367,0.4997890358078409,0.41122309751731784,0.2830523044060971,2.7798457373867826,2.316124553380803,1.7124241196954473,1.6408421694174002,-1.0,-1.7726366870763308,1.2238491316615105,-0.034625651963857924,-2.957523886072757,-0.8054283703671546,3.14
368,0.49978867018637246,0.4112218387679323,0.2830534853431565,2.7798456938091687,2.3161232838419874,1.712424134248133,1.640840206732343,-1.0,-1.772637554424403,1.223748417444745,-0.0344154785720905,-2.957634164572538,-0.8054285410597662,3.14
369,0.499788309066765,0.4112205915267586,0.28305465750598474,2.7798456503355387,2.3161220258802,1.7124241487072558,1.6408382688980916,-1.0,-1.7726384153260304,1.2236483099455062,-0.034206579756203774,-2.9577437691288124,-0.8054287104847073,3.14
370,0.4997879523941199,0.4112193556772585,0.2830558209672542,2.7798456069671884,2.3161207793784433,1.7124241630734494,1.6408363556075085,-1.0,-1.7726392698346234,1.2235488055407568,-0.03399894780170129,-2.957852703883415,-0.8054288786524684,3.14
371,0.49978760011420814,0.41121813110416666,0.2830569757989539,2.77984556370538,2.316119544220997,1.7124241773473403,1.640834466557205,-1.0,-1.772640118003095,1.223449900628696,-0.033792575040576804,-2.957960972952458,-0.8054290455734424,3.14
372,0.49978725217345443,0.4112169176934707,0.2830581220724111,2.7798455205513477,2.3161183202933966,1.7124241915295513,1.6408326014474968,-1.0,-1.7726409598838673,1.2233515916286393,-0.033587453851037036,-2.9580685804264935,-0.805429211257926,3.14
373,0.49978690851893687,0.411215715332401,0.28305925985828745,2.779845477506296,2.3161171074824227,1.7124242056207015,1.6408307599823593,-1.0,-1.7726417955288747,1.2232538749808988,-0.03338357665722585,-2.958175530370674,-0.8054293757161204,3.14
374,0.49978656909837244,0.4112145239094143,0.2830603892265883,2.7798454345713997,2.3161159056760874,1.7124242196214046,1.6408289418693822,-1.0,-1.7726426249895701,1.223156747146667,-0.03318093592895038,-2.9582818268249156,-0.8054295389581322,3.14
375,0.4997862338601147,0.41121334331418097,0.2830615102466749,2.779845391747802,2.316114714763618,1.71242423353227,1.6408271468197253,-1.0,-1.77264344831693,1.2230602046078973,-0.03297952418140812,-2.958387473804056,-0.8054297009939745,3.14
376,0.49978590275314133,0.41121217343756933,0.283062622987262,2.779845349036622,2.3161135346354436,1.7124242473539024,1.640825374548078,-1.0,-1.7726442655614585,1.2229642438671888,-0.032779333974916204,-2.958492475298013,-0.8054298618335678,3.14
377,0.49978557572705046,0.4112110141716348,0.2830637275164303,2.779845306438949,2.3161123651831836,1.712424261086903,1.6408236247726133,-1.0,-1.7726450767731927,1.2228688614476686,-0.032580357914642075,-2.9585968352719423,-0.8054300214867414,3.14
378,0.4997852527320512,0.41120986540960447,0.2830648239016326,2.779845263955842,2.316111206299632,1.7124242747318679,1.6408218972149469,-1.0,-1.7726458820017075,1.2227740538928762,-0.03238258865033557,-2.958700557666394,-0.8054301799632334,3.14
379,0.499784933718956,0.4112087270458634,0.2830659122096982,2.7798452215883365,2.316110057878744,1.7124242882893883,1.6408201916000953,-1.0,-1.77264668129612,1.2226798177666494,-0.032186018876062795,-2.958803646397468,-0.8054303372726924,3.14
380,0.4997846186391756,0.4112075989759446,0.2830669925068409,2.7798451793374377,2.3161089198156257,1.712424301760052,1.640818507656435,-1.0,-1.772647474705094,1.2225861496530084,-0.03199064132994135,-2.9589061053569696,-0.8054304934246782,3.14
381,0.4997843074447078,0.4112064810965104,0.28306806485866404,2.7798451372041284,2.3161077920065156,1.7124243151444425,1.6408168451156617,-1.0,-1.7726482622768458,1.2224930461560422,-0.03179644879387734,-2.959007938412561,-0.8054306484286625,3.14
382,0.49978400008813584,0.4112053733053459,0.28306912933016976,2.7798450951893616,2.316106674348778,1.7124243284431384,1.6408152037127492,-1.0,-1.7726490440591476,1.2224005038997954,-0.03160343409330357,-2.9591091494079156,-0.8054308022940303,3.14
383,0.49978369652261523,0.4112042755013406,0.2830701859857601,2.779845053294064,2.3161055667408843,1.7124243416567144,1.64081358318591,-1.0,-1.7726498200993321,1.2223085195281556,-0.031411590096919684,-2.959209742162868,-0.8054309550300801,3.14
384,0.4997833967018721,0.4112031875844808,0.2830712348892432,2.7798450115191424,2.3161044690824064,1.7124243547857414,1.6408119832765573,-1.0,-1.7726505904442977,1.2222170897047397,-0.03122090971643346,-2.959309720473565,-0.8054311066460254,3.14
385,0.49978310058019326,0.41120210945583363,0.2830722761038525,2.7798449698654735,2.316103381273999,1.7124243678307856,1.6408104037292643,-1.0,-1.772651355140512,1.2221262111127842,-0.03103138590630393,-2.9594090881126163,-0.805431257150995,3.14
386,0.49978280811242026,0.411201041017536,0.28307330969223,2.77984492833391,2.3161023032173906,1.7124243807924098,1.640808844291727,-1.0,-1.7726521142340173,1.2220358804550326,-0.030843011663485607,-2.959507848829241,-0.8054314065540343,3.14
387,0.49978251925394235,0.41119998217278214,0.2830743357164486,2.7798448869252845,2.3161012348153696,1.7124243936711718,1.6408073047147267,-1.0,-1.7726528677704336,1.2219460944536258,-0.030655780027174596,-2.9596060063494165,-0.8054315548641061,3.14
388,0.49978223396069144,0.41119893282581343,0.28307535423801694,2.7798448456404015,2.3161001759717736,1.7124244064676264,1.6408057847520898,-1.0,-1.772653615794964,1.2218568498499915,-0.03046968407855612,-2.9597035643760257,-0.8054317020900913,3.14
389,0.49978195218913324,0.41119789288190306,0.2830763653178754,2.779844804480043,2.3160991265914754,1.7124244191823232,1.6408042841606547,-1.0,-1.7726543583523982,1.2217681434047352,-0.030284716940553263,-2.959800526589001,-0.8054318482407896,3.14
390,0.4997816738962616,0.4111968622473472,0.2830773690164151,2.779844763444969,2.3160980865803737,1.712424431815809,1.6408028027002335,-1.0,-1.7726550954871172,1.2216799718975309,-0.030100871777577372,-2.959896896645469,-0.8054319933249207,3.14
391,0.49978139903959334,0.4111958408294526,0.2830783653934695,2.7798447225359166,2.316097055845381,1.7124244443686258,1.640801340133575,-1.0,-1.7726558272430972,1.2215923321270132,-0.029918141795280143,-2.959992678179897,-0.8054321373511246,3.14
392,0.49978112757716003,0.41119482853652434,0.28307935450833455,2.7798446817536,2.3160960342944104,1.7124244568413127,1.6407998962263306,-1.0,-1.7726565536639138,1.2215052209106698,-0.02973652024030663,-2.9600878748042327,-0.8054322803279631,3.14
393,0.49978085946750445,0.4111938252778562,0.2830803364197606,2.779844641098711,2.3160950218363663,1.7124244692344035,1.640798470747018,-1.0,-1.7726572747927458,1.2214186350847338,-0.029556000400050148,-2.960182490108048,-0.80543242226392,3.14
394,0.4997805946696697,0.41119283096371767,0.2830813111859663,2.779844600571921,2.316094018381132,1.712424481548429,1.6407970634669875,-1.0,-1.7726579906723794,1.2213325715040777,-0.029376575602408368,-2.960276527658679,-0.8054325631674019,3.14
395,0.49978033314319875,0.4111918455053442,0.2830822788646404,2.77984456017388,2.316093023839559,1.712424493783917,1.6407956741603866,-1.0,-1.772658701345212,1.2212470270421067,-0.02919823921554106,-2.9603699910013663,-0.8054327030467393,3.14
396,0.49978007484812487,0.4111908688149249,0.28308323951295106,2.779844519905216,2.3160920381234558,1.7124245059413892,1.640794302604126,-1.0,-1.7726594068532566,1.221161998590654,-0.02902098464762905,-2.960462883659395,-0.8054328419101874,3.14
397,0.49977981974496677,0.4111899008055943,0.2830841931875472,2.7798444797665365,2.3160910611455785,1.7124245180213657,1.6407929485778474,-1.0,-1.7726601072381452,1.2210774830598752,-0.028844805346634708,-2.960555209134232,-0.8054329797659262,3.14
398,0.49977956779472305,0.4111889413914185,0.28308513994456264,2.779844439758428,2.3160900928196178,1.7124245300243626,1.6407916118638883,-1.0,-1.7726608025411323,1.220993477378144,-0.02866969480006378,-2.960646970905664,-0.8054331166220622,3.14
399,0.4997793189588639,0.41118799048738597,0.2830860798396254,2.7798443998814606,2.3160891330601885,1.712424541950891,1.640790292247252,-1.0,-1.7726614928031001,1.2209099784919488,-0.028495646534728542,-2.960738172431933,-0.8054332524866284,3.14
400,0.49977907319932974,0.4111870480093985,0.28308701292786215,2.7798443601361806,2.316088181782823,1.7124245538014597,1.6407889895155718,-1.0,-1.7726621780645606,1.2208269833657894,-0.028322654116512715,-2.960828817149873,-0.8054333873675856,3.14
401,0.49977883047852195,0.41118611387425863,0.2830879392639008,2.779844320523116,2.3160872389039557,1.712424565576573,1.6407877034590816,-1.0,-1.7726628583656603,1.220744488982074,-0.028150711150137214,-2.960918908475045,-0.8054335212728224,3.14
402,0.4997785907592994,0.4111851879996619,0.28308885890187524,2.7798442810427755,2.316086304340917,1.7124245772767326,1.6407864338705842,-1.0,-1.7726635337461834,1.2206624923410165,-0.02797981127892766,-2.961008449801869,-0.8054336542101567,3.14
403,0.4997783540049708,0.41118427030418375,0.2830897718954324,2.779844241695652,2.3160853780119193,1.7124245889024352,1.6407851805454188,-1.0,-1.7726642042455558,1.220580990460536,-0.027809948184583235,-2.9610974445037592,-0.805433786187336,3.14
404,0.49977812017929263,0.4111833607072721,0.2830906782977396,2.779844202482215,2.316084459836051,1.7124246004541748,1.6407839432814308,-1.0,-1.7726648699028484,1.220499980376155,-0.027641115586946673,-2.9611858959332547,-0.8054339172120378,3.14
405,0.4997778892464587,0.41118245912923584,0.28309157816148217,2.77984416340292,2.316083549733263,1.7124246119324424,1.6407827218789428,-1.0,-1.7726655307567811,1.220419459140898,-0.027473307243775818,-2.9612738074221507,-0.8054340472918712,3.14
406,0.4997776611711006,0.4111815654912375,0.28309247153887523,2.7798441244582017,2.316082647624363,1.7124246233377243,1.640781516140721,-1.0,-1.7726661868457256,1.2203394238251937,-0.027306516950516377,-2.9613611822816304,-0.8054341764343766,3.14
