jkpark150901/flame_robotics_drt/experiment/inspection_ik/session_20260716_101733/inspection_ik_dda_rb10_1300e_raw_success_20260716_102120.csv
iteration,err_norm,position_error,orientation_error,tcp_x,tcp_y,tcp_z,q0_dda_joint_linear_track,q1_dda_joint_carriage,q2_dda_joint_base,q3_dda_joint_shoulder,q4_dda_joint_elbow,q5_dda_joint_wrist1,q6_dda_joint_wrist2,q7_dda_joint_wrist3
0,5.297514579366606,4.222547832843248,2.5935665869395446,0.47255,3.7499999999986655,2.697,0.0,0.0,0.0,0.0,0.0,0.0,0.0,0.0
1,3.8292457376033173,3.26737530050969,1.7396392779616228,1.933302937820301,4.113218549394224,2.6760026983090914,1.4633260104746089,0.3863181327372897,-0.27762552870457624,0.14505696132258453,-0.09164015860994311,-0.31189944199419417,-0.3379877369458973,-0.3571566112452071
2,2.0315717411211094,1.6219525428212513,1.137983075833049,3.2474199621293525,3.2590953901326127,1.6483783086619852,2.17747565611844,-1.0,-0.7719493564224631,1.8436580588987361,-0.8880920159057305,-1.4597760249142882,-0.2727904229030314,-0.530003081373192
3,1.486900368123412,1.2623444646021729,0.7478735257695351,3.7195873615415866,3.095784667146536,1.7598760729973713,2.674195980600695,-1.0,-0.8931574728521461,1.7186488125038573,-0.9621676973931045,-1.608986370522916,-0.45657238264041167,-0.44905815826010964
4,1.1800490030751216,1.0635524089349628,0.49209823116115126,3.9622635820905057,2.9496862842044904,1.8186645485333706,2.934554683724247,-1.0,-1.0299852152805935,1.6431500146745976,-1.0181956514625983,-1.6851492550689433,-0.5574772997427355,-0.39617748919266904
5,1.0052989921427884,0.9480452571198592,0.3238060977009634,4.08199691230009,2.845106671308148,1.8328744048249521,3.0721798424205593,-1.0,-1.141954721340714,1.6187276258493104,-1.0684518410758572,-1.7455478820258983,-0.6297372348606484,-0.3456471871279356
6,0.8948574355875256,0.86760834676334,0.21306342685383053,4.137129839344456,2.7670871788730995,1.8233048502263183,3.1409019869848542,-1.0,-1.2343956335334416,1.6257296406240076,-1.115760651317033,-1.7990564234600082,-0.6797667362019311,-0.29400105777707913
7,0.8167543717730896,0.8039945855234187,0.14027441871464394,4.159283665496065,2.7051334231134803,1.8045304827097377,3.174198936294032,-1.0,-1.312123425730044,1.6465265487626668,-1.1590836737670014,-1.8471242595757058,-0.71329985747682,-0.24050719650703634
8,0.7566575292654579,0.750727867573984,0.09247451362372681,4.165439878790891,2.6535626221864765,1.7844094871881855,3.1909897605856568,-1.0,-1.3787331293180627,1.6704075721242622,-1.1971597055087446,-1.8901731147179694,-0.7353872987105788,-0.18584106049073
9,0.7078515570340126,0.7051031228974916,0.061096099229714554,4.164466082815039,2.6093862196348514,1.7664346447547208,3.200982126828644,-1.0,-1.436805609019115,1.6921737208911267,-1.229553596265335,-1.928749024280415,-0.749975680312312,-0.13104765791226014
10,0.6668173484991113,0.6655418593718615,0.04049621059564638,4.160816282440372,2.570877951310617,1.7517358412772723,3.208743596806301,-1.0,-1.488204140406084,1.7098838221100825,-1.2564823514545296,-1.9635300839632466,-0.7599031178385413,-0.07706976718528084
11,0.6314667600508842,0.6308717618965178,0.02696768971144746,4.1566057059773875,2.5368948071295536,1.7403200639316903,3.2162070028246643,-1.0,-1.5343020132339131,1.7232459636514654,-1.2784795742115267,-1.9952036089948078,-0.7670975443341175,-0.024604581011498657
12,0.6004342276442743,0.6001538954609018,0.01807847244435752,4.152745370564045,2.5065930287858227,1.7317438111852252,3.224040957134723,-1.0,-1.576132607894933,1.7326901664283287,-1.2961729235160862,-2.0243878638418695,-0.772812832531014,0.025898199545335718
13,0.5727679852378667,0.5726337671221804,0.012233759791047231,4.14954934997069,2.4793118934232496,1.7254458076344594,3.232351875517354,-1.0,-1.6144852141492474,1.7388874064863453,-1.3101722993744411,-2.0516003586694667,-0.7778338705550001,0.0741898902075363
14,0.5477775525277622,0.5477117323936798,0.008387620024353443,4.147053334332445,2.454521828327365,1.720895072280186,3.2410271721832746,-1.0,-1.6499681241364392,1.7425216669894077,-1.32102411400129,-2.0772539975147155,-0.7826327940579211,0.12016820680690143
15,0.524948559771355,0.5249151741855264,0.005853639594394542,4.145177508733377,2.431795985958148,1.7176450568016768,3.2498946684501573,-1.0,-1.6830525931971154,1.74419555187567,-1.329198871465093,-2.101666892955376,-0.7874796754984775,0.1638295926992999
16,0.5038905399545903,0.5038728289954282,0.004180800734073629,4.143806564391086,2.4107906619442314,1.715343331676182,3.2587907363974957,-1.0,-1.7141050690656643,1.7444023683834606,-1.3350938149787486,-2.1250774088014976,-0.7925174125778904,0.2052324597888594
17,0.4843028681367943,0.4842929330943453,0.003072248115189295,4.142826336741813,2.39122980007338,1.7137225077601814,3.2675845780076163,-1.0,-1.7434115688536205,1.743528757558425,-1.3390414803787372,-2.1476599142903323,-0.79781080605002,0.24447084611866615
18,0.46595157394067294,0.46594563120780474,0.0023323081365697303,4.142138341311708,2.3728921504662863,1.7125850542945167,3.276182476577331,-1.0,-1.7711963609879737,1.741869384605159,-1.3413197973306492,-2.1695391015658907,-0.803377971773257,0.28165653548310493
19,0.44865304250620625,0.4486492390584245,0.0018320952556635957,4.141663546354049,2.3556006052987466,1.711787805013371,3.2845237798791573,-1.0,-1.7976363157879147,1.7396446470127542,-1.3421617772964305,-2.190802058583393,-0.8092100684599879,0.3169075023908016
20,0.4322622522883176,0.43225965424230434,0.0014871634587978093,4.141341320128295,2.33921344082459,1.7112284596224099,3.2925742395595985,-1.0,-1.822871904373158,1.7370173423400332,-1.3417640026551836,-2.2115079934677104,-0.8152834813803048,0.35034083703528696
21,0.4166640944907308,0.4166622143680868,0.0012427524446071176,4.141126568826029,2.323617209001788,1.7108347102319845,3.3003192434025985,-1.0,-1.8470156043612258,1.7341067784882351,-1.340293701605419,-2.2316958342534536,-0.8215672230128632,0.3820687148471361
22,0.4017668428998056,0.4017654156397635,0.0010637896861606928,4.140986518474802,2.30872101731579,1.71055588074947,3.3077579498555587,-1.0,-1.8701583133960793,1.7310000362305273,-1.3378944612095574,-2.251390046214128,-0.8280273460637851,0.4121963600198286
23,0.38749716108136634,0.3874960359345667,0.0009280226134440875,4.140897775713783,2.294451948010245,1.710356692568418,3.3148986049686893,-1.0,-1.8923742445837797,1.7277606304696917,-1.3346907445221878,-2.270605019563803,-0.8346295152811191,0.44082126536262084
24,0.3737962327381439,0.37379531983941094,0.000821365523914587,4.140843888667809,2.280751395986588,1.7102127150992943,3.3217549973423264,-1.0,-1.913724672208714,1.7244350038787928,-1.330791412349302,-2.2893483424473153,-0.8413404596280519,0.4680331669707769
25,0.36061672856583493,0.36061597175972265,0.0007348484322442113,4.140813432478766,2.267572139468781,1.7101070983422295,3.328343883111573,-1.0,-1.9342608093288376,1.7210573073348407,-1.3262924455464007,-2.3076232201046567,-0.8481287532553484,0.4939144422344771
26,0.3479204069199677,0.34791976947562,0.0006626837819312747,4.140798560853064,2.254875992380736,1.7100282546913463,3.334683185076782,-1.0,-1.9540260295347966,1.7176528717589772,-1.3212790414576046,-2.3254302469749475,-0.8549652005136481,0.5185407182070105
27,0.33567620227214173,0.3356756591010538,0.0006010705484046715,4.140793938716949,2.2426319185349164,1.7099682299215757,3.3407907839609097,-1.0,-1.9730575913076787,1.71424070378904,-1.3158272298140679,-2.3427686911826346,-0.8618229916616199,0.5419815579018398
28,0.3238586944944688,0.3238582277536376,0.0005474617907541317,4.140795971414709,2.230814513751306,1.70992156727345,3.346683748649746,-1.0,-1.9913879825679988,1.7108352656685242,-1.3100051252142717,-2.3596374123519053,-0.8686777285992953,0.5643011456998367
29,0.31244687939383176,0.31244647591245706,0.0005001147724827397,4.140802257043756,2.2194027828312253,1.7098845203718258,3.352377883503999,-1.0,-2.009045972627588,1.707447737019877,-1.303873908039469,-2.376035503719891,-0.8755073787181561,0.5855589280247521
30,0.3014231803623629,0.30142283008569715,0.000457811344010244,4.140811202648574,2.208379154470818,1.7098545107212169,3.35788749904655,-1.0,-2.026057436485836,1.704086905321131,-1.297488604342693,-2.391962726817572,-0.8822921900758887,0.605810187772413
31,0.2907726549601139,0.29077234998011214,0.00041968121788544724,4.140821758501568,2.1977286895205195,1.7098297554446698,3.363225335752668,-1.0,-2.0424460002468727,1.7007597924252063,-1.2908987179596079,-2.4074197900834493,-0.8890145863767032,0.6251065448472317
32,0.2804823603491962,0.2804820942843534,0.0003850882371872604,4.140833236195326,2.18743844729687,1.7098090128228831,3.3684025892105183,-1.0,-2.0582335447559306,1.69747209467764,-1.2841487544405688,-2.422408510295406,-0.8956590517462661,0.6434963834426977
33,0.2705408488971656,0.27054061648588473,0.0003535559311328287,4.140845185451039,2.1774969816558274,1.7097914089417994,3.3734289991630697,-1.0,-2.0734405961073707,1.6942284921661774,-1.2772786658435618,-2.4369318865044405,-0.9022120105663726,0.6610252113452249
34,0.2609377707629675,0.2609375675906095,0.00032471805306311867,4.140857311586696,2.167893943837178,1.7097763199500982,3.3783129756756347,-1.0,-2.0880866255236405,1.691032866585177,-1.2703242373872725,-2.4509941093331906,-0.9086617051369841,0.6777359588463195
35,0.2516635644375296,0.2516633867488393,0.0002982853165295876,4.140869420836209,2.158619773151717,1.7097632923042076,3.383061743655791,-1.0,-2.1021902765580944,1.6878884556219966,-1.2633174309248016,-2.4646005233906187,-0.914998072708497,0.693669225684331
36,0.24270921943124327,0.24270906399824338,0.00027402282527177666,4.140881384541986,2.1496654597547344,1.7097519888774853,3.387681492833651,-1.0,-2.1157695341470877,1.6847979634880854,-1.2562866957221348,-2.477757556664872,-0.9212126228939563,0.708863484379127
37,0.2340660978590184,0.2340659618855134,0.00025173463450688837,4.140893115996563,2.1410223662834307,1.709742152625343,3.39217752461099,-1.0,-2.128841847388305,1.6817636413224766,-1.2492572537525213,-2.4904726277447926,-0.9272983162834211,0.7233552477499317
38,0.22572580376028628,0.2257256848108768,0.00023125314947135893,4.140904555661366,2.1326820972100355,1.7097335821315136,3.39655439030902,-1.0,-2.141424215821317,1.6787873470189334,-1.2422513643623518,-2.502754039347815,-0.9332494450423421,0.7371792075662076
39,0.21768009073384215,0.2176799866796131,0.00021243182089390004,4.140915661860425,2.1246364064984347,1.7097261151707575,3.4008160175899445,-1.0,-2.153533247277998,1.6758705910798561,-1.235288571501019,-2.5146108647341205,-0.9390615162753707,0.7503683503337382
40,0.2099207999504059,0.2099207089261528,0.00019514009666415872,4.140926404998129,2.1168771356316087,1.7097196176632512,3.4049658234228484,-1.0,-2.1651851939525466,1.6730145730260615,-1.2283859355615032,-2.526052832051881,-0.9447311389245444,0.7629540552635753
41,0.20243982188429144,0.2024397422538923,0.00017925993511226903,4.140936764005064,2.109396175353842,1.7097139762428333,3.4090068130781472,-1.0,-2.1763959721468003,1.6702202114380205,-1.2215582511144223,-2.537090210408946,-0.9502559149265668,0.7749661785708428
42,0.1952290762155624,0.19522900654324415,0.00016468339331366646,4.1409467241624744,2.1021854455805817,1.7097090932383634,3.4129416653916036,-1.0,-2.187181170132432,1.6674881696902477,-1.2148182513316705,-2.547733700447904,-0.9556343352759697,0.7864331274370513
43,0.1882805053194807,0.18828044434547198,0.00015131095187880027,4.1409562757575875,2.0952368888936843,1.7097048832597934,3.4167728050322355,-1.0,-2.1975560477080096,1.6648188787378075,-1.20817679960671,-2.5579943313742284,-0.9608656815360037,0.7973819262590639
44,0.18158607759761827,0.18158602421717693,0.00013905035166683673,4.140965413223432,2.088542473877001,1.7097012708466948,3.420502462808378,-1.0,-2.20753553029483,1.6622125578310418,-1.2016430687264565,-2.567883365720515,-0.9659499332171295,0.8078382772037537
45,0.17513779762764617,0.17513775087275274,0.0001278157679838029,4.140974134549876,2.0820942052696827,1.7096981888171765,3.424132725205822,-1.0,-2.2171341997949567,1.659669233706811,-1.1952247078890623,-2.5774122125989507,-0.9708876813141128,0.8178266165857865
46,0.16892772072722592,0.16892767975047704,0.00011752719563141707,4.140982440838774,2.0758841385329037,1.709695577076737,3.427665574411429,-1.0,-2.2263662839148006,1.657188758585689,-1.1889279978591583,-2.586592349778234,-0.9756800481656971,0.827370168178509
47,0.16294797005169287,0.16294793411204034,0.0001081100348921919,4.140990335931257,2.0699043969498483,1.7096933817284499,3.431102920065557,-1.0,-2.235245645226199,1.6547708271618349,-1.1827579945828663,-2.5954352546022,-0.9803286136823216,0.8364909942439078
48,0.15719075478473193,0.1571907232348161,9.949471969040404e-05,4.140997826069222,2.0641471898182977,1.7096915543807363,3.4344466239299645,-1.0,-2.243785770883582,1.6524149926823017,-1.1767186616319896,-2.6039523435294263,-0.984835347881918,0.8452100448155347
49,0.15164838834534816,0.15164836062023523,9.161644477748933e-05,4.141004919573543,2.0586048306592053,1.7096900515855513,3.4376985185720317,-1.0,-2.251999763630378,1.650120682158685,-1.1708129918984667,-2.612154919902052,-0.9892025495840465,0.8535472055767063
50,0.14631330583222688,0.14631328143939223,8.441489800628113e-05,4.141011626533203,2.053269754662421,1.7096888343640073,3.4408604210639044,-1.0,-2.2599003345009114,1.647887210724463,-1.165043119008895,-2.6200541294355615,-0.9934327910395585,0.8615213445345029
51,0.14117808016665395,0.1411780586770828,7.783406418164633e-05,4.141017958505486,2.0481345348307887,1.709687867792351,3.4439341425858414,-1.0,-2.2674997974469777,1.6457137951377525,-1.159410418970127,-2.627660922848511,-0.9975288682163788,0.8691503575884524
52,0.13623543658579784,0.1362354176260897,7.182196462486191e-05,4.141023928230206,2.0431918964744478,1.709687120631496,3.4469214947132953,-1.0,-2.2748100659829973,1.6435995664256342,-1.1539156025883168,-2.6349860250128145,-1.001493756420879,0.8764512130228609
53,0.1314782652869095,0.13147824853229123,6.633046997880838e-05,4.141029549361458,2.0384347298559327,1.7096865649898854,3.4498242930614653,-1.0,-2.281842651843017,1.641543581668654,-1.1485587992245392,-2.6420399099932954,-1.00533057090707,0.8834399949063793
54,0.12689963213673464,0.12689961730488816,6.131510065332899e-05,4.141034836220231,2.0338561009003806,1.7096861760135704,3.4526443588622224,-1.0,-2.288608665570432,1.639544834929752,-1.1433396324604437,-2.6488327813531214,-1.0090425321106353,0.890131945355569
55,0.12249278744533215,0.1224927742909524,5.673477749318099e-05,4.141039803570202,2.029449259970054,1.7096859315998714,3.4553835189579996,-1.0,-2.2951188189116034,1.6376022673389155,-1.1382572882482302,-2.6553745571240026,-1.012632935139715,0.8965415056060919
56,0.11825117286490118,0.11825116117491442,5.25516613424865e-05,4.141044466418156,2.0252076487638044,1.709685812132456,3.4580436046163388,-1.0,-2.3013834288527937,1.63571477635207,-1.1333105761117392,-2.661674858872171,-1.016105123157417,0.9026823558317641
57,0.11416842651685667,0.11416841610622232,4.8730948295133515e-05,4.141048839839423,2.0211249054447142,1.7096858002364597,3.4606264494974037,-1.0,-2.3074124231219972,1.6338812242094016,-1.12849798395105,-2.667743004329665,-1.0194624643005306,0.9085674536550312
58,0.11023838647812763,0.11023837718616487,4.524063706538168e-05,4.141052938828015,2.017194868126908,1.7096858805526758,3.463133887044681,-1.0,-2.3132153469699634,1.6321004456240469,-1.1238177269830476,-2.6735880031025507,-1.0227083317932224,0.9142090713000407
59,0.10645509277389073,0.10645508446106824,4.205137787128186e-05,4.141056778170322,2.01341157686875,1.7096860395299982,3.46556774751569,-1.0,-2.3188013710452635,1.6303712547367117,-1.1192677913263123,-2.679218555011263,-1.0258460869322776,0.9196188313496589
60,0.10281278803138941,0.10281278057652311,3.913627654550209e-05,4.1410603723409505,2.009769274327076,1.7096862652353344,3.4679298548241917,-1.0,-2.3241793001843956,1.628692451375221,-1.1148459727115836,-2.684643050661722,-1.0288790646404902,0.9248077410791372
61,0.09930591695037769,0.09930591024819278,3.647068867590231e-05,4.141063735418811,2.0062624052280165,1.7096865471801777,3.470222023327206,-1.0,-2.3293575829479165,1.6270628266603535,-1.1105499107700327,-2.6898695738881093,-1.0318105613061943,0.9297862253507793
62,0.09592912474193627,0.09592911870094765,3.403210565497727e-05,4.141066881021472,2.0028856148061527,1.7096868761629678,3.4724460546583997,-1.0,-2.3343443217460327,1.6254811680006531,-1.1063771193215355,-2.6949059057483757,-1.034643824648855,0.9345641580652163
63,0.09267725468026045,0.09267724922092813,3.179994383663616e-05,4.14106982225571,1.999633746356607,1.7096872441263125,3.4746037346832237,-1.0,-2.3391472834109193,1.6239462635193582,-1.1023250130547955,-2.6997595297912156,-1.0373820453725295,0.939150892175346
64,0.08954534490277107,0.08954533995590483,2.9755436256487883e-05,4.1410725716822,1.996501838035434,1.7096876440281181,3.4766968306298383,-1.0,-2.343773910087457,1.622456905956313,-1.098390930961141,-2.7044376383480637,-1.040028350390388,0.9435552882783804
65,0.08652862458335679,0.0865286200887289,2.788146232619166e-05,4.14107514129239,1.9934851190331062,1.7096880697256345,3.4787270884326142,-1.0,-2.3482313303285065,1.6210118960868498,-1.094572156854554,-2.7089471396355247,-1.0425857974240318,0.9477857418096501
66,0.0836225095923316,0.08362250549747771,2.6162433427036257e-05,4.141077542495704,1.9905790052346963,1.70968851587143,3.480696230311274,-1.0,-2.352526370294841,1.6196100456982736,-1.0908659372823264,-2.7132946654825174,-1.045057370800823,0.9518502088687724
67,0.08082259774542407,0.08082259400460742,2.4584116198956263e-05,4.1410797861153865,1.9877790944690683,1.7096889778203175,3.482605952597923,-1.0,-2.3566655649731425,1.6182501801628828,-1.0872694971039454,-2.7174865795223746,-1.0474459782907022,0.9557562307145545
68,0.07812466373296996,0.0781246603062792,2.3133638829116996e-05,4.141081882391476,1.9850811614382422,1.709689451546281,3.4844579238158264,-1.0,-2.3606551693378677,1.6169311406444982,-1.0837800529905142,-2.7215289857133222,-1.0497544488409243,0.9595109569696202
69,0.07552465380985128,0.07552465066242764,2.179923257371862e-05,4.141083840989524,1.982481152407501,1.7096899335684979,3.4862537830074243,-1.0,-2.3645011693941926,1.61565178597334,-1.080394825073356,-2.7254277370713194,-1.0519855310827817,0.963121167579305
70,0.07301868031671738,0.07301867741808102,2.0570220521904666e-05,4.141085671013901,1.9799751797267484,1.7096904208855843,3.4879951383043415,-1.0,-2.368209293049586,1.6144109942218832,-1.077111046948433,-2.729188444517395,-1.0541418924986694,0.9665932935719826
71,0.07060301609369991,0.0706030134171697,1.943697550301356e-05,4.1410873810246205,1.9775595162443538,1.7096909109172682,3.4896835657287313,-1.0,-2.3717850207708775,1.6132076640120483,-1.0739259742228577,-2.7328164857575374,-1.0562261191508717,0.9699334366697578
72,0.06827408883933479,0.06827408636152783,1.839070140430023e-05,4.141088979056825,1.9752305896661886,1.7096914014527256,3.491320608212957,-1.0,-2.3752335959919595,1.6120407155818417,-1.0708368917710502,-2.736317014127104,-1.0582407158852076,0.9731473877995007
73,0.06602847545965282,0.06602847316004981,1.7423427652086827e-05,4.141090472642165,1.972984976904816,1.7096918906048872,3.4929077748231214,-1.0,-2.3785600352445844,1.6109090916373556,-1.0678411198509437,-2.7396949673438145,-1.0601881069332884,0.9762406445546179
74,0.0638628964454355,0.06386289430600561,1.6527974102379192e-05,4.141091868831456,1.9708193984568374,1.7096923767700851,3.4944465401711104,-1.0,-2.3817691379911152,1.6098117580138958,-1.0649360192149808,-2.7429550761238515,-1.0620706368466417,0.9792184276578458
75,0.06177421030942519,0.06177420831430189,1.5697819907145747e-05,4.141093174218069,1.9687307128401828,1.7096928585924536,3.495938343999504,-1.0,-2.3848654961436573,1.6087477041679714,-1.0621189953364163,-2.746101872624616,-1.0638905717044675,0.9820856964748051
76,0.059759408109748495,0.059759406244950186,1.4927051820942334e-05,4.141094394961651,1.966715911117606,1.7096933349325547,3.497384590923782,-1.0,-2.387853503258789,1.6077159435199477,-1.059387501858528,-2.7491396986854224,-1.0656501005443526,0.9848471636271472
77,0.05781560808098634,0.057815606334172584,1.421033359816579e-05,4.14109553681182,1.964772111527816,1.709693804839762,3.4987866503166005,-1.0,-2.390737363401227,1.6067155136653348,-1.056739043362673,-2.752072713844023,-1.067351336971998,0.9875073087529423
78,0.05594005039003112,0.055940048750291405,1.3542884916047201e-05,4.141096605131546,1.9628965542413896,1.709694267527965,3.5001458563195,-1.0,-2.3935210996732303,1.6057454764709878,-1.0541711775405955,-2.754904903112472,-1.0689963209119666,0.9900703914605444
79,0.0541300920302072,0.0541300904878816,1.2920312157706962e-05,4.141097604920036,1.9610865962549453,1.7096947223542178,3.5014635079681224,-1.0,-2.396208562409495,1.6048049180709096,-1.0516815168469142,-2.757640084500583,-1.0705870204667114,0.9925404635205877
80,0.05238320186391669,0.052383200410436044,1.2338701353916858e-05,4.141098540834923,1.9593397064338283,1.7096951687999864,3.502740869417814,-1.0,-2.3988034370397213,1.6038929487748894,-1.0492677296992137,-2.760281916279243,-1.0721253338557766,0.9949213803390772
81,0.05069695582130308,0.05069695444905375,1.1794492647364068e-05,4.141099417213666,1.9576534607108167,1.7096956064546898,3.5039791702573773,-1.0,-2.4013092516230583,1.6030087029018512,-1.0469275412855168,-2.762833903979177,-1.0736130914111308,0.9972168117527491
82,0.049069032260102965,0.04906903096230514,1.128445958884066e-05,4.141100238094057,1.9560255374460034,1.709696035001265,3.505179605899621,-1.0,-2.403729384060266,1.602151338548565,-1.0446587340320899,-2.765299407123532,-1.075052057608162,0.9994302521860496
83,0.04749720748981148,0.0474972062604192,1.0805797708889096e-05,4.141101007233788,1.9544537129509978,1.709696454203511,3.5063433380382483,-1.0,-2.4060670689907524,1.601320037303231,-1.0424591477784164,-2.767681645694955,-1.076443933114981,1.0015650302072323
84,0.0459793514616505,0.045979350295260804,1.0355738840411659e-05,4.141101728129052,1.952935857178917,1.7096968638950027,3.507471495161513,-1.0,-2.408325404382664,1.600514003912423,-1.0403266797007165,-2.76998370633968,-1.0777903568454072,1.0036243175192212
85,0.04451342362437076,0.044513422516145686,9.932112990317563e-06,4.14110240403214,1.9514699295802131,1.709697263969383,3.508565173113911,-1.0,-2.4105073578250185,1.599732465908946,-1.0382592840205265,-2.772208548312677,-1.0790929080033813,1.005611137419065
86,0.043097468944761,0.043097467890359106,9.532644464000918e-06,4.141103037968069,1.9500539751232029,1.7096976543718696,3.5096254356980014,-1.0,-2.4126157725314354,1.5989746732073022,-1.0362549715305156,-2.774359009169099,-1.0803531081086164,1.007528372758004
87,0.041729614090788424,0.04172961308630741,9.155402463604479e-06,4.141103632750224,1.9486861204772294,1.7096980350918232,3.510653315309199,-1.0,-2.4146533730654323,1.5982398976727072,-1.0343118089658565,-2.7764378102082152,-1.0815724229950796,1.0093787734324304
88,0.040408063774490265,0.04040806281641354,8.79875400006506e-06,4.14110419099506,1.947364570355567,1.7096984061562555,3.5116498135971326,-1.0,-2.4166227707975203,1.5975274326688966,-1.0324279182460412,-2.7784475616767406,-1.0827522647754533,1.0111649634343252
89,0.03913109725110933,0.039131096336262314,8.461052007540577e-06,4.141104715135883,1.9460876040145747,1.7096987676241555,3.5126159021477985,-1.0,-2.418526469104467,1.5968365925893444,-1.0306014756089832,-2.780390767738998,-1.0838939937660517,1.0128894474881156
90,0.03789706497050298,0.037897064096011984,8.140863174893687e-06,4.14110520743574,1.9448535719051148,1.7096991195815385,3.513552523181402,-1.0,-2.4203668683211155,1.5961667123759535,-1.0288307106565464,-2.7822698312217415,-1.084998920367823,1.0145546172993394
91,0.03670438537643496,0.03670438453969536,7.836934204303236e-06,4.141105669999476,1.9436608924718612,1.709699462137126,3.5144605902613115,-1.0,-2.4221462704551198,1.5955171470287757,-1.027113905328242,-2.784087058141709,-1.0860683069000547,1.0161627574389878
92,0.035551541849125796,0.03555154104776944,7.548052259381537e-06,4.141106104784968,1.9425080490958553,1.7096997954185833,3.515340989010117,-1.0,-2.423866883674801,1.594887271109871,-1.0254493928177135,-2.7858446620241057,-1.0871033693842371,1.0177160508859784
93,0.034437079786201856,0.03443707901807338,7.273232202918635e-06,4.141106513613612,1.9413935871754686,1.7097001195692398,3.516194577829235,-1.0,-2.4255308265801827,1.5942764782440118,-1.0238355564447457,-2.7875447680202843,-1.0881052792762689,1.0192165842488399
94,0.03335960381709184,0.033359603080221366,7.011372423639595e-06,4.141106898180075,1.9403161113408014,1.7097004347452396,3.5170221886189603,-1.0,-2.427140132267013,1.5936841806185804,-1.0222708284938786,-2.7891894168328513,-1.0890751651457926,1.0206663526864046
95,0.03231777514582158,0.032317774438408824,6.761679999960638e-06,4.1411072600613785,1.9392742827964928,1.7097007411130623,3.5178246274962492,-1.0,-2.428696752193343,1.5931098084846835,-1.0207536890292295,-2.7907805684563454,-1.0900141143019704,1.0220672645460764
96,0.031310309017176595,0.03131030833757125,6.5233737011475365e-06,4.14110760072533,1.938266816787884,1.7097010388473728,3.5186026755078874,-1.0,-2.430202559857928,1.5925528096612318,-1.019282664693833,-2.7923201057415077,-1.09092317436544,1.0234211457370903
97,0.03033597230118991,0.0303359716478744,6.295630387756972e-06,4.141107921538364,1.9372924801855118,1.7097013281291626,3.519357089337016,-1.0,-2.4316593542994225,1.5920126490434676,-1.0178563275006671,-2.793809837790984,-1.0918033547865609,1.024729743855087
98,0.02939358119098783,0.02939358056256543,6.077883903388701e-06,4.141108223772821,1.936350089182963,1.709701609144133,3.520088602001278,-1.0,-2.4330688634250253,1.5914888081172136,-1.0164732936215153,-2.795251503194112,-1.0926556283103606,1.0259947320732978
99,0.028481999009110446,0.028481998404291844,5.869431016224444e-06,4.141108508613698,1.9354385071031965,1.7097018820813101,3.520797923541115,-1.0,-2.434432747176888,1.5909807844799024,-1.0151322221789374,-2.796646773108204,-1.0934809323888375,1.0272177128146707
100,0.027600134117521203,0.02760013353511422,5.669847776785749e-06,4.1411087771649155,1.9345566423085585,1.7097021471318403,3.521485741696973,-1.0,-2.4357526005442898,1.590488091369283,-1.0138318140458311,-2.7979972541935227,-1.0942801705414842,1.0284002212183576
101,0.02674693792663924,0.026746937365539552,5.47848238545964e-06,4.14110903045513,1.9337034462098182,1.7097024044879665,3.522152722574381,-1.0,-2.4370299564292304,1.5900102572005363,-1.012570810656384,-2.7993044914088703,-1.0950542136650614,1.029543728413132
102,0.025921402998874063,0.02592140245805656,5.29492587259913e-06,4.141109269443114,1.9328779113697052,1.7097026543421434,3.522799511296067,-1.0,-2.438266288372774,1.5895468251124025,-1.011347992831608,-2.800569970674471,-1.095803901293772,1.0306496446094988
103,0.02512256124227409,0.025122560720783567,5.118716966312057e-06,4.141109495022759,1.9320790696965597,1.7097028968862844,3.523426732640415,-1.0,-2.439463013149149,1.5890973525227987,-1.0101621796221283,-2.8017951214085626,-1.0965300428111004,1.0317193220215206
104,0.024349482190047914,0.024349481686995664,4.949474020843934e-06,4.14110970802769,1.931305990723861,1.7097031323111243,3.5240349916657383,-1.0,-2.440621493234281,1.5886614106942996,-1.0090122271704232,-2.8029813189438406,-1.097233418614647,1.0327540576286653
105,0.023601271361894993,0.023601270876449695,4.786822637269678e-06,4.141109909235564,1.930557779971554,1.7097033608056766,3.5246248743199513,-1.0,-2.4417430391551385,1.5882385843097675,-1.0078970275943187,-2.8041298868296485,-1.0979147812353485,1.033755095787335
106,0.022877068703205855,0.022877068234590462,4.630402471880747e-06,4.141110099372037,1.9298335773852575,1.7097035825567768,3.525196948035351,-1.0,-2.442828911725946,1.5878284710583308,-1.0068155078931798,-2.8052420990255444,-1.0985748564125095,1.0347236307011105
107,0.022176047098378518,0.02217604664586465,4.479874950439755e-06,4.141110279114449,1.9291325558495784,1.7097037977487064,3.5257517623083077,-1.0,-2.4438803241770484,1.5874306812318422,-1.005766628877937,-2.8063191819916145,-1.0992143441260966,1.0356608087581753
108,0.02149741095463495,0.021497410517539166,4.334983160756761e-06,4.141110449095233,1.9284539197719321,1.7097040065628737,3.5262898492637547,-1.0,-2.4448984441819057,1.5870448373318928,-1.0047493841258182,-2.8073623166806723,-1.0998339195877493,1.0365677307438388
109,0.02084039485289461,0.02084039443057305,4.195517132708762e-06,4.1411106099050805,1.927796903733415,1.7097042091775605,3.526811724204439,-1.0,-2.4458843957874343,1.5866705736873947,-1.0037627989604214,-2.8083726404372187,-1.1004342341919688,1.037445453935577
110,0.02020426226238966,0.020204261854237397,4.061051709375841e-06,4.141110762095861,1.9271607712034255,1.7097044057677109,3.5273178861449677,-1.0,-2.4468392612526437,1.5863075360827124,-1.002805929457568,-2.8093512488078263,-1.1010159164289275,1.0382949940875363
111,0.01958830431589578,0.019588303921341067,3.931591678604359e-06,4.141110906183351,1.9265448133148906,1.7097045965047701,3.5278088183307306,-1.0,-2.4477640828002665,1.5859553813962748,-1.0018778614771968,-2.8102991972673705,-1.1015795727603317,1.0391173273110055
112,0.018991838642546378,0.0189918382610487,3.806597802265849e-06,4.141111042649736,1.9259483476970845,1.7097047815565527,3.528284988741832,-1.0,-2.448659864285839,1.5856137772495722,-1.000977709721417,-2.811217502865318,-1.1021257884597422,1.0399133918569503
113,0.01841420825538713,0.018414207886436516,3.6861629852460066e-06,4.141111171945954,1.9253707173631853,1.7097049610871506,3.5287468505822117,-1.0,-2.4495275727884516,1.5852824016664107,-1.0001046168187018,-2.8121071457960714,-1.102655128418732,1.0406840898063179
114,0.01785478049094001,0.017854780134052384,3.569940075728251e-06,4.141111294493851,1.924811289649836,1.7097051352568662,3.5291948427541535,-1.0,-2.4503681401271806,1.584960942742278,-0.9992577524341071,-2.812969070897175,-1.103168137920227,1.0414302886734608
115,0.017312945998176118,0.017312945652892646,3.4576474109407753e-06,4.141111410688194,1.924269455206121,1.7097053042221675,3.5296293903184335,-1.0,-2.451182464306988,1.5846490983236508,-0.9984363124052944,-2.8138041890789824,-1.10366534338034,1.0421528229276935
116,0.0167881177744391,0.016788117440323644,3.349282526276795e-06,4.141111520898523,1.9237446270294893,1.7097054681356667,3.530050904940352,-1.0,-2.451971410897691,1.5843465756970614,-0.9976395179040722,-2.814613378689213,-1.1041472530599774,1.0428524954376828
117,0.01627973024597056,0.016279729922609416,3.2446914950307174e-06,4.14111162547088,1.9232362395462819,1.7097056271461186,3.530459785321947,-1.0,-2.4527358143493974,1.5840530912877233,-0.9968666146230942,-2.8153974868156437,-1.1046143577474479,1.0435300788430735
118,0.015787238390808984,0.015787238077807984,3.1436859378779287e-06,4.141111724729412,1.9227437477346285,1.7097057813984278,3.5308564176206714,-1.0,-2.4534764792476413,1.5837683703675145,-0.9961168719873063,-2.8161573305300216,-1.105067131413276,1.0441863168574872
119,0.015310116901950858,0.015310116598933679,3.0460393729242127e-06,4.1411118189778575,1.922266626287611,1.7097059310336729,3.5312411758548556,-1.0,-2.4541941815112587,1.5834921467720953,-0.9953895823896856,-2.8168936980761092,-1.1055060318383727,1.044821925506766
120,0.01484785938876045,0.01484785909536936,2.9516338050044172e-06,4.1411119085009185,1.9218043688146749,1.7097060761891454,3.531614422296263,-1.0,-2.454889669535904,1.5832241626269454,-0.9946840604507827,-2.8176073500046406,-1.10593150121668,1.0454375943061012
121,0.014399977614729819,0.014399977330622706,2.8604020001187127e-06,4.141111993565549,1.921356487079387,1.7097062169983888,3.5319765078500716,-1.0,-2.455563665285936,1.5829641680820947,-0.9939996423015462,-2.818299020257812,-1.1063439667333637,1.0460339873794562
122,0.013966000769775758,0.013966000494625354,2.7721767217225268e-06,4.141112074422144,1.9209225102717347,1.7097063535912533,3.532327772422604,-1.0,-2.4562168653372636,1.582711921055316,-0.99333568488889,-2.818969417205791,-1.10674384111959,1.046611744524493
123,0.013545474775356819,0.013545474508850675,2.6869235725150075e-06,4.141112151305641,1.920501984313243,1.7097064860939544,3.532668545277145,-1.0,-2.4568499418736103,1.5824671869835538,-0.9926915653034462,-2.8196192246376106,-1.1071315231848797,1.0471714822260056
124,0.013137961620792251,0.013137961362631992,2.6045081455936244e-06,4.141112224436546,1.9200944711932941,1.7097066146291329,3.5329991453781675,-1.0,-2.457463543638505,1.5822297385823603,-0.9920666801289352,-2.8202491027086753,-1.1075073983279962,1.0477137946206925
125,0.012743038729234785,0.012743038479133278,2.5246806588123843e-06,4.141112294021899,1.9196995483350983,1.709706739315927,3.5333198817243163,-1.0,-2.4580582968452047,1.5819993556131053,-0.9914604448125767,-2.8208596888470043,-1.107871839027283,1.0482392544159163
126,0.012360298351833401,0.01236029810951646,2.4475128910121157e-06,4.141112360256147,1.9193168079898606,1.7097068602700407,3.533631053670459,-1.0,-2.4586348060466277,1.5817758246577394,-0.9908722930559635,-2.8214515986202144,-1.108225205311333,1.0487484137649525
127,0.011989346988704783,0.011989346753909069,2.3727964519700665e-06,4.1411124233219745,1.9189458566577495,1.7097069776038178,3.533932951239142,-1.0,-2.4591936549672626,1.5815589389008815,-0.9903016762258177,-2.8220254265651503,-1.1085678452108316,1.0492418051010701
128,0.01162980483539699,0.011629804607869505,2.300480626692068e-06,4.141112483391074,1.918586314534362,1.7097070914263184,3.5342258554217794,-1.0,-2.4597354072989175,1.5813484979190113,-0.9897480627840504,-2.8225817469819594,-1.1089000951923784,1.0497199419326484
129,0.011281305253597263,0.011281305033095835,2.2304007103528423e-06,4.141112540624862,1.9182378149814325,1.7097072018433934,3.5345100384698718,-1.0,-2.460260607462077,1.5811443074765472,-0.989210937736554,-2.823121114694325,-1.1092222805750669,1.0501833196014092
130,0.010943494264910784,0.010943494051202122,2.162774062946135e-06,4.141112595175139,1.9179000040206096,1.709707308957766,3.534785764176592,-1.0,-2.460769781334534,1.5809461793285962,-0.988689802100158,-2.823644065777477,-1.1095347159305575,1.0506324160057134
131,0.01061603006657772,0.010616029859438561,2.097202788086224e-06,4.141112647184708,1.9175725398491759,1.709707412869107,3.5350532881490238,-1.0,-2.461263436948883,1.580753931030166,-0.9881841723871881,-2.8241511182555117,-1.1098377054673545,1.0510676922907614
132,0.010298582568086332,0.01029858236730026,2.0335581432860996e-06,4.14111269678796,1.9172550923766574,1.7097075136741138,3.535312858071364,-1.0,-2.4617420651603705,1.5805673857516345,-0.987693580107081,-2.824642772769483,-1.110131543399962,1.051489593507425
133,0.00999083294765154,0.009990832753011672,1.9720266759499625e-06,4.1411127441114015,1.9169473427813077,1.7097076114665897,3.5355647139593778,-1.0,-2.462206140286524,1.5803863721002727,-0.98721757128451,-2.825119513217638,-1.11041651430357,1.0518985492413457
134,0.00969247322763258,0.00969247303893901,1.9125801477418092e-06,4.14111278927416,1.916648983085521,1.7097077063375188,3.535809088406392,-1.0,-2.4626561207199056,1.5802107239476293,-0.9867557059934979,-2.8255818073691144,-1.110692893454886,1.052294974213826
135,0.009403205867961822,0.009403205685022259,1.85470078975008e-06,4.141112832388447,1.9163597157492631,1.7097077983751474,3.536046206821109,-1.0,-2.4630924495152655,1.5800402802625826,-0.9863075579069936,-2.826030107452331,-1.1109609471597053,1.052679268855969
136,0.00912274337674415,0.009122743199374134,1.7989102457260837e-06,4.141112873560003,1.916079253280672,1.7097078876650547,3.5362762876575067,-1.0,-2.4635155549523002,1.5798748849498767,-0.9858727138614108,-2.8264648507192582,-1.1112209330677842,1.053051819857424
137,0.008850807937206955,0.008850807765227516,1.7446453634802407e-06,4.141112912888491,1.9158073178630044,1.709707974290231,3.5364995426370913,-1.0,-2.4639258510751665,1.5797143866939583,-0.9854507734356349,-2.8268864599866803,-1.1114731004755594,1.0534130006910272
138,0.008587131050222649,0.008587130883461764,1.6921841581559282e-06,4.141112950467885,1.915543640997162,1.7097080583311501,3.5367161769637647,-1.0,-2.4643237382098326,1.5795586388079401,-0.9850413485440171,-2.8272953441555098,-1.1117176906172224,1.0537631721145482
139,0.008331453191690687,0.008331453029982719,1.6415642921831558e-06,4.1411129863868155,1.9152879631590722,1.709708139865843,3.536926389531542,-1.0,-2.4647096034602995,1.5794074990875209,-0.9846440630428908,-2.8276918987091606,-1.111954936944649,1.0541026826506894
140,0.008083523484067377,0.008083523327251823,1.5921247469418635e-06,4.141113020728907,1.915040033471217,1.7097082189699668,3.537130373125377,-1.0,-2.4650838211846673,1.5792608296696933,-0.984258552350154,-2.828076506191936,-1.1121850653966499,1.0544318690464158
141,0.007843099381392243,0.007843099229314905,1.5444102907275516e-06,4.1411130535730845,1.9147996093876616,1.709708295716876,3.5373283146153187,-1.0,-2.4654467534519737,1.5791184968960843,-0.9838844630774808,-2.828449536668337,-1.1124082946579907,1.054751056712639
142,0.00760994636719241,0.007609946219703999,1.498141137070415e-06,4.141113084993853,1.9145664563919567,1.709708370177691,3.537520395144225,-1.0,-2.4657987504806846,1.5789803711807675,-0.9835214526747306,-2.8288113481641486,-1.1126248364086164,1.055060560145215
143,0.00738383766465886,0.007383837521615339,1.4536080835173454e-06,4.1411131150615805,1.9143403477073162,1.7097084424213607,3.5377067903092665,-1.0,-2.4661401510596717,1.5788463268824007,-0.9831691890861435,-2.8291622870901287,-1.112834895563481,1.055360683328167
144,0.007164553958542959,0.007164553819805335,1.4100309899073353e-06,4.141113143842739,1.9141210640185136,1.709708512514732,3.5378876703374127,-1.0,-2.4664712829524675,1.578716242180539,-0.9828273504179199,-2.829502688649068,-1.1130386705033823,1.0556517201199973
145,0.006951883128236126,0.006951882993670704,1.3679882785712953e-06,4.141113171400142,1.9139083932049616,1.7097085805226107,3.538063200255128,-1.0,-2.466792463285551,1.5785899989559864,-0.9824956246167954,-2.829832877226967,-1.113236353297168,1.0559339546238946
146,0.006745619991523308,0.006745619860999849,1.3271238850482674e-06,4.141113197793172,1.9137021300844643,1.709708646507823,3.5382335400524587,-1.0,-2.4671039989213814,1.5784674826750473,-0.9821737091592349,-2.8301531667690236,-1.1134281299156763,1.0562076615426133
147,0.006545566058527934,0.006545565931920755,1.2873775402579704e-06,4.141113223077971,1.9135020761671644,1.7097087105312767,3.5383988448417103,-1.0,-2.4674061868168518,1.5783485822775445,-0.9818613107508829,-2.830463861141102,-1.113614180437747,1.0564731065187476
148,0.006351529295394894,0.006351529172582869,1.2492115447006256e-06,4.141113247307647,1.9133080394192254,1.7097087726520177,3.5385592650109063,-1.0,-2.4676993143678136,1.57823319006848,-0.9815581450359174,-2.8307652544773205,-1.1137946792486306,1.05673054646109
149,0.006163323897275846,0.006163323778141558,1.2118593222706739e-06,4.141113270532448,1.9131198340358164,1.7097088329272898,3.538714946372199,-1.0,-2.467983659740283,1.5781212016132116,-0.9812639363159681,-2.8310576315143523,-1.1139697952311058,1.056980229857728
150,0.005980770070195925,0.00598076995462589,1.1757762160646914e-06,4.141113292799932,1.9129372802229794,1.709708891412587,3.5388660303054085,-1.0,-2.468259492188911,1.5780125156360278,-0.9809784172782702,-2.83134126791302,-1.1141396919496025,1.0572223970764931
151,0.0058036938214224894,0.0058036937093076295,1.1406933789852665e-06,4.141113314155121,1.9127602039879985,1.7097089481617087,3.5390126538968603,-1.0,-2.4685270723632717,1.577907033922008,-0.9807013287327371,-2.831616430567726,-1.1143045278276145,1.0574572806533513
152,0.005631926757950316,0.005631926649184402,1.1069065588280014e-06,4.141113334640658,1.9125884369378834,1.7097090032268105,3.53915495007368,-1.0,-2.468786652602495,1.5778046612220509,-0.9804324193576446,-2.8318833779042385,-1.114464456318672,1.0576851055692842
153,0.005465305892755131,0.005465305787235765,1.0741246516073325e-06,4.141113354296937,1.912421816085625,1.7097090566584567,3.5392930477337026,-1.0,-2.4690384772187453,1.5777053051609704,-0.9801714454536321,-2.832142360166331,-1.1146196260711334,1.0579060895161891
154,0.005303673458478256,0.0053036733561055436,1.0418032582372026e-06,4.141113373162239,1.9122601836638782,1.709709108505668,3.539427071871145,-1.0,-2.4692827827700268,1.577608876148552,-0.9799181707057346,-2.832393619691738,-1.1147701810870436,1.0581204431522964
155,0.0051468767282102515,0.005146876628888067,1.0110852392726003e-06,4.141113391272847,1.9121033869457478,1.7097091588159707,3.5395571436981874,-1.0,-2.4695197983227613,1.5775152872934703,-0.9796723659531705,-2.832637391177884,-1.1149162608752967,1.058328370347574
156,0.004994767843084369,0.0049947677467200476,9.812162895891063e-07,4.141113408663171,1.9119512780723806,1.7097092076354405,3.5396833807626082,-1.0,-2.4697497457045774,1.5774244543199714,-0.979433808966619,-2.8328739019378086,-1.1150580005993271,1.0585300684195695
157,0.004847203646379469,0.004847203552883269,9.522763078612722e-07,4.1411134253658455,1.9118037138870683,1.7097092550087498,3.5398058970615986,-1.0,-2.4699728397477227,1.5773362954872259,-0.979202284232731,-2.833103372146694,-1.1151955312195476,1.058725728360114
158,0.00470404552385383,0.0047040454331380675,9.238719940185875e-07,4.1411134414118305,1.9116605557755804,1.7097093009792097,3.539924803151895,-1.0,-2.4701892885234855,1.5772507315112656,-0.9789775827456266,-2.8333260150793844,-1.1153289796307397,1.0589155350532924
159,0.004565159250047839,0.004565159162028698,8.965497587020295e-07,4.141113456830516,1.9115216695124702,1.7097093455888115,3.5400402062563536,-1.0,-2.4703992935680055,1.5771676854894117,-0.9787595018051379,-2.8335420373392672,-1.1154584687945945,1.0590996674850621
160,0.004430414840309816,0.0044304147549054625,8.701563668642576e-07,4.141113471649802,1.9113869251130966,1.7097093888782715,3.540152210367085,-1.0,-2.470603050099827,1.5770870828271164,-0.978547844821572,-2.833751639078868,-1.1155841178675925,1.0592782989448868
161,0.004299686408297388,0.004299686325428466,8.442530318627188e-07,4.14111348589618,1.9112561966911281,1.7097094308870646,3.5402609163452654,-1.0,-2.470800747229533,1.5770088511671354,-0.978342421126767,-2.8339550142124943,-1.1157060423244058,1.0594515972197291
162,0.004172852028731131,0.004172851948321376,8.194283893625679e-07,4.141113499594819,1.9111293623212964,1.7097094716534689,3.540366422017746,-1.0,-2.470992568161785,1.5769329203209503,-0.9781430457912303,-2.834152350621254,-1.1158243540769928,1.0596197247807335
163,0.0040497936051825684,0.004049793527157178,7.949458759039337e-07,4.141113512769636,1.911006303907182,1.7097095112145968,3.5404688222705567,-1.0,-2.47117869039008,1.5768592222023712,-0.9779495394471522,-2.834343830350749,-1.1159391615895522,1.05978283896291
164,0.003930396742684537,0.003930396666972499,7.714139882054988e-07,4.141113525443358,1.9108869070538292,1.709709549606437,3.5405682091394173,-1.0,-2.471359285884512,1.5767876907632397,-0.9777617281170934,-2.83452962980174,-1.1160505699894978,1.059941092138119
165,0.003814550624981503,0.003814550551512015,7.486257962632634e-07,4.141113537637604,1.9107710609449897,1.7097095868638843,3.5406646718973582,-1.0,-2.471534521272826,1.576718261931172,-0.9775794430481581,-2.834709919914059,-1.1161586811745998,1.0600946318816378
166,0.0037021478962012576,0.003702147824907971,7.263456348749523e-07,4.141113549372926,1.9106586582248026,1.7097096230207767,3.540758297139539,-1.0,-2.471704558015029,1.5766508735492624,-0.9774025205514654,-2.8348848663440402,-1.1162635939164445,1.0602436011325818
167,0.003593084546810602,0.0035930844776271846,7.052516678690599e-07,4.141113560668882,1.9105495948837414,1.7097096581099271,3.54084916886537,-1.0,-2.4718695525718175,1.5765854653176943,-0.9772308018467396,-2.83505462963572,-1.1163654039603477,1.0603881383484324
168,0.0034872598036368024,0.003487259736500332,6.841564347296489e-07,4.141113571544078,1.9104437701486432,1.7097096921631543,3.540937368558019,-1.0,-2.472029656567059,1.576521978737187,-0.9770641329118508,-2.8352193653860525,-1.1164642041218575,1.0605283776539218
169,0.003384576023830905,0.0033845759586803195,6.647320992706976e-07,4.141113582016236,1.910341086376667,1.7097097252113154,3.5410229752614004,-1.0,-2.4721850169445703,1.5764603570542197,-0.9769023643371347,-2.8353792244043707,-1.1165600843799721,1.0606644489845019
170,0.0032849385925934737,0.003284938529368975,6.447228089804742e-07,4.1411135921022195,1.9102414489530206,1.7097097572843347,3.5411060656547138,-1.0,-2.47233577611941,1.576400545207978,-0.9767453511843365,-2.835534352866317,-1.1166531319671966,1.0607964782246229
171,0.003188255824515778,0.0031882557631592876,6.254938799683958e-07,4.141113601818097,1.9101447661923028,1.7097097884112304,3.5411867141246365,-1.0,-2.4724820721238987,1.5763424897789609,-0.9765929528500205,-2.835684892462459,-1.116743431456557,1.0609245873410331
172,0.0030944388684023463,0.0030944388088582,6.07119464500656e-07,4.141113611179177,1.910050949243326,1.7097098186201474,3.5412649928352296,-1.0,-2.472624038748576,1.5762861389391958,-0.9764450329332987,-2.835830980541785,-1.1168310648456816,1.0610488945112988
173,0.003003401615432792,0.003003401557647177,5.893027762557707e-07,4.141113620200046,1.909959911997277,1.7097098479383785,3.54134097179564,-1.0,-2.4727618056782803,1.5762314424040114,-0.9763014591077351,-2.8359727502502876,-1.11691611163806,1.0611695142477406
174,0.0029150606105340124,0.0029150605544537565,5.717076686993581e-07,4.141113628894616,1.9098715709990886,1.7097098763923966,3.5414147189256764,-1.0,-2.4728954986235467,1.576178351385312,-0.976162102997284,-2.8361103306648063,-1.1169986489215813,1.0612865575169657
175,0.0028293349668321154,0.0028293349124068647,5.547556420858658e-07,4.141113637276142,1.9097858453618946,1.7097099040078745,3.541486300119318,-1.0,-2.4730252394474994,1.5761268185463104,-0.9760268400561325,-2.836243846922322,-1.1170787514444531,1.0614001318551753
176,0.00274614628307733,0.0027461462302577483,5.385074317333957e-07,4.14111364535728,1.909702656684451,1.7097099308097135,3.5415557793062398,-1.0,-2.473151146288404,1.5760767979576673,-0.9758955494523153,-2.836373420344863,-1.1171564916885937,1.0615103414794116
177,0.00266541856391721,0.002665418512655523,5.226039265617842e-07,4.1411136531500965,1.9096219289714118,1.7097099568220644,3.5416232185114,-1.0,-2.4732733336780526,1.5760282450549932,-0.9757681139549793,-2.8364991685601924,-1.1172319399405914,1.0616172873949046
178,0.0025870781429145227,0.002587078093163636,5.075152625419671e-07,4.141113660666112,1.9095435885563448,1.7097099820683523,3.541688677912774,-1.0,-2.473391912656126,1.5759811165976692,-0.9756444198251766,-2.836621205618433,-1.1173051643603182,1.0617210674986728
179,0.0025110536081980237,0.002511053559913772,4.928659024399934e-07,4.141113667916319,1.909467564027386,1.7097100065712987,3.541752215897281,-1.0,-2.4735069908806997,1.5759353706289416,-0.9755243567100698,-2.836739642104776,-1.1173762310472792,1.0618217766795222
180,0.0024372757306632214,0.0024372756838015107,4.782321016753127e-07,4.1411136749112245,1.909393786155435,1.7097100303529424,3.5418138891149686,-1.0,-2.473618672735018,1.5758909664372542,-0.97540781754044,-2.836854585248423,-1.1174452041047838,1.0619195069145824
181,0.0023656773946047413,0.0023656773491235812,4.640940279483073e-07,4.141113681660856,1.909322187824793,1.7097100534346603,3.541873752531507,-1.0,-2.4737270594306913,1.5758478645187712,-0.9752946984313873,-2.836966139027893,-1.1175121457020112,1.0620143473625152
182,0.0022961935307085454,0.0022961934865665724,4.5000519962732874e-07,4.1411136881747925,1.9092527039661502,1.7097100758371886,3.54193185947906,-1.0,-2.4738322491074354,1.5758060265410585,-0.9751848985861196,-2.8370744042728355,-1.117577116134049,1.0621063844535217
183,0.0022287610513030327,0.0022287610084609413,4.374956564874445e-07,4.1411136944622,1.909185271491841,1.7097100975806416,3.5419882617055696,-1.0,-2.4739343369294877,1.575765415307883,-0.9750783202027307,-2.8371794787624665,-1.1176401738799728,1.0621957019762682
184,0.0021633187877924238,0.002163318746210836,4.246177330248092e-07,4.14111370053183,1.909119829233273,1.7097101186845318,3.542043009422516,-1.0,-2.4740334151788184,1.5757259947250966,-0.9749748683838707,-2.837281457320756,-1.1177013756590384,1.0622823811618514
185,0.0020998074301887258,0.002099807389830904,4.124150426119013e-07,4.141113706392056,1.9090563178804645,1.709710139167786,3.5420961513512,-1.0,-2.4741295733452517,1.5756877297675653,-0.9748744510492122,-2.837380431908481,-1.117760776485052,1.0623665007649112
186,0.002038169468668485,0.002038169429498148,3.99284392803143e-07,4.141113712050885,1.908994679923596,1.7097101590487664,3.5421477347675947,-1.0,-2.4742228982136107,1.575650586447117,-0.9747769788506255,-2.837476491712259,-1.1178184297189815,1.0624481371419994
187,0.001978349137073323,0.0019783490990553407,3.874301910400415e-07,4.141113717515979,1.9089348595965134,1.7097101783452844,3.5421978055458143,-1.0,-2.4743134739479933,1.5756145317814703,-0.9746823650899726,-2.837569723230666,-1.1178743871198702,1.0625273643273052
188,0.0019202923582919069,0.0019202923213915983,3.769728732309816e-07,4.14111372279467,1.9088768028221093,1.7097101970746198,3.5422464082002407,-1.0,-2.4744013821732795,1.5755795337641125,-0.9745905256394374,-2.8376602103575412,-1.1179286988941122,1.062604254105839
189,0.0018639466914469017,0.00186394665563151,3.662170686556273e-07,4.141113727893977,1.908820457159511,1.709710215253537,3.5422935859263553,-1.0,-2.4744867020539716,1.5755455613351028,-0.9745013788643097,-2.8377480344625887,-1.117981413743146,1.0626788760841626
190,0.0018092612808316344,0.0018092612460693174,3.5513565802017e-07,4.141113732820618,1.9087657717530162,1.7097102328982992,3.5423393806403163,-1.0,-2.4745695103704595,1.5755125843527653,-0.9744148455481446,-2.8378332744693537,-1.1180325789096204,1.0627512977587623
191,0.0017561868065237734,0.001756186772782859,3.443425896254599e-07,4.141113737581031,1.9087126972827053,1.7097102500246826,3.542383833017319,-1.0,-2.4746498815928035,1.5754805735662454,-0.9743308488202213,-2.8379160069306812,-1.1180822402220836,1.0628215845821465
192,0.001704675436620282,0.0017046754038706612,3.3453023911481726e-07,4.141113742181383,1.9086611859166798,1.7097102666479962,3.5424269825287813,-1.0,-2.474727887952122,1.5754495005889015,-0.974249314085227,-2.837996306101735,-1.118130442138251,1.0628898000267517
193,0.0016546807810363493,0.0016546807492491184,3.244212427299818e-07,4.1411137466275765,1.9086111912648587,1.7097102827830906,3.5424688674783886,-1.0,-2.474803599509669,1.5754193378725119,-0.9741701689550976,-2.838074244010667,-1.1181772277868924,1.0629560056467384
194,0.0016061578468164676,0.0016061578159629018,3.153981341200592e-07,4.1411137509252764,1.9085626683342893,1.7097102984443742,3.5425095250370404,-1.0,-2.4748770842236754,1.57539005868226,-0.9740933431829424,-2.838149890527017,-1.118222639008392,1.0630202611377482
195,0.0015590629948914168,0.0015590629649442135,3.053829302179706e-07,4.141113755079913,1.9085155734859065,1.7097103136458263,3.5425489912767247,-1.0,-2.4749484080140447,1.5753616370724832,-0.9740187685989906,-2.838223313427918,-1.1182667163940236,1.0630826243947007
196,0.001513353898248169,0.001513353869180467,2.965293637235831e-07,4.141113759096689,1.9084698643927,1.7097103284010104,3.542587301203359,-1.0,-2.475017634824965,1.5753340478631572,-0.9739463790484935,-2.838294578462188,-1.118309499323983,1.0631431515676975
197,0.0014689895014463078,0.0014689894732320028,2.874031889734563e-07,4.141113762980597,1.9084254999992327,1.7097103427230869,3.5426244887886336,-1.0,-2.4750848266855154,1.5753072666170922,-0.9738761103315199,-2.8383637494123746,-1.1183510260042215,1.0632018971160986
198,0.0014259299814487708,0.0014259299540625252,2.7957056521317034e-07,4.141113766736427,1.9083824404824705,1.7097103566248242,3.5426605870008836,-1.0,-2.4751500437683345,1.5752812696178216,-0.9738079001445874,-2.838430888154829,-1.1183913335021196,1.06325891386084
199,0.0013841367097072524,0.0013841366831247653,2.7151207861734413e-07,4.141113770368778,1.9083406472138684,1.7097103701186116,3.5426956278350192,-1.0,-2.475213344446417,1.575256033848159,-0.9737416880240694,-2.8384960547178704,-1.1184304577810398,1.0633142530350521
200,0.0013435722154705569,0.0013435721896678278,2.632069845893345e-07,4.14111377388206,1.9083000827226777,1.7097103832164695,3.542729642341548,-1.0,-2.4752747853481027,1.575231536969404,-0.9736774152913228,-2.8385593073381066,-1.1184684337337956,1.0633679643330396
201,0.0013042001502659587,0.0013042001252209314,2.563692708922222e-07,4.141113777280508,1.9082607106604297,1.7097103959300624,3.54276266065472,-1.0,-2.475334421410321,1.5752077573011751,-0.9736150249994825,-2.838620702514977,-1.118505295215072,1.0634200959576772
202,0.0012659852535234397,0.0012659852292129091,2.4845200777848226e-07,4.141113780568192,1.9082224957665552,1.709710408270708,3.5427947120198144,-1.0,-2.475392305930143,1.5751846738018522,-0.97355446188187,-2.8386802950635723,-1.1185410750728346,1.0634706946662806
203,0.001228893319282349,0.0012288932956848338,2.4119636500237414e-07,4.141113783749014,1.9081854038350974,1.7097104202493887,3.5428258248196007,-1.0,-2.4754484906147094,1.5751622660496094,-0.9734956723019661,-2.8387381381657932,-1.1185758051787573,1.0635198058150037
204,0.0011928911639713735,0.0011928911410664573,2.3371558102008936e-07,4.141113786826729,1.9081494016824878,1.7097104318767604,3.5428560266000013,-1.0,-2.4755030256295796,1.5751405142240185,-0.9734386042048985,-2.8387942834199005,-1.1186095164577032,1.0635674734018108
205,0.0011579465952078147,0.0011579465729742791,2.2794393510786276e-07,4.141113789804945,1.9081144571163449,1.7097104431631633,3.542885344094976,-1.0,-2.475555959645559,1.5751193990882058,-0.9733832070703965,-2.838848780888511,-1.1186422389162893,1.0636137401080767
206,0.0011240283815780175,0.0011240283599966033,2.200130084191774e-07,4.141113792687125,1.9080805389052586,1.709710454118632,3.542913803250654,-1.0,-2.4756073398840543,1.575098901971547,-0.9733294318671689,-2.8389016791450907,-1.1186740016705639,1.0636586473388598
207,0.001091106223387016,0.001091106202438271,2.1283115233608674e-07,4.141113795476601,1.9080476167495357,1.7097104647529031,3.5429414292487396,-1.0,-2.475657212161007,1.5750790047528818,-0.9732772310086587,-2.8389530253189994,-1.1187048329728264,1.0637022352618914
208,0.0010591507243171052,0.00105915070398266,2.0861625671386756e-07,4.141113798176581,1.9080156612528612,1.709710475075425,3.5429682465292114,-1.0,-2.4757056209294497,1.5750596898442326,-0.9732265583101324,-2.839002865139123,-1.1187347602376194,1.0637445428453294
209,0.0010281333639914185,0.0010281333442527438,2.0102765505361653e-07,4.141113800790143,1.9079846438948596,1.709710485095366,3.5429942788123356,-1.0,-2.4757526093207356,1.5750409401750123,-0.9731773689470646,-2.839051242976154,-1.1187638100669142,1.0637856078943144
210,0.0009980264713887988,0.0009980264522287973,1.9542689693874154e-07,4.14111380332025,1.9079545370045128,1.7097104948216242,3.5430195491200194,-1.0,-2.475798219184477,1.575022739176703,-0.9731296194147738,-2.839098201883554,-1.118792008274523,1.0638254670863707
211,0.0009688031990999405,0.0009688031805021009,1.8966081829902343e-07,4.141113805769756,1.9079253137344137,1.7097105042628336,3.543044079796522,-1.0,-2.475842491127245,1.5750050707680001,-0.9730832674892749,-2.8391437836372497,-1.118819379909757,1.0638641560056885
212,0.0009404374983903894,0.0009404374803375549,1.8371385344770506e-07,4.141113808141401,1.9078969480358285,1.7097105134273722,3.543067892528538,-1.0,-2.475885464550064,1.5749879193403937,-0.9730382721893077,-2.839188028774091,-1.118845949280358,1.0639017091763308
213,0.0009129040950339899,0.0009129040775098931,1.788139343261721e-07,4.1411138104378304,1.9078694146345336,1.7097105223233726,3.5430910083646867,-1.0,-2.4759271776847407,1.5749712697441867,-0.9729945937395071,-2.839230976629129,-1.1188717399747248,1.0639381600943916
214,0.0008861784659083057,0.000886178448897741,1.7504900879369298e-07,4.141113812661586,1.907842689007409,1.7097105309587246,3.543113447734406,-1.0,-2.4759676676290727,1.5749551072749308,-0.9729521935346793,-2.8392726653717357,-1.118896774883459,1.063973541259151
215,0.0008602368163191804,0.000860236799806418,1.6858739404357632e-07,4.141113814815111,1.9078167473597611,1.709710539341087,3.543135230466286,-1.0,-2.476006970380962,1.5749394176602651,-0.9729110341051489,-2.8393131320406146,-1.1189210762202506,1.06400788420325
216,0.0008350560580236816,0.0008350560419950699,1.6323404237781964e-07,4.141113816900769,1.9077915666033507,1.7097105474778902,3.543156375805856,-1.0,-2.476045120871478,1.5749241870471509,-0.9728710790831454,-2.839352412577731,-1.1189446655421231,1.0640412195219267
217,0.0008106137879426306,0.0008106137723834769,1.591008641128439e-07,4.141113818920828,1.9077671243350987,1.7097105553763472,3.543176902432829,-1.0,-2.476082152996902,1.574909401989485,-0.9728322931701977,-2.839390541861199,-1.1189675637690624,1.064073576901337
218,0.000786888267525972,0.000786888252422555,1.5485740967710726e-07,4.141113820877475,1.9077433988164572,1.7097105630434577,3.5431968284778383,-1.0,-2.476118099649782,1.5748950494360845,-0.972794642105503,-2.839427553737159,-1.1189897912030449,1.0641049851459972
219,0.0007638584027625144,0.0007638583881012365,1.490116119384767e-07,4.14111382277282,1.9077203689534163,1.7097105704860134,3.543216171538672,-1.0,-2.4761529927490322,1.5748811167190306,-0.9727580926352442,-2.8394634810506796,-1.119011367546487,1.0641354722053715
220,0.0007415037248012172,0.0007415037105697461,1.444721179430584e-07,4.141113824608892,1.9076980142771276,1.7097105777106072,3.543234948696018,-1.0,-2.476186863269114,1.5748675915423558,-0.9727226124828224,-2.839498355675711,-1.1190323119201315,1.0641650651996348
221,0.0007198043711775955,0.0007198043573623973,1.4136482746161737e-07,4.141113826387652,1.9076763149251263,1.7097105847236371,3.5432531765287467,-1.0,-2.4762197412683147,1.5748544619710723,-0.9726881703199811,-2.839532208544122,-1.1190526428803915,1.0641937904446377
222,0.0006987410676078667,0.0006987410541974842,1.3657139822709094e-07,4.141113828110984,1.907655251623132,1.709710591531313,3.543270871128727,-1.0,-2.4762516559161636,1.5748417164205253,-0.9726547357387912,-2.8395650696738537,-1.1190723784361665,1.0642216734760999
223,0.0006782951103558707,0.0006782950973380564,1.3493575361575816e-07,4.14111382978071,1.9076348056674086,1.70971059813966,3.5432880481152105,-1.0,-2.476282635520011,1.5748293436460636,-0.972622279224473,-2.83959696819621,-1.1190915360651479,1.0642487390730555
224,0.000658448349129578,0.0006584483364927065,1.2990531157078375e-07,4.141113831398587,1.9076149589076659,1.7097106045545285,3.5433047226487795,-1.0,-2.4763127075507936,1.574817332733016,-0.9725907721290278,-2.83962793238232,-1.1191101327296324,1.064275011280577
225,0.0006391831705086083,0.0006391831582421618,1.264405455326822e-07,4.141113832966304,1.9075956937304854,1.7097106107815936,3.5433209094448825,-1.0,-2.4763418986680117,1.5748056730869675,-0.9725601866456574,-2.839657989668793,-1.1191281848918535,1.064300513431798
226,0.0006204824818798261,0.000620482469972355,1.2287812309317777e-07,4.141113834485497,1.9075769930432542,1.7097106168263645,3.5433366227869674,-1.0,-2.4763702347439507,1.5747943544243233,-0.9725304957839431,-2.8396871666825945,-1.1191457085288514,1.0643252681692597
227,0.0006023296958588822,0.0006023296842997725,1.1920928955078133e-07,4.141113835957741,1.9075588402585897,1.7097106226941885,3.5433518765392202,-1.0,-2.4763977408871605,1.5747833667631526,-0.9725016733457665,-2.839715489265166,-1.119162719146893,1.0643492974656021
228,0.0005847087151940884,0.0005847087039735302,1.1542389828584848e-07,4.141113837384555,1.9075412192792418,1.7097106283902557,3.543366684158929,-1.0,-2.4764244414652223,1.5747727004143062,-0.9724736939019449,-2.839742982495815,-1.1191792317954556,1.064372622643621
229,0.0005676039181264022,0.0005676039072339728,1.1151007970493862e-07,4.141113838767411,1.9075241144834518,1.7097106339196022,3.5433810587084755,-1.0,-2.4764503601268264,1.5747623459727953,-0.9724465327695628,-2.8397696707143942,-1.1191952610807907,1.06439526439571
230,0.0005510001441973618,0.000551000133623802,1.0745380149674388e-07,4.141113840107718,1.9075075107107633,1.7097106392871169,3.5433950128669753,-1.0,-2.4764755198231763,1.5747522943094279,-0.9724201659899772,-2.8397955775432955,-1.1192108211790766,1.0644172428027099
231,0.0005348826804894199,0.0005348826702253051,1.0536712127723512e-07,4.141113841406849,1.9074913932482593,1.709710644497544,3.5434085589415694,-1.0,-2.4764999428287466,1.574742536562691,-0.9723945703074757,-2.839820725908778,-1.1192259258491768,1.0644385773521798
232,0.0005192372482823576,0.0005192372383188059,1.0106459234841571e-07,4.141113842666122,1.907475747817221,1.7097106495554886,3.5434217088783786,-1.0,-2.476523650761414,1.574733064130876,-0.97236972314857,-2.839845138061653,-1.1192405884450138,1.0644592869561138
233,0.0005040499901183889,0.0005040499804463435,9.884312124119404e-08,4.141113843886811,1.9074605605601913,1.7097106544654213,3.5434344742731376,-1.0,-2.476546664601975,1.5747238686644343,-0.9723456026019028,-2.839868835597343,-1.119254821927571,1.0644793899681155
234,0.0004893074572574354,0.0004893074478683738,9.65705618025044e-08,4.14111384507015,1.9074458180284313,1.7097106592316798,3.5434468663815095,-1.0,-2.476569004713079,1.5747149420585618,-0.9723221873987518,-2.839891839475336,-1.119268638876534,1.0644989042000517
235,0.0004749965975117359,0.00047499658839727783,9.424321830774487e-08,4.141113846217322,1.907431507169754,1.7097106638584747,3.5434588961290956,-1.0,-2.4765906908575834,1.574706276446003,-0.9722994568941115,-2.839914170038057,-1.1192820515015829,1.0645178469381988
236,0.0004611047434509946,0.0004611047346030163,9.185692672385244e-08,4.141113847329483,1.9074176153167304,1.7097106683498935,3.5434705741211507,-1.0,-2.476611742216364,1.5746978641900646,-0.9722773910483357,-2.8399358470291647,-1.1192950716533445,1.0645362349588992
237,0.0004476196009630036,0.00044761959237428207,8.940696716308596e-08,4.141113848407739,1.9074041301752496,1.709710672709902,3.5434819106520052,-1.0,-2.47663217740558,1.5746896978778406,-0.9722559704093257,-2.8399568896113063,-1.119307710834019,1.0645540845437433
238,0.000434529238161408,0.0004345292298240384,8.688795409866128e-08,4.141113849453163,1.9073910398134253,1.7097106769423513,3.5434929157142143,-1.0,-2.4766520144934248,1.5746817703136335,-0.9722351760952438,-2.8399773163833317,-1.1193199802076856,1.0645714114942917
239,0.00042182207462554714,0.0004218220665319022,8.429369702178808e-08,4.141113850466788,1.9073783326508378,1.7097106810509786,3.543503599007433,-1.0,-2.476671271016371,1.5746740745125718,-0.9722149897777399,-2.8399971453969926,-1.1193318906103011,1.0645882311463502
240,0.00040948687096530615,0.00040948686310871284,8.429369702178808e-08,4.141113851449623,1.9073659974480985,1.7097106850394104,3.5435139699470275,-1.0,-2.476689963994928,1.5746666036944168,-0.9721953936656752,-2.840016394173144,-1.1193434525593993,1.0646045583838153
241,0.0003975127187068933,0.0003975127110795138,7.884953353001449e-08,4.141113852402628,1.9073540232967332,1.7097106889111684,3.543524037672434,-1.0,-2.4767081099489228,1.5746593512775509,-0.972176370489327,-2.840035079717456,-1.1193546762635007,1.0646204076521006
242,0.0003858890304695557,0.00038588902306584924,7.598131170262078e-08,4.141113853326743,1.907342399609364,1.7097106926696697,3.5435338110552705,-1.0,-2.47672572491233,1.5746523108731438,-0.9721579034850598,-2.840053218535655,-1.1193655716312405,1.0646357929711574
243,0.0003746055304541155,0.00037460552326693366,7.300048299977716e-08,4.141113854222874,1.9073311161101905,1.709710696318231,3.543543298707206,-1.0,-2.4767428244476473,1.5746454762794924,-0.9721399763804517,-2.840070826648312,-1.1193761482802245,1.0646507279481032
244,0.00036365224520391713,0.0003636522382268144,7.300048299977716e-08,4.1411138550918904,1.9073201628257574,1.7097106998600726,3.5435525089876,-1.0,-2.4767594236598494,1.5746388414765238,-0.9721225733798583,-2.8400879196051845,-1.1193864155456212,1.0646652257894704
245,0.00035301949464980423,0.0003530194878770921,6.664001874625058e-08,4.141113855934644,1.907309530075997,1.7097107032983188,3.543561450010916,-1.0,-2.4767755372099174,1.5746324006204662,-0.9721056791504048,-2.840104512499133,-1.1193963824884967,1.0646792993130851
246,0.00034269788342436707,0.0003426978768492022,6.664001874625058e-08,4.14111385675195,1.9072992084655411,1.7097107066360047,3.543570129653912,-1.0,-2.4767911793279676,1.5746261480386712,-0.9720892788083911,-2.840120619979618,-1.1194060579039031,1.06469296095959
247,0.00033267829243133163,0.00033267828604915565,6.664001874625058e-08,4.141113857544598,1.9072891888752963,1.7097107098760727,3.5435785555626254,-1.0,-2.4768063638259847,1.5746200782245938,-0.972073357906099,-2.8401362562657972,-1.1194154503287237,1.0647062228036206
248,0.00032295187067777964,0.0003229518644816317,6.322027276634106e-08,4.141113858313355,1.9072794624542677,1.7097107130213822,3.5435867351591472,-1.0,-2.4768211041101766,1.574614185832916,-0.9720579024189876,-2.840151435159231,-1.1194245680492858,1.064719096564644
249,0.00031351002733403355,0.00031351002131921194,6.322027276634106e-08,4.141113859058965,1.9072700206116284,1.709710716074707,3.5435946756481966,-1.0,-2.4768354131929597,1.574608465674817,-0.9720428987332683,-2.8401661700562073,-1.119433419108748,1.064731593617476
250,0.0003043444240507244,0.0003043444182118651,5.960464477539064e-08,4.141113859782138,1.9072608550090289,1.7097107190387397,3.5436023840235014,-1.0,-2.4768493037045873,1.5746029127133825,-0.9720283336338457,-2.840180473959702,-1.1194420113142667,1.06474372500248
251,0.00029544696749331267,0.00029544696182513624,5.575503985246929e-08,4.141113860483571,1.907251957553135,1.7097107219160945,3.543609867073995,-1.0,-2.476862787904428,1.5745975220591473,-0.9720141942926129,-2.8401943594909804,-1.1194503522439485,1.0647555014354622
252,0.00028680980209941023,0.0002868097965972748,5.960464477539064e-08,4.141113861163933,1.9072433203883856,1.7097107247093084,3.543617131389822,-1.0,-2.4768758776919126,1.5745922889657713,-0.9720004682570945,-2.840207838900856,-1.1194584492535995,1.064766933317269
253,0.00027842530306109364,0.00027842529771973727,5.575503985246929e-08,4.141113861823874,1.9072349358899725,1.7097107274208443,3.5436241833681756,-1.0,-2.476888584617151,1.5745872088258424,-0.9719871434394224,-2.84022092408061,-1.1194663094832706,1.0647780307430987
254,0.0002702860695064646,0.00027028606432108433,5.16191365590357e-08,4.141113862464021,1.9072267966570247,1.709710730053092,3.5436310292189566,-1.0,-2.476900919891235,1.5745822771668014,-0.9719742081056371,-2.840233626572593,-1.1194739398636109,1.0647888035115343
255,0.0002623849178914414,0.00026238491285826527,5.575503985246929e-08,4.141113863084984,1.9072188955059994,1.7097107326083731,3.5436376749702694,-1.0,-2.4769128943962344,1.5745774896469886,-0.9719616508653044,-2.8402459575805015,-1.1194813471220313,1.0647992611333053
256,0.0002547148755878186,0.0002547148707008633,5.16191365590357e-08,4.141113863687348,1.9072112254642668,1.7097107350889391,3.5436441264737537,-1.0,-2.476924518694895,1.5745728420518066,-0.9719494606614383,-2.8402579279793603,-1.1194885377886865,1.064809412839791
257,0.00024726917465596194,0.0002472691699122898,4.712160915387242e-08,4.141113864271684,1.9072037797638905,1.7097107374969769,3.5436503894097617,-1.0,-2.476935803040049,1.5745683302899935,-0.9719376267607195,-2.8402695483251996,-1.1194955182022788,1.064819267591266
258,0.00024004124581534207,0.00024004124120994931,5.16191365590357e-08,4.141113864838546,1.9071965518355884,1.7097107398346085,3.54365646929238,-1.0,-2.4769467573837445,1.5745639503900106,-0.9719261387440035,-2.8402808288644508,-1.11950229451569,1.0648288340849033
259,0.0002330247125791375,0.00023302470810836938,4.712160915387242e-08,4.1411138653884665,1.9071895353028754,1.709710742103894,3.5436623714743063,-1.0,-2.476957391386107,1.574559698496531,-0.9719149864971067,-2.840291779543059,-1.1195088727014475,1.0648381207625368
260,0.00022621338557662432,0.00022621338123707775,5.16191365590357e-08,4.141113865921961,1.9071827239763812,1.7097107443068336,3.5436681011515803,-1.0,-2.476967714423934,1.574555570867035,-0.9719041602018649,-2.8403024100153282,-1.1195152585570272,1.064847135818194
261,0.0002196012570390099,0.00021960125282634684,4.2146848510894035e-08,4.141113866439531,1.9071761118483366,1.7097107464453687,3.543673663368178,-1.0,-2.476977735599036,1.5745515638685035,-0.9718936503274533,-2.8403127296525033,-1.1195214577100006,1.0648558872054021
262,0.00021318249544353444,0.00021318249135414264,4.2146848510894035e-08,4.1411138669416605,1.9071696930872197,1.7097107485213823,3.5436790630204675,-1.0,-2.4769874637463327,1.5745476739742112,-0.9718834476219642,-2.840322747551099,-1.1195274756230291,1.064864382644281
263,0.00020695144032965165,0.00020695143635938317,4.2146848510894035e-08,4.141113867428819,1.90716346203257,1.7097107505367044,3.5436843048615376,-1.0,-2.4769969074417046,1.57454389776061,-0.9718735431042298,-2.8403324725409775,-1.1195333175987108,1.0648726296284199
264,0.00020090259725432172,0.00020090259340041627,3.6500241499888574e-08,4.141113867901465,1.9071574131899458,1.7097107524931103,3.543689393505397,-1.0,-2.4770060750096157,1.5745402319043083,-0.9718639280558874,-2.8403419131931957,-1.1195389887842837,1.0648806354315545
265,0.00019503063291090932,0.00019503062916959442,4.2146848510894035e-08,4.1411138683600335,1.90715154122604,1.7097107543923236,3.5436943334310467,-1.0,-2.4770149745305083,1.5745366731791357,-0.9718545940136776,-2.84035107782761,-1.1195444941761912,1.064888407114043
266,0.00018933037038090737,0.0001893303667495123,4.2146848510894035e-08,4.141113868804956,1.9071458409639355,1.7097107562360168,3.543699128986442,-1.0,-2.4770236138479804,1.574533218453296,-0.9718455327619677,-2.8403599745202643,-1.11954983862451,1.0648959515291494
267,0.00018379678453513652,0.00018379678100957864,3.6500241499888574e-08,4.141113869236641,1.9071403073785018,1.709710758025815,3.5437037843923274,-1.0,-2.477032000575749,1.5745298646866026,-0.9718367363254965,-2.8403686111105544,-1.1195550268372507,1.0649032753291434
268,0.00017842499756620463,0.00017842499414291943,2.9802322387695312e-08,4.141113869655491,1.9071349355919325,1.7097107597632937,3.5437083037459667,-1.0,-2.4770401421044093,1.5745266089277958,-0.9718281969623309,-2.8403769952081834,-1.119560063384529,1.0649103849712158
269,0.00017321027465285157,0.0001732102713302902,3.6500241499888574e-08,4.141113870061894,1.9071297208694085,1.7097107614499831,3.543712691024758,-1.0,-2.477048045607991,1.5745234483119384,-0.9718199071570305,-2.8403851341999107,-1.1195649527026144,1.0649172867232208
270,0.00016814801976089528,0.0001681480165349949,3.6500241499888574e-08,4.141113870456229,1.9071246586148933,1.7097107630873691,3.5437169500897476,-1.0,-2.477055718050325,1.5745203800578877,-0.9718118596140125,-2.8403930352561004,-1.1195696990978596,1.0649239866692468
271,0.00016323377155533792,0.0001632337684239275,2.9802322387695312e-08,4.141113870838852,1.9071197443670542,1.7097107646768936,3.5437210846890355,-1.0,-2.4770631661912184,1.5745174014658425,-0.9718040472511115,-2.840400705337079,-1.1195743067505146,1.0649304907150232
272,0.00015846319944514447,0.00015846319640496186,4.2146848510894035e-08,4.141113871210124,1.9071149737952993,1.7097107662199564,3.543725098461086,-1.0,-2.4770703965924477,1.574514509914961,-0.9717964631933279,-2.840408151199302,-1.119578779718427,1.0649368045931658
273,0.00015383209973683258,0.00015383209678602566,2.9802322387695312e-08,4.141113871570384,1.9071103426959366,1.7097107677179162,3.5437289949379367,-1.0,-2.4770774156235773,1.574511702861049,-0.9717891007667617,-2.8404153794013425,-1.1195831219406343,1.064942933868269
274,0.00014933639190832705,0.00014933638904363977,2.9802322387695312e-08,4.141113871919962,1.907105846988443,1.7097107691720916,3.5437327775483154,-1.0,-2.4770842294676036,1.5745089778343164,-0.9717819534927222,-2.8404223963096986,-1.1195873372408502,1.0649488839418446
275,0.0001449721149880124,0.00014497211220669952,2.9802322387695312e-08,4.141113872259178,1.9071014827118475,1.709710770583764,3.5437364496206665,-1.0,-2.4770908441264328,1.574506332437199,-0.9717750150820115,-2.840429208104433,-1.1195914293308473,1.0649546600571167
276,0.0001407354240405518,0.00014073542134084257,2.9802322387695312e-08,4.141113872588347,1.907097246021216,1.709710771954175,3.543740014386087,-1.0,-2.477097265426198,1.5745037643422444,-0.9717682794293762,-2.8404358207846454,-1.119595401813741,1.0649602673036733
277,0.00013662258676355529,0.0001366225841425066,2.9802322387695312e-08,4.141113872907767,1.9070931331842453,1.7097107732845322,3.5437434749811754,-1.0,-2.4771034990224203,1.574501271290059,-0.9717617406081217,-2.8404422401737817,-1.1195992581871774,1.064965710621982
278,0.0001326299801742119,0.00013262997763002006,2.9802322387695312e-08,4.141113873217733,1.9070891405779538,1.7097107745760063,3.5437468344508,-1.0,-2.477109550405015,1.5744988510873175,-0.9717553928648839,-2.8404484719247898,-1.1196030018464251,1.0649709948077704
279,0.00012875408740441814,0.0001287540849343917,2.9802322387695312e-08,4.141113873518526,1.9070852646854726,1.709710775829734,3.5437500957507835,-1.0,-2.4771154249031517,1.5744965016048278,-0.9717492306145551,-2.840454521525121,-1.1196066360873782,1.064976124516278
280,0.00012499149457974665,0.00012499149218202555,2.9802322387695312e-08,4.141113873810424,1.9070815020929284,1.7097107770468198,3.54375326175051,-1.0,-2.4771211276899723,1.574494220775655,-0.9717432484353583,-2.8404603943015863,-1.1196101641094696,1.0649811042663841
281,0.00012133888780094414,0.00012133888547336097,2.9802322387695312e-08,4.14111387409369,1.9070778494864218,1.7097107782283345,3.5437563352354537,-1.0,-2.477126663787168,1.5744920065932988,-0.9717374410640661,-2.8404660954250653,-1.1196135890184995,1.06498593844461
282,0.00011779305020597439,0.00011779304794610923,2.1073424255447017e-08,4.1411138743685845,1.9070743036490907,1.7097107793753181,3.5437593189096375,-1.0,-2.4771320380694233,1.5744898571099262,-0.9717318033913599,-2.840471629915083,-1.1196169138293801,1.0649906313090074
283,0.00011435085912265374,0.00011435085692953081,2.1073424255447017e-08,4.141113874635354,1.9070708614582645,1.7097107804887806,3.5437622153980155,-1.0,-2.4771372552687256,1.5744877704346534,-0.971726330457325,-2.8404770026442465,-1.1196201414687994,1.0649951869929286
284,0.00011100928330858748,0.00011100928117953481,2.9802322387695312e-08,4.141113874894245,1.9070675198826994,1.7097107815697017,3.5437650272487873,-1.0,-2.4771423199785527,1.574485744731881,-0.9717210174470782,-2.8404822183425527,-1.1196232747778068,1.0649996095086876
285,0.00010776538026301316,0.00010776537819593671,2.9802322387695312e-08,4.141113875145493,1.9070642759798953,1.7097107826190323,3.543767756935644,-1.0,-2.477147236657935,1.5744837782196748,-0.9717158596865229,-2.8404872816015705,-1.1196263165143232,1.0650039027511125
286,0.00010461629362625602,0.00010461629161942902,2.1073424255447017e-08,4.141113875389321,1.907061126893493,1.709710783637697,3.543770406859948,-1.0,-2.477152009635396,1.5744818691681965,-0.9717108526382292,-2.8404921968784986,-1.1196292693555778,1.0650080705009934
287,0.0001015592506525084,0.0001015592487047131,0.0,4.1411138756259565,1.9070580698507473,1.7097107846265915,3.5437729793528523,-1.0,-2.477156643112779,1.5744800158981802,-0.9717059918974349,-2.8404969685001045,-1.1196321359004708,1.065012116428428
288,9.85915597601717e-05,9.859155786934957e-05,2.9802322387695312e-08,4.141113875855609,1.9070551021600761,1.7097107855865867,3.543775476677351,-1.0,-2.477161141168963,1.5744782167794518,-0.971701273188163,-2.840501600666546,-1.1196349186718695,1.0650160440960699
