jkpark150901/flame_robotics_drt/experiment/inspection_ik/session_20260716_101733/inspection_ik_rb20_1900es_raw_fallback_20260716_102230.csv
iteration,err_norm,position_error,orientation_error,tcp_x,tcp_y,tcp_z,q0_rt_joint_linear_track,q1_rt_joint_carriage,q2_rt_base,q3_rt_shoulder,q4_rt_elbow,q5_rt_wrist1,q6_rt_wrist2,q7_rt_wrist3
0,8.64126469377386,5.183096230364021,3.141582555790671,0.267,-3.2807478955731993e-13,2.541,0.0,0.0,0.0,0.0,0.0,0.0,0.0,0.0
1,7.455585612490727,4.831383229381995,2.8368945857426806,0.38358024698013976,1.5109327918493494,2.286159294810376,0.0,0.6127996614612344,-0.14180648909169527,0.5425356759120568,0.00020797552179543377,-0.18286406640937605,-0.5421197248684657,-0.18286406640937605
2,9.450746033301998,5.916931361938161,3.0218467755310554,0.29447738439926224,-0.33964211717284665,-0.862693154956933,0.0,-1.0,-0.10342276108772533,2.6680231104965833,0.14204535710183583,-1.209509235815432,-2.795941377007853,-0.003934007563431152
3,6.227745097120824,5.702375451609436,1.4031424492349722,0.26271756965260323,-1.0240989004963024,0.5110012872965473,0.0,-1.0,-0.344129551379721,-3.14,3.14,0.9703562277210034,-3.14,2.7028218155748482
4,4.748113991083063,4.423971292698414,1.1855680899361423,1.141169653084104,0.3972145388059802,0.5110012872965473,0.8794981977230919,0.4238292728276274,-0.3843219180160858,-3.14,3.14,0.8199901297414351,-3.14,2.8547403253157486
5,3.591876000644058,3.331113657802414,1.0703551804804037,2.218177007965847,0.9719619456038411,0.5110012872965473,1.957156152259941,1.0,-0.407394635637472,-3.14,3.14,0.7158560056089458,-3.14,2.9602721667518854
6,2.8120080123177296,2.5546857653785975,1.0129598375477726,3.121286932957853,0.9711735891828825,0.5110012872965473,2.8606470890593614,1.0,-0.420290035664233,-3.14,3.14,0.6439471345336581,-3.14,3.033353127619984
7,2.3372376945692377,2.059714793509468,0.9854708058091778,3.7727193794501717,0.9709204067027416,0.5110012872965473,3.512209914778878,1.0,-0.42443577120872034,-3.14,3.14,0.59298769314061,-3.14,3.085269031036764
8,2.0655006605203177,1.7828347798961897,0.9443761801295814,4.2253472010795035,0.9486095666649637,0.5105943131516533,3.9748602182038084,1.0,-0.4221007640163776,-3.14,3.107396544817809,0.5559772254801671,-3.14,3.123110290551141
9,1.9594348894744906,1.6477712675180796,0.9642986658128391,4.523904423837846,0.9158246534765455,0.5123760738805883,4.313333463069798,1.0,-0.7881368179368395,-3.085742524711136,3.0826875486433827,0.7298021289607883,-3.14,2.9829208211531353
10,2.1615455698328474,1.9015866541802033,1.0154031183692416,7.058218601928307,1.2155333400326953,2.235266034016159,6.604871962466433,1.0,-0.6626652652428839,0.31694251571810916,-0.25050609532847545,0.6585246432543612,-3.14,3.0698320788874374
11,1.5893623064388118,1.2146647529845864,1.0192769664163834,6.36633622119772,1.1364872002753794,2.0162504791834146,5.71419917647495,0.6214884590368636,-0.6223904136682984,0.7913074759842547,-0.7214406641022919,0.6308173368186841,-3.14,3.0969994036199497
12,1.3007810733476168,0.8040324436469248,1.0184904306612799,5.945274616267878,1.1585455257482393,1.9291116646538544,5.300602778963033,0.5453897903753046,-0.5387267911883301,0.9220311462571065,-0.8565228861012762,0.5835783675217744,-3.14,3.14
13,1.1407764523422461,0.5484322656870014,0.9970883909532016,5.680444588785519,1.1983889073205547,1.8737660512435639,5.06882943721735,0.540855204257099,-0.4727014904119444,0.9998312209859428,-0.9622185099349988,0.5457039066160314,-3.14,3.14
14,1.0468938649438528,0.38843966337200836,0.9697601758579553,5.511413988702082,1.2393005127379682,1.8409326008601954,4.932605803736219,0.5670045568646904,-0.42604847918309013,1.04400889657818,-1.0388276176691358,0.5115500228431146,-3.14,3.14
15,0.9867061405020044,0.287005677992538,0.9422766342151615,5.402718932101554,1.2768565928216349,1.8251540270893298,4.852675709393284,0.6053657833944176,-0.3918157608508555,1.0641973068120003,-1.0898780304273072,0.48023785351421827,-3.14,3.14
16,0.9456248444467599,0.22195540372127678,0.9179015951661105,5.332554590691267,1.3077464572963442,1.820872743392719,4.807881467873038,0.6434508985568717,-0.3637437401553042,1.0687201516035205,-1.1207296001659475,0.4504308915984592,-3.14,3.14
17,0.9161057444197794,0.17977445419125604,0.897306926787962,5.287219184656709,1.3310523307110265,1.8232451990939407,4.786371898254753,0.6754338954344341,-0.33707696131217413,1.0643350161254987,-1.1378999031983987,0.42079273796708705,-3.14,3.14
18,0.8932059209758999,0.15209884149074274,0.879392356818153,5.257949623631227,1.347562045719671,1.8287225891748882,4.7811604128717065,0.7002899096306264,-0.30866004690462795,1.0557600749911256,-1.1475922683924737,0.3902103725636423,-3.14,3.14
19,0.8729775677976628,0.13368486546850586,0.8620619425174856,5.239105185219573,1.3588312045927207,1.8350646143121259,4.7880672992682225,0.7197589977957607,-0.2764556128353303,1.0457836644046277,-1.1549902091753703,0.35774732253406893,-3.14,3.14
20,0.8516322130010003,0.12111974964229497,0.8424621162125527,5.227073704800932,1.3665913691703813,1.8410521236901667,4.804693029892311,0.7372223677407985,-0.23900400672966132,1.0356409564677296,-1.1644055533464481,0.32252777375634495,-3.14,3.14
21,0.8247046033917239,0.11197591811109064,0.8166355069729979,5.219590762425873,1.3725375809786127,1.8461499982658027,4.829588198584076,0.7576466507459002,-0.1953098378241616,1.0252826381889726,-1.1799129445898737,0.28378893184871595,-3.14,3.14
22,0.7862033152013301,0.10426198115439249,0.7789005868000464,5.215288766387048,1.3783835249661052,1.8502270401738572,4.860803020487914,0.7882865265044179,-0.14590801267349623,1.013296000957774,-1.2058864222384416,0.24151501552815496,-3.14,3.14
23,0.7295711019088225,0.09619062065893182,0.7229195117296233,5.213157917128782,1.3858717674698608,1.85338953192302,4.892939322991523,0.8380079009270299,-0.0961976911887524,0.996586402178357,-1.2454938736465875,0.19826359295811768,-3.14,3.14
24,0.6551989136575683,0.08679136487296184,0.6492196398902211,5.211669635918878,1.3956575924465622,1.8561489859735318,4.916387817544076,0.9090965567914897,-0.0577636161609848,0.9715490748586885,-1.2941399664937283,0.1600897483126625,-3.14,3.14
25,0.5759330744278602,0.07681764525196609,0.570646311317032,5.209605163293298,1.4058962326367064,1.8594905352988425,4.927649762866672,0.9893294601198576,-0.03571901323053672,0.9381391234373387,-1.3385541836824408,0.13045929392345568,-3.14,3.14
26,0.5137559596305191,0.12224920677532318,0.49868506843101845,5.207378011324584,1.3486962225055632,1.8636965975992488,4.931935512195488,1.0,-0.02408748081673396,0.9001058011279602,-1.371261571456407,0.10749126175132669,-3.14,3.14
27,0.47516273692762956,0.16977493021140333,0.4432624277775516,5.204793328898325,1.2982713647256963,1.8627152931480127,4.932092318908323,1.0,-0.019008413065301318,0.8731704471826975,-1.3982367676388916,0.08972576059077653,-3.14,3.14
28,0.4523367169103636,0.20454743227517116,0.4027439256651477,5.202570784107457,1.2629632512759317,1.859489994439246,4.9312423707347195,1.0,-0.016365302483696317,0.8552601611605654,-1.4193783320938953,0.0753245964052836,-3.14,3.14
29,0.4390241705220945,0.22913423362016258,0.37366995508378387,5.200939979177618,1.2384293114300768,1.8560686548282905,4.930449035498394,1.0,-0.01455562916042097,0.8431393280952867,-1.4350631138634224,0.06336387110237293,-3.14,3.14
30,0.4312250314433923,0.2463050769135911,0.3530711449879069,5.199861256774707,1.221451408695228,1.853167963303483,4.929959680835497,1.0,-0.013026298049131756,0.834837651437172,-1.4463307598761332,0.05332262067139393,-3.14,3.14
31,0.42657579583624067,0.25821796346054426,0.3386054297855943,5.199215890026348,1.2097337095449454,1.8509330350654993,4.929769726128091,1.0,-0.011596925019750215,0.8291098231652984,-1.4542668321251513,0.04484832282909579,-3.14,3.14
32,0.42373465545757216,0.26644895325334705,0.3285077322654878,5.19887996200034,1.2016614671831147,1.8492962879387964,4.929806248669127,1.0,-0.010226734031465292,0.8251399629107629,-1.4597875936333544,0.03767729820710293,-3.14,3.14
33,0.42195000790986903,0.27212007965425544,0.32148705718675286,5.198750167258328,1.196108280604054,1.848132942480682,4.929990999051235,1.0,-0.008923194180062476,0.8223805113651407,-1.4635980511080888,0.03160111058430898,-3.14,3.14
34,0.4207985447829127,0.2760192880579539,0.31661813349122137,5.1987490923301465,1.1922925935797053,1.8473214490660468,4.930260007619914,1.0,-0.007704877173299568,0.8204586110551881,-1.4662147869442392,0.026449677516588815,-3.14,3.14
35,0.4200374758851952,0.2786953971928731,0.31324680286586276,5.198822494915536,1.1896739645443626,1.8467623380301443,4.930566994401488,1.0,-0.00658739388309464,0.8191181511313552,-1.4680057989658921,0.022081595442666378,-3.14,3.14
36,0.419523910334976,0.2805287566020904,0.3109147222918447,5.198934266711965,1.1878794432956015,1.8463803919447999,4.930881153974923,1.0,-0.005579397430684696,0.8181822542098433,-1.4692288242792437,0.018378009808628117,-3.14,3.14
37,0.41917127293873374,0.2817821635435572,0.3093025880466031,5.199061463215644,1.1866519507288815,1.846121115697361,4.931183525676267,1.0,-0.004682734932790295,0.8175283194419727,-1.4700625049520675,0.015238398491783269,-3.14,3.14
38,0.41892556965806715,0.2826368715457359,0.3081887371032836,5.199190222174264,1.185814374752551,1.8459460141302118,4.9314635425869895,1.0,-0.0038940146768052476,0.8170711469559192,-1.4706298715344066,0.01257746704857634,-3.14,3.14
39,0.41875222078958146,0.28321776537794924,0.3074195975239177,5.199312703950357,1.185244722555252,1.8458283179610016,4.9317162548343845,1.0,-0.0032063824411414617,0.8167514134645663,-1.471015328105839,0.010322735759838508,-3.14,3.14
40,0.41862856563028783,0.28361083950838634,0.3068888804463618,5.199424923442839,1.1848589747563745,1.8457495976172333,4.93194027819245,1.0,-0.0026110390190386495,0.8165277515879495,-1.4712766484267563,0.008412588502065091,-3.14,3.14
41,0.41853946714809015,0.28387528333165496,0.3065230515707743,5.199525273803243,1.1845992718816925,1.8456972476630389,4.932136360484795,1.0,-0.0020983747556108543,0.8163712815479802,-1.471453328065882,0.0067946525936686715,-3.14,3.14
42,0.41847465463534606,0.2840518184947204,0.3062712392123828,5.199613552508966,1.1844257794307147,1.8456626837322228,4.932306422046777,1.0,-0.0016587426764747629,0.8162618233411804,-1.4715723490421848,0.005424431566007509,-3.14,3.14
43,0.41842706992960405,0.28416844441345024,0.30609824473825703,5.199690336638643,1.1843110859816066,1.845640077524436,4.932452938170564,1.0,-0.0012829414494724065,0.8161852661864175,-1.4716521378970295,0.004264141210189535,-3.14,3.14
44,0.41839181131348585,0.2842443962681539,0.3059797089399438,5.199756593230219,1.1842363442650612,1.8456254809858308,4.9325785578402135,1.0,-0.0009624856595871786,0.8161317379530447,-1.4717052752455617,0.0032817147055209522,-3.14,3.14
45,0.4183654441669062,0.2842928717570927,0.3058987712582728,5.199813443863073,1.1841886115638693,1.8456162249703558,4.932685880221911,1.0,-0.0006897301232512418,0.8160943292284685,-1.471740347751702,0.002449951281594741,-3.14,3.14
46,0.4183455428579737,0.2843229101129403,0.30584376078475795,5.199862028133505,1.1841590157112936,1.8456105085133787,4.9327773332814635,1.0,-0.00045789973726715163,0.8160682028375426,-1.4717632131407274,0.0017457879888204946,-3.14,3.14
47,0.4183303818814393,0.28434068736221696,0.3058065998259335,5.199903429144482,1.1841414897894067,1.8456071192039816,4.932855116480083,1.0,-0.0002610619938559081,0.8160499717427926,-1.4717778642217616,0.001149677478159504,-3.14,3.14
48,0.41831872521202645,0.2843504094409314,0.3057816995440197,5.1999386369509155,1.1841318988564464,1.8456052431827745,4.9329211822477905,1.0,-9.40676226541959e-05,0.8160372640937361,-1.4717870191865603,0.000645057099947544,-3.14,3.14
49,0.4183096813093409,0.28435492812818686,0.3057651955336887,5.199968534560165,1.1841274371152464,1.8456043361871828,4.932977239828008,1.0,4.752392637108062e-05,0.816028418936151,-1.4717925250780772,0.00021789655482706822,-3.14,3.14
50,0.4183026025569201,0.2843561658215088,0.3057544183741505,5.199993896808111,1.1841262117704274,1.8456040360892068,4.93302477111423,1.0,0.00016752366173032797,0.8160222732286087,-1.471795633696131,-0.0001436870321182946,-3.14,3.14
51,0.41829701507309774,0.284355408412739,0.3057475267208558,5.200015396142862,1.184126955831301,1.8456041036020072,4.933065052088186,1.0,0.0002691906385721254,0.8160180127129559,-1.4717971903561249,-0.0004497563011041353,-3.14,3.14
52,0.4182925694459698,0.2843535071161587,0.30574325291587945,5.2000336117179575,1.1841288300146642,1.8456043820999546,4.933099176053511,1.0,0.00035530450525937636,0.8160150674654739,-1.4717977630700845,-0.0007088315148968313,-3.14,3.14
53,0.41828900597663315,0.2843510174317766,0.30574072654751766,5.200049039687313,1.1841312862295998,1.8456047704058027,4.933128076500291,1.0,0.00042823134611150637,0.8160130387265645,-1.4717977309679386,-0.0009281263451265467,-3.14,3.14
54,0.41828613003671405,0.28434829469979556,0.3057393520476994,5.200062103516582,1.1841339736270224,1.845605204375382,4.93315254845627,1.0,0.0004899822590823234,0.8160116476345017,-1.4717973448139923,-0.0011137478383958105,-3.14,3.14
55,0.41828379451046177,0.28434555968536235,0.30573872377353345,5.20007316368668,1.184136674063927,1.8456056444513753,4.933173267799355,1.0,0.0005422647539327316,0.816010699302578,-1.4717967684079503,-0.0012708659245442052,-3.14,3.14
56,0.418281887220872,0.28434294348075156,0.3057385671035146,5.200082526499088,1.1841392578855034,1.8456060672669754,4.933190808369624,1.0,0.0005865274108814182,0.8160100576463001,-1.4717961068855323,-0.0014038570540918017,-3.14,3.14
57,0.41828032187669845,0.2843405181447486,0.3057386975953487,5.200090451885549,1.184141653730587,1.8456064599967101,4.93320565692301,1.0,0.0006239984110043251,0.8160096277436301,-1.4717954260386625,-0.0015164258793987767,-3.14,3.14
58,0.41827903151710316,0.284338317517445,0.3057389926868258,5.200097160231706,1.1841438280046306,1.845606816569765,4.933218226075009,1.0,0.0006557186098527112,0.8160093434746116,-1.4717947654794235,-0.0016117083138622306,-3.14,3.14
59,0.4182779637356508,0.2843363512784435,0.30573937210810953,5.200102838279286,1.1841457710064032,1.845607135144826,4.933228865430366,1.0,0.0006825698214085234,0.8160091588612688,-1.4717941475850027,-0.0016923588050121313,-3.14,3.14
60,0.4182770771776661,0.2843346143685725,0.3057397843436408,5.200107644196177,1.184147487623961,1.8456074164380791,4.933237871108309,1.0,0.0007052989400265534,0.8160090420011186,-1.4717935835531495,-0.0017606242306167942,-3.14,3.14
61,0.41827633895326205,0.2843330932392462,0.30574019729389235,5.200111711911055,1.1841489911591843,1.8456076626268891,4.933245493867711,1.0,0.0007245384716046863,0.8160089708186353,-1.4717930774808679,-0.001818406462537105,-3.14,3.14
62,0.41827572271227786,0.28433176993963244,0.3057405918510939,5.200115154807073,1.184150299286105,1.8456078766406834,4.9332519460217545,1.0,0.0007408239827788387,0.8160089300909388,-1.471792629093011,-0.0018673153326145798,-3.14,3.14
63,0.41827520720041633,0.28433062473759096,0.3057409574949322,5.2001180688622455,1.1841514314571593,1.8456080617110984,4.933257407312718,1.0,0.00075460891473619,0.8160089093665355,-1.4717922355509605,-0.0019087134707926547,-3.14,3.14
64,0.4182747751673592,0.28432963775296044,0.305741289286778,5.20012053531525,1.1841524072853915,1.8456082210946636,4.933262029897402,1.0,0.000766277149669251,0.8160089015098768,-1.4717918926365297,-0.0019437542613069871,-3.14,3.14
65,0.41827441253406156,0.2843287899314552,0.30574158583047367,5.200122622925949,1.1841532455786665,1.8456083579093336,4.933265942574374,1.0,0.000776153664580689,0.8160089016843762,-1.4717915955134115,-0.0019734139723441763,-3.14,3.14
66,0.4182741077522515,0.2843280635835581,0.3057418478996109,5.200124389890852,1.1841539638043066,1.8456084750452724,4.933269254366262,1.0,0.000784513559673067,0.8160089066425307,-1.4717913392046522,-0.0019985189530441864,-3.14,3.14
67,0.4182738513075535,0.2843274426411194,0.3057420775230061,5.200125885465426,1.1841545778332587,1.8456085751232734,4.933272057554284,1.0,0.0007915897068977378,0.8160089142310547,-1.471791118880743,-0.002019768654793741,-3.14,3.14
68,0.41827363533078604,0.2843269127349883,0.30574227738392784,5.2001271513376635,1.1841551018616276,1.8456086604830284,4.933274430248048,1.0,0.000797579228052196,0.8160089230464722,-1.4717909300227705,-0.002037755117727262,-3.14,3.14
69,0.4182734532914031,0.28432646116306054,0.3057424504330802,5.200128222790846,1.1841555484409307,1.8456087331894293,4.933276438561413,1.0,0.0008026489806100339,0.8160089321959239,-1.4717907685043476,-0.0020529794650585693,-3.14,3.14
70,0.41827329975384336,0.28432607679484345,0.305742599646217,5.2001291296876815,1.1841559285714331,1.845608795049152,4.933278138454532,1.0,0.0008069402026954874,0.8160089411314803,-1.4717906306218425,-0.0020658658646175564,-3.14,3.14
71,0.4182731701824684,0.28432574994277954,0.30574272787879203,5.200129897303264,1.1841562518286033,1.8456088476324908,4.93327957729318,1.0,0.000810572445729597,0.8160089495357559,-1.4717905130926943,-0.0020767733464702614,-3.14,3.14
72,0.4182730607843323,0.28432547221974713,0.30574283778489864,5.20013054702999,1.1841565265034348,1.8456088922972562,4.933280795168682,1.0,0.0008136469037653142,0.8160089572432705,-1.4717904130349653,-0.002086005805811733,-3.14,3.14
73,0.4182729683816701,0.28432523639490687,0.30574293177817125,5.200131096974148,1.1841567597445581,1.8456089302127623,4.93328182601515,1.0,0.0008162492319288408,0.816008964186678,-1.4717903279367528,-0.002093820469786529,-3.14,3.14
74,0.4182728903078975,0.2843250362551635,0.30574301201940385,5.200131562460805,1.1841569576949162,1.8456089623827463,4.933282698555141,1.0,0.0008184519322797971,0.8160089703602526,-1.4717902556210205,-0.0021004350641104686,-3.14,3.14
75,0.4182728243223656,0.28432486647631017,0.30574308042066545,5.200131956461104,1.1841571256189536,1.845608989666593,4.933283437100079,1.0,0.0008203163734310855,0.8160089757953161,-1.471790194209344,-0.0021060338791514437,-3.14,3.14
76,0.4182727685401714,0.284324722505818,0.3057431386590256,5.200132289953879,1.1841572680183563,1.8456090127985634,4.933284062227732,1.0,0.0008218945001152577,0.8160089805439,-1.471790142086688,-0.0021107729044701953,-3.14,3.14
77,0.41827272137414384,0.2843246004579069,0.30574318819539953,5.200132572231723,1.1841573887356946,1.8456090324049599,4.933284591355641,1.0,0.0008232302802766794,0.8160089846680572,-1.4717900978684149,-0.00211478417487135,-3.14,3.14
78,0.4182726814867171,0.2843244970207123,0.30574323029558315,5.200132811160007,1.1841574910461425,1.8456090490192643,4.933285039226471,1.0,0.0008243609299751987,0.8160089882330276,-1.4717900603701393,-0.00211817944904861,-3.14,3.14
79,0.41827264774990125,0.2843244093748735,0.3057432660516339,5.200133013396105,1.1841575777379238,1.8456090630953956,4.933285418318813,1.0,0.0008253179502086193,0.8160089913030132,-1.4717900285806467,-0.0021210533233143327,-3.14,3.14
80,0.41827261921188685,0.2843243351226456,0.30574329640249504,5.200133184574944,1.1841576511823757,1.8456090750192171,4.9332857391949005,1.0,0.0008261280045284931,0.8160089939387019,-1.4717900016378842,-0.0021234858671651037,-3.14,3.14
81,0.41827259506913506,0.28432427222649076,0.3057433221532373,5.20013332946605,1.1841577133946468,1.8456090851184994,4.933286010794915,1.0,0.0008268136618927534,0.816008996195945,-1.4717899788078672,-0.002125544854113,-3.14,3.14
82,0.4182725746429988,0.2843242189561173,0.3057433439925913,5.200133452106455,1.1841577660860538,1.8456090936714933,4.93328624068609,1.0,0.0008273940254469814,0.8160089981251873,-1.4717899594662884,-0.002127287649936058,-3.14,3.14
83,0.4182725573601088,0.28432417384295694,0.30574336250868783,5.200133555913205,1.1841578107090873,1.8456091009142936,4.933286435273561,1.0,0.0008278852647497195,0.8160089997713675,-1.4717899430825716,-0.0021287628109568062,-3.14,3.14
84,0.4182725427359046,0.28432413564114645,0.30574337820298775,5.200133643778577,1.1841578484959907,1.845609107047142,4.9332865999788345,1.0,0.0008283010662682789,0.8160090011741091,-1.4717899292061107,-0.0021300114368788294,-3.14,3.14
85,0.4182725303607729,0.2843241032941537,0.30574339150253316,5.2001337181506795,1.1841578804917605,1.8456091122398124,4.9332867393908435,1.0,0.0008286530146950577,0.8160090023680725,-1.4717899174544342,-0.002131068315872998,-3.14,3.14
86,0.41827251988838765,0.2843240759062841,0.305743402770617,5.200133781101648,1.1841579075823219,1.8456091166362083,4.933286857393803,1.0,0.0008289509157075155,0.816009003383389,-1.4717899075030527,-0.0021319628938168637,-3.14,3.14
87,0.41827251102587726,0.2843240527183971,0.3057434123160401,5.200133834385416,1.1841579305185428,1.8456091203582747,4.93328695727544,1.0,0.0008292030691637113,0.8160090042461251,-1.4717898990767786,-0.002132720094691416,-3.14,3.14
88,0.41827250352553963,0.2843240330872267,0.30574342040110314,5.2001338794865495,1.1841579499366852,1.8456091235093275,4.93328704181859,1.0,0.0008294165003446456,0.8160090049787428,-1.4717898919423096,-0.002133361014992423,-3.14,3.14
89,0.41827249717784964,0.2843240164677913,0.30574342724847337,5.200133917661636,1.1841579663758,1.8456091261768888,4.9332871133787375,1.0,0.0008295971556858172,0.8160090056005362,-1.4717898859019063,-0.0021339035115035005,-3.14,3.14
90,0.41827249180555587,0.2843240023984479,0.30574343304709095,5.200133949974298,1.1841579802925097,1.8456091284350875,4.933287173949641,1.0,0.0008297500684512118,0.8160090061280366,-1.4717898807880088,-0.002134362698806986,-3.14,3.14
91,0.4182724872586977,0.2843239904881966,0.3057434379572061,5.200133977324807,1.1841579920735639,1.845609130346705,4.933287225218882,1.0,0.000829879498965437,0.8160090065753782,-1.4717898764586566,-0.0021347513703938474,-3.14,3.14
92,0.41827248341039014,0.2843239804059042,0.30574344211469284,5.200134000475187,1.1841580020464977,1.8456091319649053,4.933287268614885,1.0,0.0008299890533110248,0.8160090069546253,-1.4717898727935963,-0.0021350803551052604,-3.14,3.14
93,0.41827248015327323,0.2843239718711644,0.3057434456347252,5.200134020070441,1.1841580104886713,1.8456091333347053,4.933287305346717,1.0,0.0008300817837978746,0.8160090072760604,-1.4717898696909755,-0.0021353588188367384,-3.14,3.14
94,0.4182724773964968,0.28432396464654214,0.30574344861490693,5.200134036656518,1.1841580176349416,1.8456091344942225,4.933287336437773,1.0,0.0008301602740040089,0.8160090075484379,-1.4717898670645357,-0.002135594519910652,-3.14,3.14
95,0.4182724750631791,0.2843239585310008,0.3057434511379361,5.200134050695532,1.1841580236841627,1.845609135475727,4.933287362754287,1.0,0.0008302267107569475,0.8160090077792036,-1.4717898648412326,-0.002135794025232114,-3.14,3.14
96,0.41827247308826065,0.2843239533543326,0.3057434532738713,5.200134062578619,1.184158028804695,1.845609136306541,4.933287385029467,1.0,0.0008302829450612048,0.8160090079746851,-1.4717898629592148,-0.002135962893250587,-3.14,3.14
97,0.4182724714166804,0.28432394897243585,0.3057434550820534,5.200134072636863,1.184158033139076,1.8456091370097956,4.933287403883928,1.0,0.0008303305436693658,0.8160090081402563,-1.4717898613661125,-0.0021361058288247425,-3.14,3.14
98,0.4182724700018386,0.28432394526331584,0.3057434566127408,5.200134081150497,1.184158036807977,1.8456091376050723,4.933287419842977,1.0,0.000830370832733587,0.816009008280479,-1.4717898600175865,-0.0021362268143052866,-3.14,3.14
99,0.4182724688042987,0.28432394212369544,0.3057434579084958,5.200134088356723,1.1841580399135545,1.845609138108947,4.933287433351253,1.0,0.000830404934753728,0.8160090083992235,-1.4717898588760991,-0.0021363292204878747,-3.14,3.14
100,0.4182724677906809,0.28432393946614626,0.3057434590053577,5.200134094456315,1.1841580425422886,1.845609138535453,4.933287444785112,1.0,0.0008304337998514658,0.8160090084997723,-1.4717898579098703,-0.002136415900527384,-3.14,3.14
101,0.41827246693273484,0.28432393721665805,0.30574345993384394,5.2001340996192145,1.1841580447673867,1.8456091388964682,4.933287454463114,1.0,0.0008304582322417884,0.8160090085849083,-1.4717898570919967,-0.002136489269430127,-3.14,3.14
102,0.41827246620655156,0.28432393531258154,0.30574346071979414,5.2001341039892655,1.1841580466508186,1.8456091392020484,4.933287462654901,1.0,0.00083047891263934,0.81600900865699,-1.4717898563997027,-0.002136551371338718,-3.14,3.14
103,0.41827246559189346,0.2843239337008823,0.3057434613850813,5.200134107688224,1.1841580482450436,1.8456091394607044,4.933287469588705,1.0,0.0008304964172239047,0.8160090087180168,-1.4717898558137095,-0.00213660393648426,-3.14,3.14
104,0.41827246507163124,0.2843239323366684,0.305743461948225,5.200134110819147,1.1841580495944666,1.8456091396796426,4.93328747545771,1.0,0.0008305112336934578,0.8160090087696819,-1.4717898553176956,-0.0021366484293925897,-3.14,3.14
105,0.41827246463126716,0.2843239311819391,0.3057434624249077,5.2001341134692645,1.1841580507366765,1.8456091398649603,4.933287480425433,1.0,0.0008305237748519892,0.8160090088134203,-1.4717898548978467,-0.002136686089687667,-3.14,3.14
106,0.41827246425853154,0.28432393020452845,0.3057434628283988,5.200134115712414,1.1841580517034902,1.8456091400218209,4.933287484630282,1.0,0.0008305343901106765,0.816009008850447,-1.4717898545424677,-0.002136717966628926,-3.14,3.14
107,0.4182724639430377,0.2843239293772088,0.3057434631699363,5.200134117611092,1.1841580525218403,1.8456091401545938,4.933287488189407,1.0,0.0008305433752229153,0.8160090088817914,-1.4717898542416596,-0.0021367449483448704,-3.14,3.14
108,0.4182724636759939,0.2843239286769329,0.3057434634590318,5.200134119218196,1.184158053214524,1.8456091402669779,4.93328749120197,1.0,0.0008305509805243334,0.8160090089083248,-1.4717898539870433,-0.002136767786577352,-3.14,3.14
109,0.4182724634499599,0.284323928084193,0.3057434637037357,5.200134120578504,1.1841580538008376,1.8456091403621038,4.933287493751905,1.0,0.0008305574179074286,0.8160090089307855,-1.471789853771526,-0.0021367871176259778,-3.14,3.14
110,0.4182724632586385,0.28432392758247554,0.30574346391086266,5.200134121729913,1.1841580542971157,1.8456091404426218,4.933287495910255,1.0,0.000830562866725145,0.8160090089497982,-1.4717898535891034,-0.0021368034800761503,-3.14,3.14
111,0.41827246309669813,0.28432392715780314,0.30574346408618586,5.200134122704503,1.184158054717184,1.8456091405107757,4.9332874977371555,1.0,0.0008305674787878529,0.8160090089658921,-1.471789853434694,-0.002136817329804678,-3.14,3.14
112,0.4182724629596264,0.2843239267983456,0.30574346423458726,5.200134123529431,1.1841580550727444,1.8456091405684631,4.933287499283506,1.0,0.0008305713825929551,0.8160090089795153,-1.4717898533039961,-0.0021368290526810377,-3.14,3.14
113,0.4182724628436042,0.28432392649408705,0.3057434643602001,5.200134124227676,1.1841580553737043,1.845609140617292,4.933287500592389,1.0,0.0008305746869049841,0.816009008991047,-1.4717898531933686,-0.0021368389753181377,-3.14,3.14
114,0.41827246274540025,0.2843239262365524,0.305743464466524,5.200134124818697,1.184158055628447,1.8456091406586221,4.9332875017002715,1.0,0.0008305774837858993,0.8160090090008081,-1.4717898530997295,-0.002136847374172141,-3.14,3.14
115,0.4182724626622764,0.2843239260185653,0.30574346455652,5.2001341253189555,1.1841580558440707,1.8456091406936062,4.93328750263802,1.0,0.0008305798511600409,0.8160090090090704,-1.4717898530204698,-0.002136854483244846,-3.14,3.14
116,0.4182724625919182,0.2843239258340543,0.30574346463269625,5.200134125742389,1.1841580560265814,1.8456091407232171,4.933287503431762,1.0,0.0008305818549851901,0.8160090090160641,-1.471789852953382,-0.0021368605006032494,-3.14,3.14
117,0.4182724625323646,0.2843239256778775,0.3057434646971757,5.2001341261007985,1.184158056181065,1.8456091407482813,4.933287504103612,1.0,0.0008305835510902413,0.8160090090219839,-1.4717898528965963,-0.002136865593897926,-3.14,3.14
118,0.4182724624819562,0.2843239255456835,0.30574346475175185,5.200134126404171,1.184158056311826,1.8456091407694961,4.933287504672289,1.0,0.0008305849867306405,0.8160090090269949,-1.471789852848531,-0.0021368699050339627,-3.14,3.14
119,0.4182724624392893,0.2843239254337902,0.30574346479794784,5.200134126660954,1.184158056422506,1.8456091407874535,4.933287505153636,1.0,0.0008305862019049922,0.8160090090312363,-1.4717898528078466,-0.002136873554124602,-3.14,3.14
120,0.4182724624031742,0.28432392533907974,0.3057434648370503,5.200134126878305,1.1841580565161898,1.845609140802653,4.933287505561064,1.0,0.0008305872304694639,0.8160090090348265,-1.4717898527734101,-0.002136876642837735,-3.14,3.14
121,0.41827246237260535,0.28432392525891387,0.3057434648701479,5.200134127062275,1.1841580565954866,1.8456091408155182,4.933287505905924,1.0,0.0008305881010810499,0.8160090090378653,-1.4717898527442619,-0.002136879257228487,-3.14,3.14
122,0.4182724623467308,0.28432392519105837,0.30574346489816223,5.200134127217995,1.1841580566626064,1.845609140826408,4.933287506197827,1.0,0.0008305888379959997,0.8160090090404375,-1.4717898527195896,-0.002136881470136811,-3.14,3.14
123,0.4182724623248301,0.2843239251336239,0.3057434649218744,5.200134127349803,1.184158056719418,1.8456091408356257,4.933287506444903,1.0,0.0008305894617456148,0.8160090090426146,-1.4717898526987063,-0.002136883343216896,-3.14,3.14
124,0.4182724623062918,0.28432392508500837,0.305743464941946,5.200134127461366,1.1841580567675067,1.845609140843427,4.933287506654036,1.0,0.0008305899897082834,0.8160090090444577,-1.4717898526810302,-0.00213688492865492,-3.14,3.14
125,0.418272462290601,0.28432392504385895,0.3057434649589349,5.200134127555803,1.18415805680821,1.8456091408500312,4.933287506831054,1.0,0.0008305904365936554,0.8160090090460174,-1.471789852666068,-0.002136886270623024,-3.14,3.14
126,0.4182724622773195,0.284323925009029,0.30574346497331456,5.200134127635732,1.1841580568426624,1.8456091408556208,4.933287506980887,1.0,0.0008305908148524754,0.8160090090473376,-1.4717898526534037,-0.002136887406509994,-3.14,3.14
127,0.41827246226607795,0.2843239249795473,0.3057434649854863,5.200134127703388,1.1841580568718244,1.8456091408603523,4.9332875071077105,1.0,0.0008305911350234667,0.8160090090484552,-1.4717898526426842,-0.0021368883679629544,-3.14,3.14
128,0.4182724622565624,0.28432392495459363,0.30574346499578886,5.200134127760656,1.1841580568965075,1.845609140864357,4.933287507215059,1.0,0.0008305914060269742,0.8160090090494011,-1.471789852633611,-0.0021368891817691,-3.14,3.14
129,0.4182724622485086,0.2843239249334718,0.3057434650045098,5.200134127809127,1.1841580569174004,1.8456091408677466,4.933287507305922,1.0,0.0008305916354134627,0.8160090090502018,-1.471789852625931,-0.002136889870602011,-3.14,3.14
130,0.4182724622416908,0.284323924915593,0.30574346501189104,5.200134127850156,1.1841580569350854,1.845609140870616,4.933287507382831,1.0,0.000830591829573907,0.8160090090508796,-1.4717898526194306,-0.002136890453653371,-3.14,3.14
131,0.4182724622359207,0.2843239249004607,0.3057434650181385,5.200134127884883,1.1841580569500536,1.8456091408730444,4.93328750744793,1.0,0.0008305919939178392,0.8160090090514532,-1.4717898526139284,-0.002136890947167665,-3.14,3.14
132,0.41827246223103626,0.28432392488765135,0.3057434650234269,5.2001341279142785,1.1841580569627241,1.8456091408750999,4.933287507503032,1.0,0.000830592133024078,0.816009009051939,-1.4717898526092712,-0.0021368913648947743,-3.14,3.14
133,0.41827246222690234,0.28432392487680963,0.30574346502790395,5.200134127939161,1.1841580569734482,1.8456091408768402,4.9332875075496725,1.0,0.0008305922507682808,0.81600900905235,-1.4717898526053288,-0.0021368917184730585,-3.14,3.14
134,0.41827246222340275,0.2843239248676324,0.3057434650316927,5.2001341279602205,1.184158056982526,1.8456091408783126,4.93328750758915,1.0,0.0008305923504309356,0.8160090090526979,-1.4717898526019921,-0.0021368920177536194,-3.14,3.14
135,0.4182724622204413,0.2843239248598647,0.3057434650348994,5.200134127978047,1.1841580569902095,1.8456091408795594,4.933287507622565,1.0,0.0008305924347887634,0.8160090090529923,-1.471789852599168,-0.002136892271074759,-3.14,3.14
136,0.4182724622179337,0.2843239248532898,0.30574346503761407,5.200134127993134,1.1841580569967132,1.8456091408806146,4.9332875076508484,1.0,0.0008305925061920682,0.8160090090532415,-1.4717898525967772,-0.0021368924854942963,-3.14,3.14
137,0.4182724622158115,0.28432392484772456,0.30574346503991195,5.200134128005905,1.184158057002218,1.8456091408815074,4.933287507674789,1.0,0.0008305925666302254,0.8160090090534524,-1.4717898525947537,-0.0021368926669862102,-3.14,3.14
138,0.4182724622140155,0.2843239248430142,0.30574346504185573,5.200134128016717,1.1841580570068773,1.8456091408822637,4.933287507695054,1.0,0.0008305926177871189,0.8160090090536308,-1.4717898525930406,-0.002136892820607075,-3.14,3.14
139,0.41827246221249514,0.284323924839027,0.30574346504350225,5.200134128025867,1.1841580570108212,1.8456091408829036,4.9332875077122065,1.0,0.0008305926610880309,0.8160090090537822,-1.4717898525915911,-0.0021368929506369433,-3.14,3.14
140,0.41827246221120834,0.2843239248356518,0.30574346504489647,5.200134128033613,1.1841580570141599,1.8456091408834452,4.933287507726725,1.0,0.0008305926977393793,0.81600900905391,-1.4717898525903639,-0.002136893060698601,-3.14,3.14
141,0.41827246221011927,0.2843239248327955,0.3057434650460753,5.200134128040168,1.1841580570169852,1.8456091408839037,4.933287507739013,1.0,0.0008305927287623168,0.8160090090540182,-1.471789852589325,-0.0021368931538584927,-3.14,3.14
142,0.41827246220919695,0.28432392483037744,0.3057434650470741,5.200134128045716,1.184158057019377,1.8456091408842918,4.933287507749414,1.0,0.0008305927550211758,0.8160090090541099,-1.4717898525884456,-0.0021368932327121603,-3.14,3.14
143,0.4182724622084169,0.2843239248283309,0.30574346504791877,5.200134128050414,1.1841580570214014,1.8456091408846202,4.933287507758219,1.0,0.0008305927772475582,0.8160090090541875,-1.4717898525877016,-0.002136893299456559,-3.14,3.14
144,0.41827246220775627,0.2843239248265988,0.3057434650486336,5.200134128054388,1.1841580570231147,1.8456091408848982,4.93328750776567,1.0,0.0008305927960607166,0.8160090090542531,-1.4717898525870718,-0.0021368933559512654,-3.14,3.14
145,0.41827246220719705,0.28432392482513225,0.3057434650492385,5.200134128057753,1.1841580570245653,1.8456091408851336,4.933287507771978,1.0,0.0008305928119848058,0.8160090090543087,-1.4717898525865387,-0.002136893403770285,-3.14,3.14
146,0.4182724622067234,0.2843239248238912,0.3057434650497519,5.2001341280606015,1.184158057025793,1.8456091408853326,4.933287507777317,1.0,0.0008305928254634896,0.8160090090543558,-1.4717898525860875,-0.0021368934442459126,-3.14,3.14
147,0.41827246220632286,0.28432392482284075,0.30574346505018496,5.200134128063012,1.184158057026832,1.8456091408855015,4.933287507781836,1.0,0.0008305928368723004,0.8160090090543957,-1.4717898525857056,-0.002136893478505845,-3.14,3.14
148,0.41827246220598346,0.28432392482195146,0.30574346505055233,5.200134128065052,1.1841580570277117,1.845609140885644,4.9332875077856615,1.0,0.0008305928465291038,0.8160090090544294,-1.4717898525853825,-0.0021368935075046064,-3.14,3.14
149,0.41827246220569647,0.2843239248211986,0.30574346505086286,5.2001341280667805,1.1841580570284564,1.8456091408857644,4.9332875077889,1.0,0.0008305928547029474,0.8160090090544581,-1.4717898525851092,-0.002136893532050134,-3.14,3.14
150,0.41827246220545394,0.2843239248205619,0.3057434650511255,5.2001341280682425,1.1841580570290862,1.845609140885867,4.93328750779164,1.0,0.000830592861621563,0.816009009054482,-1.4717898525848774,-0.0021368935528262934,-3.14,3.14
151,0.41827246220524833,0.28432392482002256,0.30574346505134825,5.20013412806948,1.1841580570296197,1.8456091408859534,4.93328750779396,1.0,0.0008305928674777146,0.8160090090545026,-1.4717898525846813,-0.0021368935704119355,-3.14,3.14
152,0.41827246220507397,0.284323924819566,0.3057434650515371,5.200134128070526,1.1841580570300714,1.8456091408860267,4.933287507795923,1.0,0.000830592872434559,0.8160090090545199,-1.4717898525845152,-0.0021368935852970144,-3.14,3.14
153,0.418272462204927,0.2843239248191799,0.3057434650516965,5.200134128071414,1.1841580570304533,1.8456091408860884,4.933287507797584,1.0,0.0008305928766301963,0.8160090090545346,-1.471789852584375,-0.002136893597896246,-3.14,3.14
154,0.41827246220480224,0.284323924818853,0.3057434650518315,5.200134128072163,1.1841580570307766,1.8456091408861413,4.933287507798991,1.0,0.0008305928801815266,0.8160090090545469,-1.4717898525842559,-0.0021368936085606593,-3.14,3.14
155,0.4182724622046966,0.2843239248185757,0.30574346505194655,5.2001341280728,1.1841580570310508,1.8456091408861859,4.933287507800182,1.0,0.00083059288318749,0.8160090090545574,-1.471789852584155,-0.002136893617587378,-3.14,3.14
156,0.4182724622046075,0.2843239248183415,0.3057434650520432,5.200134128073336,1.1841580570312826,1.8456091408862227,4.9332875078011895,1.0,0.0008305928857318393,0.8160090090545664,-1.47178985258407,-0.0021368936252278955,-3.14,3.14
157,0.41827246220453157,0.28432392481814334,0.3057434650521251,5.200134128073791,1.1841580570314785,1.8456091408862554,4.933287507802043,1.0,0.0008305928878854621,0.8160090090545737,-1.4717898525839974,-0.0021368936316950872,-3.14,3.14
158,0.4182724622044678,0.284323924817975,0.3057434650521944,5.200134128074176,1.184158057031645,1.845609140886282,4.933287507802765,1.0,0.0008305928897083617,0.8160090090545802,-1.4717898525839366,-0.002136893637169137,-3.14,3.14
159,0.4182724622044136,0.28432392481783336,0.3057434650522527,5.200134128074502,1.1841580570317851,1.8456091408863051,4.933287507803376,1.0,0.0008305928912513262,0.8160090090545854,-1.4717898525838846,-0.002136893641802557,-3.14,3.14
160,0.41827246220436787,0.2843239248177133,0.3057434650523028,5.2001341280747795,1.184158057031904,1.8456091408863242,4.933287507803894,1.0,0.0008305928925573427,0.8160090090545901,-1.4717898525838413,-0.0021368936457244387,-3.14,3.14
161,0.4182724622043284,0.28432392481761115,0.3057434650523441,5.200134128075012,1.184158057032005,1.8456091408863404,4.933287507804331,1.0,0.0008305928936627987,0.816009009054594,-1.4717898525838045,-0.0021368936490440515,-3.14,3.14
162,0.41827246220429587,0.28432392481752516,0.30574346505237954,5.200134128075211,1.18415805703209,1.8456091408863544,4.933287507804702,1.0,0.000830592894598493,0.8160090090545973,-1.4717898525837734,-0.002136893651853883,-3.14,3.14
163,0.4182724622042683,0.28432392481745244,0.30574346505240907,5.200134128075378,1.184158057032162,1.845609140886366,4.933287507805016,1.0,0.0008305928953904954,0.8160090090546,-1.471789852583747,-0.0021368936542322187,-3.14,3.14
164,0.4182724622042447,0.2843239248173906,0.3057434650524356,5.20013412807552,1.1841580570322232,1.8456091408863755,4.933287507805281,1.0,0.000830592896060875,0.8160090090546025,-1.4717898525837243,-0.002136893656245323,-3.14,3.14
165,0.41827246220422465,0.28432392481733837,0.30574346505245625,5.200134128075639,1.1841580570322747,1.8456091408863846,4.933287507805506,1.0,0.0008305928966283059,0.8160090090546043,-1.471789852583705,-0.0021368936579492814,-3.14,3.14
166,0.41827246220420766,0.28432392481729396,0.30574346505247546,5.2001341280757405,1.1841580570323187,1.8456091408863915,4.933287507805696,1.0,0.0008305928971085988,0.816009009054606,-1.4717898525836892,-0.0021368936593915704,-3.14,3.14
167,0.4182724622041932,0.28432392481725655,0.3057434650524902,5.200134128075825,1.1841580570323558,1.8456091408863973,4.933287507805857,1.0,0.0008305928975151334,0.8160090090546076,-1.471789852583676,-0.002136893660612371,-3.14,3.14
168,0.418272462204181,0.2843239248172252,0.3057434650525035,5.200134128075899,1.1841580570323869,1.8456091408864022,4.933287507805994,1.0,0.0008305928978592399,0.8160090090546088,-1.4717898525836643,-0.0021368936616456987,-3.14,3.14
169,0.4182724622041711,0.2843239248171983,0.30574346505251454,5.200134128075961,1.1841580570324133,1.8456091408864068,4.933287507806109,1.0,0.0008305928981505021,0.8160090090546098,-1.4717898525836546,-0.002136893662520341,-3.14,3.14
170,0.4182724622041624,0.2843239248171757,0.30574346505252414,5.200134128076013,1.1841580570324357,1.8456091408864101,4.933287507806207,1.0,0.0008305928983970349,0.8160090090546107,-1.4717898525836464,-0.002136893663260668,-3.14,3.14
171,0.4182724622041549,0.2843239248171562,0.30574346505253225,5.200134128076057,1.184158057032455,1.8456091408864135,4.933287507806289,1.0,0.000830592898605712,0.8160090090546114,-1.4717898525836393,-0.0021368936638873066,-3.14,3.14
172,0.4182724622041489,0.28432392481714003,0.3057434650525389,5.200134128076095,1.184158057032471,1.845609140886416,4.93328750780636,1.0,0.0008305928987823427,0.816009009054612,-1.4717898525836335,-0.0021368936644177144,-3.14,3.14
173,0.4182724622041439,0.2843239248171263,0.3057434650525448,5.200134128076126,1.1841580570324846,1.8456091408864181,4.933287507806418,1.0,0.0008305928989318492,0.8160090090546125,-1.4717898525836284,-0.002136893664866669,-3.14,3.14
174,0.41827246220413933,0.2843239248171149,0.30574346505254923,5.2001341280761535,1.1841580570324959,1.84560914088642,4.933287507806469,1.0,0.0008305928990583951,0.8160090090546129,-1.4717898525836242,-0.0021368936652466797,-3.14,3.14
175,0.418272462204136,0.2843239248171053,0.3057434650525529,5.200134128076175,1.1841580570325054,1.8456091408864213,4.933287507806511,1.0,0.0008305928991655082,0.8160090090546134,-1.4717898525836206,-0.002136893665568334,-3.14,3.14
176,0.4182724622041326,0.28432392481709645,0.3057434650525566,5.2001341280761935,1.184158057032514,1.845609140886423,4.933287507806546,1.0,0.0008305928992561701,0.8160090090546136,-1.4717898525836173,-0.0021368936658405922,-3.14,3.14
177,0.41827246220412984,0.2843239248170891,0.30574346505255956,5.20013412807621,1.1841580570325214,1.845609140886424,4.933287507806576,1.0,0.0008305928993329089,0.8160090090546139,-1.4717898525836148,-0.0021368936660710416,-3.14,3.14
178,0.41827246220412745,0.28432392481708335,0.3057434650525625,5.200134128076224,1.184158057032527,1.8456091408864255,4.933287507806602,1.0,0.0008305928993978664,0.8160090090546139,-1.4717898525836124,-0.0021368936662661013,-3.14,3.14
179,0.4182724622041258,0.2843239248170782,0.30574346505256395,5.200134128076236,1.184158057032532,1.8456091408864261,4.933287507806624,1.0,0.0008305928994528465,0.8160090090546142,-1.4717898525836106,-0.002136893666431206,-3.14,3.14
180,0.41827246220412423,0.28432392481707425,0.30574346505256544,5.200134128076246,1.184158057032536,1.8456091408864266,4.933287507806643,1.0,0.0008305928994993861,0.8160090090546143,-1.471789852583609,-0.0021368936665709564,-3.14,3.14
181,0.41827246220412273,0.28432392481707086,0.30574346505256694,5.200134128076254,1.1841580570325394,1.8456091408864272,4.933287507806659,1.0,0.0008305928995387784,0.8160090090546144,-1.4717898525836077,-0.0021368936666892467,-3.14,3.14
182,0.4182724622041212,0.2843239248170671,0.3057434650525684,5.200134128076262,1.1841580570325432,1.8456091408864277,4.933287507806672,1.0,0.0008305928995721194,0.8160090090546146,-1.4717898525836066,-0.0021368936667893693,-3.14,3.14
183,0.4182724622041203,0.28432392481706487,0.3057434650525699,5.200134128076269,1.1841580570325454,1.845609140886428,4.933287507806684,1.0,0.0008305928996003404,0.8160090090546146,-1.4717898525836057,-0.0021368936668741175,-3.14,3.14
184,0.4182724622041193,0.2843239248170623,0.3057434650525706,5.200134128076273,1.1841580570325478,1.8456091408864286,4.933287507806693,1.0,0.0008305928996242282,0.8160090090546147,-1.4717898525836048,-0.002136893666945851,-3.14,3.14
185,0.41827246220411884,0.28432392481706076,0.30574346505257133,5.200134128076277,1.1841580570325494,1.8456091408864288,4.9332875078067,1.0,0.000830592899644448,0.8160090090546148,-1.4717898525836042,-0.002136893667006569,-3.14,3.14
186,0.41827246220411807,0.28432392481705887,0.3057434650525721,5.200134128076279,1.1841580570325512,1.8456091408864295,4.933287507806706,1.0,0.0008305928996615635,0.8160090090546148,-1.4717898525836035,-0.0021368936670579626,-3.14,3.14
187,0.4182724622041175,0.284323924817058,0.3057434650525728,5.200134128076283,1.184158057032552,1.8456091408864295,4.933287507806712,1.0,0.0008305928996760472,0.816009009054615,-1.4717898525836033,-0.0021368936671014634,-3.14,3.14
188,0.4182724622041174,0.2843239248170567,0.3057434650525728,5.200134128076286,1.1841580570325534,1.8456091408864295,4.933287507806717,1.0,0.0008305928996883096,0.8160090090546152,-1.471789852583603,-0.002136893667138285,-3.14,3.14
189,0.41827246220411696,0.2843239248170558,0.3057434650525728,5.200134128076288,1.1841580570325543,1.8456091408864295,4.933287507806721,1.0,0.0008305928996986894,0.8160090090546152,-1.4717898525836026,-0.0021368936671694524,-3.14,3.14
190,0.41827246220411646,0.2843239248170549,0.30574346505257355,5.200134128076289,1.1841580570325552,1.84560914088643,4.933287507806725,1.0,0.0008305928997074753,0.8160090090546152,-1.4717898525836024,-0.002136893667195833,-3.14,3.14
191,0.4182724622041166,0.2843239248170546,0.30574346505257355,5.200134128076293,1.1841580570325556,1.8456091408864292,4.933287507806728,1.0,0.0008305928997149124,0.8160090090546153,-1.4717898525836024,-0.002136893667218163,-3.14,3.14
192,0.4182724622041164,0.28432392481705376,0.3057434650525743,5.200134128076293,1.1841580570325563,1.84560914088643,4.93328750780673,1.0,0.000830592899721205,0.8160090090546152,-1.4717898525836017,-0.0021368936672370633,-3.14,3.14
193,0.41827246220411585,0.2843239248170528,0.30574346505257505,5.200134128076295,1.1841580570325572,1.8456091408864304,4.933287507806733,1.0,0.0008305928997265349,0.8160090090546152,-1.4717898525836013,-0.002136893667253061,-3.14,3.14
194,0.41827246220411574,0.28432392481705265,0.30574346505257505,5.200134128076296,1.1841580570325574,1.8456091408864301,4.933287507806734,1.0,0.000830592899731041,0.8160090090546153,-1.4717898525836013,-0.0021368936672666013,-3.14,3.14
195,0.41827246220411535,0.2843239248170518,0.30574346505257505,5.200134128076296,1.1841580570325583,1.8456091408864301,4.933287507806735,1.0,0.0008305928997348593,0.8160090090546154,-1.4717898525836013,-0.002136893667278063,-3.14,3.14
196,0.4182724622041155,0.28432392481705226,0.30574346505257505,5.200134128076297,1.1841580570325578,1.84560914088643,4.933287507806737,1.0,0.0008305928997380896,0.8160090090546153,-1.4717898525836013,-0.0021368936672877645,-3.14,3.14
197,0.4182724622041154,0.2843239248170517,0.30574346505257505,5.2001341280762965,1.1841580570325583,1.8456091408864306,4.933287507806738,1.0,0.0008305928997408231,0.8160090090546152,-1.471789852583601,-0.0021368936672959754,-3.14,3.14
198,0.41827246220411524,0.2843239248170518,0.30574346505257505,5.200134128076297,1.1841580570325583,1.8456091408864301,4.933287507806739,1.0,0.0008305928997431371,0.8160090090546153,-1.4717898525836013,-0.0021368936673029255,-3.14,3.14
199,0.41827246220411546,0.2843239248170518,0.30574346505257505,5.200134128076298,1.1841580570325583,1.8456091408864301,4.93328750780674,1.0,0.0008305928997450964,0.8160090090546153,-1.4717898525836013,-0.0021368936673088084,-3.14,3.14
200,0.41827246220411496,0.2843239248170514,0.30574346505257577,5.200134128076298,1.1841580570325587,1.8456091408864301,4.933287507806741,1.0,0.0008305928997467566,0.8160090090546153,-1.471789852583601,-0.0021368936673137892,-3.14,3.14
201,0.41827246220411535,0.28432392481705093,0.30574346505257577,5.200134128076299,1.1841580570325592,1.8456091408864301,4.9332875078067415,1.0,0.0008305928997481604,0.8160090090546153,-1.4717898525836008,-0.002136893667318004,-3.14,3.14
202,0.41827246220411546,0.2843239248170512,0.30574346505257577,5.2001341280763,1.1841580570325587,1.8456091408864308,4.9332875078067415,1.0,0.0008305928997493495,0.8160090090546152,-1.4717898525836004,-0.002136893667321572,-3.14,3.14
203,0.4182724622041156,0.28432392481705115,0.30574346505257577,5.200134128076298,1.184158057032559,1.8456091408864301,4.9332875078067415,1.0,0.0008305928997503546,0.8160090090546154,-1.4717898525836006,-0.002136893667324592,-3.14,3.14
204,0.41827246220411496,0.28432392481705054,0.3057434650525765,5.200134128076299,1.1841580570325596,1.8456091408864301,4.933287507806742,1.0,0.0008305928997512037,0.8160090090546154,-1.4717898525836004,-0.002136893667327148,-3.14,3.14
205,0.41827246220411507,0.2843239248170505,0.30574346505257577,5.200134128076299,1.1841580570325594,1.845609140886431,4.933287507806742,1.0,0.0008305928997519266,0.8160090090546152,-1.4717898525836002,-0.0021368936673293124,-3.14,3.14
206,0.4182724622041149,0.2843239248170505,0.30574346505257577,5.200134128076299,1.1841580570325596,1.8456091408864304,4.933287507806742,1.0,0.000830592899752533,0.8160090090546154,-1.4717898525836006,-0.002136893667331143,-3.14,3.14
207,0.4182724622041152,0.28432392481705066,0.30574346505257577,5.200134128076299,1.1841580570325594,1.8456091408864304,4.933287507806742,1.0,0.0008305928997530496,0.8160090090546153,-1.4717898525836006,-0.002136893667332693,-3.14,3.14
208,0.41827246220411507,0.2843239248170503,0.30574346505257577,5.200134128076299,1.1841580570325596,1.845609140886431,4.933287507806742,1.0,0.0008305928997534876,0.8160090090546152,-1.4717898525836004,-0.0021368936673340053,-3.14,3.14
209,0.41827246220411496,0.2843239248170506,0.30574346505257577,5.200134128076298,1.1841580570325594,1.8456091408864306,4.933287507806742,1.0,0.0008305928997538565,0.8160090090546153,-1.4717898525836006,-0.0021368936673351155,-3.14,3.14
210,0.41827246220411524,0.2843239248170509,0.30574346505257577,5.2001341280763,1.1841580570325592,1.8456091408864304,4.933287507806743,1.0,0.00083059289975417,0.8160090090546153,-1.4717898525836006,-0.0021368936673360557,-3.14,3.14
211,0.41827246220411535,0.2843239248170508,0.30574346505257577,5.2001341280763,1.1841580570325592,1.8456091408864306,4.933287507806743,1.0,0.0008305928997544351,0.8160090090546153,-1.4717898525836006,-0.002136893667336851,-3.14,3.14
212,0.4182724622041153,0.28432392481705066,0.30574346505257577,5.2001341280763,1.1841580570325594,1.8456091408864304,4.933287507806743,1.0,0.0008305928997546589,0.8160090090546154,-1.4717898525836006,-0.0021368936673375246,-3.14,3.14
213,0.4182724622041149,0.28432392481705027,0.30574346505257577,5.2001341280763,1.1841580570325598,1.8456091408864304,4.933287507806743,1.0,0.0008305928997548484,0.8160090090546154,-1.4717898525836006,-0.002136893667338095,-3.14,3.14
214,0.4182724622041149,0.28432392481705027,0.30574346505257577,5.200134128076299,1.1841580570325598,1.8456091408864304,4.933287507806743,1.0,0.0008305928997550101,0.8160090090546154,-1.4717898525836006,-0.002136893667338578,-3.14,3.14
215,0.41827246220411524,0.2843239248170505,0.3057434650525765,5.200134128076299,1.1841580570325596,1.8456091408864304,4.933287507806743,1.0,0.0008305928997551437,0.8160090090546153,-1.4717898525836004,-0.0021368936673389857,-3.14,3.14
216,0.41827246220411485,0.2843239248170504,0.30574346505257577,5.200134128076299,1.1841580570325596,1.8456091408864306,4.933287507806743,1.0,0.0008305928997552592,0.8160090090546152,-1.4717898525836002,-0.0021368936673393318,-3.14,3.14
217,0.4182724622041153,0.2843239248170504,0.3057434650525765,5.200134128076299,1.1841580570325596,1.8456091408864306,4.933287507806743,1.0,0.0008305928997553565,0.8160090090546153,-1.4717898525836004,-0.002136893667339624,-3.14,3.14
218,0.4182724622041151,0.28432392481705016,0.3057434650525765,5.200134128076299,1.1841580570325598,1.8456091408864306,4.933287507806743,1.0,0.0008305928997554386,0.8160090090546153,-1.4717898525836002,-0.002136893667339872,-3.14,3.14
219,0.41827246220411485,0.28432392481705016,0.3057434650525765,5.200134128076299,1.1841580570325598,1.8456091408864306,4.933287507806743,1.0,0.0008305928997555074,0.8160090090546153,-1.4717898525836002,-0.002136893667340081,-3.14,3.14
220,0.41827246220411485,0.28432392481705016,0.3057434650525765,5.200134128076299,1.1841580570325598,1.8456091408864306,4.933287507806743,1.0,0.0008305928997555673,0.8160090090546153,-1.4717898525836002,-0.0021368936673402585,-3.14,3.14
221,0.41827246220411485,0.28432392481705016,0.3057434650525765,5.200134128076299,1.1841580570325598,1.8456091408864306,4.933287507806743,1.0,0.0008305928997556163,0.8160090090546153,-1.4717898525836002,-0.0021368936673404086,-3.14,3.14
222,0.41827246220411496,0.2843239248170504,0.3057434650525765,5.2001341280763,1.1841580570325596,1.8456091408864306,4.933287507806743,1.0,0.0008305928997556595,0.8160090090546153,-1.4717898525836004,-0.002136893667340536,-3.14,3.14
223,0.418272462204115,0.2843239248170506,0.3057434650525765,5.2001341280763,1.1841580570325594,1.8456091408864306,4.933287507806743,1.0,0.000830592899755698,0.8160090090546153,-1.4717898525836004,-0.002136893667340644,-3.14,3.14
224,0.41827246220411474,0.28432392481705016,0.3057434650525765,5.2001341280763,1.1841580570325598,1.8456091408864306,4.933287507806743,1.0,0.0008305928997557276,0.8160090090546154,-1.4717898525836004,-0.002136893667340735,-3.14,3.14
225,0.41827246220411474,0.28432392481705016,0.3057434650525765,5.2001341280763,1.1841580570325598,1.8456091408864306,4.933287507806743,1.0,0.0008305928997557518,0.8160090090546154,-1.4717898525836004,-0.002136893667340812,-3.14,3.14
226,0.41827246220411474,0.28432392481705016,0.3057434650525765,5.2001341280763,1.1841580570325598,1.8456091408864306,4.933287507806743,1.0,0.0008305928997557726,0.8160090090546154,-1.4717898525836004,-0.002136893667340878,-3.14,3.14
227,0.4182724622041148,0.28432392481705016,0.3057434650525765,5.2001341280763,1.1841580570325598,1.8456091408864306,4.933287507806743,1.0,0.0008305928997557902,0.8160090090546154,-1.4717898525836004,-0.002136893667340933,-3.14,3.14
228,0.4182724622041149,0.28432392481705054,0.30574346505257577,5.2001341280763,1.1841580570325596,1.8456091408864301,4.933287507806743,1.0,0.0008305928997558038,0.8160090090546154,-1.4717898525836006,-0.0021368936673409797,-3.14,3.14
229,0.4182724622041153,0.2843239248170506,0.3057434650525765,5.2001341280763,1.1841580570325594,1.8456091408864306,4.933287507806743,1.0,0.0008305928997558216,0.8160090090546153,-1.4717898525836004,-0.0021368936673410196,-3.14,3.14
230,0.4182724622041153,0.2843239248170506,0.3057434650525765,5.2001341280763,1.1841580570325594,1.8456091408864306,4.933287507806743,1.0,0.0008305928997558317,0.8160090090546153,-1.4717898525836004,-0.0021368936673410535,-3.14,3.14
231,0.4182724622041153,0.2843239248170506,0.3057434650525765,5.2001341280763,1.1841580570325594,1.8456091408864306,4.933287507806743,1.0,0.0008305928997558404,0.8160090090546153,-1.4717898525836004,-0.002136893667341082,-3.14,3.14
232,0.418272462204115,0.2843239248170506,0.3057434650525765,5.2001341280763,1.1841580570325594,1.8456091408864306,4.933287507806743,1.0,0.0008305928997558512,0.8160090090546153,-1.4717898525836004,-0.002136893667341107,-3.14,3.14
233,0.4182724622041148,0.28432392481705016,0.3057434650525765,5.2001341280763,1.1841580570325598,1.8456091408864306,4.933287507806743,1.0,0.0008305928997558586,0.8160090090546154,-1.4717898525836004,-0.0021368936673411268,-3.14,3.14
234,0.4182724622041149,0.28432392481705054,0.30574346505257577,5.2001341280763,1.1841580570325596,1.8456091408864301,4.933287507806743,1.0,0.0008305928997558654,0.8160090090546154,-1.4717898525836006,-0.002136893667341145,-3.14,3.14
235,0.418272462204115,0.2843239248170506,0.3057434650525765,5.2001341280763,1.1841580570325594,1.8456091408864306,4.933287507806743,1.0,0.0008305928997558712,0.8160090090546153,-1.4717898525836004,-0.0021368936673411593,-3.14,3.14
236,0.41827246220411474,0.28432392481705016,0.3057434650525765,5.2001341280763,1.1841580570325598,1.8456091408864306,4.933287507806743,1.0,0.0008305928997558739,0.8160090090546154,-1.4717898525836004,-0.002136893667341171,-3.14,3.14
237,0.41827246220411474,0.28432392481705016,0.3057434650525765,5.2001341280763,1.1841580570325598,1.8456091408864306,4.933287507806743,1.0,0.0008305928997558751,0.8160090090546154,-1.4717898525836004,-0.0021368936673411814,-3.14,3.14
238,0.41827246220411474,0.28432392481705016,0.3057434650525765,5.2001341280763,1.1841580570325598,1.8456091408864306,4.933287507806743,1.0,0.0008305928997558761,0.8160090090546154,-1.4717898525836004,-0.00213689366734119,-3.14,3.14
239,0.41827246220411474,0.28432392481705016,0.3057434650525765,5.2001341280763,1.1841580570325598,1.8456091408864306,4.933287507806743,1.0,0.0008305928997558792,0.8160090090546154,-1.4717898525836004,-0.0021368936673411974,-3.14,3.14
240,0.41827246220411474,0.28432392481705016,0.3057434650525765,5.2001341280763,1.1841580570325598,1.8456091408864306,4.933287507806743,1.0,0.0008305928997558822,0.8160090090546154,-1.4717898525836004,-0.0021368936673412044,-3.14,3.14
241,0.41827246220411474,0.28432392481705016,0.3057434650525765,5.2001341280763,1.1841580570325598,1.8456091408864306,4.933287507806743,1.0,0.0008305928997558857,0.8160090090546154,-1.4717898525836004,-0.0021368936673412105,-3.14,3.14
242,0.41827246220411474,0.28432392481705016,0.3057434650525765,5.2001341280763,1.1841580570325598,1.8456091408864306,4.933287507806743,1.0,0.0008305928997558882,0.8160090090546154,-1.4717898525836004,-0.0021368936673412152,-3.14,3.14
243,0.41827246220411474,0.28432392481705016,0.3057434650525765,5.2001341280763,1.1841580570325598,1.8456091408864306,4.933287507806743,1.0,0.0008305928997558892,0.8160090090546154,-1.4717898525836004,-0.002136893667341219,-3.14,3.14
244,0.41827246220411474,0.28432392481705016,0.3057434650525765,5.2001341280763,1.1841580570325598,1.8456091408864306,4.933287507806743,1.0,0.0008305928997558913,0.8160090090546154,-1.4717898525836004,-0.002136893667341223,-3.14,3.14
245,0.41827246220411474,0.28432392481705016,0.3057434650525765,5.2001341280763,1.1841580570325598,1.8456091408864306,4.933287507806743,1.0,0.0008305928997558904,0.8160090090546154,-1.4717898525836004,-0.002136893667341225,-3.14,3.14
246,0.41827246220411474,0.28432392481705016,0.3057434650525765,5.2001341280763,1.1841580570325598,1.8456091408864306,4.933287507806743,1.0,0.0008305928997558896,0.8160090090546154,-1.4717898525836004,-0.002136893667341227,-3.14,3.14
247,0.41827246220411474,0.28432392481705016,0.3057434650525765,5.2001341280763,1.1841580570325598,1.8456091408864306,4.933287507806743,1.0,0.0008305928997558901,0.8160090090546154,-1.4717898525836004,-0.0021368936673412287,-3.14,3.14
248,0.41827246220411474,0.28432392481705016,0.3057434650525765,5.2001341280763,1.1841580570325598,1.8456091408864306,4.933287507806743,1.0,0.0008305928997558913,0.8160090090546154,-1.4717898525836004,-0.0021368936673412304,-3.14,3.14
249,0.4182724622041148,0.28432392481705016,0.3057434650525765,5.2001341280763,1.1841580570325598,1.8456091408864306,4.933287507806743,1.0,0.0008305928997558931,0.8160090090546154,-1.4717898525836004,-0.0021368936673412326,-3.14,3.14
250,0.4182724622041149,0.28432392481705054,0.30574346505257577,5.2001341280763,1.1841580570325596,1.8456091408864301,4.933287507806743,1.0,0.0008305928997558912,0.8160090090546154,-1.4717898525836006,-0.002136893667341234,-3.14,3.14
251,0.418272462204115,0.2843239248170506,0.3057434650525765,5.2001341280763,1.1841580570325594,1.8456091408864306,4.933287507806743,1.0,0.0008305928997558911,0.8160090090546153,-1.4717898525836004,-0.0021368936673412347,-3.14,3.14
252,0.4182724622041148,0.28432392481705016,0.3057434650525765,5.2001341280763,1.1841580570325598,1.8456091408864306,4.933287507806743,1.0,0.0008305928997558926,0.8160090090546154,-1.4717898525836004,-0.0021368936673412356,-3.14,3.14
253,0.4182724622041149,0.28432392481705054,0.30574346505257577,5.2001341280763,1.1841580570325596,1.8456091408864301,4.933287507806743,1.0,0.0008305928997558906,0.8160090090546154,-1.4717898525836006,-0.002136893667341236,-3.14,3.14
254,0.418272462204115,0.2843239248170506,0.3057434650525765,5.2001341280763,1.1841580570325594,1.8456091408864306,4.933287507806743,1.0,0.00083059289975589,0.8160090090546153,-1.4717898525836004,-0.0021368936673412365,-3.14,3.14
255,0.41827246220411474,0.28432392481705016,0.3057434650525765,5.2001341280763,1.1841580570325598,1.8456091408864306,4.933287507806743,1.0,0.0008305928997558911,0.8160090090546154,-1.4717898525836004,-0.002136893667341237,-3.14,3.14
256,0.4182724622041148,0.28432392481705016,0.3057434650525765,5.2001341280763,1.1841580570325598,1.8456091408864306,4.933287507806743,1.0,0.0008305928997558922,0.8160090090546154,-1.4717898525836004,-0.0021368936673412373,-3.14,3.14
257,0.4182724622041149,0.28432392481705054,0.30574346505257577,5.2001341280763,1.1841580570325596,1.8456091408864301,4.933287507806743,1.0,0.000830592899755891,0.8160090090546154,-1.4717898525836006,-0.0021368936673412373,-3.14,3.14
258,0.418272462204115,0.2843239248170506,0.3057434650525765,5.2001341280763,1.1841580570325594,1.8456091408864306,4.933287507806743,1.0,0.0008305928997558909,0.8160090090546153,-1.4717898525836004,-0.0021368936673412378,-3.14,3.14
259,0.4182724622041148,0.28432392481705016,0.3057434650525765,5.2001341280763,1.1841580570325598,1.8456091408864306,4.933287507806743,1.0,0.0008305928997558937,0.8160090090546154,-1.4717898525836004,-0.0021368936673412386,-3.14,3.14
260,0.41827246220411496,0.28432392481705054,0.30574346505257577,5.2001341280763,1.1841580570325596,1.8456091408864301,4.933287507806743,1.0,0.0008305928997558937,0.8160090090546154,-1.4717898525836006,-0.0021368936673412386,-3.14,3.14
261,0.41827246220411496,0.2843239248170506,0.30574346505257577,5.2001341280763,1.1841580570325594,1.8456091408864306,4.933287507806743,1.0,0.0008305928997558946,0.8160090090546153,-1.4717898525836006,-0.0021368936673412395,-3.14,3.14
262,0.41827246220411496,0.28432392481705054,0.30574346505257577,5.2001341280763,1.1841580570325596,1.8456091408864301,4.933287507806743,1.0,0.0008305928997558958,0.8160090090546154,-1.4717898525836006,-0.0021368936673412395,-3.14,3.14
263,0.41827246220411496,0.2843239248170506,0.30574346505257577,5.2001341280763,1.1841580570325594,1.8456091408864306,4.933287507806743,1.0,0.0008305928997558956,0.8160090090546153,-1.4717898525836006,-0.00213689366734124,-3.14,3.14
264,0.41827246220411496,0.28432392481705054,0.30574346505257577,5.2001341280763,1.1841580570325596,1.8456091408864301,4.933287507806743,1.0,0.0008305928997558953,0.8160090090546154,-1.4717898525836006,-0.0021368936673412395,-3.14,3.14
265,0.41827246220411496,0.2843239248170506,0.30574346505257577,5.2001341280763,1.1841580570325594,1.8456091408864306,4.933287507806743,1.0,0.0008305928997558952,0.8160090090546153,-1.4717898525836006,-0.00213689366734124,-3.14,3.14
266,0.41827246220411496,0.28432392481705054,0.30574346505257577,5.2001341280763,1.1841580570325596,1.8456091408864301,4.933287507806743,1.0,0.000830592899755895,0.8160090090546154,-1.4717898525836006,-0.0021368936673412395,-3.14,3.14
267,0.41827246220411496,0.2843239248170506,0.30574346505257577,5.2001341280763,1.1841580570325594,1.8456091408864306,4.933287507806743,1.0,0.0008305928997558954,0.8160090090546153,-1.4717898525836006,-0.00213689366734124,-3.14,3.14
268,0.41827246220411496,0.28432392481705054,0.30574346505257577,5.2001341280763,1.1841580570325596,1.8456091408864301,4.933287507806743,1.0,0.0008305928997558952,0.8160090090546154,-1.4717898525836006,-0.0021368936673412395,-3.14,3.14
269,0.41827246220411496,0.2843239248170506,0.30574346505257577,5.2001341280763,1.1841580570325594,1.8456091408864306,4.933287507806743,1.0,0.0008305928997558951,0.8160090090546153,-1.4717898525836006,-0.00213689366734124,-3.14,3.14
270,0.41827246220411496,0.28432392481705054,0.30574346505257577,5.2001341280763,1.1841580570325596,1.8456091408864301,4.933287507806743,1.0,0.0008305928997558962,0.8160090090546154,-1.4717898525836006,-0.00213689366734124,-3.14,3.14
271,0.41827246220411496,0.2843239248170506,0.30574346505257577,5.2001341280763,1.1841580570325594,1.8456091408864306,4.933287507806743,1.0,0.0008305928997558959,0.8160090090546153,-1.4717898525836006,-0.0021368936673412404,-3.14,3.14
272,0.41827246220411496,0.28432392481705054,0.30574346505257577,5.2001341280763,1.1841580570325596,1.8456091408864301,4.933287507806743,1.0,0.000830592899755897,0.8160090090546154,-1.4717898525836006,-0.0021368936673412404,-3.14,3.14
273,0.41827246220411496,0.2843239248170506,0.30574346505257577,5.2001341280763,1.1841580570325594,1.8456091408864306,4.933287507806743,1.0,0.0008305928997558969,0.8160090090546153,-1.4717898525836006,-0.002136893667341241,-3.14,3.14
274,0.41827246220411496,0.28432392481705054,0.30574346505257577,5.2001341280763,1.1841580570325596,1.8456091408864301,4.933287507806743,1.0,0.0008305928997558966,0.8160090090546154,-1.4717898525836006,-0.0021368936673412404,-3.14,3.14
275,0.41827246220411496,0.2843239248170506,0.30574346505257577,5.2001341280763,1.1841580570325594,1.8456091408864306,4.933287507806743,1.0,0.0008305928997558964,0.8160090090546153,-1.4717898525836006,-0.002136893667341241,-3.14,3.14
276,0.41827246220411496,0.28432392481705054,0.30574346505257577,5.2001341280763,1.1841580570325596,1.8456091408864301,4.933287507806743,1.0,0.0008305928997558962,0.8160090090546154,-1.4717898525836006,-0.0021368936673412404,-3.14,3.14
277,0.41827246220411496,0.2843239248170506,0.30574346505257577,5.2001341280763,1.1841580570325594,1.8456091408864306,4.933287507806743,1.0,0.000830592899755896,0.8160090090546153,-1.4717898525836006,-0.002136893667341241,-3.14,3.14
278,0.41827246220411496,0.28432392481705054,0.30574346505257577,5.2001341280763,1.1841580570325596,1.8456091408864301,4.933287507806743,1.0,0.0008305928997558971,0.8160090090546154,-1.4717898525836006,-0.002136893667341241,-3.14,3.14
279,0.41827246220411496,0.2843239248170506,0.30574346505257577,5.2001341280763,1.1841580570325594,1.8456091408864306,4.933287507806743,1.0,0.0008305928997558963,0.8160090090546153,-1.4717898525836006,-0.0021368936673412412,-3.14,3.14
280,0.41827246220411496,0.28432392481705054,0.30574346505257577,5.2001341280763,1.1841580570325596,1.8456091408864301,4.933287507806743,1.0,0.0008305928997558962,0.8160090090546154,-1.4717898525836006,-0.002136893667341241,-3.14,3.14
281,0.41827246220411496,0.2843239248170506,0.30574346505257577,5.2001341280763,1.1841580570325594,1.8456091408864306,4.933287507806743,1.0,0.000830592899755896,0.8160090090546153,-1.4717898525836006,-0.0021368936673412412,-3.14,3.14
282,0.41827246220411496,0.28432392481705054,0.30574346505257577,5.2001341280763,1.1841580570325596,1.8456091408864301,4.933287507806743,1.0,0.000830592899755896,0.8160090090546154,-1.4717898525836006,-0.002136893667341241,-3.14,3.14
283,0.41827246220411496,0.2843239248170506,0.30574346505257577,5.2001341280763,1.1841580570325594,1.8456091408864306,4.933287507806743,1.0,0.000830592899755896,0.8160090090546153,-1.4717898525836006,-0.002136893667341241,-3.14,3.14
284,0.41827246220411496,0.28432392481705054,0.30574346505257577,5.2001341280763,1.1841580570325596,1.8456091408864301,4.933287507806743,1.0,0.0008305928997558971,0.8160090090546154,-1.4717898525836006,-0.002136893667341241,-3.14,3.14
285,0.41827246220411496,0.2843239248170506,0.30574346505257577,5.2001341280763,1.1841580570325594,1.8456091408864306,4.933287507806743,1.0,0.0008305928997558963,0.8160090090546153,-1.4717898525836006,-0.0021368936673412412,-3.14,3.14
286,0.41827246220411496,0.28432392481705054,0.30574346505257577,5.2001341280763,1.1841580570325596,1.8456091408864301,4.933287507806743,1.0,0.0008305928997558962,0.8160090090546154,-1.4717898525836006,-0.002136893667341241,-3.14,3.14
287,0.41827246220411496,0.2843239248170506,0.30574346505257577,5.2001341280763,1.1841580570325594,1.8456091408864306,4.933287507806743,1.0,0.000830592899755896,0.8160090090546153,-1.4717898525836006,-0.0021368936673412412,-3.14,3.14
288,0.41827246220411496,0.28432392481705054,0.30574346505257577,5.2001341280763,1.1841580570325596,1.8456091408864301,4.933287507806743,1.0,0.000830592899755896,0.8160090090546154,-1.4717898525836006,-0.002136893667341241,-3.14,3.14
289,0.41827246220411496,0.2843239248170506,0.30574346505257577,5.2001341280763,1.1841580570325594,1.8456091408864306,4.933287507806743,1.0,0.000830592899755896,0.8160090090546153,-1.4717898525836006,-0.002136893667341241,-3.14,3.14
290,0.41827246220411496,0.28432392481705054,0.30574346505257577,5.2001341280763,1.1841580570325596,1.8456091408864301,4.933287507806743,1.0,0.0008305928997558971,0.8160090090546154,-1.4717898525836006,-0.002136893667341241,-3.14,3.14
291,0.41827246220411496,0.2843239248170506,0.30574346505257577,5.2001341280763,1.1841580570325594,1.8456091408864306,4.933287507806743,1.0,0.0008305928997558963,0.8160090090546153,-1.4717898525836006,-0.0021368936673412412,-3.14,3.14
292,0.41827246220411496,0.28432392481705054,0.30574346505257577,5.2001341280763,1.1841580570325596,1.8456091408864301,4.933287507806743,1.0,0.0008305928997558962,0.8160090090546154,-1.4717898525836006,-0.002136893667341241,-3.14,3.14
293,0.41827246220411496,0.2843239248170506,0.30574346505257577,5.2001341280763,1.1841580570325594,1.8456091408864306,4.933287507806743,1.0,0.000830592899755896,0.8160090090546153,-1.4717898525836006,-0.0021368936673412412,-3.14,3.14
294,0.41827246220411496,0.28432392481705054,0.30574346505257577,5.2001341280763,1.1841580570325596,1.8456091408864301,4.933287507806743,1.0,0.000830592899755896,0.8160090090546154,-1.4717898525836006,-0.002136893667341241,-3.14,3.14
295,0.41827246220411496,0.2843239248170506,0.30574346505257577,5.2001341280763,1.1841580570325594,1.8456091408864306,4.933287507806743,1.0,0.000830592899755896,0.8160090090546153,-1.4717898525836006,-0.002136893667341241,-3.14,3.14
296,0.41827246220411496,0.28432392481705054,0.30574346505257577,5.2001341280763,1.1841580570325596,1.8456091408864301,4.933287507806743,1.0,0.0008305928997558971,0.8160090090546154,-1.4717898525836006,-0.002136893667341241,-3.14,3.14
297,0.41827246220411496,0.2843239248170506,0.30574346505257577,5.2001341280763,1.1841580570325594,1.8456091408864306,4.933287507806743,1.0,0.0008305928997558963,0.8160090090546153,-1.4717898525836006,-0.0021368936673412412,-3.14,3.14
298,0.41827246220411496,0.28432392481705054,0.30574346505257577,5.2001341280763,1.1841580570325596,1.8456091408864301,4.933287507806743,1.0,0.0008305928997558962,0.8160090090546154,-1.4717898525836006,-0.002136893667341241,-3.14,3.14
299,0.41827246220411496,0.2843239248170506,0.30574346505257577,5.2001341280763,1.1841580570325594,1.8456091408864306,4.933287507806743,1.0,0.000830592899755896,0.8160090090546153,-1.4717898525836006,-0.0021368936673412412,-3.14,3.14
300,0.41827246220411496,0.28432392481705054,0.30574346505257577,5.2001341280763,1.1841580570325596,1.8456091408864301,4.933287507806743,1.0,0.000830592899755896,0.8160090090546154,-1.4717898525836006,-0.002136893667341241,-3.14,3.14
301,0.41827246220411496,0.2843239248170506,0.30574346505257577,5.2001341280763,1.1841580570325594,1.8456091408864306,4.933287507806743,1.0,0.000830592899755896,0.8160090090546153,-1.4717898525836006,-0.002136893667341241,-3.14,3.14
302,0.41827246220411496,0.28432392481705054,0.30574346505257577,5.2001341280763,1.1841580570325596,1.8456091408864301,4.933287507806743,1.0,0.0008305928997558971,0.8160090090546154,-1.4717898525836006,-0.002136893667341241,-3.14,3.14
303,0.41827246220411496,0.2843239248170506,0.30574346505257577,5.2001341280763,1.1841580570325594,1.8456091408864306,4.933287507806743,1.0,0.0008305928997558963,0.8160090090546153,-1.4717898525836006,-0.0021368936673412412,-3.14,3.14
304,0.41827246220411496,0.28432392481705054,0.30574346505257577,5.2001341280763,1.1841580570325596,1.8456091408864301,4.933287507806743,1.0,0.0008305928997558962,0.8160090090546154,-1.4717898525836006,-0.002136893667341241,-3.14,3.14
305,0.41827246220411496,0.2843239248170506,0.30574346505257577,5.2001341280763,1.1841580570325594,1.8456091408864306,4.933287507806743,1.0,0.000830592899755896,0.8160090090546153,-1.4717898525836006,-0.0021368936673412412,-3.14,3.14
306,0.41827246220411496,0.28432392481705054,0.30574346505257577,5.2001341280763,1.1841580570325596,1.8456091408864301,4.933287507806743,1.0,0.000830592899755896,0.8160090090546154,-1.4717898525836006,-0.002136893667341241,-3.14,3.14
307,0.41827246220411496,0.2843239248170506,0.30574346505257577,5.2001341280763,1.1841580570325594,1.8456091408864306,4.933287507806743,1.0,0.000830592899755896,0.8160090090546153,-1.4717898525836006,-0.002136893667341241,-3.14,3.14
308,0.41827246220411496,0.28432392481705054,0.30574346505257577,5.2001341280763,1.1841580570325596,1.8456091408864301,4.933287507806743,1.0,0.0008305928997558971,0.8160090090546154,-1.4717898525836006,-0.002136893667341241,-3.14,3.14
309,0.41827246220411496,0.2843239248170506,0.30574346505257577,5.2001341280763,1.1841580570325594,1.8456091408864306,4.933287507806743,1.0,0.0008305928997558963,0.8160090090546153,-1.4717898525836006,-0.0021368936673412412,-3.14,3.14
310,0.41827246220411496,0.28432392481705054,0.30574346505257577,5.2001341280763,1.1841580570325596,1.8456091408864301,4.933287507806743,1.0,0.0008305928997558962,0.8160090090546154,-1.4717898525836006,-0.002136893667341241,-3.14,3.14
311,0.41827246220411496,0.2843239248170506,0.30574346505257577,5.2001341280763,1.1841580570325594,1.8456091408864306,4.933287507806743,1.0,0.000830592899755896,0.8160090090546153,-1.4717898525836006,-0.0021368936673412412,-3.14,3.14
312,0.41827246220411496,0.28432392481705054,0.30574346505257577,5.2001341280763,1.1841580570325596,1.8456091408864301,4.933287507806743,1.0,0.000830592899755896,0.8160090090546154,-1.4717898525836006,-0.002136893667341241,-3.14,3.14
313,0.41827246220411496,0.2843239248170506,0.30574346505257577,5.2001341280763,1.1841580570325594,1.8456091408864306,4.933287507806743,1.0,0.000830592899755896,0.8160090090546153,-1.4717898525836006,-0.002136893667341241,-3.14,3.14
314,0.41827246220411496,0.28432392481705054,0.30574346505257577,5.2001341280763,1.1841580570325596,1.8456091408864301,4.933287507806743,1.0,0.0008305928997558971,0.8160090090546154,-1.4717898525836006,-0.002136893667341241,-3.14,3.14
315,0.41827246220411496,0.2843239248170506,0.30574346505257577,5.2001341280763,1.1841580570325594,1.8456091408864306,4.933287507806743,1.0,0.0008305928997558963,0.8160090090546153,-1.4717898525836006,-0.0021368936673412412,-3.14,3.14
316,0.41827246220411496,0.28432392481705054,0.30574346505257577,5.2001341280763,1.1841580570325596,1.8456091408864301,4.933287507806743,1.0,0.0008305928997558962,0.8160090090546154,-1.4717898525836006,-0.002136893667341241,-3.14,3.14
317,0.41827246220411496,0.2843239248170506,0.30574346505257577,5.2001341280763,1.1841580570325594,1.8456091408864306,4.933287507806743,1.0,0.000830592899755896,0.8160090090546153,-1.4717898525836006,-0.0021368936673412412,-3.14,3.14
318,0.41827246220411496,0.28432392481705054,0.30574346505257577,5.2001341280763,1.1841580570325596,1.8456091408864301,4.933287507806743,1.0,0.000830592899755896,0.8160090090546154,-1.4717898525836006,-0.002136893667341241,-3.14,3.14
319,0.41827246220411496,0.2843239248170506,0.30574346505257577,5.2001341280763,1.1841580570325594,1.8456091408864306,4.933287507806743,1.0,0.000830592899755896,0.8160090090546153,-1.4717898525836006,-0.002136893667341241,-3.14,3.14
320,0.41827246220411496,0.28432392481705054,0.30574346505257577,5.2001341280763,1.1841580570325596,1.8456091408864301,4.933287507806743,1.0,0.0008305928997558971,0.8160090090546154,-1.4717898525836006,-0.002136893667341241,-3.14,3.14
321,0.41827246220411496,0.2843239248170506,0.30574346505257577,5.2001341280763,1.1841580570325594,1.8456091408864306,4.933287507806743,1.0,0.0008305928997558963,0.8160090090546153,-1.4717898525836006,-0.0021368936673412412,-3.14,3.14
322,0.41827246220411496,0.28432392481705054,0.30574346505257577,5.2001341280763,1.1841580570325596,1.8456091408864301,4.933287507806743,1.0,0.0008305928997558962,0.8160090090546154,-1.4717898525836006,-0.002136893667341241,-3.14,3.14
323,0.41827246220411496,0.2843239248170506,0.30574346505257577,5.2001341280763,1.1841580570325594,1.8456091408864306,4.933287507806743,1.0,0.000830592899755896,0.8160090090546153,-1.4717898525836006,-0.0021368936673412412,-3.14,3.14
324,0.41827246220411496,0.28432392481705054,0.30574346505257577,5.2001341280763,1.1841580570325596,1.8456091408864301,4.933287507806743,1.0,0.000830592899755896,0.8160090090546154,-1.4717898525836006,-0.002136893667341241,-3.14,3.14
325,0.41827246220411496,0.2843239248170506,0.30574346505257577,5.2001341280763,1.1841580570325594,1.8456091408864306,4.933287507806743,1.0,0.000830592899755896,0.8160090090546153,-1.4717898525836006,-0.002136893667341241,-3.14,3.14
326,0.41827246220411496,0.28432392481705054,0.30574346505257577,5.2001341280763,1.1841580570325596,1.8456091408864301,4.933287507806743,1.0,0.0008305928997558971,0.8160090090546154,-1.4717898525836006,-0.002136893667341241,-3.14,3.14
327,0.41827246220411496,0.2843239248170506,0.30574346505257577,5.2001341280763,1.1841580570325594,1.8456091408864306,4.933287507806743,1.0,0.0008305928997558963,0.8160090090546153,-1.4717898525836006,-0.0021368936673412412,-3.14,3.14
328,0.41827246220411496,0.28432392481705054,0.30574346505257577,5.2001341280763,1.1841580570325596,1.8456091408864301,4.933287507806743,1.0,0.0008305928997558962,0.8160090090546154,-1.4717898525836006,-0.002136893667341241,-3.14,3.14
329,0.41827246220411496,0.2843239248170506,0.30574346505257577,5.2001341280763,1.1841580570325594,1.8456091408864306,4.933287507806743,1.0,0.000830592899755896,0.8160090090546153,-1.4717898525836006,-0.0021368936673412412,-3.14,3.14
330,0.41827246220411496,0.28432392481705054,0.30574346505257577,5.2001341280763,1.1841580570325596,1.8456091408864301,4.933287507806743,1.0,0.000830592899755896,0.8160090090546154,-1.4717898525836006,-0.002136893667341241,-3.14,3.14
331,0.41827246220411496,0.2843239248170506,0.30574346505257577,5.2001341280763,1.1841580570325594,1.8456091408864306,4.933287507806743,1.0,0.000830592899755896,0.8160090090546153,-1.4717898525836006,-0.002136893667341241,-3.14,3.14
332,0.41827246220411496,0.28432392481705054,0.30574346505257577,5.2001341280763,1.1841580570325596,1.8456091408864301,4.933287507806743,1.0,0.0008305928997558971,0.8160090090546154,-1.4717898525836006,-0.002136893667341241,-3.14,3.14
333,0.41827246220411496,0.2843239248170506,0.30574346505257577,5.2001341280763,1.1841580570325594,1.8456091408864306,4.933287507806743,1.0,0.0008305928997558963,0.8160090090546153,-1.4717898525836006,-0.0021368936673412412,-3.14,3.14
334,0.41827246220411496,0.28432392481705054,0.30574346505257577,5.2001341280763,1.1841580570325596,1.8456091408864301,4.933287507806743,1.0,0.0008305928997558962,0.8160090090546154,-1.4717898525836006,-0.002136893667341241,-3.14,3.14
335,0.41827246220411496,0.2843239248170506,0.30574346505257577,5.2001341280763,1.1841580570325594,1.8456091408864306,4.933287507806743,1.0,0.000830592899755896,0.8160090090546153,-1.4717898525836006,-0.0021368936673412412,-3.14,3.14
336,0.41827246220411496,0.28432392481705054,0.30574346505257577,5.2001341280763,1.1841580570325596,1.8456091408864301,4.933287507806743,1.0,0.000830592899755896,0.8160090090546154,-1.4717898525836006,-0.002136893667341241,-3.14,3.14
337,0.41827246220411496,0.2843239248170506,0.30574346505257577,5.2001341280763,1.1841580570325594,1.8456091408864306,4.933287507806743,1.0,0.000830592899755896,0.8160090090546153,-1.4717898525836006,-0.002136893667341241,-3.14,3.14
338,0.41827246220411496,0.28432392481705054,0.30574346505257577,5.2001341280763,1.1841580570325596,1.8456091408864301,4.933287507806743,1.0,0.0008305928997558971,0.8160090090546154,-1.4717898525836006,-0.002136893667341241,-3.14,3.14
339,0.41827246220411496,0.2843239248170506,0.30574346505257577,5.2001341280763,1.1841580570325594,1.8456091408864306,4.933287507806743,1.0,0.0008305928997558963,0.8160090090546153,-1.4717898525836006,-0.0021368936673412412,-3.14,3.14
340,0.41827246220411496,0.28432392481705054,0.30574346505257577,5.2001341280763,1.1841580570325596,1.8456091408864301,4.933287507806743,1.0,0.0008305928997558962,0.8160090090546154,-1.4717898525836006,-0.002136893667341241,-3.14,3.14
341,0.41827246220411496,0.2843239248170506,0.30574346505257577,5.2001341280763,1.1841580570325594,1.8456091408864306,4.933287507806743,1.0,0.000830592899755896,0.8160090090546153,-1.4717898525836006,-0.0021368936673412412,-3.14,3.14
342,0.41827246220411496,0.28432392481705054,0.30574346505257577,5.2001341280763,1.1841580570325596,1.8456091408864301,4.933287507806743,1.0,0.000830592899755896,0.8160090090546154,-1.4717898525836006,-0.002136893667341241,-3.14,3.14
343,0.41827246220411496,0.2843239248170506,0.30574346505257577,5.2001341280763,1.1841580570325594,1.8456091408864306,4.933287507806743,1.0,0.000830592899755896,0.8160090090546153,-1.4717898525836006,-0.002136893667341241,-3.14,3.14
344,0.41827246220411496,0.28432392481705054,0.30574346505257577,5.2001341280763,1.1841580570325596,1.8456091408864301,4.933287507806743,1.0,0.0008305928997558971,0.8160090090546154,-1.4717898525836006,-0.002136893667341241,-3.14,3.14
345,0.41827246220411496,0.2843239248170506,0.30574346505257577,5.2001341280763,1.1841580570325594,1.8456091408864306,4.933287507806743,1.0,0.0008305928997558963,0.8160090090546153,-1.4717898525836006,-0.0021368936673412412,-3.14,3.14
346,0.41827246220411496,0.28432392481705054,0.30574346505257577,5.2001341280763,1.1841580570325596,1.8456091408864301,4.933287507806743,1.0,0.0008305928997558962,0.8160090090546154,-1.4717898525836006,-0.002136893667341241,-3.14,3.14
347,0.41827246220411496,0.2843239248170506,0.30574346505257577,5.2001341280763,1.1841580570325594,1.8456091408864306,4.933287507806743,1.0,0.000830592899755896,0.8160090090546153,-1.4717898525836006,-0.0021368936673412412,-3.14,3.14
348,0.41827246220411496,0.28432392481705054,0.30574346505257577,5.2001341280763,1.1841580570325596,1.8456091408864301,4.933287507806743,1.0,0.000830592899755896,0.8160090090546154,-1.4717898525836006,-0.002136893667341241,-3.14,3.14
349,0.41827246220411496,0.2843239248170506,0.30574346505257577,5.2001341280763,1.1841580570325594,1.8456091408864306,4.933287507806743,1.0,0.000830592899755896,0.8160090090546153,-1.4717898525836006,-0.002136893667341241,-3.14,3.14
350,0.41827246220411496,0.28432392481705054,0.30574346505257577,5.2001341280763,1.1841580570325596,1.8456091408864301,4.933287507806743,1.0,0.0008305928997558971,0.8160090090546154,-1.4717898525836006,-0.002136893667341241,-3.14,3.14
351,0.41827246220411496,0.2843239248170506,0.30574346505257577,5.2001341280763,1.1841580570325594,1.8456091408864306,4.933287507806743,1.0,0.0008305928997558963,0.8160090090546153,-1.4717898525836006,-0.0021368936673412412,-3.14,3.14
352,0.41827246220411496,0.28432392481705054,0.30574346505257577,5.2001341280763,1.1841580570325596,1.8456091408864301,4.933287507806743,1.0,0.0008305928997558962,0.8160090090546154,-1.4717898525836006,-0.002136893667341241,-3.14,3.14
353,0.41827246220411496,0.2843239248170506,0.30574346505257577,5.2001341280763,1.1841580570325594,1.8456091408864306,4.933287507806743,1.0,0.000830592899755896,0.8160090090546153,-1.4717898525836006,-0.0021368936673412412,-3.14,3.14
354,0.41827246220411496,0.28432392481705054,0.30574346505257577,5.2001341280763,1.1841580570325596,1.8456091408864301,4.933287507806743,1.0,0.000830592899755896,0.8160090090546154,-1.4717898525836006,-0.002136893667341241,-3.14,3.14
355,0.41827246220411496,0.2843239248170506,0.30574346505257577,5.2001341280763,1.1841580570325594,1.8456091408864306,4.933287507806743,1.0,0.000830592899755896,0.8160090090546153,-1.4717898525836006,-0.002136893667341241,-3.14,3.14
356,0.41827246220411496,0.28432392481705054,0.30574346505257577,5.2001341280763,1.1841580570325596,1.8456091408864301,4.933287507806743,1.0,0.0008305928997558971,0.8160090090546154,-1.4717898525836006,-0.002136893667341241,-3.14,3.14
357,0.41827246220411496,0.2843239248170506,0.30574346505257577,5.2001341280763,1.1841580570325594,1.8456091408864306,4.933287507806743,1.0,0.0008305928997558963,0.8160090090546153,-1.4717898525836006,-0.0021368936673412412,-3.14,3.14
358,0.41827246220411496,0.28432392481705054,0.30574346505257577,5.2001341280763,1.1841580570325596,1.8456091408864301,4.933287507806743,1.0,0.0008305928997558962,0.8160090090546154,-1.4717898525836006,-0.002136893667341241,-3.14,3.14
359,0.41827246220411496,0.2843239248170506,0.30574346505257577,5.2001341280763,1.1841580570325594,1.8456091408864306,4.933287507806743,1.0,0.000830592899755896,0.8160090090546153,-1.4717898525836006,-0.0021368936673412412,-3.14,3.14
360,0.41827246220411496,0.28432392481705054,0.30574346505257577,5.2001341280763,1.1841580570325596,1.8456091408864301,4.933287507806743,1.0,0.000830592899755896,0.8160090090546154,-1.4717898525836006,-0.002136893667341241,-3.14,3.14
361,0.41827246220411496,0.2843239248170506,0.30574346505257577,5.2001341280763,1.1841580570325594,1.8456091408864306,4.933287507806743,1.0,0.000830592899755896,0.8160090090546153,-1.4717898525836006,-0.002136893667341241,-3.14,3.14
362,0.41827246220411496,0.28432392481705054,0.30574346505257577,5.2001341280763,1.1841580570325596,1.8456091408864301,4.933287507806743,1.0,0.0008305928997558971,0.8160090090546154,-1.4717898525836006,-0.002136893667341241,-3.14,3.14
363,0.41827246220411496,0.2843239248170506,0.30574346505257577,5.2001341280763,1.1841580570325594,1.8456091408864306,4.933287507806743,1.0,0.0008305928997558963,0.8160090090546153,-1.4717898525836006,-0.0021368936673412412,-3.14,3.14
364,0.41827246220411496,0.28432392481705054,0.30574346505257577,5.2001341280763,1.1841580570325596,1.8456091408864301,4.933287507806743,1.0,0.0008305928997558962,0.8160090090546154,-1.4717898525836006,-0.002136893667341241,-3.14,3.14
365,0.41827246220411496,0.2843239248170506,0.30574346505257577,5.2001341280763,1.1841580570325594,1.8456091408864306,4.933287507806743,1.0,0.000830592899755896,0.8160090090546153,-1.4717898525836006,-0.0021368936673412412,-3.14,3.14
366,0.41827246220411496,0.28432392481705054,0.30574346505257577,5.2001341280763,1.1841580570325596,1.8456091408864301,4.933287507806743,1.0,0.000830592899755896,0.8160090090546154,-1.4717898525836006,-0.002136893667341241,-3.14,3.14
367,0.41827246220411496,0.2843239248170506,0.30574346505257577,5.2001341280763,1.1841580570325594,1.8456091408864306,4.933287507806743,1.0,0.000830592899755896,0.8160090090546153,-1.4717898525836006,-0.002136893667341241,-3.14,3.14
368,0.41827246220411496,0.28432392481705054,0.30574346505257577,5.2001341280763,1.1841580570325596,1.8456091408864301,4.933287507806743,1.0,0.0008305928997558971,0.8160090090546154,-1.4717898525836006,-0.002136893667341241,-3.14,3.14
369,0.41827246220411496,0.2843239248170506,0.30574346505257577,5.2001341280763,1.1841580570325594,1.8456091408864306,4.933287507806743,1.0,0.0008305928997558963,0.8160090090546153,-1.4717898525836006,-0.0021368936673412412,-3.14,3.14
370,0.41827246220411496,0.28432392481705054,0.30574346505257577,5.2001341280763,1.1841580570325596,1.8456091408864301,4.933287507806743,1.0,0.0008305928997558962,0.8160090090546154,-1.4717898525836006,-0.002136893667341241,-3.14,3.14
371,0.41827246220411496,0.2843239248170506,0.30574346505257577,5.2001341280763,1.1841580570325594,1.8456091408864306,4.933287507806743,1.0,0.000830592899755896,0.8160090090546153,-1.4717898525836006,-0.0021368936673412412,-3.14,3.14
372,0.41827246220411496,0.28432392481705054,0.30574346505257577,5.2001341280763,1.1841580570325596,1.8456091408864301,4.933287507806743,1.0,0.000830592899755896,0.8160090090546154,-1.4717898525836006,-0.002136893667341241,-3.14,3.14
373,0.41827246220411496,0.2843239248170506,0.30574346505257577,5.2001341280763,1.1841580570325594,1.8456091408864306,4.933287507806743,1.0,0.000830592899755896,0.8160090090546153,-1.4717898525836006,-0.002136893667341241,-3.14,3.14
374,0.41827246220411496,0.28432392481705054,0.30574346505257577,5.2001341280763,1.1841580570325596,1.8456091408864301,4.933287507806743,1.0,0.0008305928997558971,0.8160090090546154,-1.4717898525836006,-0.002136893667341241,-3.14,3.14
375,0.41827246220411496,0.2843239248170506,0.30574346505257577,5.2001341280763,1.1841580570325594,1.8456091408864306,4.933287507806743,1.0,0.0008305928997558963,0.8160090090546153,-1.4717898525836006,-0.0021368936673412412,-3.14,3.14
376,0.41827246220411496,0.28432392481705054,0.30574346505257577,5.2001341280763,1.1841580570325596,1.8456091408864301,4.933287507806743,1.0,0.0008305928997558962,0.8160090090546154,-1.4717898525836006,-0.002136893667341241,-3.14,3.14
377,0.41827246220411496,0.2843239248170506,0.30574346505257577,5.2001341280763,1.1841580570325594,1.8456091408864306,4.933287507806743,1.0,0.000830592899755896,0.8160090090546153,-1.4717898525836006,-0.0021368936673412412,-3.14,3.14
378,0.41827246220411496,0.28432392481705054,0.30574346505257577,5.2001341280763,1.1841580570325596,1.8456091408864301,4.933287507806743,1.0,0.000830592899755896,0.8160090090546154,-1.4717898525836006,-0.002136893667341241,-3.14,3.14
379,0.41827246220411496,0.2843239248170506,0.30574346505257577,5.2001341280763,1.1841580570325594,1.8456091408864306,4.933287507806743,1.0,0.000830592899755896,0.8160090090546153,-1.4717898525836006,-0.002136893667341241,-3.14,3.14
380,0.41827246220411496,0.28432392481705054,0.30574346505257577,5.2001341280763,1.1841580570325596,1.8456091408864301,4.933287507806743,1.0,0.0008305928997558971,0.8160090090546154,-1.4717898525836006,-0.002136893667341241,-3.14,3.14
381,0.41827246220411496,0.2843239248170506,0.30574346505257577,5.2001341280763,1.1841580570325594,1.8456091408864306,4.933287507806743,1.0,0.0008305928997558963,0.8160090090546153,-1.4717898525836006,-0.0021368936673412412,-3.14,3.14
382,0.41827246220411496,0.28432392481705054,0.30574346505257577,5.2001341280763,1.1841580570325596,1.8456091408864301,4.933287507806743,1.0,0.0008305928997558962,0.8160090090546154,-1.4717898525836006,-0.002136893667341241,-3.14,3.14
383,0.41827246220411496,0.2843239248170506,0.30574346505257577,5.2001341280763,1.1841580570325594,1.8456091408864306,4.933287507806743,1.0,0.000830592899755896,0.8160090090546153,-1.4717898525836006,-0.0021368936673412412,-3.14,3.14
384,0.41827246220411496,0.28432392481705054,0.30574346505257577,5.2001341280763,1.1841580570325596,1.8456091408864301,4.933287507806743,1.0,0.000830592899755896,0.8160090090546154,-1.4717898525836006,-0.002136893667341241,-3.14,3.14
385,0.41827246220411496,0.2843239248170506,0.30574346505257577,5.2001341280763,1.1841580570325594,1.8456091408864306,4.933287507806743,1.0,0.000830592899755896,0.8160090090546153,-1.4717898525836006,-0.002136893667341241,-3.14,3.14
386,0.41827246220411496,0.28432392481705054,0.30574346505257577,5.2001341280763,1.1841580570325596,1.8456091408864301,4.933287507806743,1.0,0.0008305928997558971,0.8160090090546154,-1.4717898525836006,-0.002136893667341241,-3.14,3.14
387,0.41827246220411496,0.2843239248170506,0.30574346505257577,5.2001341280763,1.1841580570325594,1.8456091408864306,4.933287507806743,1.0,0.0008305928997558963,0.8160090090546153,-1.4717898525836006,-0.0021368936673412412,-3.14,3.14
388,0.41827246220411496,0.28432392481705054,0.30574346505257577,5.2001341280763,1.1841580570325596,1.8456091408864301,4.933287507806743,1.0,0.0008305928997558962,0.8160090090546154,-1.4717898525836006,-0.002136893667341241,-3.14,3.14
389,0.41827246220411496,0.2843239248170506,0.30574346505257577,5.2001341280763,1.1841580570325594,1.8456091408864306,4.933287507806743,1.0,0.000830592899755896,0.8160090090546153,-1.4717898525836006,-0.0021368936673412412,-3.14,3.14
390,0.41827246220411496,0.28432392481705054,0.30574346505257577,5.2001341280763,1.1841580570325596,1.8456091408864301,4.933287507806743,1.0,0.000830592899755896,0.8160090090546154,-1.4717898525836006,-0.002136893667341241,-3.14,3.14
391,0.41827246220411496,0.2843239248170506,0.30574346505257577,5.2001341280763,1.1841580570325594,1.8456091408864306,4.933287507806743,1.0,0.000830592899755896,0.8160090090546153,-1.4717898525836006,-0.002136893667341241,-3.14,3.14
392,0.41827246220411496,0.28432392481705054,0.30574346505257577,5.2001341280763,1.1841580570325596,1.8456091408864301,4.933287507806743,1.0,0.0008305928997558971,0.8160090090546154,-1.4717898525836006,-0.002136893667341241,-3.14,3.14
393,0.41827246220411496,0.2843239248170506,0.30574346505257577,5.2001341280763,1.1841580570325594,1.8456091408864306,4.933287507806743,1.0,0.0008305928997558963,0.8160090090546153,-1.4717898525836006,-0.0021368936673412412,-3.14,3.14
394,0.41827246220411496,0.28432392481705054,0.30574346505257577,5.2001341280763,1.1841580570325596,1.8456091408864301,4.933287507806743,1.0,0.0008305928997558962,0.8160090090546154,-1.4717898525836006,-0.002136893667341241,-3.14,3.14
395,0.41827246220411496,0.2843239248170506,0.30574346505257577,5.2001341280763,1.1841580570325594,1.8456091408864306,4.933287507806743,1.0,0.000830592899755896,0.8160090090546153,-1.4717898525836006,-0.0021368936673412412,-3.14,3.14
396,0.41827246220411496,0.28432392481705054,0.30574346505257577,5.2001341280763,1.1841580570325596,1.8456091408864301,4.933287507806743,1.0,0.000830592899755896,0.8160090090546154,-1.4717898525836006,-0.002136893667341241,-3.14,3.14
397,0.41827246220411496,0.2843239248170506,0.30574346505257577,5.2001341280763,1.1841580570325594,1.8456091408864306,4.933287507806743,1.0,0.000830592899755896,0.8160090090546153,-1.4717898525836006,-0.002136893667341241,-3.14,3.14
398,0.41827246220411496,0.28432392481705054,0.30574346505257577,5.2001341280763,1.1841580570325596,1.8456091408864301,4.933287507806743,1.0,0.0008305928997558971,0.8160090090546154,-1.4717898525836006,-0.002136893667341241,-3.14,3.14
399,0.41827246220411496,0.2843239248170506,0.30574346505257577,5.2001341280763,1.1841580570325594,1.8456091408864306,4.933287507806743,1.0,0.0008305928997558963,0.8160090090546153,-1.4717898525836006,-0.0021368936673412412,-3.14,3.14
400,0.41827246220411496,0.28432392481705054,0.30574346505257577,5.2001341280763,1.1841580570325596,1.8456091408864301,4.933287507806743,1.0,0.0008305928997558962,0.8160090090546154,-1.4717898525836006,-0.002136893667341241,-3.14,3.14
401,0.41827246220411496,0.2843239248170506,0.30574346505257577,5.2001341280763,1.1841580570325594,1.8456091408864306,4.933287507806743,1.0,0.000830592899755896,0.8160090090546153,-1.4717898525836006,-0.0021368936673412412,-3.14,3.14
402,0.41827246220411496,0.28432392481705054,0.30574346505257577,5.2001341280763,1.1841580570325596,1.8456091408864301,4.933287507806743,1.0,0.000830592899755896,0.8160090090546154,-1.4717898525836006,-0.002136893667341241,-3.14,3.14
403,0.41827246220411496,0.2843239248170506,0.30574346505257577,5.2001341280763,1.1841580570325594,1.8456091408864306,4.933287507806743,1.0,0.000830592899755896,0.8160090090546153,-1.4717898525836006,-0.002136893667341241,-3.14,3.14
404,0.41827246220411496,0.28432392481705054,0.30574346505257577,5.2001341280763,1.1841580570325596,1.8456091408864301,4.933287507806743,1.0,0.0008305928997558971,0.8160090090546154,-1.4717898525836006,-0.002136893667341241,-3.14,3.14
405,0.41827246220411496,0.2843239248170506,0.30574346505257577,5.2001341280763,1.1841580570325594,1.8456091408864306,4.933287507806743,1.0,0.0008305928997558963,0.8160090090546153,-1.4717898525836006,-0.0021368936673412412,-3.14,3.14
406,0.41827246220411496,0.28432392481705054,0.30574346505257577,5.2001341280763,1.1841580570325596,1.8456091408864301,4.933287507806743,1.0,0.0008305928997558962,0.8160090090546154,-1.4717898525836006,-0.002136893667341241,-3.14,3.14
407,0.41827246220411496,0.2843239248170506,0.30574346505257577,5.2001341280763,1.1841580570325594,1.8456091408864306,4.933287507806743,1.0,0.000830592899755896,0.8160090090546153,-1.4717898525836006,-0.0021368936673412412,-3.14,3.14
408,0.41827246220411496,0.28432392481705054,0.30574346505257577,5.2001341280763,1.1841580570325596,1.8456091408864301,4.933287507806743,1.0,0.000830592899755896,0.8160090090546154,-1.4717898525836006,-0.002136893667341241,-3.14,3.14
409,0.41827246220411496,0.2843239248170506,0.30574346505257577,5.2001341280763,1.1841580570325594,1.8456091408864306,4.933287507806743,1.0,0.000830592899755896,0.8160090090546153,-1.4717898525836006,-0.002136893667341241,-3.14,3.14
410,0.41827246220411496,0.28432392481705054,0.30574346505257577,5.2001341280763,1.1841580570325596,1.8456091408864301,4.933287507806743,1.0,0.0008305928997558971,0.8160090090546154,-1.4717898525836006,-0.002136893667341241,-3.14,3.14
411,0.41827246220411496,0.2843239248170506,0.30574346505257577,5.2001341280763,1.1841580570325594,1.8456091408864306,4.933287507806743,1.0,0.0008305928997558963,0.8160090090546153,-1.4717898525836006,-0.0021368936673412412,-3.14,3.14
412,0.41827246220411496,0.28432392481705054,0.30574346505257577,5.2001341280763,1.1841580570325596,1.8456091408864301,4.933287507806743,1.0,0.0008305928997558962,0.8160090090546154,-1.4717898525836006,-0.002136893667341241,-3.14,3.14
413,0.41827246220411496,0.2843239248170506,0.30574346505257577,5.2001341280763,1.1841580570325594,1.8456091408864306,4.933287507806743,1.0,0.000830592899755896,0.8160090090546153,-1.4717898525836006,-0.0021368936673412412,-3.14,3.14
414,0.41827246220411496,0.28432392481705054,0.30574346505257577,5.2001341280763,1.1841580570325596,1.8456091408864301,4.933287507806743,1.0,0.000830592899755896,0.8160090090546154,-1.4717898525836006,-0.002136893667341241,-3.14,3.14
415,0.41827246220411496,0.2843239248170506,0.30574346505257577,5.2001341280763,1.1841580570325594,1.8456091408864306,4.933287507806743,1.0,0.000830592899755896,0.8160090090546153,-1.4717898525836006,-0.002136893667341241,-3.14,3.14
416,0.41827246220411496,0.28432392481705054,0.30574346505257577,5.2001341280763,1.1841580570325596,1.8456091408864301,4.933287507806743,1.0,0.0008305928997558971,0.8160090090546154,-1.4717898525836006,-0.002136893667341241,-3.14,3.14
417,0.41827246220411496,0.2843239248170506,0.30574346505257577,5.2001341280763,1.1841580570325594,1.8456091408864306,4.933287507806743,1.0,0.0008305928997558963,0.8160090090546153,-1.4717898525836006,-0.0021368936673412412,-3.14,3.14
418,0.41827246220411496,0.28432392481705054,0.30574346505257577,5.2001341280763,1.1841580570325596,1.8456091408864301,4.933287507806743,1.0,0.0008305928997558962,0.8160090090546154,-1.4717898525836006,-0.002136893667341241,-3.14,3.14
419,0.41827246220411496,0.2843239248170506,0.30574346505257577,5.2001341280763,1.1841580570325594,1.8456091408864306,4.933287507806743,1.0,0.000830592899755896,0.8160090090546153,-1.4717898525836006,-0.0021368936673412412,-3.14,3.14
420,0.41827246220411496,0.28432392481705054,0.30574346505257577,5.2001341280763,1.1841580570325596,1.8456091408864301,4.933287507806743,1.0,0.000830592899755896,0.8160090090546154,-1.4717898525836006,-0.002136893667341241,-3.14,3.14
421,0.41827246220411496,0.2843239248170506,0.30574346505257577,5.2001341280763,1.1841580570325594,1.8456091408864306,4.933287507806743,1.0,0.000830592899755896,0.8160090090546153,-1.4717898525836006,-0.002136893667341241,-3.14,3.14
422,0.41827246220411496,0.28432392481705054,0.30574346505257577,5.2001341280763,1.1841580570325596,1.8456091408864301,4.933287507806743,1.0,0.0008305928997558971,0.8160090090546154,-1.4717898525836006,-0.002136893667341241,-3.14,3.14
423,0.41827246220411496,0.2843239248170506,0.30574346505257577,5.2001341280763,1.1841580570325594,1.8456091408864306,4.933287507806743,1.0,0.0008305928997558963,0.8160090090546153,-1.4717898525836006,-0.0021368936673412412,-3.14,3.14
424,0.41827246220411496,0.28432392481705054,0.30574346505257577,5.2001341280763,1.1841580570325596,1.8456091408864301,4.933287507806743,1.0,0.0008305928997558962,0.8160090090546154,-1.4717898525836006,-0.002136893667341241,-3.14,3.14
425,0.41827246220411496,0.2843239248170506,0.30574346505257577,5.2001341280763,1.1841580570325594,1.8456091408864306,4.933287507806743,1.0,0.000830592899755896,0.8160090090546153,-1.4717898525836006,-0.0021368936673412412,-3.14,3.14
426,0.41827246220411496,0.28432392481705054,0.30574346505257577,5.2001341280763,1.1841580570325596,1.8456091408864301,4.933287507806743,1.0,0.000830592899755896,0.8160090090546154,-1.4717898525836006,-0.002136893667341241,-3.14,3.14
