jkpark150901/flame_robotics_drt/experiment/inspection_ik/session_20260716_101733/inspection_ik_dda_rb10_1300e_normalized_fallback_20260716_101818.csv
iteration,err_norm,position_error,orientation_error,tcp_x,tcp_y,tcp_z,q0_dda_joint_linear_track,q1_dda_joint_carriage,q2_dda_joint_base,q3_dda_joint_shoulder,q4_dda_joint_elbow,q5_dda_joint_wrist1,q6_dda_joint_wrist2,q7_dda_joint_wrist3
0,3.7994330498229503,3.144198096962958,1.717768699266726,0.47255,3.7499999999986655,2.697,0.0,0.0,0.0,0.0,0.0,0.0,0.0,0.0
1,2.8521391618093235,2.223692088888572,1.560094919217066,1.5722197410534406,3.471003769289337,2.6790036817216483,1.1304475553308106,-0.03030340527373536,-0.1307800832446202,-0.17750230281744456,0.005559869036453856,0.17590897509570008,-0.08409579345814783,0.21091098820600565
2,3.0445870033117073,1.9916737710210666,2.2546381116554057,2.504288976767894,3.8493021173493966,2.016082023493242,1.9997321937938901,0.06270464915062397,-0.358574201816217,0.9665540462911484,-1.9110669614636542,-3.14,-0.05968553535118236,3.14
3,2.4665023441844105,1.565898997254038,1.8092243661651857,2.8830804287789245,3.464753835337875,1.563292349858259,2.4124284103398206,-0.1891448774639773,0.16206716700324908,0.5644784577847015,-2.5481474076473303,-2.10295208366563,0.6096469790584206,3.14
4,2.2432878049640728,1.294315148213112,1.7246547930106524,2.7260375427877763,3.128706992625022,1.293061490936041,2.2793550321355855,-0.5241812370011854,0.21200313442536328,-0.28385574145780634,-2.750060457936342,-1.399928855237794,0.9831670127914991,3.14
5,1.796160422532333,1.0479713667678263,1.3940327804923147,2.5435952447057937,2.7350810393715372,1.1304032682061214,1.9993344413136875,-0.655815086005294,0.39474858422029463,-0.7688084042657666,-2.1809996038844544,-1.411272664041435,1.3679282170766969,3.14
6,1.562688577902593,0.7689069981784524,1.325821973090612,2.399803988995857,2.3978855604345153,1.2938458953564456,1.8260254785018217,-0.8017063653527046,0.3624564064365785,-0.6328813961239996,-1.8395484829955935,-1.8814236203893864,1.5872693716006652,3.14
7,1.432749684620327,0.5746783370570424,1.293268197390911,2.375397666384712,2.166367979730686,1.4556451768941765,1.7865583972550632,-0.905177673474329,0.3446461947018669,-0.5941155427002328,-1.5236332281300595,-2.1733140943835636,1.7392749573681978,3.14
8,1.350228351040926,0.4278620009834571,1.2701648383109132,2.4254806453116613,2.01043351076137,1.5830018410066842,1.8132149889049816,-0.9920775639814431,0.35676064587393413,-0.6028421773180637,-1.259974991876995,-2.3491460505500377,1.8405834159173553,3.14
9,1.2892764301515705,0.32287969154633017,1.242399713143559,2.5083088130030062,1.9783030489240034,1.6711157942480956,1.8574551611566885,-1.0,0.3967810175960057,-0.6262709183259643,-1.0618216855837437,-2.4539109870810982,1.90953922918516,3.14
10,1.2458724942942085,0.24441710010686274,1.21852692008674,2.585157764892134,1.9705769738508603,1.7219269338752419,1.8920265108030252,-1.0,0.4413407312239063,-0.6631042483276314,-0.9109722890759472,-2.513783363174403,1.9523229569015665,3.14
11,1.2123222938284082,0.18833560957882156,1.1959411433097522,2.647886830319668,1.971237715661924,1.7474963921599975,1.9127748712998558,-1.0,0.48516542094978654,-0.7037929852351874,-0.7974754398597549,-2.549458751923148,1.978100704190072,3.14
12,1.1840173146065955,0.15069063901509622,1.1735144241578235,2.6956967614069507,1.9762372168510955,1.757131499142452,1.9213783059222613,-1.0,0.5256516182513618,-0.7439832700974908,-0.7116034755707098,-2.5730822762862826,1.993621378444768,3.14
13,1.1591815930590141,0.12768497989429517,1.1516530027981031,2.730090503780244,1.9830571824807346,1.757438728149104,1.9209960424298866,-1.0,0.5611847454942956,-0.781840307663101,-0.6450566986687745,-2.5913600901147595,2.0031833865878803,3.14
14,1.1373520419738008,0.11546937069121338,1.1311862006355087,2.753476363954984,1.9901768070948491,1.7529626456192047,1.9148142603936902,-1.0,0.5911130530729389,-0.8164956178268837,-0.5916597639239134,-2.607729620949312,2.0094399903912703,3.14
15,1.118480793459658,0.1103115251684862,1.1128111634329438,2.768432700545898,1.9967320799343928,1.7466340847292434,1.9054497886263169,-1.0,0.6155248395664041,-0.8476114704862453,-0.547136520403721,-2.623702332710766,2.013977005320605,3.14
16,1.1025263791753748,0.10914787386330184,1.096910240884153,2.777312789772746,2.0023052416947444,1.7401748615467043,1.8948034282311543,-1.0,0.6349644931825691,-0.8752107128943072,-0.5086455966149519,-2.63973930804153,2.0176905076680107,3.14
17,1.089330614251076,0.10990519773638645,1.0835630937259368,2.7820615347693916,2.006773421536481,1.7344643513472076,1.8841256787676002,-1.0,0.6501837333809469,-0.8995475069101184,-0.4743518564465215,-2.65579889644969,2.021035255344439,3.14
18,1.0786240864232426,0.11138478241875102,1.072630422727221,2.78417016674977,2.01019102566993,1.7298427989748701,1.8741560012555556,-1.0,0.6619694856598821,-0.9209947253252208,-0.44309965566304405,-2.6716530924569826,2.0241967135376426,3.14
19,1.0700719596415562,0.11297383397657548,1.0638450859302808,2.7847117943519426,2.0127021597857864,1.7263384602135563,1.8652673750299897,-1.0,0.6710459256116033,-0.9399589140909229,-0.41418004597391256,-2.687051631950138,2.0272118784321216,3.14
20,1.063320596824578,0.11439755605313823,1.0568853144431625,2.784414407917256,2.0144815254044786,1.7238227489237141,1.8575891589817939,-1.0,0.6780308102414008,-0.9568266138795727,-0.3871693779986956,-2.701793636896082,2.0300504290944446,3.14
21,1.058031813272262,0.11555972865896799,1.0514247562004428,2.7837426879746006,2.0156992598825347,1.7221072300946794,1.8511013539186094,-1.0,0.6834254318481672,-0.971937117430468,-0.3618194114964773,-2.715748027241679,2.032664406732014,3.14
22,1.0539032918670819,0.11645182147450445,1.0471622883158926,2.782972788254458,2.0165033930774765,1.720998584639442,1.845701930194093,-1.0,0.6876225613005357,-0.9855735295989589,-0.33798416642192425,-2.7288488696492608,2.035014434195678,3.14
23,1.0506778324546522,0.11710403511748257,1.0438367939255473,2.78225340129859,2.017013755962097,1.7203257731990893,1.8412519652967734,-1.0,0.690922227525757,-0.9979645687964294,-0.3155728180459283,-2.7410810043658085,2.03708008025325,3.14
24,1.0481448966999984,0.11755991360018835,1.0412318638709672,2.7816519195829876,2.017322431964242,1.7199502512830178,1.837603921652848,-1.0,0.6935494245225614,-1.0092915433748835,-0.29452078020367756,-2.752464109797604,2.0388607553650906,3.14
25,1.0461374653052724,0.1178638007533458,1.0391743613777844,2.781187274624535,2.0174973497620527,1.71976675220533,1.8346178909352822,-1.0,0.6956706908496836,-1.0196969910037947,-0.2747731470709938,-2.7630389349630935,2.040371882544259,3.14
26,1.0445264703570987,0.11805519333529553,1.0375296910515532,2.780852069897442,2.017586921922514,1.719699463410319,1.832169725031306,-1.0,0.6974082583818428,-1.0292930584632665,-0.25627619705739957,-2.7728569127597087,2.0416394706130068,3.14
27,1.0432143488452692,0.11816673075534108,1.0361956835159074,2.780626705396705,2.017624588962766,1.7196964812083813,1.8301540128247586,-1.0,0.6988514543496868,-1.0381687490975344,-0.23897386789793962,-2.781973087946968,2.0426948913227756,3.14
28,1.04212868646124,0.11822403101679403,1.0350962930034495,2.780487838298995,2.0176327485944796,1.7197241322418846,1.828484010525727,-1.0,0.7000655382536025,-1.0463957784472024,-0.22280706204662143,-2.790441758987847,2.0435707086009485,3.14
29,1.0412164940686899,0.11824638947615546,1.0341757893673431,2.7804130326553906,2.0176259117808373,1.7197619353350286,1.8270899510236611,-1.0,0.7010983608392508,-1.0540330939531974,-0.20771437151929303,-2.7983141063641623,2.0442977998940433,3.14
30,1.040439363296646,0.11824780639308903,1.033393772506402,2.780382971305208,2.0176131142088796,1.7197984954621737,1.825916647271118,-1.0,0.7019852776609561,-1.0611302492008394,-0.19363334974231186,-2.8056371492884993,2.044903671446535,3.14
31,1.0397695559806859,0.11823806256970307,1.0327211090973933,2.78038219747392,2.01759969184431,1.7198283565715033,1.8249209424327097,-1.0,0.7027527169286023,-1.0677298588176813,-0.18050183557990035,-2.8124535141506843,2.045411718765624,3.14
32,1.0391869687576178,0.11822370571007826,1.0321367558081935,2.7803990373772645,2.0175885501617894,1.7198497098044778,1.824069313884542,-1.0,0.7034207379228429,-1.0738693476968955,-0.16825908466330514,-2.81880164660323,2.045841149126707,3.14
33,1.0386768563561068,0.11820889047864876,1.0316253622697642,2.7804251223455654,2.0175810486645185,1.719862803185605,1.823335778862223,-1.0,0.7040048474952091,-1.0795821764531828,-0.15684661757634646,-2.824716225949762,2.0462073111577164,3.14
34,1.038228176495153,0.11819605904273053,1.03117551912608,2.780454765110133,2.017577602893536,1.7198688926383867,1.822700151395112,-1.0,0.7045172797706053,-1.0848986888120067,-0.14620878160626924,-2.83022863668711,2.0465222311500564,3.14
35,1.0378324215073056,0.11818647141318009,1.030778514914949,2.7804843342209584,2.017578084444721,1.7198695901408356,1.8221466436508493,-1.0,0.7049678923420912,-1.0898466928850432,-0.13629306544077516,-2.8353674189681666,2.0467952149245776,3.14
36,1.037482816445111,0.11818060512385818,1.030427478502074,2.780511698978494,2.0175820797757384,1.71986648977524,1.8216627756356754,-1.0,0.7053647913915989,-1.0944518596372195,-0.12705022148936082,-2.8401586627888893,2.047033426386425,3.14
37,1.0371737834184351,0.11817844705601639,1.0301168032885162,2.7805357732552345,2.017589052298952,1.719860978893469,1.8212385452093451,-1.0,0.7057147670295432,-1.0987379988377262,-0.11843425044817264,-2.8446263361180586,2.047242394744289,3.14
38,1.036900592773016,0.1181796997116932,1.0298417704030707,2.780556161308157,2.017598439572895,1.7198541657652455,1.820865808607181,-1.0,0.706023596948236,-1.1027272549941927,-0.11040229522177597,-2.8487925505959915,2.047426431219611,3.14
39,1.0366591409147285,0.11818392187482028,1.0295983077016453,2.7805728956271096,2.0176097078977326,1.719846875258524,1.8205378254710236,-1.0,0.7062962594814983,-1.1064402524234487,-0.1029144812038101,-2.8526777742521174,2.047588954474408,3.14
40,1.036445810902254,0.11819062048956089,1.0293828382292582,2.7805862514047375,2.0176223796842425,1.719839679950622,1.8202489287914174,-1.0,0.7065370848516174,-1.109896208869774,-0.09593372990106999,-2.8563010021218105,2.0477327342760203,3.14
41,1.036257385022684,0.11819930737023651,1.029192185404479,2.780596621186715,2.0176360440079604,1.7198329458976314,1.8199942873277632,-1.0,0.7067498645571482,-1.1131130301554009,-0.08942556426061946,-2.8596798948160225,2.047860067469161,3.14
42,1.0360909885810803,0.11820953137702077,1.0290235126622302,2.7806044345835734,2.0176503572734177,1.7198268807160464,1.819769734958001,-1.0,0.7069379325804355,-1.116107393559627,-0.08335791727232043,-2.8628308933392876,2.0479729011863985,3.14
43,1.0359440514805895,0.11822089410594895,1.028874283023707,2.7806101102869,2.017665038495557,1.7198215773575247,1.8195716474860189,-1.0,0.7071042276730624,-1.1188948244142691,-0.07770095044137888,-2.865769316515629,2.0480729169798417,3.14
44,1.0358142793415372,0.1182330550017076,1.0287422295458841,2.780614030256624,2.0176798620513545,1.719817050651388,1.819396852498782,-1.0,0.7072513428938557,-1.1214897683316871,-0.0724268853025379,-2.868509445642833,2.0481615873190817,3.14
45,1.0356996293992506,0.11824573009578106,1.0286253313367086,2.780616528411033,2.0176946496393464,1.7198132659214391,1.8192425619037926,-1.0,0.707381566448839,-1.123905660206079,-0.06750984894838066,-2.871064599597691,2.048240213398228,3.14
46,1.0355982886696584,0.11825868725702278,1.0285217922536218,2.78061788826131,2.017709262445793,1.71981016021233,1.8191063198824855,-1.0,0.7074969164396641,-1.1261549903933596,-0.06292573324443809,-2.8734472025739746,2.048309950848751,3.14
47,1.0355086532414342,0.11827173985832776,1.0284300209057435,2.7806183456279414,2.0177235940374256,1.7198076572346865,1.8189859613051678,-1.0,0.7075991711659041,-1.1282493680927714,-0.05865206672510667,-2.875668845905299,2.0483718279698957,3.14
48,1.0354293083270045,0.11828474005074589,1.0283486114475027,2.780618093872846,2.017737564200175,1.7198056773102817,1.8188795773186546,-1.0,0.7076898960017102,-1.1301995817916402,-0.05466789788774784,-2.877740344939348,2.0484267595294776,3.14
49,1.0353590090934497,0.11829757233749645,1.0282763251043199,2.7806172900303068,2.017751113763066,1.7198041435441376,1.818785485981521,-1.0,0.7077704674735226,-1.1320156566017672,-0.050953688566638684,-2.8796717916211416,2.048475558037404,3.14
50,1.0352966624489217,0.11831014780408083,1.028212072567499,2.7806160608868007,2.017764200346103,1.7198029852851193,1.8187022066086953,-1.0,0.7078420949272581,-1.1337069083509712,-0.04749121616218301,-2.8814726032543767,2.0485189435934417,3.14
51,1.035241309983528,0.11832239914441665,1.0281548974448822,2.7806145085086134,2.017776794922219,1.7198021397324736,1.8186284370001007,-1.0,0.7079058400369006,-1.1352819943574604,-0.04426348365154246,-2.883151567797989,2.048557552886335,3.14
52,1.0351921122223426,0.1183342764922889,1.02810396092761,2.780612715003528,2.0177888790667526,1.7198015523443635,1.818563033048845,-1.0,0.7079626343340467,-1.1367489608848198,-0.04125463647091035,-2.8847168859892713,2.048591947601569,3.14
53,1.035148334283036,0.11834574399557926,1.0280585277758505,2.7806107464758187,2.0178004427701093,1.719801176526877,1.8185049904152766,-1.0,0.7080132949038693,-1.1381152873387803,-0.038449885513248606,-2.8861762105449387,2.048622622317664,3.14
54,1.0351093329645378,0.11835677703761856,1.0280179536633471,2.78060865622868,2.0178114827015006,1.7198009729365176,1.8184534280596254,-1.0,0.7080585383799353,-1.1393879273177718,-0.03583543561762707,-2.8875366826650475,2.0486500118864326,3.14
55,1.035074545237289,0.11836736000095861,1.027981673865044,2.7806064873125638,2.0178220008281684,1.7198009086165145,1.8184075734803438,-1.0,0.7080989933673948,-1.140573346665997,-0.033398419034376244,-2.888804966044638,2.0486744982642935,3.14
56,1.0350434780642312,0.11837748447357042,1.027949193229413,2.7806042745311865,2.017832003311816,1.7198009561041105,1.8183667495296445,-1.0,0.7081352114245547,-1.1416775587012,-0.031126833435416144,-2.889987278580832,2.048696416763875,3.14
57,1.0350156994546398,0.11838714780917377,1.0279200773482027,2.7806020460127274,2.017841499620139,1.719801092587344,1.8183303626864997,-1.0,0.7081676767331538,-1.1427061568014543,-0.02900948410468912,-2.891089421947334,2.048716061710959,3.14
58,1.0349908306382956,0.11839635196761235,1.0278939448196898,2.780599824440815,2.0178505018053348,1.719801299150394,1.8182978926693305,-1.0,0.7081968145860318,-1.1436643445385875,-0.027035929993498933,-2.892116809193414,2.04873369151123,3.14
59,1.0349685392425747,0.11840510257535877,1.0278704604946878,2.7805976280238682,2.0178590239130125,1.7198015601214758,1.818268883270936,-1.0,0.7082229988168237,-1.1445569635426323,-0.025196433363468385,-2.8930744905104873,2.0487495331488383,3.14
60,1.0349485333570323,0.11841340815899903,1.0278493295949669,2.7805954712653294,2.017867081494028,1.7198018625223912,1.8182429342993505,-1.0,0.7082465582900282,-1.1453885192740696,-0.023481912768955126,-2.8939671772965307,2.048763786152123,3.14
61,1.0349305563765836,0.11842127951529009,1.0278302925989062,2.7805933655830337,2.0178746911987684,1.7198021956109186,1.8182196945113998,-1.0,0.7082677825617479,-1.1461632048702868,-0.02188389915362113,-2.894799264636916,2.0487766260703335,3.14
62,1.0349143825234937,0.11842872919004943,1.0278131207973245,2.780591319814015,2.017881870438594,1.7198025505038261,1.8181988554307873,-1.0,0.7082869268122469,-1.1468849232209264,-0.020394494854334984,-2.895574852309834,2.0487882075094115,3.14
63,1.0348998129586715,0.11843577104482472,1.0277976124319228,2.7805893406315283,2.017888637102894,1.7198029198675673,1.8181801459492992,-1.0,0.7083042161417649,-1.1475573074146022,-0.019006335321054023,-2.8962977644153485,2.048798666775619,3.14
64,1.0348866724032264,0.11844241989536614,1.0277835893386995,2.7805874328938693,2.017895009322932,1.7198032976645645,1.8181633276176274,-1.0,0.7083198493112881,-1.1481837396874415,-0.01771255337471115,-2.8969715677190755,2.04880812417408,3.14
65,1.0348748062012503,0.11844869120965469,1.0277708940283174,2.7805855999391587,2.0179010052755233,1.7198036789444844,1.818148190540843,-1.0,0.7083340020005625,-1.148767368992491,-0.016506745837047317,-2.8975995887945034,2.0488166860060137,3.14
66,1.0348640777639904,0.11845460085595377,1.027759387144325,2.7805838438364,2.0179066430209334,1.7198040596716657,1.818134549802237,-1.0,0.7083468296468213,-1.1493111272984153,-0.01538294237717024,-2.8981849300417877,2.0488244463042773,3.14
67,1.034854366343823,0.1184601648932991,1.0277489452482098,2.780582165600412,2.0179119403703063,1.7198044365815313,1.81812224234774,-1.0,0.708358469919619,-1.149817744716223,-0.014335576429630886,-2.8987304846554163,2.048831488342414,3.14
68,1.034845565093645,0.11846539939826484,1.0277394588873454,2.7805805653763263,2.017916914778647,1.7198048070603178,1.8181111242711405,-1.0,0.7083690448799091,-1.1502897635439897,-0.013359458048138338,-2.899238950608277,2.048837885947973,3.14
69,1.0348375793735531,0.11847032032286375,1.027730830908068,2.7805790425980628,2.0179215832598683,1.7198051690436729,1.8181010684477323,-1.0,0.7083786628650708,-1.1507295513116658,-0.012449748567765756,-2.899712843715242,2.0488437046467913,3.14
70,1.0348303252720432,0.11847494337922075,1.0277229749814218,2.7805775961243167,2.017925962320845,1.7198055209306837,1.8180919624707013,-1.0,0.7083874201359569,-1.151139312900994,-0.011601936956694738,-2.900154509835379,2.0488490026611923,3.14
71,1.034823728313548,0.11847928394725159,1.0277158143136569,2.7805762243549723,2.0179300679117693,1.7198058615106402,1.8180837068505442,-1.0,0.7083954023171354,-1.1515211018092415,-0.010811817746233965,-2.9005661362681705,2.048853831781803,3.14
72,1.0348177223280086,0.11848335700207091,1.0277092805174215,2.780574925330399,2.017933915390377,1.7198061899004555,1.8180762134430515,-1.0,0.7084026856572587,-1.1518768306197706,-0.010075470435058466,-2.9009497623956984,2.048858238129876,3.14
73,1.0348122484615285,0.11848717705824419,1.0277033126228958,2.780573696815822,2.0179375194979237,1.7198065054910718,1.818069404076017,-1.0,0.7084093381328517,-1.152208280737377,-0.009389240270378787,-2.9013072896195036,2.0488622628245747,3.14
74,1.0348072543099536,0.11849075812836081,1.0276978562109111,2.7805725363726315,2.0179408943450134,1.7198068079015254,1.8180632093488038,-1.0,0.7084154204156677,-1.1525171114417236,-0.008749720315078533,-2.9016404906378295,2.0488659425676405,3.14
75,1.0348026931596757,0.1184941136937011,1.0276928626525033,2.7805714414183518,2.0179440534056217,1.7198070969395858,1.8180575675823758,-1.0,0.7084209867210752,-1.1528048683080343,-0.008153734715786886,-2.9019510181061032,2.0488693101561273,3.14
76,1.0347985233219972,0.11849725668507331,1.0276882884414096,2.780570409276727,2.017947009517878,1.7198073725680576,1.8180524239003775,-1.0,0.7084260855526185,-1.1530729910404363,-0.007598323092397845,-2.9022404127208334,2.0488723949324146,3.14
77,1.0347947075492154,0.11850019947209725,1.0276840946077666,2.780569437219315,2.0179497748903343,1.7198076348759839,1.8180477294244421,-1.0,0.7084307603559001,-1.1533228207598867,-0.007080725974732854,-2.902510110764588,2.0488752231794702,3.14
78,1.034791212522093,0.11850295385949584,1.0276802462028078,2.7805685224997116,2.017952361112659,1.7198078840540953,1.8180434405691024,-1.0,0.7084350500932244,-1.1535556067854817,-0.0065983712168968195,-2.9027614511473314,2.0488778184682714,3.14
79,1.0347880083997243,0.1185055310891035,1.0276767118456611,2.7805676623815088,2.0179547791698225,1.7198081203739393,1.8180395184236233,-1.0,0.708438989748949,-1.153772512945057,-0.006148861324413519,-2.9029956819771794,2.0488802019633847,3.14
80,1.034785068423965,0.11850794184651325,1.0276734633244973,2.7805668541608592,2.017957039458989,1.719808344170196,1.8180359282097178,-1.0,0.7084426107742177,-1.1539746234483408,-0.00572996163346877,-2.9032139666915087,2.04888239269193,3.14
81,1.0347823685715838,0.11851019627142134,1.027670475245248,2.780566095184477,2.0179591518084536,1.7198085558257457,1.8180326388055417,-1.0,0.7084459414786277,-1.1541629483534923,-0.005339589285561597,-2.9034173897773976,2.048884407780485,3.14
82,1.0347798872481846,0.11851230397088781,1.0276677247220112,2.780565382863766,2.017961125498063,1.7198087557591233,1.8180296223276116,-1.0,0.708449007375427,-1.1543384286555998,-0.004975802944576101,-2.903606962108509,2.048886262663903,3.14
83,1.0347776050186714,0.11851427403483644,1.0276651911039631,2.7805647146856702,2.017962969280658,1.7198089444140117,1.8180268537633573,-1.0,0.7084518314859944,-1.1545019410236634,-0.004636793206761702,-2.9037836259237806,2.0488879712695076,3.14
84,1.0347755043697398,0.11851611505322414,1.0276628557342862,2.780564088220792,2.0179646914041474,1.7198091222505036,1.8180243106479632,-1.0,0.7084544346086245,-1.1546543022106575,-0.004320873657359346,-2.9039482594716537,2.0488895461797076,3.14
85,1.0347735695004066,0.1185178351344213,1.0276607017371777,2.7805635011291985,2.0179662996338905,1.7198092897378667,1.8180219727799571,-1.0,0.708456835556007,-1.1547962731595138,-0.004026472530654364,-2.9041016813420355,2.048890998775671,3.14
86,1.0347717861371233,0.11851944192439352,1.0276587138294915,2.780562951164335,2.0179678012751427,1.7198094473486023,1.818019821970722,-1.0,0.7084590513652356,-1.1549285628262285,-0.00375212493308212,-2.9042446545067473,2.048892339364382,3.14
87,1.0347701413704475,0.11852094262637534,1.0276568781540192,2.780562436175342,2.017969203195337,1.7198095955536032,1.8180178418237078,-1.0,0.7084610974836951,-1.1550518317397858,-0.0034964655916741804,-2.9043778900878574,2.0488935772911026,3.14
88,1.0347686235106228,0.11852234402074724,1.0276551821317716,2.7805619541080735,2.017970511846035,1.7198097348182435,1.8180160175396716,-1.0,0.7084629879337567,-1.155166695317195,-0.003258222092625518,-2.90450205087204,2.0488947210390136,3.14
89,1.034767221959768,0.1185236524849194,1.0276536143309718,2.7805615030050634,2.0179717332844214,1.7198098655992664,1.8180143357447283,-1.0,0.7084647354588458,-1.1552737269506346,-0.0030362085770918265,-2.9046177545879064,2.0488957783175823,3.14
90,1.0347659270986416,0.11852487401302575,1.027652164350743,2.7805610810046257,2.017972873194232,1.7198099883423406,1.8180127843384104,-1.0,0.7084663516531198,-1.1553734608825028,-0.0028293198635054944,-2.9047255769621527,2.0488967561410156,3.14
91,1.0347647301862333,0.11852601423530003,1.0276508227177346,2.780560686339269,2.0179739369060314,1.7198101034801767,1.8180113523592811,-1.0,0.7084678470767218,-1.1554663948830641,-0.002636525967737129,-2.904826054569313,2.048897660897984,3.14
92,1.0347636232706279,0.11852707843701386,1.0276495807941506,2.78056031733357,2.017974929416794,1.719810211431127,1.818010029865965,-1.0,0.7084692313583224,-1.1555529927443338,-0.002456866994334298,-2.9049196874889525,2.0488984984136565,3.14
93,1.0347625991097897,0.11852807157689403,1.0276484306958225,2.7805599724016337,2.017975855408732,1.7198103125981727,1.8180088078317191,-1.0,0.708470513286458,-1.1556336866029038,-0.0022894483738519294,-2.9050069417832076,2.048899274004954,3.14
94,1.034761651101096,0.11852899830495757,1.027647365219151,2.780559650044226,2.017976719267363,1.7198104073682456,1.8180076780509107,-1.0,0.7084717008909824,-1.1557088791035137,-0.0021334364229518236,-2.9050882518067316,2.048899992529824,3.14
95,1.034760773218574,0.11852986297970207,1.027646377775883,2.7805593488456855,2.017977525098777,1.7198104961118206,1.81800663305597,-1.0,0.7084728015157814,-1.1557789454143457,-0.001988054205506625,-2.905164022360308,2.0489006584312306,3.14
96,1.034759959956938,0.11853066968464028,1.0276454623348088,2.780559067470674,2.01797827674613,1.719810579182739,1.8180056660435653,-1.0,0.7084738218837732,-1.1558442351042602,-0.0018525776743971293,-2.9052346306986454,2.048901275776473,3.14
97,1.034759206281633,0.11853142224413936,1.0276446133695836,2.780558804660824,2.017978977805335,1.7198106569182046,1.8180047708089002,-1.0,0.7084747681550773,-1.155905073891481,-0.0017263320750506802,-2.9053004284021653,2.048901848292377,3.14
98,1.0347585075841825,0.1185321242385627,1.0276438258119782,2.780558559231339,2.017979631639986,1.719810729638937,1.818003941687179,-1.0,0.7084756459791338,-1.1559617652725669,-0.0016086885930373096,-2.9053617431219485,2.0489023793968224,3.14
99,1.0347578596422393,0.11853277901871269,1.0276430950099364,2.7805583300675827,2.0179802413955095,1.7198107976494428,1.8180031735013937,-1.0,0.7084764605414603,-1.1560145920399025,-0.0014990612292257379,-2.905418880206389,2.0489028722270297,3.14
100,1.0347572585837894,0.11853338971957475,1.0276424166899027,2.7805581161216866,2.0179808100125816,1.7198108612383753,1.818002461515696,-1.0,0.708477216605652,-1.15606381769537,-0.0013969038871086987,-2.9054721242175345,2.048903329664967,3.14
101,1.0347567008550396,0.11853395927337355,1.0276417869229386,2.780557916409216,2.0179813402398126,1.7198109206789733,1.818001801393711,-1.0,0.7084779185511503,-1.156109687767326,-0.001301707657941265,-2.905521740344564,2.048903754360198,3.14
102,1.0347561831915866,0.1185344904219616,1.0276412020942174,2.78055773000589,2.0179818346457425,1.7198109762295501,1.8180011891612136,-1.0,0.7084785704072551,-1.1561524310375257,-0.0012129982903000033,-2.9055679757213464,2.048904148750459,3.14
103,1.0347557025924796,0.11853498572854598,1.0276406588755154,2.7805575560443954,2.017982295630156,1.7198110281340269,1.8180006211726847,-1.0,0.7084791758837862,-1.156192260684164,-0.0011303338315730724,-2.9056110606545675,2.048904515080206,3.14
104,1.0347552562968771,0.11853544758878036,1.0276401542003868,2.7805573937112995,2.017982725434754,1.7198110766224874,1.8180000940812941,-1.0,0.7084797383987617,-1.1562293753467927,-0.0010533024297313585,-2.9056512097684686,2.04890485541736,3.14
105,1.0347548417629986,0.11853587824124957,1.0276396852417207,2.7805572422440648,2.0179831261532115,1.7198111219117593,1.8179996048119356,-1.0,0.7084802611034131,-1.1562639601184632,-0.000981520284518147,-2.905688623071844,2.0489051716684394,3.14
106,1.0347544566491265,0.118536279777354,1.027639249391439,2.780557100928176,2.0179834997406374,1.7198111642059943,1.8179991505369635,-1.0,0.7084807469048214,-1.1562961874700823,-0.0009146297379235618,-2.9057234869525543,2.0489054655922545,3.14
107,1.0347540987964445,0.11853665415063405,1.027638844242096,2.7805569690943903,2.0179838480224754,1.7198112036972586,1.817998728654345,-1.0,0.7084811984864222,-1.1563262181116223,-0.0008522974944986444,-2.9057559751044715,2.048905738812312,3.14
108,1.0347537662135007,0.11853700318555074,1.0276384675701977,2.7805568461160988,2.0179841727028722,1.7198112405661146,1.8179983367679518,-1.0,0.7084816183266079,-1.1563542017945108,-0.0007942129626982331,-2.9057862493914257,2.0489059928280704,3.14
109,1.0347534570621404,0.11853732858574755,1.0276381173210458,2.7805567314068154,2.017984475372532,1.719811274982196,1.8179979726697684,-1.0,0.708482008715618,-1.1563802780592227,-0.0007400867090381747,-2.9058144606524303,2.0489062290251536,3.14
110,1.034753169644745,0.11853763194182233,1.027637791594963,2.7805566244177786,2.0179847575160927,1.7198113071047738,1.8179976343238058,-1.0,0.7084823717708938,-1.1564045769318265,-0.0006896490174089653,-2.905840749452164,2.0489064486846456,3.14
111,1.0347529023926458,0.11853791473862425,1.0276374886347568,2.780556524635682,2.017985020519048,1.719811337083302,1.8179973198515433,-1.0,0.7084827094510554,-1.1564272195729743,-0.0006426485464045215,-2.905865246780421,2.0489066529915427,3.14
112,1.0347526538555902,0.11853817836211661,1.0276372068142925,2.780556431580508,2.0179852656742336,1.7198113650579507,1.8179970275187318,-1.0,0.7084830235686371,-1.156448318882591,-0.0005988510780086586,-2.9058880747039972,2.048906843042459,3.14
113,1.0347524226921596,0.1185384241058091,1.0276369446280782,2.780556344803485,2.0179854941879114,1.7198113911601218,1.817996755723424,-1.0,0.7084833158016994,-1.1564679800632847,-0.0005580383514321448,-2.905909346974236,2.0489070198526522,3.14
114,1.0347522076610338,0.11853865317679421,1.027636700681747,2.7805562638851495,2.0179857071854643,1.719811415512941,1.8179965029851024,-1.0,0.7084835877044354,-1.1564863011453093,-0.0005200069763153642,-2.905929169593244,2.0489071843624385,3.14
115,1.034752007613029,0.11853886670141071,1.027636473683365,2.78055618843352,2.017985905716738,1.7198114382317353,1.8179962679347894,-1.0,0.7084838407168637,-1.156503373475697,-0.0004845674199009995,-2.9059476413415877,2.048907337443059,3.14
116,1.034751821483825,0.11853906573054383,1.0276362624354727,2.780556118082367,2.0179860907610303,1.7198114594244842,1.8179960493060443,-1.0,0.7084840761736955,-1.1565192821740196,-0.0004515430631496256,-2.9059648542700813,2.048907479902043,3.14
117,1.0347516482873202,0.11853925124459855,1.0276360658278025,2.7805560524895845,2.017986263231771,1.7198114791922532,1.817995845926762,-1.0,0.7084842953124544,-1.1565341065570451,-0.0004207693211091123,-2.9059808941581102,2.0489076124881187,3.14
118,1.0347514871095542,0.11853942415815193,1.0276358828306016,2.780555991335657,2.0179864239808953,1.7198114976296066,1.817995656711684,-1.0,0.7084844992809209,-1.1565479205344296,-0.0003920928231709418,-2.905995840940761,2.0489077358957206,3.14
119,1.03475133710314,0.1185395853243095,1.0276357124885054,2.7805559343222144,2.0179865738029354,1.719811514825001,1.8179954806555654,-1.0,0.7084846891439579,-1.1565607929774062,-0.00036537064913742795,-2.906009769106881,2.048907850769116,3.14
120,1.0347511974821646,0.11853973553878025,1.0276355539149167,2.7805558811706756,2.017986713438844,1.7198115308611555,1.8179953168269267,-1.0,0.7084848658897789,-1.1565727880623302,-0.0003404696173060097,-2.9060227480700407,2.0489079577061977,3.14
121,1.0347510675175091,0.11853987554368907,1.027635406286835,2.78055583162097,2.0179868435795703,1.7198115458154049,1.8179951643623313,-1.0,0.7084850304357098,-1.156583965590786,-0.0003172656210308849,-2.906034842514243,2.0489080572619724,3.14
122,1.0347509465325502,0.11854000603114889,1.027635268840105,2.7805557854303395,2.017986964869407,1.719811559760034,1.8179950224611499,-1.0,0.7084851836334861,-1.1565943812878612,-0.00029564301046347135,-2.906046112716096,2.0489081499517616,3.14
123,1.0347508338992168,0.11854012764658821,1.027635140865046,2.780555742372213,2.0179870779091083,1.7198115727625924,1.8179948903807581,-1.0,0.7084853262741261,-1.1566040870800782,-0.0002754940163975639,-2.9060566148450513,2.0489082362541526,3.14
124,1.0347507290343578,0.1185402409918734,1.02763502170242,2.7805557022351484,2.0179871832588105,1.7198115848861908,1.817994767432131,-1.0,0.7084854590924208,-1.1566131313543682,-0.0002567182133544341,-2.9060664012431983,2.048908316613714,3.14
125,1.0347506313964037,0.11854034662821886,1.0276349107397238,2.7805556648218452,2.0179872814407576,1.7198115961897829,1.8179946529757964,-1.0,0.7084855827710712,-1.1566215591993847,-0.00023922201923595756,-2.9060755206860045,2.0489083914434985,3.14
126,1.0347505404822896,0.11854044507891004,1.0276348074077664,2.7805556299482164,2.0179873729418443,1.719811606728431,1.8179945464181169,-1.0,0.7084856979445023,-1.156629412630361,-0.00022291822905812835,-2.9060840186253034,2.048908461127352,3.14
127,1.0347504558246223,0.11854053683184615,1.0276347111775075,2.7805555974425147,2.017987458215994,1.7198116165535524,1.8179944472078686,-1.0,0.7084858052023842,-1.1566367307986334,-0.00020772558044353115,-2.90609193741573,2.048908526022041,3.14
128,1.0347503769890656,0.1185406223419171,1.027634621557146,2.7805555671445226,2.0179875376863805,1.7198116257131542,1.817994354833094,-1.0,0.708485905092882,-1.1566435501868784,-0.00019356834871224704,-2.906099316525737,2.048908586459222,3.14
129,1.0347503035719292,0.11854070203321754,1.0276345380894236,2.7805555389047902,2.017987611747497,1.7198116342520537,1.817994268818202,-1.0,0.7084859981256566,-1.1566499047910344,-0.0001803759695546761,-2.90610619273424,2.048908642747255,3.14
130,1.0347502351979425,0.11854077630112189,1.0276344603491365,2.780555512583916,2.017987680767087,1.7198116422120853,1.8179941887212947,-1.0,0.7084860847746418,-1.1566558262898223,-0.00016808268740882415,-2.9061126003138646,2.048908695172884,3.14
131,1.0347501715182004,0.11854084551421623,1.0276343879408356,2.7805554880518866,2.017987745087955,1.719811649632294,1.8179941141317038,-1.0,0.7084861654806072,-1.1566613442027056,-0.00015662722779189188,-2.9061185712017155,2.0489087440027887,3.14
132,1.0347501122082587,0.11854091001610165,1.0276343204966938,2.780555465187447,2.0179878050296454,1.7198116565491168,1.8179940446677152,-1.0,0.7084862406535334,-1.1566664860370808,-0.0001459524919551204,-2.906124135158511,2.048908789485019,3.14
133,1.0347500569663808,0.11854097012708163,1.0276342576745348,2.7805554438775215,2.0179878608900155,1.719811662996555,1.8179939799744687,-1.0,0.7084863106748096,-1.1566712774254335,-0.0001360052723409336,-2.9061293199168796,2.048908831850328,3.14
134,1.03475000551191,0.11854102614573378,1.0276341991560105,2.780555424016662,2.017987912946703,1.7198116690063312,1.8179939197220154,-1.0,0.7084863758992672,-1.1566757422531433,-0.00012673598742586175,-2.9061341513195487,2.0489088713134,3.14
135,1.034749957583765,0.1185410783503751,1.02763414464491,2.7805554055065427,2.0179879614584912,1.7198116746080434,1.8179938636035278,-1.0,0.7084864366570635,-1.1566799027775732,-0.00011809843462997488,-2.906138653448127,2.04890890807399,3.14
136,1.0347499129390467,0.11854112700043222,1.027634093865592,2.7805553882554825,2.017988006666586,1.7198116798293015,1.8179938113336378,-1.0,0.7084864932554286,-1.156683779739044,-0.00011004956006061175,-2.906142848743107,2.048908942317983,3.14
137,1.0347498713517485,0.11854117233771932,1.0276340465615312,2.780555372177999,2.0179880487958064,1.7198116846958595,1.8179937626469043,-1.0,0.7084865459802844,-1.15668739246424,-0.00010254924394515518,-2.9061467581156943,2.0489089742183704,3.14
138,1.0347498326115612,0.11854121458762777,1.027634002493976,2.780555357194391,2.017988088055694,1.7198116892317408,1.8179937172963887,-1.0,0.7084865950977441,-1.1566907589625672,-9.556010068322201e-05,-2.9061504010520185,2.0489090039361595,3.14
139,1.0347497965227623,0.11854125396023912,1.0276339614406949,2.7805553432303545,2.017988124641548,1.7198116934593506,1.8179936750523442,-1.0,0.7084866408555063,-1.1566938960159414,-8.904729252321724e-05,-2.9061537957102432,2.0489090316212155,3.14
140,1.0347497629031903,0.11854129065136086,1.0276339231948202,2.7805553302166146,2.017988158735391,1.7198116973995847,1.8179936357009923,-1.0,0.7084866834841453,-1.1566968192624567,-8.297835593433294e-05,-2.9061569590110587,2.048909057413044,3.14
141,1.0347497315832905,0.11854132484349544,1.027633887563771,2.7805553180885902,2.0179881905068715,1.719811701071929,1.8179935990433964,-1.0,0.7084867231983111,-1.1566995432743494,-7.732303980958715e-05,-2.90615990672201,2.048909081441516,3.14
142,1.034749702405231,0.11854135670673831,1.0276338543682564,2.780555306786079,2.017988220114098,1.719811704494556,1.8179935648944137,-1.0,0.7084867601978412,-1.156702081630648,-7.205315469406462e-05,-2.9061626535360805,2.0489091038275387,3.14
143,1.0347496752220815,0.11854138639962183,1.0276338234413471,2.7805552962529583,2.0179882477044275,1.7198117076844093,1.817993533081723,-1.0,0.7084867946687952,-1.1567044469848704,-6.714243228657306e-05,-2.9061652131449165,2.0489091246836852,3.14
144,1.0347496498970514,0.11854141406990083,1.0276337946276128,2.7805552864369125,2.0179882734151944,1.7198117106572897,1.8179935034449262,-1.0,0.7084868267844144,-1.156706651128107,-6.25663945157607e-05,-2.906167598307068,2.048909144114772,3.14
145,1.0347496263027813,0.11854143985527885,1.0276337677823248,2.7805552772891753,2.017988297374387,1.7198117134279272,1.81799347583471,-1.0,0.7084868567060134,-1.1567087050478038,-5.830223153746496e-05,-2.906169820911575,2.0489091622184,3.14
146,1.034749604320688,0.11854146388409513,1.0276337427707112,2.780555268764292,2.017988319701287,1.7198117160100563,1.817993450112072,-1.0,0.7084868845838086,-1.156710618982537,-5.43286880456959e-05,-2.906171892037224,2.048909179085455,3.14
147,1.0347495838403515,0.11854148627595881,1.0276337194672656,2.7805552608198907,2.0179883405070598,1.7198117184164832,1.8179934261475994,-1.0,0.7084869105576885,-1.1567124024730557,-5.062595733138591e-05,-2.906173822007766,2.0489091948005744,3.14
148,1.0347495647589486,0.11854150714234044,1.027633697755106,2.780555253416478,2.0179883598953037,1.719811720659145,1.8179934038207997,-1.0,0.7084869347579296,-1.156714064409846,-4.717558256000786e-05,-2.906175620443369,2.0489092094425803,3.14
149,1.0347495469807277,0.11854152658712684,1.0276336775253772,2.780555246517244,2.017988377962568,1.7198117227491714,1.817993383019481,-1.0,0.7084869573058611,-1.1567156130774496,-4.396036477735365e-05,-2.9061772963085675,2.0489092230848804,3.14
150,1.0347495304165155,0.11854154470713349,1.0276336586766968,2.78055524008788,2.0179883947988264,1.7198117246969367,1.8179933636391734,-1.0,0.7084869783144842,-1.1567170561957663,-4.09642771836654e-05,-2.906178857956945,2.048909235795845,3.14
151,1.0347495149832633,0.11854156159258955,1.0276336411146363,2.780555234096406,2.0179884104879315,1.7198117265121127,1.817993345582593,-1.0,0.7084869978890476,-1.1567184009585365,-3.817238525078014e-05,-2.9061803131727695,2.0489092476391533,3.14
152,1.034749500603623,0.11854157732757978,1.027633624751244,2.780555228513019,2.0179884251080256,1.7198117282037149,1.8179933287591434,-1.0,0.7084870161275821,-1.1567196540692046,-3.557077228187011e-05,-2.9061816692097913,2.0489092586741164,3.14
153,1.0347494872055534,0.1185415919904691,1.0276336095045968,2.7805552233099373,2.017988438731931,1.7198117297801474,1.8179933130844528,-1.0,0.7084870331213994,-1.1567208217743354,-3.314647004538942e-05,-2.9061829328274,2.0489092689559816,3.14
154,1.0347494747219554,0.11854160565428372,1.0276335952983857,2.780555218461273,2.017988451427511,1.7198117312492438,1.8179932984799432,-1.0,0.7084870489555527,-1.1567219098947543,-3.0887394134909094e-05,-2.9061841103243142,2.048909278536209,3.14
155,1.0347494630903262,0.1185416183870806,1.0276335820615274,2.7805552139428977,2.0179884632580083,1.7198117326183056,1.81799328487243,-1.0,0.7084870637092708,-1.156722923854564,-2.878228373531738e-05,-2.906185207569977,2.0489092874627346,3.14
156,1.0347494522524496,0.1185416302522815,1.027633569727807,2.7805552097323214,2.017988474282358,1.719811733894138,1.8179932721937477,-1.0,0.708487077456357,-1.1567238687081847,-2.682064549315813e-05,-2.906186230033811,2.048909295780213,3.14
157,1.0347494421540955,0.11854164130899086,1.0276335582355416,2.780555205808587,2.0179884845554836,1.7198117350830853,1.817993260380406,-1.0,0.7084870902655626,-1.1567247491655488,-2.499270121261121e-05,-2.906187182812482,2.0489093035302397,3.14
158,1.0347494327447466,0.11854165161228787,1.0276335475272693,2.780555202152162,2.017988494128566,1.7198117361910603,1.817993249373266,-1.0,0.7084871022009338,-1.1567255696155812,-2.3289339115701134e-05,-2.906188070655302,2.048909310751566,3.14
159,1.034749423977345,0.11854166121350125,1.0276335375494596,2.7805551987448407,2.0179885030493008,1.719811737223573,1.8179932391172398,-1.0,0.708487113322136,-1.1567263341480785,-2.1702068424506475e-05,-2.906188897987901,2.0489093174802906,3.14
160,1.0347494158080524,0.11854167016046302,1.027633528252244,2.7805551955696597,2.017988511362135,1.71981173818576,1.8179932295610144,-1.0,0.7084871236847525,-1.156727046574095,-2.0222977037784473e-05,-2.906189668934289,2.048909323750044,3.14
161,1.0347494081960296,0.11854167849774878,1.0276335195891622,2.7805551926108087,2.0179885191084885,1.7198117390824095,1.817993220656789,-1.0,0.7084871333405676,-1.1567277104449418,-1.8844692093184623e-05,-2.90619038733741,2.0489093295921577,3.14
162,1.0347494011032312,0.11854168626689762,1.0276335115169313,2.7805551898535534,2.0179885263269597,1.7198117399179818,1.8179932123600344,-1.0,0.7084871423378237,-1.1567283290698895,-1.7560343216352302e-05,-2.9061910567782983,2.0489093350358196,3.14
163,1.0347493944942119,0.1185416935066189,1.0276335039952258,2.7805551872841634,2.0179885330535177,1.7198117406966353,1.8179932046292686,-1.0,0.7084871507214675,-1.156728905532665,-1.6363528274786738e-05,-2.9061916805939267,2.0489093401082243,3.14
164,1.034749388335952,0.11854170025298606,1.027633496986477,2.7805551848898404,2.0179885393216797,1.719811741422245,1.8179931974258476,-1.0,0.7084871585333727,-1.156729442706823,-1.5248281465695402e-05,-2.906192261893843,2.0489093448347067,3.14
165,1.0347493825976863,0.11854170653961481,1.027633490455683,2.7805551826586594,2.017988545162682,1.719811742098424,1.8179931907137699,-1.0,0.708487165812553,-1.1567299432700706,-1.420904357895278e-05,-2.9061928035756677,2.0489093492388712,3.14
166,1.0347493772507548,0.11854171239783,1.0276334843702324,2.7805551805795092,2.0179885506056316,1.7198117427285373,1.8179931844594965,-1.0,0.7084871725953564,-1.1567304097176163,-1.3240634286032448e-05,-2.906193308339536,2.04890935334271,3.14
167,1.0347493722684533,0.11854171785682557,1.0276334786997412,2.7805551786420293,2.017988555677653,1.719811743315722,1.8179931786317791,-1.0,0.7084871789156485,-1.1567308443746072,-1.2338226318714923e-05,-2.9061937787015615,2.0489093571667127,3.14
168,1.0347493676259023,0.11854172294380165,1.0276334734159014,2.7805551768365704,2.0179885604040204,1.7198117438629021,1.8179931732015078,-1.0,0.7084871848049816,-1.1567312494077195,-1.1497321405796651e-05,-2.906194217006372,2.0489093607299704,3.14
169,1.0347493632999223,0.11854172768411046,1.0276334684923358,2.7805551751541384,2.0179885648082903,1.7198117443728018,1.8179931681415602,-1.0,0.7084871902927553,-1.1567316268359609,-1.0713727851826338e-05,-2.9061946254388022,2.04890936405027,3.14
170,1.0347493592689168,0.1185417321013738,1.0276334639044702,2.7805551735863507,2.0179885689124104,1.7198117448479608,1.817993163426667,-1.0,0.7084871954063601,-1.1567319785407328,-9.983539642169276e-06,-2.90619500603478,2.048909367144184,3.14
171,1.034749355512763,0.11854173621760468,1.0276334596294066,2.7805551721253976,2.0179885727368347,1.7198117452907449,1.817993159033286,-1.0,0.7084872001713173,-1.1567323062752104,-9.30311697306746e-06,-2.9061953606914783,2.048909370027154,3.14
172,1.034749352012713,0.11854174005331716,1.0276334556458113,2.7805551707640004,2.017988576300624,1.7198117457033595,1.8179931549394817,-1.0,0.7084872046114062,-1.1567326116730812,-8.669068108261096e-06,-2.906195691176769,2.048909372713567,3.14
173,1.0347493487512984,0.11854174362762707,1.0276334519338053,2.780555169495373,2.017988579621538,1.7198117460878597,1.8179931511248166,-1.0,0.7084872087487835,-1.1567328962566892,-8.078232472491564e-06,-2.9061959991380366,2.048909375216829,3.14
174,1.0347493457122425,0.11854174695834743,1.0276334484748668,2.7805551683131973,2.01798858271613,1.7198117464461606,1.8179931475702502,-1.0,0.7084872126040932,-1.156733161444623,-7.527664896842422e-06,-2.90619628611039,2.0489093775494296,3.14
175,1.0347493428803811,0.11854175006207819,1.0276334452517384,2.780555167211583,2.017988585599822,1.7198117467800476,1.8179931442580408,-1.0,0.708487216196571,-1.156733408558788,-7.014620937860316e-06,-2.906196553524314,2.0489093797230074,3.14
176,1.0347493402415835,0.11854175295428727,1.0276334422483395,2.7805551661850396,2.017988588286986,1.719811747091183,1.8179931411716574,-1.0,0.7084872195441397,-1.156733638830995,-6.536543197735722e-06,-2.9061968027128,2.0489093817484063,3.14
177,1.0347493377826835,0.11854175564939029,1.027633439449686,2.780555165228451,2.0179885907910164,1.719811747381117,1.8179931382956978,-1.0,0.7084872226635002,-1.1567338534091018,-6.091048575934843e-06,-2.90619703491799,2.0489093836357313,3.14
178,1.0347493354914137,0.11854175816081815,1.0276334368418174,2.780555164337053,2.017988593124392,1.7198117476512946,1.8179931356158117,-1.0,0.7084872255702127,-1.1567340533627333,-5.675916390208257e-06,-2.90619725129737,2.048909385394397,3.14
179,1.0347493333563433,0.11854176050108968,1.0276334344117253,2.7805551635064014,2.0179885952987444,1.7198117479030615,1.8179931331186268,-1.0,0.7084872282787772,-1.156734239688615,-5.289077307525258e-06,-2.9061974529295376,2.0489093870331754,3.14
180,1.034749331366821,0.11854176268186715,1.0276334321472882,2.7805551627323584,2.01798859732491,1.7198117481376716,1.8179931307916841,-1.0,0.7084872308027036,-1.156734413315541,-4.928603028563627e-06,-2.9061976408195793,2.0489093885602414,3.14
181,1.0347493295129233,0.11854176471402114,1.0276334300372116,2.7805551620110642,2.0179885992129876,1.7198117483562942,1.8179931286233746,-1.0,0.7084872331545808,-1.156734575109003,-4.592696676003843e-06,-2.9061978159040813,2.0489093899832116,3.14
182,1.0347493277854025,0.11854176660767969,1.0276334280709716,2.7805551613389268,2.017988600972388,1.7198117485600188,1.8179931266028815,-1.0,0.708487235346139,-1.156734725875506,-4.279683837425773e-06,-2.906197979055797,2.048909391309183,3.14
183,1.0347493261756422,0.11854176837228197,1.0276334262387607,2.780555160712594,2.017988602611881,1.7198117487498605,1.8179931247201244,-1.0,0.7084872373883088,-1.156734866366588,-3.988004218821977e-06,-2.906198131087998,2.048909392544769,3.14
184,1.034749324675614,0.11854177001662218,1.027633424531443,2.7805551601289467,2.0179886041396387,1.719811748926765,1.817993122965714,-1.0,0.7084872392912738,-1.1567349972825653,-3.7162038670295045e-06,-2.906198272758529,2.048909393696131,3.14
185,1.0347493232778358,0.11854177154889621,1.0276334229405029,2.780555159585075,2.017988605563274,1.7198117490916145,1.817993121330898,-1.0,0.7084872410645249,-1.1567351192760256,-3.4629279220358682e-06,-2.9061984047735825,2.0489093947690113,3.14
186,1.0347493219753372,0.11854177297674247,1.0276334214580065,2.780555159078268,2.017988606889886,1.7198117492452294,1.8179931198075223,-1.0,0.7084872427169053,-1.156735232955079,-3.2269138634397337e-06,-2.9061985277912217,2.048909395768761,3.14
187,1.034749320761622,0.11854177430727676,1.0276334200765613,2.780555158606001,2.0179886081260845,1.719811749388376,1.8179931183879896,-1.0,0.7084872442566545,-1.1567353388863901,-3.006985217177071e-06,-2.906198642424661,2.0489093967003646,3.14
188,1.0347493196306385,0.11854177554713073,1.0276334187892793,2.780555158165919,2.0179886092780315,1.719811749521767,1.8179931170652202,-1.0,0.7084872456914507,-1.1567354375980028,-2.8020456909417786e-06,-2.90619874924532,2.048909397568468,3.14
189,1.034749318576746,0.11854177670248582,1.0276334175897401,2.780555157755829,2.0179886103514706,1.7198117496460683,1.8179931158326166,-1.0,0.7084872470284489,-1.1567355295819726,-2.611073709749611e-06,-2.906198848785674,2.0489093983774,3.14
190,1.0347493175946896,0.1185417777790997,1.0276334164719634,2.7805551573736884,2.0179886113517513,1.7198117497618983,1.8179931146840327,-1.0,0.7084872482743156,-1.156735615296819,-2.433117323307781e-06,-2.9061989415419087,2.0489093991311944,3.14
191,1.0347493166795712,0.11854177878233899,1.0276334154303748,2.780555157017591,2.0179886122838595,1.7198117498698342,1.8179931136137395,-1.0,0.7084872494352631,-1.1567356951698111,-2.267289460909538e-06,-2.9061990279763914,2.0489093998336094,3.14
192,1.0347493158268286,0.11854177971720396,1.0276334144597814,2.780555156685762,2.0179886131524407,1.7198117499704146,1.8179931126164002,-1.0,0.70848725051708,-1.1567357695990979,-2.1127635095120327e-06,-2.906199108519978,2.048909400488147,3.14
193,1.0347493150322098,0.11854178058835493,1.0276334135553433,2.7805551563765474,2.0179886139618253,1.7198117500641397,1.8179931116870416,-1.0,0.7084872515251605,-1.1567358389556928,-1.968769193767122e-06,-2.9061991835741585,2.048909401098072,3.14
194,1.0347493142917528,0.11854178140013422,1.0276334127125522,2.780555156088407,2.0179886147160477,1.719811750151478,1.8179931108210299,-1.0,0.7084872524645303,-1.1567359035853222,-1.8345887355241113e-06,-2.906199253513061,2.0489094016664247,3.14
195,1.0347493136017654,0.11854178215658785,1.0276334119272046,2.7805551558199038,2.017988615418867,1.7198117502328638,1.8179931100140463,-1.0,0.7084872533398734,-1.1567359638101506,-1.7095532767291692e-06,-2.9061993186853146,2.0489094021960383,3.14
196,1.0347493129588068,0.11854178286148644,1.027633411195385,2.7805551555697,2.0179886160737865,1.7198117503087038,1.8179931092620676,-1.0,0.7084872541555541,-1.156736019930385,-1.5930395448265904e-06,-2.9061993794157877,2.0489094026895542,3.14
197,1.0347493123596718,0.11854178351834375,1.0276334105134457,2.7805551553365477,2.017988616684071,1.7198117503793744,1.8179931085613439,-1.0,0.7084872549156391,-1.1567360722257725,-1.4844667460507936e-06,-2.9061994360072068,2.048909403149433,3.14
198,1.0347493118013735,0.11854178413043347,1.0276334098779865,2.7805551551192855,2.0179886172527612,1.719811750445229,1.8179931079083815,-1.0,0.7084872556239179,-1.1567361209569933,-1.383293670350754e-06,-2.906199488741667,2.048909403577967,3.14
199,1.0347493112811277,0.11854178470080713,1.0276334092858386,2.7805551549168315,2.0179886177826942,1.7198117505065953,1.8179931072999251,-1.0,0.7084872562839218,-1.1567361663669615,-1.2890159934882677e-06,-2.906199537882038,2.048909403977293,3.14
200,1.0347493107963415,0.11854178523230742,1.0276334087340504,2.7805551547281753,2.0179886182765094,1.71981175056378,1.8179931067329402,-1.0,0.7084872568989413,-1.1567362086820354,-1.2011637631325892e-06,-2.9061995836732724,2.048909404349402,3.14
201,1.0347493103445968,0.11854178572758434,1.0276334082198706,2.780555154552375,2.0179886187366693,1.7198117506170667,1.8179931062045998,-1.0,0.7084872574720427,-1.1567362481131467,-1.1192990563840536e-06,-2.9061996263436285,2.048909404696149,3.14
202,1.0347493099236427,0.11854178618910682,1.0276334077407359,2.7805551543885567,2.017988619165468,1.7198117506667223,1.8179931057122707,-1.0,0.708487258006083,-1.1567362848568497,-1.0430137968303602e-06,-2.9061996661058087,2.0489094050192627,3.14
203,1.0347493095313793,0.11854178661917388,1.027633407294258,2.7805551542359037,2.0179886195650423,1.7198117507129935,1.8179931052534983,-1.0,0.7084872585037242,-1.1567363190963036,-9.719277200322943e-07,-2.906199703158018,2.0489094053203534,3.14
204,1.034749309165852,0.11854178701992955,1.0276334068782103,2.780555154093655,2.017988619937383,1.7198117507561108,1.8179931048259945,-1.0,0.708487258967448,-1.1567363510021849,-9.056864784403866e-07,-2.9061997376849527,2.048909405600923,3.14
205,1.0347493088252375,0.11854178739337312,1.0276334064905193,2.7805551539610995,2.0179886202843482,1.71981175079629,1.8179931044276283,-1.0,0.7084872593995659,-1.1567363807335362,-8.439598748528058e-07,-2.906199769858722,2.04890940586237,3.14
206,1.034749308507839,0.1185417877413647,1.0276334061292522,2.780555153837579,2.0179886206076656,1.7198117508337312,1.8179931040564141,-1.0,0.7084872598022317,-1.1567364084385616,-7.864402164226007e-07,-2.906199799839705,2.0489094061059974,3.14
207,1.034749308212073,0.11854178806563911,1.0276334057926078,2.7805551537224766,2.0179886209089477,1.7198117508686206,1.8179931037105008,-1.0,0.7084872601774533,-1.156736434255365,-7.328407810698871e-07,-2.9061998277773493,2.0489094063330198,3.14
208,1.0347493079364654,0.11854178836781355,1.0276334054789078,2.7805551536152184,2.017988621189697,1.7198117509011317,1.8179931033881638,-1.0,0.7084872605271014,-1.1567364583126372,-6.828943879105536e-07,-2.9061998538109175,2.048909406544569,3.14
209,1.0347493076796421,0.11854178864939278,1.0276334051865883,2.7805551535152713,2.0179886214513107,1.7198117509314272,1.8179931030877967,-1.0,0.7084872608529185,-1.1567364807302976,-6.363520658448356e-07,-2.9061998780701814,2.0489094067417004,3.14
210,1.0347493074403238,0.11854178891178166,1.0276334049141922,2.780555153422135,2.0179886216950953,1.7198117509596582,1.817993102807901,-1.0,0.7084872611565293,-1.1567365016200937,-5.929818120088408e-07,-2.906199900676067,2.048909406925396,3.14
211,1.0347493072173162,0.11854178915628735,1.027633404660362,2.7805551533353468,2.0179886219222647,1.7198117509859652,1.8179931025470828,-1.0,0.7084872614394468,-1.156736521086156,-5.52567435818551e-07,-2.90619992174126,2.048909407096571,3.14
212,1.0347493070095077,0.1185417893841287,1.0276334044238316,2.780555153254474,2.0179886221339514,1.719811751010479,1.817993102304041,-1.0,0.7084872617030821,-1.1567365392255184,-5.149074809804581e-07,-2.9061999413707658,2.04890940725608,3.14
213,1.0347493068158626,0.11854178959644215,1.027633404203422,2.7805551531791126,2.0179886223312105,1.7198117510333222,1.8179931020775637,-1.0,0.7084872619487492,-1.1567365561286018,-4.798142213508764e-07,-2.9061999596624326,2.048909407404717,3.14
214,1.0347493066354156,0.11854178979428516,1.0276334039980348,2.780555153108887,2.0179886225150256,1.7198117510546085,1.8179931018665225,-1.0,0.7084872621776724,-1.1567365718796638,-4.4711272500080815e-07,-2.9061999767074402,2.048909407543224,3.14
215,1.034749306467267,0.11854178997864492,1.0276334038066457,2.780555153043448,2.0179886226863135,1.7198117510744442,1.817993101669865,-1.0,0.7084872623909935,-1.1567365865572201,-4.1663998258192814e-07,-2.906199992590754,2.048909407672291,3.14
216,1.034749306310579,0.1185417901504391,1.0276334036283008,2.7805551529824686,2.0179886228459267,1.7198117510929276,1.8179931014866109,-1.0,0.7084872625897753,-1.156736600234435,-3.8824409450308105e-07,-2.9062000073915484,2.048909407792561,3.14
217,1.0347493061645698,0.11854179031052549,1.0276334034621109,2.7805551529256456,2.0179886229946624,1.7198117511101518,1.8179931013158466,-1.0,0.7084872627750093,-1.1567366129794858,-3.6178351383644926e-07,-2.9062000211836025,2.0489094079046346,3.14
218,1.0347493060285124,0.11854179045970081,1.0276334033072483,2.7805551528726955,2.0179886231332604,1.719811751126202,1.817993101156721,-1.0,0.7084872629476184,-1.1567366248559041,-3.371263405609052e-07,-2.906200034035666,2.0489094080090693,3.14
219,1.0347493059017276,0.118541790598709,1.02763340316294,2.7805551528233536,2.0179886232624122,1.7198117511411581,1.8179931010084402,-1.0,0.7084872631084634,-1.1567366359228912,-3.141496645497613e-07,-2.9062000460118034,2.048909408106386,3.14
220,1.0347493057835842,0.118541790728244,1.027633403028467,2.780555152777374,2.0179886233827626,1.7198117511550952,1.8179931008702657,-1.0,0.7084872632583461,-1.1567366462356132,-2.927389523003635e-07,-2.9062000571717133,2.0489094081970705,3.14
221,1.0347493056734927,0.11854179084894981,1.027633402903159,2.78055515273453,2.0179886234949103,1.7198117511680824,1.8179931007415089,-1.0,0.7084872633980135,-1.1567366558454768,-2.7278747636841274e-07,-2.9062000675710253,2.048909408281574,3.14
222,1.0347493055709043,0.11854179096142978,1.0276334027863911,2.7805551526946046,2.0179886235994147,1.719811751180184,1.817993100621527,-1.0,0.7084872635281619,-1.1567366648003852,-2.541957832670464e-07,-2.9062000772615777,2.0489094083603185,3.14
223,1.0347493054753079,0.11854179106624348,1.0276334026775824,2.7805551526573997,2.0179886236967963,1.7198117511914612,1.8179931005097227,-1.0,0.7084872636494398,-1.1567366731449762,-2.3687119751242193e-07,-2.906200086291675,2.0489094084336963,3.14
224,1.0347493053862271,0.11854179116391303,1.0276334025761886,2.780555152622732,2.017988623787541,1.7198117512019695,1.8179931004055385,-1.0,0.7084872637624522,-1.1567366809208457,-2.2072736016862028e-07,-2.9062000947063305,2.0489094085020727,3.14
225,1.0347493053032177,0.11854179125492705,1.027633402481706,2.7805551525904257,2.0179886238721014,1.719811751211762,1.817993100308455,-1.0,0.7084872638677623,-1.1567366881667547,-2.0568379792643067e-07,-2.9062001025474893,2.0489094085657893,3.14
226,1.0347493052258654,0.11854179133973762,1.0276334023936629,2.7805551525603214,2.017988623950899,1.719811751220887,1.8179931002179888,-1.0,0.7084872639658946,-1.1567366949188223,-1.9166552210594858e-07,-2.9062001098542383,2.0489094086251627,3.14
227,1.0347493051537853,0.11854179141876718,1.02763340231162,2.7805551525322705,2.017988624024325,1.71981175122939,1.8179931001336884,-1.0,0.7084872640573385,-1.156736701210706,-1.7860265480717988e-07,-2.9062001166629994,2.0489094086804895,3.14
228,1.0347493050866183,0.11854179149241119,1.027633402235169,2.780555152506129,2.017988624092747,1.7198117512373137,1.8179931000551328,-1.0,0.7084872641425506,-1.1567367070737697,-1.6643008068348212e-07,-2.9062001230077126,2.048909408732046,3.14
229,1.0347493050240282,0.11854179156103627,1.0276334021639282,2.780555152481771,2.0179886241565064,1.719811751244697,1.8179930999819316,-1.0,0.7084872642219551,-1.1567367125372392,-1.550871222026066e-07,-2.9062001289200055,2.0489094087800885,3.14
230,1.0347493049657048,0.11854179162498374,1.0276334020975433,2.7805551524590726,2.0179886242159197,1.7198117512515774,1.8179930999137193,-1.0,0.7084872642959474,-1.1567367176283487,-1.4451723732772299e-07,-2.9062001344293487,2.0489094088248567,3.14
231,1.0347493049113556,0.11854179168457359,1.0276334020356825,2.7805551524379206,2.0179886242712843,1.7198117512579885,1.8179930998501557,-1.0,0.708487264364897,-1.1567367223724763,-1.346677376052034e-07,-2.9062001395632056,2.0489094088665736,3.14
232,1.0347493048607108,0.11854179174010124,1.0276334019780375,2.780555152418211,2.017988624322875,1.7198117512639635,1.8179930997909246,-1.0,0.7084872644291471,-1.15673672679327,-1.2548952562205156e-07,-2.9062001443471672,2.0489094089054474,3.14
233,1.034749304813518,0.11854179179184533,1.027633401924322,2.780555152399844,2.01798862437095,1.7198117512695308,1.81799309973573,-1.0,0.7084872644890188,-1.1567367309127667,-1.1693684997227044e-07,-2.90620014880508,2.0489094089416717,3.14
234,1.0347493047695415,0.1185417918400623,1.0276334018742672,2.7805551523827297,2.0179886244157483,1.7198117512747184,1.8179930996842977,-1.0,0.7084872645448094,-1.1567367347515014,-1.0896707764065854e-07,-2.906200152959166,2.048909408975427,3.14
235,1.0347493047285623,0.11854179188499309,1.0276334018276236,2.78055515236678,2.0179886244574927,1.7198117512795525,1.8179930996363705,-1.0,0.7084872645967978,-1.1567367383286091,-1.0154048118074449e-07,-2.906200156830132,2.048909409006882,3.14
236,1.0347493046903757,0.118541791926862,1.027633401784159,2.780555152351919,2.017988624496393,1.7198117512840572,1.81799309959171,-1.0,0.708487264645243,-1.1567367416619208,-9.462004077836966e-08,-2.906200160437275,2.048909409036193,3.14
237,1.0347493046547922,0.1185417919658772,1.0276334017436572,2.78055515233807,2.017988624532642,1.7198117512882551,1.8179930995500933,-1.0,0.708487264690386,-1.1567367447680519,-8.817125934021325e-08,-2.906200163798575,2.0489094090635063,3.14
238,1.0347493046216336,0.11854179200223265,1.0276334017059157,2.780555152325166,2.01798862456642,1.7198117512921673,1.8179930995113132,-1.0,0.7084872647324525,-1.1567367476624861,-8.216199136984387e-08,-2.906200166930787,2.048909409088958,3.14
239,1.0347493045907348,0.11854179203611126,1.0276334016707458,2.780555152313141,2.0179886245978964,1.719811751295812,1.8179930994751758,-1.0,0.7084872647716522,-1.156736750359652,-7.65622821234095e-08,-2.906200169849525,2.048909409112675,3.14
240,1.0347493045619423,0.11854179206768002,1.027633401637974,2.780555152301935,2.0179886246272267,1.7198117512992086,1.8179930994415014,-1.0,0.70848726480818,-1.156736752872994,-7.134421817359055e-08,-2.906200172569337,2.0489094091347755,3.14
241,1.0347493045351117,0.1185417920970979,1.027633401607435,2.780555152291493,2.0179886246545586,1.7198117513023738,1.817993099410122,-1.0,0.7084872648422185,-1.1567367552150403,-6.648178880225214e-08,-2.9062001751037823,2.04890940915537,3.14
242,1.0347493045101097,0.11854179212451046,1.0276334015789774,2.780555152281763,2.0179886246800276,1.7198117513053233,1.8179930993808817,-1.0,0.708487264873937,-1.1567367573974654,-6.195075587303517e-08,-2.9062001774654935,2.048909409174561,3.14
243,1.0347493044868121,0.11854179215005495,1.0276334015524595,2.7805551522726963,2.017988624703761,1.719811751308072,1.8179930993536337,-1.0,0.708487264903494,-1.1567367594311486,-5.7728533159994545e-08,-2.9062001796662433,2.048909409192444,3.14
244,1.0347493044651022,0.11854179217385871,1.027633401527749,2.7805551522642467,2.017988624725877,1.7198117513106324,1.8179930993282427,-1.0,0.7084872649310364,-1.1567367613262274,-5.379407400365949e-08,-2.906200181717002,2.048909409209108,3.14
245,1.0347493044448717,0.11854179219603994,1.0276334015047222,2.7805551522563725,2.017988624746485,1.719811751313019,1.8179930993045825,-1.0,0.7084872649567016,-1.1567367630921477,-5.0127765982870667e-08,-2.906200183627993,2.048909409224636,3.14
246,1.0347493044260203,0.11854179221670899,1.027633401483265,2.7805551522490366,2.017988624765689,1.719811751315243,1.817993099282535,-1.0,0.7084872649806175,-1.1567367647377127,-4.671133333447525e-08,-2.906200185408741,2.0489094092391062,3.14
247,1.0347493044084533,0.11854179223597,1.0276334014632706,2.7805551522422003,2.0179886247835843,1.7198117513173157,1.8179930992619904,-1.0,0.7084872650029034,-1.1567367662711248,-4.352774590074477e-08,-2.9062001870681233,2.04890940925259,3.14
248,1.0347493043920841,0.11854179225391782,1.0276334014446382,2.78055515223583,2.0179886248002594,1.7198117513192466,1.8179930992428455,-1.0,0.7084872650236705,-1.1567367677000284,-4.056113417746849e-08,-2.906200188614411,2.048909409265155,3.14
249,1.03474930437683,0.11854179227064274,1.0276334014272759,2.780555152229893,2.0179886248157985,1.7198117513210458,1.8179930992250053,-1.0,0.7084872650430224,-1.1567367690315458,-3.779671034070881e-08,-2.9062001900553116,2.048909409276864,3.14
250,1.0347493043626161,0.11854179228622751,1.0276334014110975,2.7805551522243603,2.017988624830278,1.7198117513227227,1.817993099208381,-1.0,0.7084872650610552,-1.156736770272314,-3.522069448963422e-08,-2.9062001913980087,2.0489094092877744,3.14
251,1.0347493043493707,0.11854179230075047,1.0276334013960213,2.7805551522192054,2.0179886248437713,1.7198117513242854,1.81799309919289,-1.0,0.708487265077859,-1.1567367714285182,-3.2820245800396055e-08,-2.9062001926491954,2.0489094092979414,3.14
252,1.034749304337028,0.11854179231428282,1.0276334013819723,2.7805551522144025,2.0179886248563443,1.7198117513257412,1.817993099178455,-1.0,0.7084872650935174,-1.156736772505922,-3.058339837752539e-08,-2.9062001938151076,2.048909409307415,3.14
253,1.0347493043255265,0.11854179232689369,1.0276334013688815,2.780555152209926,2.017988624868061,1.7198117513270983,1.8179930991650035,-1.0,0.7084872651081088,-1.156736773509896,-2.8499002199394e-08,-2.906200194901558,2.048909409316243,3.14
254,1.034749304314809,0.11854179233864481,1.0276334013566824,2.7805551522057543,2.0179886248789787,1.7198117513283624,1.8179930991524687,-1.0,0.7084872651217056,-1.1567367744454446,-2.6556667022502983e-08,-2.906200195913962,2.04890940932447,3.14
255,1.034749304304822,0.11854179234959471,1.0276334013453148,2.780555152201868,2.0179886248891523,1.7198117513295408,1.8179930991407882,-1.0,0.708487265134376,-1.1567367753172315,-2.4746710678257682e-08,-2.9062001968573656,2.0489094093321363,3.14
256,1.0347493042955151,0.11854179235979902,1.0276334013347217,2.780555152198246,2.017988624898633,1.7198117513306381,1.8179930991299036,-1.0,0.7084872651461829,-1.1567367761296021,-2.3060111060651372e-08,-2.906200197736472,2.04890940933928,3.14
257,1.0347493042868432,0.11854179236930779,1.0276334013248511,2.78055515219487,2.0179886249074674,1.7198117513316613,1.817993099119761,-1.0,0.7084872651571845,-1.156736776886606,-2.1488460737239373e-08,-2.906200198555664,2.0489094093459363,3.14
258,1.0347493042787623,0.11854179237816742,1.0276334013156536,2.780555152191726,2.017988624915699,1.719811751332615,1.8179930991103104,-1.0,0.7084872651674362,-1.1567367775920163,-2.0023925342532005e-08,-2.906200199319024,2.048909409352139,3.14
259,1.0347493042712321,0.11854179238642416,1.0276334013070825,2.780555152188795,2.0179886249233703,1.7198117513335036,1.8179930991015034,-1.0,0.7084872651769895,-1.1567367782493498,-1.8659204716691528e-08,-2.9062002000303577,2.048909409357919,3.14
260,1.034749304264215,0.11854179239411783,1.0276334012990955,2.780555152186064,2.0179886249305183,1.7198117513343314,1.8179930990932969,-1.0,0.7084872651858917,-1.1567367788618832,-1.7387495965941862e-08,-2.9062002006932106,2.048909409363305,3.14
261,1.034749304257676,0.11854179240128783,1.0276334012916526,2.7805551521835192,2.01798862493718,1.7198117513351026,1.8179930990856492,-1.0,0.7084872651941876,-1.15673677943267,-1.6202460000363353e-08,-2.906200201310887,2.048909409368324,3.14
262,1.0347493042515832,0.11854179240796862,1.0276334012847175,2.780555152181148,2.017988624943387,1.7198117513358218,1.817993099078523,-1.0,0.7084872652019176,-1.1567367799645547,-1.509818947484293e-08,-2.9062002018864663,2.048909409373001,3.14
263,1.0347493042459046,0.11854179241419334,1.0276334012782546,2.780555152178939,2.0179886249491705,1.7198117513364912,1.8179930990718822,-1.0,0.708487265209121,-1.1567367804601894,-1.4069180024389008e-08,-2.9062002024228173,2.048909409377359,3.14
264,1.0347493042406135,0.11854179241999496,1.0276334012722321,2.780555152176879,2.017988624954561,1.7198117513371154,1.8179930990656938,-1.0,0.7084872652158336,-1.1567367809220443,-1.3110302140017352e-08,-2.9062002029226135,2.048909409381421,3.14
265,1.0347493042356828,0.11854179242540115,1.02763340126662,2.7805551521749603,2.0179886249595835,1.7198117513376971,1.8179930990599276,-1.0,0.7084872652220888,-1.1567367813524216,-1.2216776033967928e-08,-2.9062002033883463,2.0489094093852054,3.14
266,1.034749304231089,0.11854179243043834,1.0276334012613908,2.780555152173173,2.0179886249642642,1.7198117513382387,1.8179930990545543,-1.0,0.7084872652279175,-1.1567367817534668,-1.1384147694553484e-08,-2.906200203822337,2.048909409388732,3.14
267,1.0347493042268074,0.11854179243513258,1.0276334012565178,2.780555152171506,2.017988624968625,1.7198117513387443,1.8179930990495472,-1.0,0.7084872652333488,-1.1567367821271788,-1.0608266832217552e-08,-2.9062002042267494,2.0489094093920177,3.14
268,1.034749304222818,0.11854179243950694,1.0276334012519768,2.7805551521699536,2.0179886249726895,1.7198117513392146,1.8179930990448812,-1.0,0.7084872652384101,-1.1567367824754209,-9.885265801700517e-09,-2.9062002046035995,2.04890940939508,3.14
269,1.0347493042191005,0.11854179244358251,1.0276334012477455,2.780555152168507,2.017988624976476,1.719811751339653,1.8179930990405333,-1.0,0.7084872652431262,-1.1567367827999286,-9.211540537428622e-09,-2.9062002049547657,2.0489094093979334,3.14
270,1.0347493042156366,0.11854179244738132,1.0276334012438026,2.7805551521671577,2.0179886249800054,1.719811751340062,1.8179930990364817,-1.0,0.7084872652475209,-1.1567367831023196,-8.583732587024552e-09,-2.906200205281998,2.0489094094005926,3.14
271,1.0347493042124083,0.11854179245092038,1.0276334012401285,2.7805551521659018,2.0179886249832935,1.7198117513404425,1.8179930990327062,-1.0,0.7084872652516162,-1.1567367833841016,-7.998712578476787e-09,-2.906200205586928,2.0489094094030706,3.14
272,1.0347493042094,0.11854179245421845,1.027633401236704,2.780555152164731,2.0179886249863577,1.7198117513407976,1.8179930990291884,-1.0,0.7084872652554326,-1.1567367836466786,-7.453564388886615e-09,-2.906200205871076,2.0489094094053795,3.14
273,1.0347493042065974,0.1185417924572916,1.0276334012335138,2.780555152163641,2.017988624989213,1.719811751341128,1.8179930990259103,-1.0,0.7084872652589885,-1.1567367838913598,-6.945570411336757e-09,-2.906200206135858,2.048909409407531,3.14
274,1.0347493042039848,0.11854179246015578,1.0276334012305406,2.780555152162624,2.017988624991874,1.7198117513414362,1.817993099022855,-1.0,0.7084872652623025,-1.156736784119365,-6.47219862145926e-09,-2.9062002063825934,2.048909409409536,3.14
275,1.0347493042015508,0.1185417924628247,1.0276334012277704,2.7805551521616763,2.017988624994354,1.719811751341723,1.8179930990200082,-1.0,0.7084872652653905,-1.1567367843318306,-6.031089186452734e-09,-2.906200206612513,2.0489094094114044,3.14
276,1.0347493041992828,0.11854179246531134,1.0276334012251884,2.780555152160794,2.017988624996664,1.719811751341991,1.8179930990173556,-1.0,0.7084872652682679,-1.1567367845298155,-5.6200433313495254e-09,-2.9062002068267625,2.0489094094131453,3.14
277,1.0347493041971694,0.11854179246762879,1.027633401222783,2.7805551521599714,2.017988624998817,1.7198117513422406,1.8179930990148838,-1.0,0.7084872652709492,-1.1567367847143069,-5.237012113772757e-09,-2.90620020702641,2.0489094094147675,3.14
278,1.0347493041951998,0.11854179246978822,1.0276334012205415,2.7805551521592045,2.0179886250008234,1.7198117513424727,1.8179930990125805,-1.0,0.7084872652734476,-1.1567367848862247,-4.880086205304837e-09,-2.9062002072124504,2.048909409416279,3.14
279,1.0347493041933646,0.11854179247180037,1.0276334012184527,2.78055515215849,2.017988625002693,1.719811751342689,1.817993099010434,-1.0,0.7084872652757759,-1.1567367850464252,-4.5474863744336436e-09,-2.9062002073858113,2.048909409417688,3.14
280,1.034749304191655,0.11854179247367498,1.0276334012165065,2.7805551521578247,2.0179886250044348,1.719811751342891,1.8179930990084343,-1.0,0.7084872652779453,-1.156736785195707,-4.23755476258653e-09,-2.906200207547357,2.0489094094190006,3.14
281,1.0347493041900613,0.11854179247542247,1.0276334012146922,2.7805551521572056,2.0179886250060584,1.7198117513430788,1.8179930990065705,-1.0,0.7084872652799672,-1.1567367853348152,-3.948746404191354e-09,-2.906200207697893,2.048909409420224,3.14
282,1.0347493041885762,0.11854179247705084,1.027633401213002,2.780555152156626,2.017988625007571,1.719811751343254,1.8179930990048334,-1.0,0.7084872652818511,-1.1567367854644424,-3.679621631335454e-09,-2.9062002078381686,2.048909409421364,3.14
283,1.0347493041871922,0.11854179247856833,1.027633401211427,2.7805551521560883,2.0179886250089814,1.7198117513434175,1.8179930990032154,-1.0,0.7084872652836067,-1.1567367855852346,-3.4288388749685357e-09,-2.9062002079688845,2.048909409422426,3.14
284,1.0347493041859028,0.1185417924799816,1.0276334012099593,2.7805551521555865,2.017988625010294,1.71981175134357,1.8179930990017077,-1.0,0.7084872652852424,-1.1567367856977944,-3.1951480761731082e-09,-2.906200208090691,2.0489094094234157,3.14
285,1.034749304184701,0.11854179248129919,1.0276334012085913,2.7805551521551193,2.0179886250115184,1.7198117513437117,1.8179930990003024,-1.0,0.7084872652867671,-1.156736785802683,-2.9773844329720785e-09,-2.9062002082041962,2.048909409424338,3.14
286,1.0347493041835814,0.1185417924825271,1.027633401207317,2.780555152154684,2.0179886250126593,1.7198117513438436,1.8179930989989928,-1.0,0.7084872652881876,-1.1567367859004227,-2.7744622996532284e-09,-2.9062002083099654,2.0489094094251974,3.14
287,1.0347493041825375,0.11854179248367099,1.0276334012061294,2.7805551521542777,2.0179886250137224,1.7198117513439664,1.8179930989977722,-1.0,0.7084872652895113,-1.1567367859915014,-2.585370214718667e-09,-2.9062002084085257,2.048909409425998,3.14
288,1.0347493041815656,0.11854179248473716,1.0276334012050226,2.7805551521538985,2.0179886250147128,1.7198117513440807,1.8179930989966346,-1.0,0.708487265290745,-1.1567367860763726,-2.4091656848072615e-09,-2.9062002085003686,2.0489094094267446,3.14
289,1.0347493041806597,0.11854179248573102,1.0276334012039914,2.7805551521535454,2.0179886250156356,1.719811751344188,1.817993098995575,-1.0,0.7084872652918944,-1.1567367861554592,-2.2449702431474638e-09,-2.9062002085859526,2.04890940942744,3.14
290,1.034749304179815,0.11854179248665614,1.0276334012030304,2.7805551521532177,2.0179886250164953,1.7198117513442874,1.8179930989945878,-1.0,0.7084872652929654,-1.1567367862291558,-2.091965484118223e-09,-2.9062002086657035,2.048909409428088,3.14
291,1.0347493041790288,0.1185417924875189,1.027633401202135,2.780555152152911,2.017988625017297,1.7198117513443802,1.8179930989936675,-1.0,0.7084872652939633,-1.1567367862978295,-1.9493886097558575e-09,-2.9062002087400187,2.048909409428692,3.14
292,1.0347493041782954,0.1185417924883227,1.0276334012013009,2.7805551521526253,2.0179886250180434,1.7198117513444666,1.8179930989928101,-1.0,0.7084872652948933,-1.156736786361823,-1.8165290133757603e-09,-2.906200208809269,2.0489094094292546,3.14
293,1.0347493041776124,0.11854179248907143,1.0276334012005228,2.78055515215236,2.0179886250187398,1.719811751344547,1.8179930989920112,-1.0,0.7084872652957601,-1.156736786421455,-1.6927244361468238e-09,-2.9062002088737997,2.048909409429779,3.14
294,1.0347493041769755,0.11854179248976966,1.0276334011997983,2.780555152152112,2.017988625019388,1.719811751344622,1.8179930989912667,-1.0,0.7084872652965677,-1.1567367864770228,-1.5773576727266578e-09,-2.9062002089339325,2.048909409430268,3.14
295,1.0347493041763827,0.11854179249041986,1.027633401199123,2.7805551521518814,2.017988625019992,1.7198117513446922,1.817993098990573,-1.0,0.7084872652973202,-1.1567367865288034,-1.4698535819305844e-09,-2.906200208989967,2.048909409430723,3.14
296,1.0347493041758298,0.11854179249102585,1.027633401198494,2.7805551521516665,2.017988625020555,1.7198117513447573,1.8179930989899264,-1.0,0.7084872652980216,-1.156736786577055,-1.369676463441165e-09,-2.906200209042182,2.0489094094311477,3.14
297,1.0347493041753144,0.11854179249159069,1.0276334011979078,2.7805551521514658,2.01798862502108,1.7198117513448181,1.817993098989324,-1.0,0.7084872652986752,-1.1567367866220177,-1.276326854953551e-09,-2.9062002090908385,2.0489094094315434,3.14
298,1.0347493041748344,0.11854179249211708,1.027633401197361,2.7805551521512792,2.0179886250215695,1.719811751344875,1.8179930989887625,-1.0,0.7084872652992843,-1.1567367866639162,-1.1893394274424304e-09,-2.906200209136179,2.0489094094319116,3.14
299,1.0347493041743872,0.11854179249260784,1.027633401196852,2.7805551521511047,2.017988625022025,1.7198117513449276,1.8179930989882391,-1.0,0.7084872652998518,-1.1567367867029592,-1.1082806669053299e-09,-2.9062002091784294,2.048909409432255,3.14
300,1.0347493041739706,0.11854179249306492,1.0276334011963777,2.780555152150942,2.0179886250224497,1.7198117513449769,1.817993098987752,-1.0,0.7084872653003803,-1.156736786739341,-1.0327463425822732e-09,-2.9062002092178005,2.0489094094325746,3.14
301,1.0347493041735822,0.11854179249349035,1.0276334011959358,2.780555152150791,2.017988625022845,1.719811751345023,1.8179930989872979,-1.0,0.7084872653008729,-1.1567367867732434,-9.623600122902793e-10,-2.906200209254488,2.0489094094328726,3.14
302,1.0347493041732203,0.11854179249388688,1.0276334011955237,2.780555152150651,2.0179886250232135,1.7198117513450655,1.8179930989868747,-1.0,0.7084872653013319,-1.1567367868048353,-8.967707956767973e-10,-2.906200209288675,2.04890940943315,3.14
303,1.034749304172883,0.1185417924942571,1.0276334011951402,2.7805551521505194,2.0179886250235572,1.7198117513451054,1.8179930989864803,-1.0,0.7084872653017596,-1.156736786834274,-8.356518185474488e-10,-2.906200209320532,2.048909409433409,3.14
304,1.0347493041725693,0.11854179249460126,1.0276334011947823,2.7805551521503973,2.017988625023877,1.7198117513451425,1.8179930989861128,-1.0,0.7084872653021581,-1.1567367868617062,-7.786983216566163e-10,-2.906200209350218,2.04890940943365,3.14
305,1.0347493041722766,0.11854179249492247,1.0276334011944492,2.780555152150283,2.0179886250241754,1.719811751345177,1.8179930989857702,-1.0,0.7084872653025296,-1.1567367868872689,-7.256264710757172e-10,-2.9062002093778805,2.048909409433875,3.14
306,1.0347493041720033,0.11854179249522145,1.0276334011941388,2.780555152150177,2.0179886250244534,1.7198117513452091,1.817993098985451,-1.0,0.7084872653028759,-1.1567367869110892,-6.761718025209457e-10,-2.906200209403658,2.0489094094340845,3.14
307,1.034749304171749,0.1185417924955009,1.027633401193849,2.780555152150077,2.0179886250247128,1.7198117513452393,1.8179930989851534,-1.0,0.7084872653031986,-1.156736786933286,-6.30087635177638e-10,-2.9062002094276784,2.04890940943428,3.14
308,1.0347493041715121,0.11854179249576047,1.0276334011935793,2.7805551521499856,2.0179886250249544,1.7198117513452675,1.8179930989848767,-1.0,0.7084872653034991,-1.15673678695397,-5.871443396192095e-10,-2.906200209450062,2.0489094094344615,3.14
309,1.0347493041712912,0.1185417924960025,1.0276334011933288,2.7805551521499,2.017988625025179,1.7198117513452937,1.8179930989846187,-1.0,0.7084872653037791,-1.1567367869732443,-5.471277516315193e-10,-2.9062002094709194,2.048909409434631,3.14
310,1.0347493041710853,0.11854179249622802,1.0276334011930943,2.78055515214982,2.0179886250253887,1.7198117513453177,1.817993098984378,-1.0,0.7084872653040404,-1.1567367869912053,-5.098385926486965e-10,-2.9062002094903554,2.048909409434789,3.14
311,1.0347493041708937,0.11854179249643809,1.0276334011928756,2.7805551521497454,2.017988625025584,1.7198117513453401,1.8179930989841535,-1.0,0.7084872653042837,-1.1567367870079421,-4.750908835775042e-10,-2.906200209508467,2.0489094094349363,3.14
312,1.0347493041707152,0.11854179249663375,1.0276334011926722,2.780555152149676,2.0179886250257657,1.7198117513453612,1.8179930989839446,-1.0,0.7084872653045104,-1.1567367870235383,-4.4271124321965506e-10,-2.9062002095253443,2.0489094094350735,3.14
313,1.0347493041705484,0.11854179249681678,1.0276334011924826,2.7805551521496112,2.017988625025936,1.7198117513453808,1.8179930989837496,-1.0,0.708487265304722,-1.1567367870380714,-4.1253852223128e-10,-2.9062002095410713,2.0489094094352014,3.14
314,1.0347493041703932,0.11854179249698726,1.0276334011923058,2.7805551521495504,2.017988625026094,1.7198117513453988,1.817993098983568,-1.0,0.7084872653049189,-1.156736787051614,-3.8442224745067034e-10,-2.906200209555726,2.0489094094353204,3.14
315,1.0347493041702487,0.11854179249714537,1.0276334011921413,2.780555152149494,2.017988625026241,1.719811751345416,1.817993098983399,-1.0,0.7084872653051021,-1.1567367870642336,-3.5822213384423655e-10,-2.906200209569383,2.0489094094354314,3.14
316,1.0347493041701141,0.11854179249729344,1.0276334011919879,2.7805551521494416,2.0179886250263785,1.7198117513454316,1.8179930989832414,-1.0,0.7084872653052732,-1.1567367870759933,-3.33807687962599e-10,-2.9062002095821082,2.048909409435535,3.14
317,1.034749304169988,0.11854179249743078,1.0276334011918453,2.780555152149393,2.017988625026506,1.719811751345447,1.8179930989830946,-1.0,0.7084872653054322,-1.1567367870869512,-3.1105714032237223e-10,-2.9062002095939663,2.0489094094356313,3.14
318,1.0347493041698714,0.1185417924975591,1.0276334011917123,2.780555152149347,2.017988625026625,1.7198117513454605,1.8179930989829576,-1.0,0.7084872653055805,-1.1567367870971623,-2.898572623858992e-10,-2.9062002096050166,2.048909409435721,3.14
319,1.0347493041697624,0.11854179249767845,1.0276334011915882,2.7805551521493044,2.017988625026736,1.7198117513454731,1.81799309898283,-1.0,0.7084872653057189,-1.1567367871066778,-2.701021769295248e-10,-2.9062002096153132,2.048909409435805,3.14
320,1.0347493041696614,0.11854179249779014,1.0276334011914727,2.7805551521492653,2.01798862502684,1.7198117513454858,1.8179930989827116,-1.0,0.7084872653058476,-1.156736787115544,-2.516934495537288e-10,-2.9062002096249087,2.0489094094358826,3.14
321,1.0347493041695663,0.11854179249789366,1.027633401191365,2.7805551521492284,2.017988625026936,1.719811751345497,1.8179930989826008,-1.0,0.7084872653059676,-1.1567367871238066,-2.3453941760881844e-10,-2.90620020963385,2.048909409435955,3.14
322,1.034749304169478,0.11854179249799016,1.0276334011912645,2.7805551521491942,2.0179886250270256,1.719811751345507,1.8179930989824975,-1.0,0.7084872653060796,-1.1567367871315062,-2.1855451912062128e-10,-2.9062002096421815,2.048909409436023,3.14
323,1.0347493041693958,0.11854179249808046,1.0276334011911707,2.7805551521491623,2.01798862502711,1.7198117513455167,1.8179930989824014,-1.0,0.708487265306184,-1.1567367871386809,-2.036590182600868e-10,-2.9062002096499455,2.048909409436086,3.14
324,1.0347493041693194,0.11854179249816454,1.0276334011910837,2.7805551521491325,2.017988625027188,1.7198117513455256,1.8179930989823117,-1.0,0.7084872653062811,-1.1567367871453664,-1.8977873081288796e-10,-2.90620020965718,2.0489094094361446,3.14
325,1.0347493041692484,0.11854179249824251,1.0276334011910027,2.780555152149104,2.01798862502726,1.719811751345534,1.8179930989822282,-1.0,0.7084872653063715,-1.1567367871515963,-1.7684444461524682e-10,-2.906200209663922,2.0489094094361993,3.14
326,1.034749304169182,0.11854179249831578,1.0276334011909272,2.7805551521490783,2.0179886250273285,1.719811751345542,1.8179930989821504,-1.0,0.7084872653064558,-1.1567367871574017,-1.6479170603029122e-10,-2.906200209670204,2.0489094094362503,3.14
327,1.03474930416912,0.11854179249838326,1.0276334011908566,2.780555152149055,2.017988625027391,1.719811751345549,1.8179930989820783,-1.0,0.7084872653065342,-1.1567367871628114,-1.5356039290076847e-10,-2.906200209676058,2.048909409436298,3.14
328,1.034749304169062,0.11854179249844658,1.0276334011907908,2.7805551521490317,2.0179886250274497,1.719811751345556,1.8179930989820106,-1.0,0.7084872653066075,-1.1567367871678524,-1.4309462303891247e-10,-2.906200209681513,2.0489094094363423,3.14
329,1.0347493041690083,0.118541792498506,1.0276334011907295,2.780555152149011,2.017988625027505,1.7198117513455622,1.8179930989819477,-1.0,0.7084872653066759,-1.1567367871725498,-1.3334220516564695e-10,-2.9062002096865966,2.0489094094363836,3.14
330,1.034749304168958,0.11854179249856059,1.0276334011906723,2.7805551521489913,2.017988625027556,1.7198117513455684,1.817993098981889,-1.0,0.7084872653067394,-1.156736787176927,-1.2425433387680935e-10,-2.9062002096913337,2.048909409436422,3.14
331,1.034749304168911,0.11854179249861162,1.027633401190619,2.780555152148974,2.0179886250276033,1.7198117513455735,1.8179930989818345,-1.0,0.7084872653067988,-1.1567367871810061,-1.1578583367017177e-10,-2.9062002096957475,2.048909409436458,3.14
332,1.0347493041688671,0.11854179249866006,1.0276334011905695,2.7805551521489558,2.017988625027648,1.7198117513455788,1.8179930989817834,-1.0,0.7084872653068542,-1.156736787184807,-1.07894457367756e-10,-2.9062002096998607,2.048909409436492,3.14
333,1.034749304168827,0.11854179249870449,1.0276334011905233,2.7805551521489407,2.0179886250276895,1.7198117513455837,1.817993098981736,-1.0,0.7084872653069058,-1.156736787188349,-1.0054094712258883e-10,-2.9062002097036936,2.048909409436523,3.14
334,1.0347493041687892,0.1185417924987454,1.0276334011904802,2.780555152148926,2.0179886250277272,1.719811751345588,1.817993098981692,-1.0,0.7084872653069536,-1.1567367871916496,-9.368863787479316e-11,-2.906200209707265,2.048909409436552,3.14
335,1.034749304168754,0.11854179249878435,1.02763340119044,2.7805551521489122,2.0179886250277637,1.7198117513455924,1.8179930989816508,-1.0,0.7084872653069982,-1.156736787194725,-8.730336584145523e-11,-2.9062002097105935,2.048909409436579,3.14
336,1.0347493041687212,0.1185417924988206,1.027633401190403,2.780555152148899,2.0179886250277974,1.7198117513455962,1.8179930989816124,-1.0,0.70848726530704,-1.1567367871975909,-8.135322448960377e-11,-2.906200209713695,2.0489094094366043,3.14
337,1.0347493041686906,0.1185417924988539,1.0276334011903683,2.7805551521488883,2.0179886250278285,1.7198117513456002,1.8179930989815771,-1.0,0.7084872653070786,-1.1567367872002612,-7.580856453621007e-11,-2.906200209716585,2.0489094094366274,3.14
338,1.0347493041686617,0.11854179249888495,1.0276334011903356,2.780555152148877,2.0179886250278574,1.719811751345603,1.8179930989815434,-1.0,0.7084872653071149,-1.15673678720275,-7.064193294143269e-11,-2.906200209719278,2.048909409436649,3.14
339,1.0347493041686358,0.11854179249891438,1.0276334011903052,2.780555152148866,2.0179886250278845,1.7198117513456064,1.8179930989815125,-1.0,0.7084872653071486,-1.1567367872050691,-6.582737133093271e-11,-2.9062002097217876,2.0489094094366695,3.14
340,1.0347493041686109,0.11854179249894106,1.0276334011902775,2.7805551521488567,2.0179886250279093,1.719811751345609,1.8179930989814839,-1.0,0.7084872653071799,-1.15673678720723,-6.134090404991529e-11,-2.9062002097241257,2.0489094094366886,3.14
341,1.0347493041685873,0.1185417924989664,1.0276334011902506,2.7805551521488483,2.0179886250279333,1.7198117513456115,1.8179930989814563,-1.0,0.7084872653072095,-1.156736787209244,-5.7160324639486474e-11,-2.906200209726305,2.0489094094367064,3.14
342,1.0347493041685656,0.11854179249899056,1.0276334011902255,2.780555152148839,2.0179886250279555,1.7198117513456137,1.8179930989814308,-1.0,0.7084872653072369,-1.1567367872111205,-5.3264646775856374e-11,-2.9062002097283357,2.0489094094367233,3.14
343,1.0347493041685463,0.11854179249901232,1.0276334011902033,2.7805551521488314,2.0179886250279755,1.719811751345617,1.8179930989814077,-1.0,0.7084872653072621,-1.1567367872128687,-4.963428729060478e-11,-2.906200209730228,2.0489094094367384,3.14
344,1.0347493041685274,0.11854179249903254,1.027633401190182,2.7805551521488243,2.0179886250279946,1.7198117513456186,1.8179930989813857,-1.0,0.7084872653072859,-1.1567367872144982,-4.625146271458998e-11,-2.906200209731991,2.0489094094367526,3.14
345,1.0347493041685094,0.11854179249905203,1.0276334011901627,2.780555152148817,2.0179886250280124,1.719811751345621,1.8179930989813655,-1.0,0.708487265307308,-1.1567367872160166,-4.30992131698655e-11,-2.906200209733634,2.048909409436766,3.14
346,1.0347493041684934,0.11854179249906928,1.0276334011901436,2.7805551521488114,2.0179886250280283,1.7198117513456224,1.8179930989813466,-1.0,0.7084872653073286,-1.1567367872174315,-4.016179891358891e-11,-2.9062002097351654,2.0489094094367784,3.14
347,1.0347493041684783,0.118541792499086,1.0276334011901265,2.7805551521488057,2.0179886250280443,1.7198117513456248,1.8179930989813289,-1.0,0.708487265307348,-1.1567367872187497,-3.742454782113387e-11,-2.906200209736592,2.0489094094367903,3.14
348,1.0347493041684641,0.11854179249910163,1.0276334011901105,2.7805551521488,2.0179886250280585,1.7198117513456264,1.8179930989813122,-1.0,0.7084872653073658,-1.1567367872199783,-3.487388588946767e-11,-2.906200209737922,2.048909409436801,3.14
349,1.0347493041684508,0.11854179249911641,1.0276334011900954,2.780555152148794,2.017988625028072,1.719811751345628,1.817993098981297,-1.0,0.7084872653073825,-1.156736787221123,-3.2497032203375256e-11,-2.906200209739161,2.048909409436811,3.14
350,1.034749304168439,0.1185417924991299,1.0276334011900816,2.7805551521487897,2.0179886250280847,1.7198117513456295,1.8179930989812827,-1.0,0.708487265307398,-1.1567367872221896,-3.028218195572481e-11,-2.906200209740315,2.0489094094368205,3.14
351,1.0347493041684275,0.11854179249914179,1.027633401190069,2.7805551521487857,2.017988625028096,1.719811751345631,1.8179930989812696,-1.0,0.7084872653074121,-1.1567367872231837,-2.8218292923824566e-11,-2.9062002097413906,2.048909409436829,3.14
352,1.034749304168417,0.11854179249915363,1.0276334011900567,2.7805551521487817,2.017988625028107,1.7198117513456321,1.8179930989812572,-1.0,0.7084872653074257,-1.15673678722411,-2.6295146476177992e-11,-2.906200209742393,2.0489094094368374,3.14
353,1.0347493041684077,0.11854179249916454,1.0276334011900456,2.780555152148777,2.0179886250281167,1.7198117513456332,1.8179930989812456,-1.0,0.7084872653074381,-1.1567367872249734,-2.450304253870779e-11,-2.906200209743327,2.048909409436845,3.14
354,1.0347493041683982,0.11854179249917443,1.0276334011900354,2.7805551521487737,2.017988625028126,1.7198117513456344,1.8179930989812352,-1.0,0.7084872653074497,-1.1567367872257777,-2.2833043621776696e-11,-2.9062002097441972,2.048909409436852,3.14
355,1.0347493041683895,0.11854179249918374,1.0276334011900254,2.780555152148771,2.017988625028135,1.7198117513456355,1.8179930989812252,-1.0,0.7084872653074606,-1.156736787226527,-2.1276913813432287e-11,-2.9062002097450086,2.0489094094368587,3.14
356,1.0347493041683815,0.11854179249919244,1.0276334011900166,2.7805551521487684,2.017988625028143,1.7198117513456366,1.8179930989812156,-1.0,0.7084872653074707,-1.1567367872272256,-1.9826752738875754e-11,-2.9062002097457644,2.0489094094368645,3.14
357,1.0347493041683737,0.11854179249920069,1.0276334011900075,2.7805551521487644,2.0179886250281505,1.7198117513456368,1.8179930989812065,-1.0,0.7084872653074804,-1.1567367872278767,-1.847545311112593e-11,-2.9062002097464688,2.0489094094368703,3.14
358,1.034749304168367,0.11854179249920847,1.0276334011899997,2.7805551521487626,2.017988625028158,1.7198117513456381,1.8179930989811983,-1.0,0.7084872653074893,-1.156736787228483,-1.7216273683732867e-11,-2.906200209747125,2.0489094094368756,3.14
359,1.0347493041683609,0.11854179249921562,1.0276334011899924,2.7805551521487595,2.0179886250281642,1.7198117513456388,1.8179930989811905,-1.0,0.7084872653074975,-1.1567367872290484,-1.6042900257533036e-11,-2.9062002097477366,2.0489094094368805,3.14
360,1.0347493041683544,0.11854179249922185,1.0276334011899855,2.7805551521487577,2.0179886250281704,1.719811751345639,1.8179930989811839,-1.0,0.7084872653075052,-1.156736787229575,-1.4949476184026938e-11,-2.9062002097483064,2.048909409436885,3.14
361,1.0347493041683486,0.1185417924992283,1.0276334011899793,2.7805551521487555,2.0179886250281767,1.71981175134564,1.817993098981177,-1.0,0.7084872653075124,-1.1567367872300658,-1.3930663372134294e-11,-2.9062002097488375,2.0489094094368894,3.14
362,1.0347493041683435,0.11854179249923408,1.0276334011899733,2.7805551521487533,2.017988625028182,1.7198117513456403,1.8179930989811708,-1.0,0.708487265307519,-1.1567367872305232,-1.2981276247662837e-11,-2.9062002097493322,2.0489094094368934,3.14
363,1.0347493041683387,0.11854179249923961,1.0276334011899675,2.7805551521487506,2.0179886250281864,1.719811751345641,1.817993098981165,-1.0,0.7084872653075253,-1.1567367872309493,-1.2096586787084322e-11,-2.9062002097497937,2.0489094094368974,3.14
364,1.0347493041683344,0.11854179249924422,1.0276334011899626,2.780555152148749,2.017988625028191,1.7198117513456417,1.8179930989811601,-1.0,0.7084872653075306,-1.156736787231346,-1.127211099389132e-11,-2.9062002097502235,2.048909409436901,3.14
365,1.0347493041683302,0.11854179249924927,1.0276334011899577,2.780555152148747,2.0179886250281953,1.7198117513456426,1.8179930989811555,-1.0,0.7084872653075359,-1.156736787231716,-1.0503852925618023e-11,-2.906200209750624,2.048909409436904,3.14
366,1.0347493041683267,0.11854179249925352,1.0276334011899533,2.7805551521487457,2.0179886250281998,1.719811751345643,1.8179930989811508,-1.0,0.7084872653075409,-1.1567367872320609,-9.787999660064234e-12,-2.906200209750997,2.048909409436907,3.14
367,1.0347493041683224,0.11854179249925696,1.027633401189949,2.780555152148745,2.017988625028203,1.7198117513456435,1.8179930989811468,-1.0,0.7084872653075455,-1.1567367872323822,-9.120890791917762e-12,-2.906200209751345,2.04890940943691,3.14
368,1.0347493041683193,0.11854179249926113,1.0276334011899453,2.780555152148743,2.017988625028207,1.7198117513456437,1.8179930989811426,-1.0,0.70848726530755,-1.1567367872326817,-8.499262459775241e-12,-2.9062002097516686,2.0489094094369125,3.14
369,1.034749304168316,0.11854179249926444,1.0276334011899417,2.7805551521487426,2.01798862502821,1.7198117513456441,1.817993098981139,-1.0,0.7084872653075538,-1.1567367872329606,-7.92000331912131e-12,-2.9062002097519706,2.0489094094369147,3.14
370,1.0347493041683131,0.11854179249926776,1.0276334011899384,2.780555152148741,2.017988625028213,1.7198117513456443,1.8179930989811353,-1.0,0.7084872653075576,-1.1567367872332206,-7.380215549083818e-12,-2.906200209752252,2.048909409436917,3.14
371,1.03474930416831,0.11854179249927091,1.0276334011899353,2.780555152148739,2.0179886250282157,1.719811751345645,1.8179930989811321,-1.0,0.708487265307561,-1.1567367872334628,-6.877184349056225e-12,-2.906200209752514,2.048909409436919,3.14
372,1.034749304168308,0.11854179249927323,1.0276334011899324,2.780555152148739,2.017988625028218,1.7198117513456452,1.8179930989811293,-1.0,0.7084872653075643,-1.1567367872336887,-6.408499952208007e-12,-2.9062002097527584,2.0489094094369213,3.14
373,1.0347493041683051,0.11854179249927654,1.0276334011899293,2.7805551521487373,2.017988625028221,1.7198117513456452,1.8179930989811262,-1.0,0.7084872653075676,-1.1567367872338992,-5.97175259170864e-12,-2.906200209752986,2.048909409436923,3.14
374,1.0347493041683027,0.11854179249927878,1.0276334011899269,2.780555152148737,2.017988625028223,1.7198117513456455,1.8179930989811237,-1.0,0.7084872653075704,-1.1567367872340952,-5.564685017615606e-12,-2.9062002097531985,2.048909409436925,3.14
375,1.0347493041683011,0.11854179249928101,1.0276334011899244,2.780555152148736,2.017988625028225,1.7198117513456461,1.8179930989811213,-1.0,0.708487265307573,-1.1567367872342778,-5.185406020517607e-12,-2.906200209753396,2.0489094094369267,3.14
376,1.034749304168299,0.11854179249928319,1.0276334011899222,2.780555152148735,2.0179886250282273,1.7198117513456461,1.817993098981119,-1.0,0.7084872653075756,-1.156736787234448,-4.831963384248144e-12,-2.9062002097535804,2.048909409436928,3.14
377,1.0347493041682971,0.11854179249928538,1.02763340118992,2.780555152148734,2.017988625028229,1.7198117513456463,1.8179930989811168,-1.0,0.7084872653075779,-1.1567367872346066,-4.502618416283926e-12,-2.9062002097537523,2.0489094094369293,3.14
378,1.0347493041682954,0.11854179249928726,1.0276334011899182,2.7805551521487337,2.017988625028231,1.719811751345647,1.817993098981115,-1.0,0.70848726530758,-1.1567367872347543,-4.1957544376120695e-12,-2.906200209753912,2.0489094094369307,3.14
379,1.0347493041682938,0.11854179249928881,1.0276334011899164,2.7805551521487333,2.0179886250282326,1.7198117513456466,1.8179930989811133,-1.0,0.708487265307582,-1.1567367872348921,-3.909815775974894e-12,-2.906200209754061,2.048909409436932,3.14
380,1.0347493041682927,0.11854179249929049,1.0276334011899146,2.780555152148733,2.017988625028234,1.7198117513456472,1.8179930989811113,-1.0,0.7084872653075839,-1.1567367872350205,-3.643307765869923e-12,-2.9062002097542,2.0489094094369333,3.14
381,1.034749304168291,0.11854179249929203,1.0276334011899133,2.780555152148732,2.0179886250282353,1.7198117513456472,1.8179930989811097,-1.0,0.7084872653075857,-1.1567367872351402,-3.3949187620602884e-12,-2.906200209754329,2.0489094094369342,3.14
382,1.0347493041682894,0.11854179249929328,1.0276334011899115,2.780555152148732,2.0179886250282366,1.7198117513456472,1.8179930989811084,-1.0,0.7084872653075873,-1.1567367872352516,-3.163550642952333e-12,-2.90620020975445,2.048909409436935,3.14
383,1.0347493041682883,0.11854179249929468,1.0276334011899104,2.7805551521487315,2.017988625028238,1.7198117513456472,1.8179930989811066,-1.0,0.7084872653075891,-1.1567367872353556,-2.9480137768195956e-12,-2.9062002097545623,2.0489094094369364,3.14
384,1.0347493041682874,0.11854179249929617,1.027633401189909,2.78055515214873,2.017988625028239,1.7198117513456472,1.817993098981105,-1.0,0.7084872653075905,-1.1567367872354524,-2.74702702180281e-12,-2.9062002097546666,2.0489094094369373,3.14
385,1.0347493041682865,0.11854179249929733,1.0276334011899078,2.7805551521487306,2.0179886250282406,1.719811751345648,1.817993098981104,-1.0,0.7084872653075918,-1.1567367872355423,-2.5598582968395386e-12,-2.9062002097547643,2.048909409436938,3.14
386,1.0347493041682854,0.11854179249929811,1.0276334011899069,2.78055515214873,2.017988625028241,1.719811751345648,1.8179930989811026,-1.0,0.708487265307593,-1.1567367872356265,-2.3854704870913274e-12,-2.906200209754855,2.0489094094369382,3.14
387,1.0347493041682845,0.11854179249929894,1.0276334011899058,2.78055515214873,2.017988625028242,1.719811751345648,1.8179930989811017,-1.0,0.708487265307594,-1.1567367872357048,-2.2230094979853325e-12,-2.9062002097549398,2.0489094094369387,3.14
388,1.0347493041682838,0.11854179249929968,1.0276334011899046,2.7805551521487297,2.0179886250282424,1.7198117513456477,1.8179930989811006,-1.0,0.7084872653075952,-1.1567367872357779,-2.0715602281935067e-12,-2.906200209755019,2.0489094094369396,3.14
389,1.0347493041682825,0.11854179249930122,1.0276334011899035,2.780555152148729,2.017988625028244,1.7198117513456475,1.8179930989810995,-1.0,0.7084872653075964,-1.156736787235846,-1.9304516034086152e-12,-2.9062002097550925,2.0489094094369404,3.14
390,1.0347493041682818,0.11854179249930201,1.0276334011899029,2.7805551521487284,2.0179886250282446,1.7198117513456477,1.817993098981099,-1.0,0.708487265307597,-1.1567367872359091,-1.7988600324354155e-12,-2.9062002097551614,2.048909409436941,3.14
391,1.0347493041682816,0.11854179249930248,1.0276334011899024,2.7805551521487284,2.017988625028245,1.7198117513456483,1.8179930989810984,-1.0,0.7084872653075978,-1.156736787235968,-1.6762364544770792e-12,-2.9062002097552253,2.0489094094369413,3.14
392,1.0347493041682805,0.11854179249930293,1.0276334011899015,2.7805551521487284,2.0179886250282455,1.7198117513456486,1.8179930989810977,-1.0,0.7084872653075986,-1.156736787236023,-1.5619708019815749e-12,-2.906200209755285,2.048909409436942,3.14
393,1.03474930416828,0.11854179249930394,1.0276334011899009,2.7805551521487284,2.017988625028247,1.7198117513456483,1.817993098981097,-1.0,0.7084872653075994,-1.1567367872360743,-1.4554835107744725e-12,-2.9062002097553403,2.0489094094369427,3.14
394,1.0347493041682794,0.11854179249930454,1.0276334011899004,2.780555152148728,2.017988625028247,1.7198117513456486,1.8179930989810962,-1.0,0.7084872653076002,-1.156736787236122,-1.356286526814147e-12,-2.906200209755392,2.048909409436943,3.14
395,1.0347493041682791,0.11854179249930502,1.0276334011898998,2.780555152148727,2.0179886250282473,1.7198117513456483,1.8179930989810955,-1.0,0.7084872653076009,-1.1567367872361667,-1.263861292681371e-12,-2.90620020975544,2.0489094094369436,3.14
396,1.0347493041682787,0.11854179249930566,1.0276334011898993,2.780555152148727,2.0179886250282477,1.7198117513456486,1.817993098981095,-1.0,0.7084872653076014,-1.1567367872362082,-1.1776892509569183e-12,-2.9062002097554847,2.048909409436944,3.14
397,1.034749304168278,0.11854179249930613,1.0276334011898984,2.7805551521487275,2.0179886250282486,1.7198117513456486,1.8179930989810944,-1.0,0.7084872653076022,-1.156736787236247,-1.0974348644871714e-12,-2.9062002097555264,2.0489094094369444,3.14
398,1.0347493041682778,0.11854179249930649,1.0276334011898984,2.780555152148727,2.0179886250282486,1.7198117513456486,1.8179930989810942,-1.0,0.7084872653076025,-1.156736787236283,-1.0226710859857083e-12,-2.9062002097555655,2.0489094094369444,3.14
399,1.0347493041682774,0.1185417924993067,1.0276334011898978,2.780555152148727,2.017988625028249,1.7198117513456486,1.8179930989810937,-1.0,0.708487265307603,-1.1567367872363166,-9.5303187492131e-13,-2.906200209755602,2.048909409436945,3.14
400,1.034749304168277,0.11854179249930753,1.0276334011898973,2.780555152148727,2.01798862502825,1.7198117513456486,1.817993098981093,-1.0,0.7084872653076036,-1.1567367872363479,-8.880901840075542e-13,-2.9062002097556356,2.0489094094369453,3.14
401,1.0347493041682767,0.1185417924993077,1.0276334011898967,2.7805551521487266,2.01798862502825,1.7198117513456488,1.8179930989810924,-1.0,0.7084872653076041,-1.156736787236377,-8.276019862236287e-13,-2.906200209755667,2.0489094094369458,3.14
402,1.034749304168276,0.11854179249930848,1.0276334011898967,2.780555152148726,2.0179886250282504,1.7198117513456488,1.817993098981092,-1.0,0.7084872653076044,-1.156736787236404,-7.712012410383143e-13,-2.9062002097556965,2.0489094094369458,3.14
403,1.0347493041682763,0.11854179249930828,1.0276334011898962,2.780555152148726,2.0179886250282504,1.719811751345649,1.8179930989810917,-1.0,0.7084872653076045,-1.1567367872364291,-7.186439214307986e-13,-2.906200209755724,2.0489094094369458,3.14
404,1.0347493041682758,0.11854179249930849,1.0276334011898962,2.780555152148726,2.0179886250282504,1.719811751345649,1.8179930989810917,-1.0,0.7084872653076046,-1.1567367872364527,-6.696860003802688e-13,-2.9062002097557498,2.0489094094369458,3.14
405,1.0347493041682758,0.11854179249930873,1.0276334011898962,2.780555152148726,2.017988625028251,1.7198117513456492,1.8179930989810917,-1.0,0.7084872653076049,-1.1567367872364747,-6.239919407331077e-13,-2.9062002097557733,2.048909409436946,3.14
406,1.0347493041682758,0.11854179249930892,1.027633401189896,2.780555152148726,2.0179886250282513,1.7198117513456492,1.8179930989810917,-1.0,0.7084872653076051,-1.156736787236495,-5.814702323565105e-13,-2.9062002097557955,2.048909409436946,3.14
