jkpark150901/flame_robotics_drt/experiment/inspection_ik/session_20260716_101733/inspection_ik_rb20_1900es_normalized_fallback_20260716_102219.csv
iteration,err_norm,position_error,orientation_error,tcp_x,tcp_y,tcp_z,q0_rt_joint_linear_track,q1_rt_joint_carriage,q2_rt_base,q3_rt_shoulder,q4_rt_elbow,q5_rt_wrist1,q6_rt_wrist2,q7_rt_wrist3
0,8.64126469377386,5.183096230364021,3.141582555790671,0.267,-3.2807478955731993e-13,2.541,0.0,0.0,0.0,0.0,0.0,0.0,0.0,0.0
1,7.329874959075842,4.786143526663047,2.8117915000997202,0.4148141097917488,1.3917067780089754,1.9581748852325995,0.0,0.09565045391153598,-0.12711352729330505,0.8346303702695681,8.804654652714961e-06,-0.19029956672403875,-0.8346127609602628,-0.19029956672403875
2,7.528989170748484,5.0818665936813945,2.7007164767284326,0.7509251349156595,0.8246463422761247,-0.45886492540731266,0.0,-0.31639692963706106,-0.46110682657754437,2.271472106618158,0.08105868107921552,-1.1097250034335726,-2.368464987391088,0.09875585448014434
3,4.342934931531954,2.8934269044650613,3.1073849219355405,3.643493810881309,0.758346377574373,-0.42293052008283216,4.3817739874635535,0.7944431258548954,1.5677783841328397,3.14,-1.414200065842573,-1.8656092797531039,-1.0189777145316266,-2.6957533213938065
4,3.5171601630142972,1.937746321986673,2.669695514379958,4.700450497544354,0.7591676295747007,0.17688968850206285,5.354542391563021,0.8440023718848746,1.7109638544679164,3.007801321259741,-2.0852810311223333,-2.8778892429981724,-1.9337109234254295,-2.0184890830390474
5,2.4781685850710207,1.6267795445973234,1.7361821381069455,5.49501686357039,0.8165883975917335,0.44819505717690544,5.880042004667661,0.9100811286429716,1.8265586924982011,2.8881421484030967,-2.419433027166797,-2.817822523673705,-2.911066051055158,-2.522618505801315
6,2.295053497746884,1.4145392514987016,1.6563745990115408,5.778767867648752,1.0402104978799567,0.6922602381599081,5.924970318579738,1.0,1.6482986369873367,2.4180407725908757,-2.7471743590170408,-2.6065404803302488,-3.14,-2.906455528988125
7,1.8430981449421728,1.1553558609998686,1.3561966511284584,6.002346560238163,1.3087788178043014,1.095161282390954,6.463875885392191,1.0,1.2257608214808777,1.9083109568274712,-2.052128455757133,-2.189496947340153,-3.14,-3.14
8,1.6045829232397504,0.8698582102785406,1.306048177401534,5.906361379518328,1.4508350139752484,1.4048678841471893,6.237199379094876,1.0,0.9627829525339966,1.5329786863838868,-1.7890019119618086,-1.8919933400635698,-3.14,-3.14
9,1.3745955334687325,0.6168038075587434,1.2099929520964137,5.748965649957435,1.4804721772493514,1.631781756916153,5.928814807458608,1.0,0.7782375503680855,1.2575979828786314,-1.5715048993635203,-1.6327386766409866,-3.14,-3.14
10,1.1813177791880394,0.4111321949515724,1.101126151714246,5.587465005034437,1.445358193757272,1.7754182159219458,5.649451145016145,1.0,0.6613773940510258,1.067696441452277,-1.4234240184056839,-1.4172322801672668,-3.14,-3.14
11,1.0320719748821225,0.27196817727702427,0.993957134755359,5.457703220766164,1.3974220115100495,1.851835716793045,5.462231397553154,1.0,0.625310893040268,0.9564125987167857,-1.3379988116251904,-1.2560375838156057,-3.14,-3.14
12,0.9269796526644569,0.186517574993078,0.9076770187011585,5.363403260586251,1.3750099412166066,1.8832441576591863,5.356971736403601,1.0,0.6354828670729724,0.9113875279081003,-1.2951554318151053,-1.1364389411866223,-3.14,-3.14
13,0.8592653405554594,0.12794502161179724,0.8495685593374488,5.2982842991887,1.381299385232499,1.890491131658675,5.29888725011944,1.0,0.640033955819956,0.9073135754576958,-1.2751768473507767,-1.035363097761876,-3.14,-3.14
14,0.8192756548740472,0.09593521881500802,0.8135244327528172,5.255887538452512,1.386049058293468,1.888802157638255,5.264606345717433,0.9835340456178964,0.6263046268393354,0.9186049695491223,-1.2628269270658516,-0.9440230230550395,-3.14,-3.14
15,0.7968772362951547,0.08517929789839117,0.7921546430453045,5.229734185548756,1.3858407897352671,1.8841056430985508,5.241207693101783,0.9562242943036848,0.597468724732126,0.9338244203713542,-1.2533645451313047,-0.8599399274384221,-3.14,-3.14
16,0.7843480562664289,0.08451077621747477,0.7795827499489077,5.214229923597926,1.3843225550804519,1.878809796253451,5.220769703848292,0.9267745995555293,0.5575935141118515,0.9482905646069621,-1.2457961077285666,-0.7815446645474987,-3.14,-3.14
17,0.776340198333951,0.08681142966996745,0.7712401132182422,5.205288387472515,1.382883689038518,1.8740865926177916,5.198492158664762,0.8998199360429691,0.5093453826197302,0.9599602092530415,-1.2402520357795075,-0.7073004468313275,-3.14,-3.14
18,0.769040100017562,0.08916386803387004,0.7636019456441011,5.200186034098087,1.3820170536100074,1.870336639229371,5.172148688337101,0.8782105862279712,0.4548871645642001,0.9682245377207993,-1.237486965147742,-0.6360295343762814,-3.14,-3.14
19,0.7598658648146819,0.09065635482675613,0.7541769706880155,5.197201174077982,1.3819114574782105,1.8675692844037168,5.141931936994904,0.8639308159549759,0.39715754872924314,0.9731578583741569,-1.2382198362513595,-0.5674594528127868,-3.14,-3.14
20,0.7475506912561054,0.09108444261787524,0.7417192053330549,5.195351010240661,1.3826482476510584,1.8656386034994852,5.110232649681615,0.8579353492512237,0.3404137310987032,0.9751670406654309,-1.2425326443062983,-0.5024929334885335,-3.14,-3.14
21,0.7321848785143982,0.090524689706838,0.7263133778788009,5.194193463150356,1.3841713026765385,1.8643793080835973,5.0802958577264326,0.859609768305825,0.28889797195042044,0.9748220169553925,-1.249652200230191,-0.44257943792493004,-3.14,-3.14
22,0.7147194229156133,0.089213630483975,0.7088887817161397,5.193568104269841,1.3862561700651654,1.8636609364752823,5.054222122439571,0.867079631316156,0.24468119183300852,0.9726975570709809,-1.258397487506691,-0.3885714446201912,-3.14,-3.14
23,0.6962001615197981,0.08742483315653438,0.6904640718913456,5.193370867509829,1.3886291789043808,1.863378902935458,5.0324091654572864,0.8783250014199474,0.20750368038918215,0.9692568991263001,-1.2677983055552882,-0.3404101288668465,-3.14,-3.14
24,0.67737105097488,0.08537531262944471,0.6717605318680183,5.193488808319025,1.3910861440137137,1.8634369799623602,5.014380518751555,0.8918594873202595,0.17619646135703876,0.9648361354211719,-1.2772899195637346,-0.2976017057479684,-3.14,-3.14
25,0.6586698139572029,0.08320912668313764,0.6532003081387038,5.1938163110237445,1.3935104051156175,1.863747060657621,4.999503363805395,0.9067399340651282,0.1496432256874462,0.9596768352252953,-1.2865984676547793,-0.25960291485533016,-3.14,-3.14
26,0.6403364865536333,0.08101486601967987,0.6350136519187587,5.194269546432156,1.3958458085259002,1.8642347973706908,4.987228068079076,0.9223788129686388,0.12700011083736648,0.9539568147918817,-1.295599795351006,-0.225931254468345,-3.14,-3.14
27,0.6224999422699379,0.07884453145547056,0.6173236495153342,5.194787717402231,1.3980704874332257,1.8648421230841017,4.977110741724293,0.9383978316976195,0.10764286545818567,0.9478100402812694,-1.3042364852677584,-0.19616353598366407,-3.14,-3.14
28,0.6052275182784099,0.07672695660222024,0.6001944509589588,5.195328867932228,1.4001802778383934,1.8655262663826155,4.968789952269126,0.9545439887247326,0.09108819102404692,0.941339215502951,-1.3124797123132494,-0.16991816999670517,-3.14,-3.14
29,0.5885511154412055,0.0746766334933386,0.583656393043449,5.195865061434257,1.4021793871065207,1.8662570723285268,4.961965583774142,0.9706437266323653,0.07694213288996578,0.9346242160871275,-1.3203138151623204,-0.1468437467165654,-3.14,-3.14
30,0.5724810827126998,0.07269943527674275,0.5677192264470973,5.196378413187707,1.4040753846090437,1.8670139859164256,4.956385329326702,0.9865767569860016,0.06487179816990182,0.9277280091612861,-1.327730622640667,-0.12661399585264432,-3.14,-3.14
31,0.5572458297116212,0.07255223125159752,0.5523795625107529,5.19685813615284,1.403616651428796,1.86778336082219,4.9518362000354665,1.0,0.05459033031311933,0.9207008994571302,-1.334727479800859,-0.10892611980144074,-3.14,-3.14
32,0.544599667988471,0.08283940384762761,0.5381063524862644,5.197313006267926,1.3905940165723376,1.8683204449397537,4.948234055887944,1.0,0.045981011421367964,0.9141377782034438,-1.3413737112240391,-0.09356148813504173,-3.14,-3.14
33,0.5354942413505337,0.09064282352625948,0.5275839080850014,5.197798724184259,1.3819936418325247,1.8674176430773626,4.945805308192364,1.0,0.03935687397092821,0.9110692776481846,-1.3479501250446806,-0.08051421439087615,-3.14,-3.14
34,0.5290396293709209,0.09619447712304999,0.5200175792475525,5.19824912930233,1.3763936038635305,1.866013444212956,4.944006038317669,1.0,0.033943899867684396,0.9099148777571507,-1.3536625789473926,-0.06932381775188268,-3.14,-3.14
35,0.5245308372167501,0.10003745186520012,0.5146856744945065,5.198638252215529,1.372791189838948,1.8645703677813181,4.942567772485001,1.0,0.029353963527759992,0.9097471023432206,-1.3582813903087305,-0.05967315257229003,-3.14,-3.14
36,0.5214241234935371,0.10265867479797955,0.5109912646355192,5.198961200194985,1.3704983566650764,1.863289871760839,4.941356213590918,1.0,0.025381909929589195,0.9100388279186957,-1.3618485434211192,-0.051325149997782815,-3.14,-3.14
37,0.5193112149093928,0.10443005451678622,0.5084688376310579,5.199223050134258,1.3690525122353818,1.8622372647269843,4.940303672156567,1.0,0.021910934983635857,0.9105026509742986,-1.3645159694738702,-0.0440923583103653,-3.14,-3.14
38,0.5178926051713033,0.10561973382192885,0.5067696279251174,5.199432692740712,1.3681477568958071,1.8614118893544138,4.939375252271489,1.0,0.018866967135925273,0.9109911668544985,-1.3664626378283857,-0.03782086790366515,-3.14,-3.14
39,0.516952821325984,0.10641569239614417,0.5056397806549315,5.199599652326166,1.3675846937588463,1.8607851480245972,4.938551728005817,1.0,0.01619664832756741,0.9114362476885801,-1.3678560889879565,-0.03238118175994696,-3.14,-3.14
40,0.5163393661968423,0.10694747953837805,0.504898521370625,5.199732619064634,1.3672350418620152,1.860320129739219,4.937821004887461,1.0,0.013856972558607693,0.9118128079053768,-1.3688376868238663,-0.027662674801756864,-3.14,-3.14
41,0.5159458155747539,0.10730327224335152,0.5044193265320883,5.199838914526465,1.3670172960697673,1.8599809891945889,4.937174035173585,1.0,0.01181064879375834,0.9121177004677007,-1.369519735818418,-0.02356999443711427,-3.14,-3.14
42,0.5156988060749341,0.10754247605054537,0.5041148981061366,5.199924429049282,1.3668803029290395,1.859736807398832,4.9366030051446765,1.0,0.010024179978766177,0.9123578057863309,-1.3699879577266172,-0.02002054867960779,-3.14,-3.14
43,0.5155483220012167,0.10770475394915906,0.503925736165437,5.199993769875845,1.3667923526292496,1.8595626240488046,4.93610063475221,1.0,0.00846714651042997,0.9125435955561216,-1.370305913336734,-0.016942627018322845,-3.14,-3.14
44,0.5154606139514499,0.10781637375330334,0.5038117274832954,5.2000504804877075,1.3667340350378223,1.8594391354723625,4.935659983414739,1.0,0.007111960864511484,0.9126858772554083,-1.3705196864315365,-0.014273908952249684,-3.14,-3.14
45,0.5154131321516258,0.10789460701872432,0.5037461002563023,5.200097262319593,1.3666936212622052,1.8593518600021233,4.935274456793448,1.0,0.005933760664674418,0.9127943272409333,-1.3706620866697108,-0.011960227429985355,-3.14,-3.14
46,0.5153909569438953,0.10795074076391957,0.5037111588562628,5.200136169374867,1.3666641153490726,1.8592901793301393,4.934937870415521,1.0,0.004910306749747571,0.9128769849680909,-1.370756117336307,-0.009954514449732228,-3.14,-3.14
47,0.5153843168518638,0.10799211664801665,0.5036953191823058,5.200168766855096,1.3666413960075683,1.8592464461156142,4.93464450924392,1.0,0.004021846082814477,0.912940229006909,-1.3708176926027664,-0.008215887656450553,-3.14,-3.14
48,0.5153868825231568,0.10802349720766191,0.5036910738575082,5.200196254772894,1.3666230608628098,1.859215231203715,4.934389163016521,1.0,0.0032509386150861323,0.9129889664447409,-1.3708576921342717,-0.006708853050193909,-3.14,-3.14
49,0.5153946059486728,0.10804797202326498,0.5036936108994231,5.200219561515346,1.3666077178699219,1.8591927245972717,4.934167135416654,1.0,0.0025822604197302174,0.9130268923475381,-1.3708834738092486,-0.005402607162116433,-3.14,-3.14
50,0.5154049380196866,0.10806755290526616,0.503699885188478,5.200239413328502,1.366594557695587,1.8591762771317715,4.933974232037128,1.0,0.0020023971075539895,0.9130567481647104,-1.3708999642507618,-0.0042704262315114185,-3.14,-3.14
51,0.5154163056623938,0.10808356116216127,0.5037079999117153,5.200256385313854,1.3665831002304407,1.8591640597262429,4.933806733677293,1.0,0.001499638946986726,0.9130805482088048,-1.3709104314299183,-0.003289132132603824,-3.14,-3.14
52,0.5154277652869192,0.10809687732195357,0.5037167979594775,5.200270938626777,1.3665730474039042,1.8591548156154818,4.933661360878863,1.0,0.0010637855528584249,0.9130997646829633,-1.370917023934729,-0.0024386261227725002,-3.14,-3.14
53,0.5154387749035417,0.10810810079667944,0.5037255941676069,5.20028344757346,1.3665641997985645,1.859147683393872,4.93353523427613,1.0,0.0006859648197483924,0.9131154721976774,-1.3709211424707237,-0.0017014824271493268,-3.14,-3.14
54,0.5154490454337587,0.10811765117760515,0.5037340012143863,5.200294219405493,1.366556410805232,1.8591420725037642,4.933425833982263,1.0,0.0003584683532574146,0.913128457158282,-1.3709236927806465,-0.0010625944645041314,-3.14,-3.14
55,0.515458444456595,0.10812583207373923,0.5037418172824492,5.2003035088753515,1.3665495623493462,1.8591375767267453,4.93333096010575,1.0,7.46039909788173e-05,0.9131392986718996,-1.3709252559742506,-0.0005088672432944329,-3.14,-3.14
56,0.5154669344132884,0.10813287114730243,0.5037489541395372,5.200311529044641,1.3665435526511072,1.859133914726884,4.933248695642642,1.0,-0.00017143504106989147,0.9131484273530873,-1.3709262020799264,-2.895013996767208e-05,-3.14,-3.14
57,0.5154745332947752,0.10813894516588105,0.5037553914743369,5.200318459410031,1.3665382904438632,1.859130889564133,4.933177372393775,1.0,-0.0003846853886768963,0.913156167503295,-1.370926765020853,0.00038699508476028533,-3.14,-3.14
58,0.5154812898965107,0.10814419570797788,0.5037611481661063,5.2003244521005225,1.3665336924764664,1.8591283613399012,4.93311554015885,1.0,-0.0005695145926005658,0.9131627670712388,-1.3709270916667835,0.0007474955773011509,-3.14,-3.14
59,0.515487268447051,0.10814873908595102,0.5037662644007039,5.200329636677047,1.3665296825529478,1.8591262288313317,4.9330619392084305,1.0,-0.0007297093211368716,0.9131684187943614,-1.3709272736410172,0.001059941987339783,-3.14,-3.14
60,0.5154925392262439,0.10815267271539362,0.5037707906865632,5.200334123908055,1.3665261911924818,1.8591244172172636,4.93301547588628,1.0,-0.000868552242219859,0.9131732750658036,-1.370927367767531,0.001330739869771984,-3.14,-3.14
61,0.5154971729822728,0.10815607930990931,0.5037747812296598,5.200338008784771,1.366523155460925,1.8591228698966065,4.93297520111438,1.0,-0.0009888888840599154,0.9131774583871145,-1.3709274091050057,0.001565440949850074,-3.14,-3.14
62,0.5155012377381174,0.10815902974500524,0.5037782900421955,5.200341372963126,1.3665205187797138,1.8591215430353194,4.932940291537172,1.0,-0.0010931857204776643,0.9131810687418498,-1.3709274191873875,0.0017688569155793377,-3.14,-3.14
63,0.515504797086026,0.10816158510195067,0.5037813687518088,5.2003442867662315,1.3665182306487402,1.8591204019212764,4.932910033033203,1.0,-0.0011835805927494858,0.913184188834077,-1.370927411192627,0.0019451580548557924,-3.14,-3.14
64,0.5155079093967858,0.1081637981978595,0.5037840654583294,5.200346810844291,1.3665162462815417,1.8591194185113202,4.932883806330318,1.0,-0.0012619264557090647,0.9131868878511077,-1.370927393160213,0.002097958750996519,-3.14,-3.14
65,0.515510627581349,0.10816571478432402,0.5037864242277136,5.200348997563106,1.366514526175605,1.8591185697621955,4.932861074477289,1.0,-0.0013298293184337445,0.9131892242063558,-1.3709273699800866,0.0022303915848562983,-3.14,-3.14
66,0.5155129991770047,0.1081673745227438,0.5037884849665946,5.200350892174281,1.3665130356464028,1.8591178364766598,4.932841371945935,1.0,-0.0013886811421619193,0.9131912475750934,-1.3709273446144943,0.002345171560383214,-3.14,-3.14
67,0.5155150666158356,0.10816881180082384,0.5037902835179378,5.200352533807428,1.3665117443510366,1.8591172024890745,4.932824295160218,1.0,-0.0014396883612543326,0.9131930004364637,-1.370927318844905,0.002444651769215383,-3.14,-3.14
68,0.5155168675873606,0.10817005642934076,0.5037918518791747,5.2003539563155154,1.3665106258215935,1.859116654076151,4.932809494271042,1.0,-0.0014838966070316885,0.9131945192668358,-1.3709272937271524,0.002530871635064753,-3.14,-3.14
69,0.5155184354414013,0.10817113424372249,0.503793218482286,5.20035518899784,1.3665096570221533,1.8591161795187445,4.932796666016482,1.0,-0.001522212138608995,0.9131958354831029,-1.3709272698685904,0.002605598726840949,-3.14,-3.14
70,0.5155197995986553,0.1081720676267308,0.5037944084990402,5.20035625722018,1.3665088179380238,1.8591157687666773,4.932785547526517,1.0,-0.001555420418541109,0.913196976203142,-1.3709272475973058,0.0026703649977728927,-3.14,-3.14
71,0.515520985949915,0.10817287596386593,0.5037954441493474,5.200357182948005,1.3665080912015635,1.8591154131754182,4.932775910948806,1.0,-0.0015842022132349955,0.913197964869572,-1.370927227066131,0.002726498193572397,-3.14,-3.14
72,0.5155220172332551,0.10817357604039847,0.5037963449998802,5.200357985205711,1.3665074617559185,1.8591151052942545,4.932767558787648,1.0,-0.0016091475477166876,0.9131988217688363,-1.3709272083173092,0.002775149073657203,-3.14,-3.14
73,0.5155229133837379,0.10817418238733154,0.5037971282457748,5.200358680472737,1.366506916555923,1.8591148386924872,4.9327603198621395,1.0,-0.0016307678005627695,0.9131995644682065,-1.3709271913233492,0.0028173150036057667,-3.14,-3.14
74,0.5155236920382069,0.10817470758251527,0.5037978091604585,5.200359283025586,1.3665064443041444,1.8591146078145915,4.9327540458016506,1.0,-0.0016495061867947225,0.9132002081869821,-1.3709271760133486,0.002853860402606293,-3.14,-3.139996405085983
75,0.5155244087599594,0.10817517316009574,0.5037984398256289,5.20035987170783,1.3665060242787246,1.8591144056815465,4.932748411739325,1.0,-0.0016664630269552165,0.9132007874701629,-1.3709271453570364,0.0028864745696916016,-3.14,-3.139988884589376
76,0.51552510893885,0.10817559883809136,0.5037990623211824,5.200360509519924,1.3665056376954798,1.8591142255543598,4.9327431399654795,1.0,-0.001682566877673316,0.9132013316986655,-1.370927087275968,0.002916684469455953,-3.14,-3.1399789584321973
77,0.515525810669124,0.10817599737583536,0.5037996923485992,5.200361214514718,1.3665052729252047,1.8591140621067654,4.932738085069354,1.0,-0.0016982631452166224,0.9132018557975912,-1.3709270013348822,0.0029454013588406233,-3.14,-3.1399675340531483
78,0.5155265199257164,0.1081763772980985,0.5038003341481119,5.200361984939913,1.3665049225224122,1.8591139111851138,4.9327331668345495,1.0,-0.0017137655704288057,0.9132023676313606,-1.37092689133977,0.0029731799303936587,-3.14,-3.1399551640212944
79,0.5155272376136645,0.10817674442272976,0.503800987370289,5.200362811540992,1.3665045816070562,1.8591137695862874,4.93272833831736,1.0,-0.0017291767830556167,0.9132028715611006,-1.3709267620964871,0.0030003635717089383,-3.14,-3.139942190511878
80,0.5155279627618025,0.10817710276886851,0.5038016501418201,5.200363683327177,1.3665042469352289,1.8591136348652104,4.93272357040648,1.0,-0.0017445461017314258,0.9132033701611991,-1.3709266181022828,0.003027167830020216,-3.14,-3.139928828361884
81,0.515528693907645,0.10817745512815816,0.5038023203560698,5.200364590056151,1.3665039163364645,1.8591135051734125,4.9327188441361836,1.0,-0.0017598972530201685,0.9132038650544273,-1.3709264631122777,0.0030537295171660828,-3.14,-3.13991521395682
82,0.5155294296494988,0.10817780344112454,0.503802996155012,5.200365523116291,1.3665035883571084,1.859113379126438,4.932714146687834,1.0,-0.0017752416691003575,0.9132043573254456,-1.3709263000825487,0.003080136228420781,-3.14,-3.1399014346303247
83,0.5155301688273848,0.10817814905361686,0.5038036760580022,5.200366475665073,1.366503262026417,1.8591132556966952,4.932709469185044,1.0,-0.001790584870076737,0.9132048477323039,-1.3709261312588306,0.003106444423963373,-3.14,-3.1398875466787977
84,0.5155309105480694,0.10817849289515966,0.5038043589482842,5.200367442455458,1.3665029366997583,1.8591131341281155,4.932704805394203,1.0,-0.0018059295292008307,0.9132053368203982,-1.3709259583070363,0.0031326906808525107,-3.14,-3.1398735865749288
85,0.5155316541522367,0.10817883560434428,0.5038050440119659,5.200368419560477,1.3665026119522419,1.8591130138690755,4.932700150907588,1.0,-0.0018212769463133516,0.9132058249883873,-1.3709257824417829,0.0031588987857239796,-3.14,-3.1398595780377283
86,0.5155323991665781,0.10817917761727124,0.5038057306696637,5.200369404092525,1.3665022875062849,1.859112894520371,4.932695502601836,1.0,-0.0018366277569921525,0.9132063125295149,-1.3709256045368752,0.0031850842515693963,-3.14,-3.1398455365356384
87,0.5155331452579854,0.10817951922987333,0.5038064185160219,5.200370393956496,1.3665019631823454,1.859112775795345,4.932690858265227,1.0,-0.0018519822744290121,0.9132067996595075,-1.370925425214104,0.0032112572170417118,-3.14,-3.1398314721774336
88,0.515533892195539,0.10817986064165834,0.5038071072712732,5.200371387648175,1.366501638865572,1.8591126574896912,4.932686216335174,1.0,-0.0018673406546245947,0.9132072865364929,-1.3709252449118239,0.0032374243188476805,-3.14,-3.13981739157936
89,0.5155346398211007,0.10818020198623655,0.503807796744489,5.200372384096708,1.3665013144833866,1.8591125394588421,4.932681575711127,1.0,-0.0018827029764597683,0.9132077732757184,-1.3709250639365336,0.0032635899065150097,-3.14,-3.1398032990765743
90,0.51553538802749,0.10818054335249296,0.503808486806631,5.200373382545071,1.3665009899905427,1.8591124216012032,4.932676935620617,1.0,-0.001898069280669768,0.9132082599606115,-1.3709248825009452,0.003289756833218649,-3.14,-3.139789197511841
91,0.5155361367427345,0.10818088479916324,0.5038091773712554,5.200374382461243,1.3665006653592626,1.8591123038458524,4.932672295523336,1.0,-0.0019134395889217554,0.9132087466511289,-1.370924700751663,0.003315926971933996,-3.14,-3.1397750887503104
92,0.5155368859189124,0.10818122636480575,0.503809868380928,5.200375383473204,1.3665003405727862,1.8591121861435977,4.932667655042635,1.0,-0.0019288139132228183,0.9132092333900438,-1.3709245187890722,0.003342101552954228,-3.14,-3.1397609740161436
93,0.515537635524382,0.10818156807456401,0.5038105597977944,5.2003763853219525,1.366500015621212,1.8591120684605271,4.932663013916783,1.0,-0.001944192260604559,0.913209720207651,-1.3709243366814872,0.003368281384903299,-3.14,-3.1397468541129436
94,0.5155383855384253,0.10818190994472905,0.503811251597105,5.200377387827862,1.3664996904988325,1.859111950773404,4.932658371964429,1.0,-0.0019595746354850122,0.9132102071252566,-1.3709241544751174,0.0033944669996076155,-3.14,-3.1397327295682462
95,0.5155391359475947,0.10818225198579334,0.5038119437628156,5.20037839086677,1.3664993652024584,1.859111833066395,4.932653729060238,1.0,-0.0019749610408778574,0.9132106941577456,-1.370923972201043,0.0034206587471288293,-3.14,-3.1397186007283024
96,0.5155398867432476,0.10818259420447172,0.5038126362846197,5.200379394353125,1.3664990397303827,1.8591117153287724,4.932649085117787,1.0,-0.001990351479023315,0.9132111813154512,-1.370923789880049,0.0034468568581377695,-3.14,-3.1397044678202892
97,0.5155406379198947,0.10818293660504384,0.5038133291559674,5.200380398228135,1.3664987140817373,1.8591115975533086,4.932644440077592,1.0,-0.00200574595172432,0.9132116686055032,-1.3709236075259594,0.0034730614848690576,-3.14,-3.1396903309931554
98,0.5155413894740987,0.10818327919022751,0.5038140223727507,5.200381402451509,1.3664983882561175,1.859111479735155,4.932639793898769,1.0,-0.0020211444605302466,0.9132121560327966,-1.370923425147921,0.003499272728020003,-3.14,-3.139676190344449
99,0.5155421414037518,0.10818362196174822,0.5038147159324359,5.200382406995694,1.3664980622533567,1.859111361871075,4.932635146553239,1.0,-0.0020365470068400724,0.9132126436006753,-1.3709232427519529,0.003525490654421602,-3.14,-3.1396620459379414
100,0.5155428937075988,0.10818396492070478,0.5038154098334992,5.200383411841906,1.3664977360734007,1.8591112439589195,4.93263049802172,1.0,-0.0020519535919613424,0.9132131313114156,-1.3709230603419968,0.0035517153086486427,-3.14,-3.139647897815208
101,0.5155436463849291,0.10818430806780502,0.5038161040750588,5.200384416977354,1.36649740971624,1.8591111259972628,4.932625848290959,1.0,-0.0020673642171452457,0.9132136191665634,-1.370922877920622,0.0035779467206490927,-3.14,-3.1396337460032346
102,0.5155443994353754,0.1081846514035162,0.5038167986566373,5.2003854223933645,1.366497083181871,1.8591110079851625,4.932621197351824,1.0,-0.0020827788836077824,0.9132141071671678,-1.3709226954894966,0.0036041849107579537,-3.14,-3.1396195905194206
103,0.5155451528587879,0.10818499492815578,0.5038174935780106,5.200386428084064,1.3664967564702828,1.859110889921999,4.932616545197998,1.0,-0.002098197592542456,0.913214595313942,-1.370922513049698,0.003630429892991907,-3.14,-3.139605431374862
104,0.5155459066551497,0.10818533864195233,0.5038181888391127,5.2003874340454885,1.3664964295814512,1.8591107718073587,4.932611891825084,1.0,-0.0021136203451287317,0.9132150836073751,-1.3709223306019238,0.0036566816772153517,-3.14,-3.139591268576514
105,0.5155466608245277,0.10818568254508146,0.5038188844399724,5.200388440274981,1.366496102515335,1.859110653640968,4.932607237229987,1.0,-0.0021290471425368623,0.913215572047805,-1.3709221481466225,0.0036829402705633647,-3.14,-3.1395771021286087
106,0.5155474153670409,0.10818602663768868,0.5038195803806801,5.200389446770766,1.3664957752718785,1.8591105354226416,4.9326025814104995,1.0,-0.0021444779859314624,0.91321606063547,-1.3709219656840852,0.0037092056783775244,-3.14,-3.1395629320335883
107,0.5155481702828373,0.10818637091989779,0.5038202766613592,5.2003904535316625,1.366495447851018,1.8591104171522528,4.932597924365016,1.0,-0.0021599128764735135,0.9132165493705433,-1.3709217832145015,0.0037354779048206846,-3.14,-3.1395487582927193
108,0.5155489255720849,0.10818671539182478,0.503820973282156,5.200391460556904,1.3664951202526787,1.859110298829712,4.932593266092337,1.0,-0.00217535181532165,0.9132170382531545,-1.370921600737997,0.0037617569532810255,-3.14,-3.1395345809064943
109,0.5155496812349609,0.10818706005358049,0.503821670243228,5.200392467845996,1.3664947924767779,1.8591101804549537,4.93258860659154,1.0,-0.0021907948036332596,0.9132175272834051,-1.3709214182546567,0.003788042826637909,-3.14,-3.139520399874898
110,0.51555043727165,0.10818740490527275,0.5038223675447389,5.200393475398627,1.3664944645232295,1.859110062027925,4.932583945861886,1.0,-0.0022062418425648797,0.9132180164613791,-1.370921235764542,0.003814335527436272,-3.14,-3.1395062151975806
111,0.5155511936823409,0.10818774994700586,0.5038230651868598,5.2003944832146125,1.3664941363919445,1.8591099435485863,4.932579283902764,1.0,-0.002221692933272815,0.9132185057871482,-1.3709210532676959,0.0038406350580016835,-3.14,-3.1394920268739717
112,0.5155519504672238,0.10818809517888588,0.5038237631697607,5.200395491293853,1.3664938080828295,1.8591098250169014,4.9325746207136465,1.0,-0.00223714807691326,0.9132189952607771,-1.3709208707641536,0.00386694142051563,-3.14,-3.1394778349033574
113,0.5155527076264902,0.10818844060101754,0.5038244614936149,5.200396499636307,1.3664934795957904,1.8591097064328386,4.932569956294065,1.0,-0.0022526072746424253,0.9132194848823251,-1.3709206882539438,0.003893254617065051,-3.14,-3.139463639284928
114,0.5155534651603323,0.1081887862135066,0.5038251601585956,5.200397508241972,1.3664931509307305,1.8591095877963686,4.932565290643588,1.0,-0.0022680705276167243,0.9132199746518489,-1.3709205057370917,0.003919574649675011,-3.14,-3.139449440017812
115,0.515554223068943,0.10818913201645819,0.5038258591648767,5.200398517110865,1.3664928220875538,1.8591094691074626,4.932560623761808,1.0,-0.0022835378369928613,0.9132204645694039,-1.3709203232136207,0.00394590152033014,-3.14,-3.139435237101095
116,0.5155549813525148,0.10818947800997633,0.5038265585126319,5.200399526243032,1.3664924930661642,1.859109350366094,4.932555955648338,1.0,-0.0022990092039278103,0.9132209546350434,-1.370920140683552,0.00397223523098868,-3.14,-3.139421030533837
117,0.5155557400112403,0.10818982419416774,0.503827258202035,5.20040053563852,1.3664921638664627,1.8591092315722357,4.932551286302801,1.0,-0.002314484629578891,0.9132214448488207,-1.3709199581469078,0.003998575783591724,-3.14,-3.139406820315079
118,0.5155564990453134,0.10819017056913761,0.5038279582332602,5.200401545297388,1.3664918344883519,1.8591091127258612,4.932546615724828,1.0,-0.0023299641151037203,0.9132219352107884,-1.370919775603708,0.004024923180069243,-3.14,-3.1393926064438507
119,0.5155572584549274,0.108190517134991,0.5038286586064828,5.200402555219704,1.366491504931734,1.8591089938269447,4.932541943914056,1.0,-0.002345447661660404,0.9132224257209989,-1.3709195930539726,0.004051277422344325,-3.14,-3.139378388919173
120,0.5155580182402749,0.10819086389183463,0.5038293593218768,5.200403565405532,1.36649117519651,1.8591088748754598,4.932537270870123,1.0,-0.002360935270407346,0.9132229163795044,-1.3709194104977225,0.004077638512335563,-3.14,-3.1393641677400628
121,0.5155587784015497,0.10819121083977344,0.5038300603796148,5.200404575854942,1.366490845282583,1.8591087558713795,4.9325325965926705,1.0,-0.002376426942503316,0.9132234071863575,-1.3709192279349787,0.004104006451958796,-3.14,-3.139349942905532
122,0.5155595389389457,0.10819155797891424,0.503830761779873,5.2004055865680066,1.3664905151898532,1.8591086368146779,4.932527921081343,1.0,-0.0023919226791074976,0.91322389814161,-1.3709190453657603,0.004130381243128351,-3.14,-3.1393357144145906
123,0.5155602998526557,0.10819190530936236,0.503831463522826,5.2004065975448,1.3664901849182223,1.85910851770533,4.932523244335785,1.0,-0.0024074224813795168,0.9132243892453139,-1.3709188627900877,0.0041567628877578295,-3.14,-3.1393214822662467
124,0.5155610611428743,0.10819225283122355,0.5038321656086481,5.200407608785397,1.3664898544675925,1.8591083985433086,4.9325185663556415,1.0,-0.0024229263504793727,0.9132248804975218,-1.3709186802079816,0.004183151387760487,-3.14,-3.139307246459508
125,0.5155618228097947,0.10819260054460467,0.5038328680375139,5.200408620289866,1.3664895238378647,1.8591082793285871,4.932513887140555,1.0,-0.0024384342875673737,0.9132253718982859,-1.3709184976194622,0.004209546745049465,-3.14,-3.1392930069933795
126,0.5155625848536107,0.10819294844961207,0.5038335708095973,5.200409632058286,1.3664891930289396,1.85910816006114,4.932509206690173,1.0,-0.0024539462938043912,0.9132258634476579,-1.3709183150245494,0.004235948961538348,-3.14,-3.1392787638668675
127,0.5155633472745169,0.10819329654635132,0.5038342739250753,5.200410644090732,1.366488862040719,1.8591080407409415,4.932504525004141,1.0,-0.0024694623703515176,0.9132263551456902,-1.3709181324232635,0.004262358039140865,-3.14,-3.1392645170789764
128,0.5155641100727073,0.10819364483492884,0.5038349773841214,5.2004116563872795,1.366488530873104,1.8591079213679649,4.9324998420821045,1.0,-0.0024849825183703546,0.9132268469924352,-1.370917949815625,0.004288773979771333,-3.14,-3.1392502666287103
129,0.5155648732483759,0.10819399331545118,0.5038356811869111,5.200412668947999,1.3664881995259959,1.8591078019421838,4.932495157923707,1.0,-0.0025005067390228863,0.913227338987945,-1.3709177672016541,0.004315196785344546,-3.14,-3.139236012515073
130,0.5155656368017172,0.1081943419880249,0.5038363853336206,5.200413681772969,1.3664878679992953,1.8591076824635722,4.932490472528595,1.0,-0.002516035033471548,0.913227831132272,-1.3709175845813715,0.004341626457775949,-3.14,-3.139221754737068
131,0.5155664007329258,0.1081946908527554,0.5038370898244238,5.200414694862262,1.366487536292904,1.8591075629321046,4.9324857858964135,1.0,-0.00253156740287909,0.9132283234254682,-1.3709174019547965,0.004368062998981455,-3.14,-3.1392074932936986
132,0.5155671650421962,0.10819503990975088,0.5038377946594955,5.200415708215954,1.3664872044067222,1.859107443347753,4.932481098026808,1.0,-0.0025471038484086747,0.9132288158675865,-1.3709172193219508,0.00439450641087758,-3.14,-3.139193228183968
133,0.5155679297297227,0.10819538915911747,0.5038384998390139,5.2004167218341255,1.3664868723406505,1.8591073237104925,4.932476408919425,1.0,-0.0025626443712238184,0.9132293084586788,-1.3709170366828538,0.004420956695381397,-3.14,-3.1391789594068777
134,0.5155686947957008,0.1081957386009612,0.5038392053631526,5.2004177357168455,1.3664865400945905,1.8591072040202965,4.932471718573907,1.0,-0.0025781889724885132,0.9132298011987974,-1.370916854037526,0.004447413854410676,-3.14,-3.1391646869614305
135,0.5155694602403245,0.10819608823538898,0.5038399112320867,5.200418749864191,1.366486207668443,1.8591070842771384,4.932467026989899,1.0,-0.0025937376533671473,0.913230294087995,-1.3709166713859886,0.004473877889883803,-3.14,-3.1391504108466277
136,0.515570226063789,0.10819643806250806,0.5038406174459942,5.200419764276238,1.3664858750621083,1.8591069644809919,4.932462334167048,1.0,-0.002609290415024496,0.9132307871263239,-1.3709164887282614,0.004500348803719802,-3.14,-3.139136131061471
137,0.5155709922662898,0.1081967880824252,0.5038413240050494,5.200420778953061,1.3664855422754867,1.8591068446318313,4.932457640104997,1.0,-0.002624847258625718,0.9132312803138364,-1.370916306064365,0.0045268265978382705,-3.14,-3.1391218476049616
138,0.5155717588480219,0.10819713829524713,0.5038420309094271,5.200421793894739,1.3664852093084794,1.8591067247296296,4.932452944803391,1.0,-0.0026404081853364206,0.9132317736505852,-1.3709161233943201,0.004553311274159524,-3.14,-3.1391075604761003
139,0.5155725258091804,0.1081974887010808,0.5038427381593068,5.20042280910134,1.366484876160987,1.8591066047743605,4.932448248261873,1.0,-0.002655973196322547,0.9132322671366224,-1.3709159407181466,0.004579802834604396,-3.14,-3.139093269673887
140,0.515573293149961,0.10819783930003364,0.5038434457548618,5.2004238245729475,1.3664845428329093,1.8591064847659977,4.932443550480089,1.0,-0.0026715422927505415,0.9132327607720008,-1.3709157580358655,0.004606301281094512,-3.14,-3.139078975197323
141,0.515574060870559,0.10819819009221215,0.5038441536962694,5.200424840309632,1.3664842093241476,1.859106364704515,4.9324388514576825,1.0,-0.0026871154757871296,0.9132332545567728,-1.370915575347497,0.004632806615551954,-3.14,-3.139064677045407
142,0.51557482897117,0.10819854107772457,0.5038448619837044,5.20042585631147,1.366483875634601,1.8591062445898858,4.932434151194298,1.0,-0.0027026927465995327,0.9132337484909909,-1.3709153926530624,0.004659318839899555,-3.14,-3.1390503752171397
143,0.51557559745199,0.10819889225667695,0.503845570617346,5.200426872578538,1.366483541764171,1.859106124422084,4.932429449689578,1.0,-0.0027182741063552875,0.9132342425747079,-1.3709152099525814,0.004685837956060695,-3.14,-3.1390360697115196
144,0.5155763663132142,0.10819924362917728,0.5038462795973693,5.200427889110911,1.3664832077127576,1.859106004201082,4.932424746943167,1.0,-0.0027338595562223867,0.9132347368079764,-1.3709150272460753,0.004712363965959443,-3.14,-3.139021760527546
145,0.5155771355550396,0.10819959519533259,0.5038469889239507,5.200428905908663,1.3664828734802605,1.859105883926855,4.932420042954709,1.0,-0.002749449097369232,0.9132352311908487,-1.3709148445335637,0.004738896871520484,-3.14,-3.139007447664217
146,0.5155779051776614,0.10819994695525063,0.5038476985972665,5.200429922971872,1.3664825390665802,1.8591057635993755,4.932415337723846,1.0,-0.0027650427309645967,0.9132357257233777,-1.3709146618150683,0.004765436674669143,-3.14,-3.1389931311205315
147,0.5155786751812758,0.10820029890903814,0.5038484086174952,5.2004309403006115,1.3664822044716174,1.8591056432186173,4.932410631250224,1.0,-0.002780640458177723,0.9132362204056161,-1.3709144790906094,0.004791983377331431,-3.14,-3.138978810895487
148,0.5155794455660792,0.10820065105680371,0.5038491189848116,5.200431957894961,1.3664818696952707,1.8591055227845539,4.932405923533485,1.0,-0.0027962422801781944,0.9132367152376164,-1.3709142963602077,0.004818536981433942,-3.14,-3.1389644869880815
149,0.5155802163322679,0.10820100339865447,0.5038498296993941,5.200432975754995,1.366481534737441,1.8591054022971585,4.9324012145732725,1.0,-0.0028118481981360224,0.9132372102194315,-1.3709141136238838,0.004845097488903914,-3.14,-3.138950159397312
150,0.5155809874800386,0.10820135593469857,0.5038505407614194,5.200433993880786,1.3664811995980277,1.8591052817564044,4.932396504369228,1.0,-0.002827458213221625,0.9132377053511138,-1.3709139308816585,0.0048716649016692405,-3.14,-3.138935828122176
151,0.5155817590095875,0.10820170866504283,0.5038512521710647,5.20043501227241,1.366480864276931,1.8591051611622662,4.9323917929209955,1.0,-0.0028430723266057844,0.9132382006327162,-1.3709137481335523,0.004898239221658399,-3.14,-3.1389214931616705
152,0.5155825309211112,0.10820206158979556,0.503851963928508,5.2004360309299456,1.3664805287740507,1.8591050405147165,4.932387080228218,1.0,-0.0028586905394596828,0.9132386960642915,-1.3709135653795859,0.004924820450800493,-3.14,-3.1389071545147913
153,0.5155833032148073,0.10820241470906464,0.5038526760339253,5.200437049853467,1.3664801930892863,1.8591049198137288,4.932382366290538,1.0,-0.0028743128529549245,0.9132391916458924,-1.3709133826197801,0.004951408591025279,-3.14,-3.1388928121805346
154,0.5155840758908719,0.10820276802295789,0.5038533884874946,5.200438069043051,1.3664798572225374,1.8591047990592768,4.932377651107599,1.0,-0.002889939268263551,0.9132396873775718,-1.370913199854156,0.004978003644263206,-3.14,-3.1388784661578963
155,0.5155848489495021,0.1082031215315839,0.5038541012893941,5.200439088498774,1.3664795211737037,1.8591046782513327,4.932372934679042,1.0,-0.002905569786557984,0.9132401832593828,-1.3709130170827344,0.005004605612445313,-3.14,-3.138864116445872
156,0.5155856223908956,0.10820347523504942,0.503854814439801,5.200440108220711,1.366479184942685,1.8591045573898723,4.93236821700451,1.0,-0.002921204409011051,0.9132406792913778,-1.3709128343055355,0.005031214497503294,-3.14,-3.1388497630434564
157,0.5155863962152484,0.10820382913346395,0.5038555279388925,5.200441128208937,1.3664788485293804,1.8591044364748663,4.932363498083644,1.0,-0.0029368431367960035,0.9132411754736101,-1.3709126515225811,0.0050578303013694955,-3.14,-3.138835405949645
158,0.5155871704227591,0.10820418322693515,0.5038562417868473,5.2004421484635275,1.3664785119336893,1.8591043155062896,4.932358777916087,1.0,-0.002952485971086458,0.9132416718061324,-1.3709124687338914,0.0050844530259768666,-3.14,-3.1388210451634313
159,0.5155879450136238,0.10820453751557078,0.5038569559838428,5.20044316898456,1.3664781751555117,1.8591041944841151,4.932354056501481,1.0,-0.002968132913056516,0.9132421682889975,-1.3709122859394876,0.005111082673259088,-3.14,-3.1388066806838104
160,0.5155887199880418,0.10820489199948015,0.5038576705300577,5.200444189772108,1.3664778381947458,1.8591040734083164,4.9323493338394675,1.0,-0.0029837839638806114,0.9132426649222583,-1.3709121031393898,0.0051377192451503816,-3.14,-3.1387923125097763
161,0.515589495346209,0.10820524667877116,0.503858385425669,5.200445210826254,1.3664775010512913,1.8591039522788666,4.9323446099296895,1.0,-0.0029994391247335096,0.913243161705968,-1.37091192033362,0.005164362743585532,-3.14,-3.1387779406403222
162,0.5155902710883242,0.10820560155355176,0.5038591006708564,5.200446232147068,1.3664771637250481,1.8591038310957388,4.932339884771786,1.0,-0.0030150983967905027,0.9132436586401799,-1.3709117375221986,0.00519101317050008,-3.14,-3.1387635650744414
163,0.5155910472145849,0.10820595662393061,0.503859816265797,5.200447253734626,1.366476826215915,1.8591037098589067,4.932335158365401,1.0,-0.0030307617812272616,0.9132441557249464,-1.3709115547051467,0.0052176705278301925,-3.14,-3.1387491858111267
164,0.5155918237251889,0.10820631189001687,0.5038605322106703,5.200448275589008,1.3664764885237908,1.859103588568343,4.932330430710175,1.0,-0.003046429279219883,0.913244652960321,-1.3709113718824852,0.005244334817512715,-3.14,-3.138734802849371
165,0.5155926006203344,0.10820666735191946,0.503861248505653,5.200449297710287,1.3664761506485734,1.8591034672240216,4.932325701805749,1.0,-0.0030621008919448395,0.9132451503463563,-1.3709111890542351,0.005271006041485082,-3.14,-3.1387204161881663
166,0.5155933779002198,0.10820702300974572,0.5038619651509264,5.200450320098542,1.366475812590164,1.8591033458259154,4.932320971651763,1.0,-0.0030777766205789927,0.9132456478831062,-1.3709110062204177,0.005297684201685347,-3.14,-3.138706025826505
167,0.5155941555650426,0.10820737886360589,0.5038626821466671,5.200451342753843,1.3664754743484595,1.8591032243739973,4.932316240247859,1.0,-0.0030934564662996418,0.9132461455706231,-1.3709108233810539,0.005324369300052241,-3.14,-3.138691631763378
168,0.5155949336150024,0.10820773491360715,0.5038633994930541,5.2004523656762744,1.3664751359233607,1.859103102868241,4.9323115075936785,1.0,-0.0031091404302845214,0.9132466434089606,-1.3709106405361644,0.005351061338525176,-3.14,-3.138677233997778
169,0.5155957120502973,0.108208091159859,0.5038641171902676,5.200453388865907,1.3664747973147653,1.85910298130862,4.932306773688861,1.0,-0.0031248285137116596,0.9132471413981714,-1.3709104576857702,0.00537776031904406,-3.14,-3.138662832528695
170,0.5155964908711251,0.10820844760247178,0.5038648352384852,5.200454412322818,1.3664744585225712,1.859102859695106,4.932302038533048,1.0,-0.0031405207177595935,0.9132476395383089,-1.3709102748298931,0.005404466243549572,-3.14,-3.1386484273551196
171,0.5155972700776856,0.10820880424155234,0.5038655536378867,5.200455436047086,1.3664741195466787,1.859102738027674,4.932297302125879,1.0,-0.0031562170436073007,0.9132481378294263,-1.3709100919685533,0.005431179113983066,-3.14,-3.138634018476043
172,0.5155980496701768,0.10820916107721168,0.5038662723886519,5.200456460038784,1.3664737803869846,1.859102616306296,4.932292564466995,1.0,-0.003171917492434015,0.9132486362715766,-1.3709099091017725,0.005457898932286366,-3.14,-3.138619605890455
173,0.515598829648798,0.10820951810955777,0.5038669914909583,5.20045748429799,1.3664734410433887,1.8591024945309456,4.9322878255560365,1.0,-0.003187622065419473,0.9132491348648133,-1.3709097262295717,0.005484625700402047,-3.14,-3.138605189597345
174,0.5155996100137484,0.1082098753386998,0.5038677109449867,5.200458508824782,1.3664731015157896,1.8591023727015956,4.932283085392643,1.0,-0.0032033307637438606,0.9132496336091898,-1.3709095433519722,0.005511359420273361,-3.14,-3.1385907695957025
175,0.5156003907652265,0.10821023276474746,0.5038684307509159,5.200459533619233,1.366472761804085,1.8591022508182193,4.932278343976455,1.0,-0.0032190435885877744,0.9132501325047592,-1.3709093604689953,0.0055381000938442395,-3.14,-3.138576345884517
176,0.5156011719034319,0.10821059038781042,0.5038691509089261,5.200460558681421,1.3664724219081732,1.8591021288807896,4.932273601307111,1.0,-0.003234760541132097,0.9132506315515748,-1.370909177580662,0.005564847723059097,-3.14,-3.1385619184627775
177,0.5156019534285642,0.10821094820799718,0.5038698714191966,5.200461584011422,1.3664720818279534,1.8591020068892794,4.932268857384252,1.0,-0.0032504816225581586,0.9132511307496902,-1.370908994686994,0.005591602309863015,-3.14,-3.138547487329472
178,0.5156027353408228,0.10821130622541734,0.5038705922819067,5.200462609609316,1.3664717415633232,1.859101884843663,4.932264112207518,1.0,-0.0032662068340478054,0.9132516300991583,-1.3709088117880113,0.005618363856201876,-3.14,-3.138533052483589
179,0.5156035176404069,0.10821166444018121,0.5038713134972371,5.200463635475173,1.3664714011141805,1.8591017627439117,4.932259365776547,1.0,-0.0032819361767831485,0.9132521296000329,-1.3709086288837364,0.00564513236402202,-3.14,-3.138518613924116
180,0.5156043003275168,0.10821202285239799,0.5038720350653674,5.200464661609074,1.366471060480424,1.859101640589999,4.93225461809098,1.0,-0.003297669651946814,0.9132526292523673,-1.37090844597419,0.005671907835270559,-3.14,-3.1385041716500406
181,0.5156050834023514,0.10821238146217695,0.5038727569864785,5.200465688011095,1.3664707196619512,1.859101518381899,4.932249869150454,1.0,-0.0033134072607218386,0.9132531290562145,-1.3709082630593932,0.005698690271895255,-3.14,-3.1384897256603503
182,0.5156058668651115,0.10821274026962766,0.503873479260749,5.200466714681313,1.3664703786586612,1.8591013961195837,4.932245118954611,1.0,-0.0033291490042915975,0.9132536290116288,-1.370908080139368,0.005725479675844441,-3.14,-3.1384752759540318
183,0.5156066507159963,0.10821309927486095,0.5038742018883596,5.200467741619801,1.3664700374704504,1.8591012738030261,4.932240367503087,1.0,-0.003344894883839957,0.9132541291186633,-1.370907897214136,0.00575227604906718,-3.14,-3.138460822530072
184,0.5156074349552069,0.10821345847798598,0.5038749248694906,5.20046876882664,1.3664696960972178,1.859101151432199,4.932235614795522,1.0,-0.0033606449005510906,0.9132546293773713,-1.3709077142837176,0.005779079393513059,-3.14,-3.138446365387457
185,0.5156082195829423,0.10821381787911234,0.5038756482043236,5.200469796301904,1.366469354538861,1.8591010290070757,4.932230860831556,1.0,-0.0033763990556096375,0.9132551297878064,-1.3709075313481345,0.005805889711132363,-3.14,-3.1384319045251723
186,0.5156090045994036,0.10821417747835058,0.5038763718930385,5.200470824045673,1.3664690127952774,1.8591009065276296,4.932226105610826,1.0,-0.0033921573502006764,0.9132556303500222,-1.3709073484074081,0.0058327070038760795,-3.14,-3.138417439942204
187,0.515609790004791,0.10821453727581083,0.5038770959358149,5.20047185205802,1.3664686708663645,1.8591007839938332,4.932221349132971,1.0,-0.003407919785509673,0.9132561310640722,-1.37090716546156,0.005859531273695816,-3.14,-3.1384029716375377
188,0.5156105757993055,0.1082148972716033,0.5038778203328345,5.2004728803390226,1.3664683287520203,1.8591006614056584,4.932216591397629,1.0,-0.003423686362722429,0.9132566319300103,-1.370906982510612,0.0058863625225437245,-3.14,-3.1383884996101576
189,0.515611361983147,0.1082152574658368,0.5038785450842781,5.2004739088887595,1.366467986452143,1.8591005387630801,4.932211832404439,1.0,-0.003439457083025305,0.9132571329478898,-1.3709067995545845,0.005913200752372783,-3.14,-3.138374023859049
190,0.515612148556517,0.10821561785862276,0.5038792701903265,5.2004749377073045,1.3664676439666295,1.8591004160660696,4.932207072153039,1.0,-0.0034552319476049333,0.9132576341177645,-1.3709066165934998,0.005940045965136452,-3.14,-3.138359544383196
191,0.515612935519616,0.10821597845007182,0.5038799956511607,5.200475966794737,1.3664673012953767,1.8591002933146,4.932202310643067,1.0,-0.0034710109576484554,0.9132581354396881,-1.3709064336273795,0.0059668981627889525,-3.14,-3.138345061181583
192,0.515613722872645,0.10821633924029317,0.503880721466962,5.200476996151133,1.3664669584382834,1.8591001705086443,4.932197547874161,1.0,-0.0034867941143433448,0.9132586369137142,-1.3709062506562446,0.005993757347285058,-3.14,-3.1383305742531933
193,0.5156145106158053,0.10821670022939742,0.5038814476379113,5.200478025776568,1.3664666153952463,1.8591000476481758,4.932192783845957,1.0,-0.003502581418877535,0.9132591385398965,-1.3709060676801166,0.006020623520580271,-3.14,-3.1383160835970103
194,0.5156152987492979,0.108217061417496,0.5038821741641901,5.200479055671121,1.366466272166162,1.8590999247331668,4.932188018558094,1.0,-0.003518372872439377,0.9132596403182887,-1.3709058846990174,0.006047496684630706,-3.14,-3.138301589212017
195,0.515616087273324,0.10821742280469891,0.5038829010459795,5.200480085834867,1.3664659287509282,1.8590998017635902,4.932183252010209,1.0,-0.0035341684762176,0.9132601422489445,-1.3709057017129689,0.006074376841393128,-3.14,-3.1382870910971965
196,0.5156168761880852,0.10821778439111682,0.503883628283462,5.200481116267886,1.366465585149442,1.859099678739419,4.932178484201941,1.0,-0.0035499682314014173,0.9132606443319179,-1.370905518721992,0.006101263992825008,-3.14,-3.138272589251531
197,0.515617665493783,0.10821814617686035,0.5038843558768178,5.200482146970251,1.366465241361601,1.8590995556606251,4.932173715132926,1.0,-0.0035657721391803903,0.9132611465672626,-1.3709053357261087,0.006128158140884408,-3.14,-3.1382580836740024
198,0.5156184551906188,0.10821850816204052,0.5038850838262304,5.200483177942042,1.3664648973873015,1.859099432527182,4.9321689448028,1.0,-0.003581580200744485,0.9132616489550324,-1.3709051527253406,0.006155059287530034,-3.14,-3.138243574363593
199,0.5156192452787949,0.10821887034676786,0.5038858121318797,5.200484209183335,1.3664645532264406,1.8590993093390626,4.932164173211202,1.0,-0.0035973924172841088,0.913262151495281,-1.370904969719709,0.006181967434721258,-3.14,-3.138229061319284
200,0.5156200357585126,0.10821923273115244,0.5038865407939485,5.200485240694207,1.3664642088789163,1.8590991860962396,4.932159400357768,1.0,-0.003613208789990035,0.9132626541880629,-1.3709047867092363,0.006208882584418047,-3.14,-3.138214544540056
201,0.5156208266299745,0.10821959531530694,0.503887269812618,5.200486272474736,1.366463864344624,1.8590990627986845,4.932154626242134,1.0,-0.0036290293200535134,0.9132631570334312,-1.3709046036939436,0.006235804738581108,-3.14,-3.138200024024891
202,0.5156216178933819,0.1082199580993411,0.5038879991880727,5.200487304524997,1.3664635196234611,1.859098939446372,4.932149850863937,1.0,-0.0036448540086662187,0.9132636600314399,-1.3709044206738523,0.0062627338991717955,-3.14,-3.1381854997727685
203,0.5156224095489375,0.10822032108336664,0.5038887289204914,5.200488336845068,1.3664631747153242,1.8590988160392732,4.932145074222815,1.0,-0.003660682857020143,0.9132641631821435,-1.3709042376489855,0.0062896700681520186,-3.14,-3.138170971782669
204,0.5156232015968432,0.10822068426749394,0.5038894590100589,5.200489369435029,1.3664628296201107,1.8590986925773612,4.932140296318402,1.0,-0.0036765158663077837,0.9132646664855959,-1.3709040546193638,0.0063166132474844275,-3.14,-3.1381564400535726
205,0.515623994037302,0.10822104765183524,0.5038901894569563,5.200490402294953,1.366462484337716,1.8590985690606086,4.932135517150336,1.0,-0.0036923530377220124,0.9132651699418505,-1.3709038715850093,0.006343563439132296,-3.14,-3.1381419045844585
206,0.5156247868705158,0.10822141123650059,0.5038909202613672,5.200491435424919,1.3664621388680378,1.8590984454889885,4.932130736718252,1.0,-0.00370819437245613,0.9132656735509618,-1.3709036885459436,0.006370520645059555,-3.14,-3.1381273653743063
207,0.5156255800966878,0.10822177502160266,0.503891651423473,5.2004924688250025,1.3664617932109715,1.8590983218624728,4.932125955021786,1.0,-0.0037240398717037987,0.9132661773129838,-1.370903505502189,0.006397484867230724,-3.14,-3.1381128224220944
208,0.5156263737160199,0.10822213900725235,0.503892382943457,5.200493502495286,1.366461447366414,1.8590981981810342,4.932121172060575,1.0,-0.0037398895366591565,0.9132666812279704,-1.3709033224537672,0.006424456107611059,-3.14,-3.1380982757268017
209,0.5156271677287158,0.10822250319356039,0.5038931148215013,5.200494536435841,1.3664611013342622,1.859098074444646,4.932116387834254,1.0,-0.0037557433685167685,0.9132671852959758,-1.3709031394006999,0.006451434368166463,-3.14,-3.138083725287406
210,0.515627962134978,0.1082228675806393,0.5038938470577893,5.20049557064675,1.3664607551144117,1.8590979506532799,4.932111602342459,1.0,-0.0037716013684716038,0.913267689517054,-1.3709029563430088,0.006478419650863503,-3.14,-3.138069171102886
211,0.5156287569350096,0.10822323216860054,0.5038945796525046,5.200496605128085,1.3664604087067587,1.8590978268069087,4.932106815584825,1.0,-0.0037874635377190017,0.9132681938912592,-1.3709027732807162,0.006505411957669335,-3.14,-3.1380546131722182
212,0.5156295521290142,0.10822359695755532,0.50389531260583,5.200497639879926,1.3664600621112,1.859097702905505,4.932102027560987,1.0,-0.0038033298774547814,0.9132686984186458,-1.3709025902138436,0.006532411290551869,-3.14,-3.138040051494381
213,0.5156303477171948,0.1082239619476146,0.5038960459179478,5.200498674902352,1.366459715327632,1.8590975789490418,4.932097238270581,1.0,-0.003819200388875112,0.9132692030992673,-1.3709024071424127,0.006559417651479547,-3.14,-3.1380254860683507
214,0.5156311436997545,0.10822432713889228,0.5038967795890419,5.200499710195438,1.3664593683559494,1.8590974549374908,4.9320924477132415,1.0,-0.0038350750731765844,0.9132697079331785,-1.3709022240664466,0.006586431042421501,-3.14,-3.1380109168931045
215,0.5156319400768972,0.10822469253149875,0.5038975136192962,5.200500745759261,1.366459021196049,1.8590973308708252,4.932087655888604,1.0,-0.003850953931556184,0.9132702129204334,-1.3709020409859662,0.006613451465347472,-3.14,-3.137996343967618
216,0.5156327368488262,0.10822505812554627,0.5038982480088925,5.200501781593902,1.366458673847827,1.8590972067490166,4.932082862796304,1.0,-0.003866836965211401,0.9132707180610865,-1.370901857900994,0.0066404789222279685,-3.14,-3.1379817672908676
217,0.5156335340157457,0.10822542392114608,0.5038989827580164,5.2005028176994355,1.3664583263111796,1.8590970825720385,4.932078068435976,1.0,-0.0038827241753401393,0.9132712233551917,-1.3709016748115517,0.006667513415034162,-3.14,-3.137967186861829
218,0.515634331577859,0.1082257899184119,0.5038997178668494,5.200503854075941,1.3664579785860012,1.8590969583398624,4.932073272807253,1.0,-0.0038986155631406364,0.9132717288028036,-1.3709014917176618,0.006694554945737787,-3.14,-3.1379526026794773
219,0.5156351295353702,0.10822615611745456,0.5039004533355768,5.200504890723493,1.3664576306721887,1.8590968340524612,4.93206847590977,1.0,-0.003914511129811548,0.9132722344039763,-1.3709013086193462,0.0067216035163112095,-3.14,-3.1379380147427876
220,0.5156359278884834,0.10822652251838707,0.5039011891643821,5.200505927642172,1.366457282569637,1.8590967097098072,4.932063677743162,1.0,-0.003930410876552031,0.9132727401587641,-1.3709011255166268,0.00674865912872757,-3.14,-3.1379234230507347
221,0.5156367266374028,0.10822688912132056,0.5039019253534496,5.200506964832053,1.366456934278243,1.8590965853118728,4.932058878307063,1.0,-0.003946314804561572,0.9132732460672216,-1.3709009424095258,0.00677572178496056,-3.14,-3.137908827602293
222,0.5156375257823327,0.1082272559263685,0.5039026619029623,5.200508002293217,1.366456585797901,1.8590964608586307,4.932054077601108,1.0,-0.003962222915040143,0.9132737521294029,-1.370900759298065,0.006802791486984592,-3.14,-3.137894228396436
223,0.5156383253234778,0.10822762293364258,0.5039033988131053,5.200509040025741,1.3664562371285072,1.8590963363500528,4.932049275624929,1.0,-0.003978135209188077,0.9132742583453627,-1.3709005761822672,0.006829868236774693,-3.14,-3.1378796254321384
224,0.515639125261042,0.10822799014325521,0.5039041360840633,5.2005100780297,1.3664558882699571,1.8590962117861116,4.932044472378161,1.0,-0.003994051688206157,0.9132747647151555,-1.370900393062154,0.006856952036306563,-3.14,-3.1378650187083728
225,0.5156399255952301,0.10822835755531933,0.5039048737160193,5.200511116305175,1.3664555392221458,1.8590960871667794,4.932039667860439,1.0,-0.004009972353295606,0.9132752712388353,-1.3709002099377476,0.0068840428875565915,-3.14,-3.1378504082241125
226,0.5156407263262475,0.10822872516994754,0.5039056117091584,5.20051215485224,1.3664551899849684,1.8590959624920287,4.932034862071394,1.0,-0.004025897205657983,0.913275777916457,-1.3709000268090705,0.006911140792501759,-3.14,-3.13783579397833
227,0.5156415274542979,0.10822909298725122,0.5039063500636657,5.200513193670977,1.3664548405583214,1.859095837761832,4.932030055010661,1.0,-0.0040418262464954,0.9132762847480751,-1.3708998436761446,0.006938245753119819,-3.14,-3.1378211759699983
228,0.515642328979587,0.10822946100734593,0.5039070887797246,5.200514232761461,1.3664544909420977,1.8590957129761605,4.932025246677873,1.0,-0.004057759477010256,0.9132767917337439,-1.370899660538993,0.006965357771389054,-3.14,-3.137806554198089
229,0.5156431309023197,0.10822982923034136,0.5039078278575204,5.200515272123769,1.3664541411361948,1.859095588134988,4.932020437072663,1.0,-0.0040736968984054255,0.9132772988735182,-1.3708994773976368,0.006992476849288465,-3.14,-3.137791928661574
230,0.5156439332227009,0.10823019765635257,0.5039085672972384,5.2005163117579825,1.3664537911405066,1.8590954632382846,4.932015626194665,1.0,-0.0040896385118842455,0.9132778061674525,-1.3708992942520994,0.007019602988797769,-3.14,-3.1377772993594246
231,0.5156447359409361,0.1082305662854909,0.5039093070990635,5.200517351664178,1.3664534409549285,1.859095338286025,4.932010814043512,1.0,-0.004105584318650382,0.913278313615601,-1.3708991111024018,0.007046736191897224,-3.14,-3.137762666290612
232,0.515645539057231,0.10823093511786983,0.5039100472631792,5.200518391842434,1.3664530905793553,1.8590952132781806,4.932006000618836,1.0,-0.0041215343199080086,0.9132788212180186,-1.3708989279485668,0.0070738764605678735,-3.14,-3.1377480294541074
233,0.5156463425717903,0.10823130415360348,0.5039107877897728,5.2005194322928245,1.3664527400136812,1.8590950882147228,4.932001185920269,1.0,-0.00413748851686158,0.9132793289747602,-1.3708987447906178,0.007101023796791234,-3.14,-3.1377333888488805
234,0.5156471464848208,0.1082316733928037,0.5039115286790288,5.200520473015434,1.3664523892578024,1.859094963095624,4.931996369947446,1.0,-0.004153446910716141,0.9132798368858804,-1.370898561628576,0.007128178202549689,-3.14,-3.137718744473902
235,0.5156479507965271,0.10823204283558371,0.503912269931132,5.200521514010334,1.366452038311613,1.8590948379208574,4.931991552699996,1.0,-0.004169409502677043,0.9132803449514336,-1.3708983784624638,0.007155339679826162,-3.14,-3.1377040963281417
236,0.515648755507116,0.10823241248205687,0.503913011546269,5.2005225552776055,1.366451687175008,1.8590947126903943,4.931986734177554,1.0,-0.00418537629395009,0.9132808531714747,-1.3708981952923036,0.007182508230604257,-3.14,-3.137689444410569
237,0.5156495606167923,0.10823278233233757,0.5039137535246243,5.200523596817327,1.3664513358478811,1.8590945874042066,4.931981914379751,1.0,-0.0042013472857414455,0.9132813615460583,-1.3708980121181187,0.007209683856868171,-3.14,-3.1376747887201533
238,0.5156503661257631,0.10823315238653826,0.5039144958663828,5.2005246386295765,1.3664509843301276,1.8590944620622671,4.93197709330622,1.0,-0.004217322479257798,0.9132818700752395,-1.370897828939931,0.007236866560602883,-3.14,-3.137660129255863
239,0.515651172034234,0.10823352264477179,0.503915238571732,5.200525680714433,1.3664506326216426,1.8590943366645478,4.931972270956593,1.0,-0.004233301875706234,0.9132823787590729,-1.3708976457577626,0.007264056343794017,-3.14,-3.137645466016666
240,0.5156519783424114,0.10823389310715309,0.5039159816408567,5.200526723071971,1.3664502807223193,1.8590942112110203,4.931967447330501,1.0,-0.0042492854762942725,0.9132828875976132,-1.3708974625716366,0.007291253208427884,-3.14,-3.137630799001532
241,0.5156527850505015,0.10823426377379469,0.503916725073943,5.200527765702273,1.366449928632053,1.8590940857016571,4.931962622427576,1.0,-0.004265273282229733,0.9132833965909155,-1.3708972793815755,0.007318457156491282,-3.14,-3.137616128209428
242,0.5156535921587114,0.10823463464481037,0.503917468871177,5.200528808605413,1.3664495763507383,1.85909396013643,4.931957796247449,1.0,-0.004281265294721024,0.9132839057390346,-1.3708970961876012,0.007345668189971906,-3.14,-3.1376014536393213
243,0.5156543996672475,0.10823500572031416,0.5039182130327455,5.200529851781476,1.3664492238782686,1.8590938345153114,4.931952968789753,1.0,-0.004297261514976889,0.913284415042025,-1.3708969129897364,0.007372886310857984,-3.14,-3.13758677529018
244,0.5156552075763167,0.1082353770004198,0.5039189575588345,5.200530895230533,1.3664488712145384,1.8590937088382733,4.931948140054118,1.0,-0.004313261944206421,0.9132849244999418,-1.3708967297880037,0.007400111521138333,-3.14,-3.1375720931609696
245,0.5156560158861251,0.10823574848524045,0.5039197024496297,5.200531938952664,1.3664485183594424,1.859093583105288,4.931943310040174,1.0,-0.004329266583619303,0.9132854341128404,-1.370896546582426,0.007427343822802636,-3.14,-3.137557407250658
246,0.5156568245968803,0.10823612017489129,0.5039204477053167,5.2005329829479505,1.3664481653128737,1.8590934573163265,4.931938478747556,1.0,-0.0043452754344255155,0.913285943880775,-1.370896363373026,0.007454583217841085,-3.14,-3.1375427175582105
247,0.5156576337087897,0.10823649206948512,0.5039211933260845,5.200534027216469,1.3664478120747274,1.8590933314713616,4.931933646175891,1.0,-0.004361288497835486,0.9132864538038012,-1.3708961801598258,0.007481829708244563,-3.14,-3.1375280240825933
248,0.5156584432220591,0.10823686416913687,0.5039219393121175,5.200535071758297,1.366447458644897,1.8590932055703644,4.931928812324811,1.0,-0.004377305775060081,0.9132869638819741,-1.370895996942849,0.00750908329600466,-3.14,-3.137513326822772
249,0.5156592531368975,0.10823723647396011,0.503922685663604,5.200536116573511,1.366447105023276,1.859093079613308,4.9319239771939465,1.0,-0.004393327267310595,0.913287474115348,-1.3708958137221168,0.007536343983113588,-3.14,-3.137498625777712
250,0.5156600634535111,0.10823760898406877,0.5039234323807296,5.200537161662195,1.366446751209759,1.8590929536001646,4.93191914078293,1.0,-0.0044093529757987,0.9132879845039784,-1.3708956304976527,0.007563611771564215,-3.14,-3.1374839209463783
251,0.5156608741721078,0.10823798169957806,0.5039241794636824,5.200538207024424,1.366446397204239,1.8590928275309042,4.93191430309139,1.0,-0.004425382901736527,0.9132884950479205,-1.37089544726948,0.0075908866633500926,-3.14,-3.1374692123277352
252,0.5156616852928956,0.10823835462060218,0.5039249269126471,5.2005392526602785,1.36644604300661,1.8590927014054996,4.931909464118957,1.0,-0.0044414170463365635,0.9132890057472292,-1.3708952640376209,0.007618168660465378,-3.14,-3.137454499920747
253,0.5156624968160818,0.1082387277472539,0.503925674727815,5.200540298569831,1.3664456886167664,1.8590925752239245,4.93190462386526,1.0,-0.004457455410811835,0.9132895166019593,-1.3708950808020972,0.007645457764904991,-3.14,-3.1374397837243775
254,0.5156633087418742,0.10823910107964947,0.5039264229093697,5.20054134475317,1.366445334034601,1.859092448986148,4.931899782329933,1.0,-0.004473497996375729,0.9132900276121667,-1.3708948975629334,0.007672753978664492,-3.14,-3.1374250637375902
255,0.5156641210704805,0.10823947461790318,0.5039271714574994,5.200542391210365,1.366444979260007,1.8590923226921432,4.931894939512602,1.0,-0.004489544804242108,0.913290538777906,-1.3708947143201513,0.007700057303740139,-3.14,-3.1374103399593487
256,0.5156649338021101,0.10823984836212887,0.5039279203723929,5.2005434379415005,1.3664446242928787,1.8590921963418823,4.931890095412898,1.0,-0.004505595835625184,0.9132910500992324,-1.3708945310737737,0.007727367742128792,-3.14,-3.1373956123886155
257,0.51566574693697,0.1082402223124412,0.5039286696542358,5.2005444849466524,1.3664442691331093,1.859092069935337,4.931885250030451,1.0,-0.004521651091739681,0.9132915615762015,-1.3708943478238236,0.0077546852958280624,-3.14,-3.1373808810243538
258,0.5156665604752685,0.10824059646895584,0.5039294193032176,5.200545532225898,1.3664439137805917,1.8590919434724784,4.9318804033648895,1.0,-0.004537710573800624,0.9132920732088683,-1.370894164570324,0.007782009966836101,-3.14,-3.137366145865525
259,0.5156673744172147,0.10824097083178734,0.5039301693195241,5.200546579779318,1.366443558235219,1.8590918169532789,4.931875555415844,1.0,-0.0045537742830235985,0.9132925849972883,-1.370893981313298,0.007809341757151879,-3.14,-3.137351406911092
260,0.5156681887630169,0.10824134540104911,0.5039309197033454,5.200547627606993,1.3664432024968862,1.85909169037771,4.931870706182944,1.0,-0.004569842220624494,0.9132930969415166,-1.370893798052768,0.007836680668774867,-3.14,-3.137336664160016
261,0.5156690035128837,0.10824172017685756,0.5039316704548675,5.200548675708998,1.3664428465654845,1.859091563745744,4.9318658556658175,1.0,-0.0045859143878196704,0.9132936090416082,-1.3708936147887565,0.00786402670370529,-3.14,-3.1373219176112586
262,0.5156698186670238,0.10824209515932712,0.5039324215742793,5.200549724085415,1.366442490440908,1.859091437057352,4.931861003864094,1.0,-0.004601990785825926,0.9132941212976188,-1.370893431521287,0.007891379863944042,-3.14,-3.13730716726378
263,0.5156706342256463,0.1082424703485736,0.5039331730617688,5.20055077273632,1.3664421341230488,1.8590913103125057,4.931856150777403,1.0,-0.004618071415860505,0.9132946337096037,-1.3708932482503828,0.007918740151492723,-3.14,-3.1372924131165414
264,0.51567145018896,0.10824284574471099,0.5039339249175242,5.200551821661793,1.3664417776118007,1.8590911835111779,4.931851296405371,1.0,-0.004634156279141049,0.9132951462776183,-1.3708930649760662,0.007946107568353547,-3.14,-3.137277655168503
265,0.5156722665571739,0.10824322134785502,0.5039346771417341,5.200552870861912,1.3664414209070566,1.8590910566533392,4.93184644074763,1.0,-0.0046502453768855825,0.913295659001718,-1.370892881698361,0.007973482116529363,-3.14,-3.1372628934186246
266,0.515673083330497,0.10824359715812146,0.503935429734586,5.200553920336757,1.3664410640087086,1.8590909297389613,4.931841583803806,1.0,-0.004666338710312679,0.9132961718819586,-1.37089269841729,0.008000863798023833,-3.14,-3.137248127865866
267,0.5156739005091392,0.10824397317562481,0.50393618269627,5.200554970086407,1.3664407069166504,1.859090802768016,4.931836725573528,1.0,-0.004682436280641254,0.9132966849183951,-1.370892515132876,0.008028252614841185,-3.14,-3.1372333585091865
268,0.51567471809331,0.10824434940048107,0.5039369360269734,5.200556020110941,1.366440349630774,1.8590906757404753,4.931831866056425,1.0,-0.0046985380890906,0.9132971981110829,-1.3708923318451418,0.00805564856898627,-3.14,-3.137218585347545
269,0.5156755360832186,0.10824472583280549,0.5039376897268875,5.200557070410439,1.3664399921509722,1.8590905486563105,4.931827005252124,1.0,-0.004714644136880538,0.9132977114600779,-1.3708921485541106,0.00808305166246472,-3.14,-3.1372038083799003
270,0.5156763544790752,0.10824510247271292,0.5039384437961976,5.200558120984978,1.3664396344771383,1.8590904215154938,4.931822143160254,1.0,-0.004730754425231206,0.9132982249654353,-1.3708919652598055,0.008110461897282704,-3.14,-3.137189027605211
271,0.5156771732810885,0.10824547932031957,0.5039391982350935,5.200559171834637,1.3664392766091644,1.859090294317996,4.931817279780442,1.0,-0.004746868955363234,0.9132987386272107,-1.3708917819622501,0.008137879275447133,-3.14,-3.137174243022434
272,0.5156779924894692,0.10824585637574201,0.5039399530437658,5.200560222959495,1.3664389185469419,1.8590901670637892,4.931812415112316,1.0,-0.004762987728497708,0.9132992524454596,-1.3708915986614671,0.008165303798965642,-3.14,-3.137159454630528
273,0.5156788121044278,0.10824623363909444,0.5039407082224031,5.200561274359633,1.3664385602903644,1.8590900397528454,4.931807549155503,1.0,-0.004779110745856136,0.9132997664202379,-1.3708914153574796,0.008192735469846526,-3.14,-3.13714466242845
274,0.5156796321261734,0.1082466111104934,0.5039414637711941,5.200562326035127,1.3664382018393244,1.8590899123851345,4.931802681909631,1.0,-0.004795238008660365,0.9133002805516015,-1.3708912320503115,0.008220174290098633,-3.14,-3.137129866415157
275,0.5156804525549169,0.10824698879005476,0.5039422196903285,5.200563377986059,1.3664378431937132,1.85908978496063,4.931797813374328,1.0,-0.004811369518132809,0.9133007948396054,-1.3708910487399852,0.008247620261731658,-3.14,-3.1371150665896055
276,0.5156812733908683,0.10824736667789438,0.5039429759799967,5.2005644302125065,1.366437484353424,1.8590896574793019,4.931792943549221,1.0,-0.004827505275496145,0.9133013092843059,-1.3708908654265246,0.008275073386755781,-3.14,-3.137100262950752
277,0.5156820946342384,0.10824774477412828,0.5039437326403865,5.200565482714549,1.366437125318348,1.8590895299411228,4.931788072433936,1.0,-0.0048436452819735866,0.9133018238857579,-1.3708906821099525,0.008302533667181979,-3.14,-3.1370854554975525
278,0.5156829162852372,0.10824812307887277,0.5039444896716881,5.200566535492268,1.3664367660883778,1.8590894023460633,4.931783200028102,1.0,-0.004859789538788795,0.9133023386440176,-1.3708904987902921,0.00833000110502191,-3.14,-3.1370706442289626
279,0.5156837383440763,0.10824850159224343,0.5039452470740919,5.200567588545739,1.3664364066634054,1.8590892746940961,4.931778326331343,1.0,-0.004875938047165773,0.9133028535591405,-1.3708903154675667,0.008357475702287823,-3.14,-3.1370558291439377
280,0.5156845608109658,0.10824888031435756,0.5039460048477876,5.200568641875043,1.3664360470433223,1.859089146985191,4.931773451343287,1.0,-0.004892090808329025,0.913303368631183,-1.3708901321418,0.008384957460992711,-3.14,-3.1370410102414326
281,0.5156853836861173,0.10824925924532948,0.5039467629929648,5.200569695480261,1.366435687228022,1.8590890192193208,4.931768575063561,1.0,-0.004908247823503471,0.9133038838602003,-1.3708899488130153,0.00841244638315024,-3.14,-3.137026187520402
282,0.5156862069697408,0.1082496383852779,0.5039475215098135,5.20057074936147,1.3664353272173937,1.8590888913964563,4.9317636974917916,1.0,-0.004924409093914459,0.9133043992462485,-1.3708897654812358,0.008439942470774743,-3.14,-3.1370113609798005
283,0.5156870306620481,0.10825001773431774,0.5039482803985246,5.200571803518749,1.3664349670113312,1.859088763516569,4.931758818627604,1.0,-0.004940574620787722,0.9133049147893832,-1.3708895821464848,0.008467445725881165,-3.14,-3.136996530618582
284,0.5156878547632506,0.10825039729256546,0.503949039659288,5.200572857952179,1.3664346066097255,1.859088635579631,4.931753938470625,1.0,-0.0049567444053494735,0.9133054304896604,-1.3708893988087856,0.008494956150485199,-3.14,-3.1369816964357
285,0.5156886792735602,0.10825077706013864,0.5039497992922942,5.200573912661839,1.366434246012468,1.8590885075856123,4.931749057020481,1.0,-0.004972918448826335,0.9133059463471361,-1.370889215468162,0.008522473746603188,-3.14,-3.1369668584301076
286,0.5156895041931873,0.10825115703715277,0.5039505592977331,5.200574967647807,1.366433885219451,1.8590883795344855,4.931744174276797,1.0,-0.004989096752445377,0.9133064623618663,-1.3708890321246372,0.008549998516252176,-3.14,-3.1369520166007585
287,0.515690329522344,0.10825153722372617,0.5039513196757954,5.200576022910166,1.366433524230565,1.8590882514262204,4.9317392902392,1.0,-0.005005279317434041,0.9133069785339067,-1.3708888487782351,0.008577530461449791,-3.14,-3.136937170946605
288,0.5156911552612424,0.10825191761997288,0.5039520804266727,5.200577078448992,1.3664331630457032,1.8590881232607903,4.931734404907314,1.0,-0.005021466145020279,0.9133074948633134,-1.370888665428978,0.008605069584214439,-3.14,-3.1369223214665993
289,0.5156919814100938,0.10825229822601222,0.503952841550555,5.200578134264366,1.3664328016647547,1.8590879950381658,4.9317295182807666,1.0,-0.00503765723643242,0.9133080113501421,-1.3708884820768905,0.008632615886565161,-3.14,-3.1369074681596936
290,0.5156928079691104,0.10825267904196037,0.5039536030476336,5.200579190356366,1.366432440087612,1.8590878667583175,4.931724630359182,1.0,-0.005053852592899264,0.9133085279944492,-1.3708882987219957,0.008660169370521704,-3.14,-3.136892611024839
291,0.5156936349385043,0.10825306006793367,0.5039543649180992,5.200580246725076,1.3664320783141668,1.8590877384212172,4.931719741142185,1.0,-0.005070052215650063,0.9133090447962908,-1.3708881153643175,0.008687730038104524,-3.14,-3.1368777500609877
292,0.5156944623184879,0.10825344130405043,0.5039551271621432,5.20058130337057,1.3664317163443092,1.8590876100268356,4.931714850629401,1.0,-0.005086256105914451,0.9133095617557228,-1.3708879320038796,0.008715297891334697,-3.14,-3.1368628852670906
293,0.5156952901092731,0.10825382275042625,0.5039558897799563,5.20058236029293,1.366431354177931,1.8590874815751457,4.931709958820456,1.0,-0.005102464264922413,0.913310078872801,-1.3708877486407047,0.008742872932233862,-3.14,-3.136848016642098
294,0.5156961183110723,0.10825420440717946,0.5039566527717303,5.200583417492238,1.3664309918149231,1.8590873530661165,4.931705065714973,1.0,-0.005118676693904441,0.9133105961475818,-1.3708875652748171,0.008770455162824453,-3.14,-3.13683314418496
295,0.5156969469240986,0.10825458627442694,0.5039574161376555,5.2005844749685695,1.3664306292551762,1.8590872244997207,4.931700171312578,1.0,-0.005134893394091544,0.9133111135801213,-1.3708873819062404,0.00879804458512965,-3.14,-3.1368182678946273
296,0.5156977759485645,0.10825496835228567,0.5039581798779256,5.200585532722005,1.366430266498582,1.8590870958759291,4.931695275612895,1.0,-0.005151114366715079,0.9133116311704758,-1.370887198534998,0.008825641201173243,-3.14,-3.136803387770049
297,0.5156986053846825,0.10825535064087315,0.5039589439927306,5.2005865907526285,1.366429903545031,1.8590869671947128,4.93169037861555,1.0,-0.005167339613006838,0.9133121489187014,-1.3708870151611137,0.008853245012979695,-3.14,-3.1367885038101746
298,0.5156994352326656,0.10825573314030718,0.5039597084822626,5.200587649060515,1.3664295403944138,1.8590868384560426,4.931685480320166,1.0,-0.005183569134199044,0.9133126668248542,-1.370886831784611,0.00888085602257414,-3.14,-3.136773616013953
299,0.5157002654927273,0.10825611585070541,0.5039604733467137,5.200588707645747,1.3664291770466206,1.8590867096598906,4.931680580726367,1.0,-0.00519980293152439,0.9133131848889905,-1.370886648405514,0.008908474231982448,-3.14,-3.136758724380333
300,0.5157010961650796,0.10825649877218488,0.5039612385862748,5.200589766508402,1.3664288135015432,1.8590865808062271,4.931675679833777,1.0,-0.005216041006215961,0.9133137031111668,-1.3708864650238466,0.008936099643231112,-3.14,-3.136743828908263
301,0.5157019272499367,0.10825688190486384,0.5039620042011391,5.200590825648565,1.3664284497590715,1.8590864518950232,4.931670777642022,1.0,-0.005232283359507259,0.9133142214914391,-1.3708862816396323,0.008963732258347281,-3.14,-3.1367289295966905
302,0.5157027587475119,0.10825726524885941,0.5039627701914979,5.200591885066308,1.3664280858190965,1.8590863229262504,4.931665874150724,1.0,-0.005248529992632335,0.9133147400298639,-1.3708860982528948,0.008991372079358932,-3.14,-3.136714026444564
303,0.5157035906580183,0.10825764880428947,0.5039635365575449,5.200592944761719,1.3664277216815086,1.8590861938998797,4.931660969359506,1.0,-0.005264780906825487,0.9133152587264972,-1.3708859148636576,0.009019019108294498,-3.14,-3.13669911945083
304,0.5157044229816696,0.10825803257127287,0.50396430329947,5.200594004734869,1.3664273573461971,1.8590860648158822,4.931656063267994,1.0,-0.005281036103321622,0.9133157775813955,-1.370885731471945,0.009046673347183296,-3.14,-3.1366842086144358
305,0.5157052557186798,0.10825841654992617,0.5039650704174681,5.200595064985848,1.3664269928130544,1.8590859356742284,4.93165115587581,1.0,-0.005297295583355937,0.9133162965946157,-1.370885548077781,0.009074334798055163,-3.14,-3.136669293934328
306,0.5157060888692622,0.10825880074036838,0.5039658379117298,5.200596125514729,1.3664266280819686,1.8590858064748907,4.931646247182576,1.0,-0.0053135593481641935,0.9133168157662133,-1.370885364681189,0.009102003462940772,-3.14,-3.136654375409453
307,0.5157069224336316,0.10825918514271698,0.503966605782449,5.200597186321593,1.3664262631528312,1.8590856772178392,4.931641337187917,1.0,-0.005329827398982519,0.9133173350962452,-1.3708851812821927,0.009129679343871376,-3.14,-3.136639453038757
308,0.5157077564120004,0.10825956975708981,0.503967374029819,5.200598247406524,1.3664258980255328,1.859085547903045,4.931636425891456,1.0,-0.005346099737047409,0.9133178545847683,-1.370884997880817,0.009157362442878852,-3.14,-3.136624526821185
309,0.5157085908045849,0.10825995458360714,0.50396814265403,5.200599308769597,1.3664255326999617,1.859085418530478,4.931631513292814,1.0,-0.00536237636359589,0.9133183742318386,-1.3708848144770858,0.00918505276199587,-3.14,-3.136609596755683
310,0.5157094256115983,0.10826033962238467,0.5039689116552777,5.200600370410896,1.36642516717601,1.8590852891001106,4.931626599391616,1.0,-0.0053786572798654435,0.9133188940375127,-1.3708846310710214,0.009212750303255787,-3.14,-3.1365946628411954
311,0.5157102608332552,0.10826072487354181,0.5039696810337537,5.200601432330498,1.3664248014535663,1.859085159611914,4.931621684187483,1.0,-0.0053949424870939535,0.9133194140018468,-1.370884447662649,0.009240455068692657,-3.14,-3.1365797250766674
312,0.5157110964697695,0.10826111033719707,0.5039704507896517,5.200602494528486,1.366424435532521,1.8590850300658581,4.9316167676800395,1.0,-0.0054112319865196505,0.913319934124898,-1.370884264251993,0.00926816706034105,-3.14,-3.1365647834610426
313,0.5157119325213566,0.1082614960134689,0.5039712209231644,5.200603557004937,1.3664240694127638,1.8590849004619143,4.931611849868906,1.0,-0.005427525779381337,0.9133204544067224,-1.3708840808390765,0.009295886280236426,-3.14,-3.1365498379932655
314,0.5157127689882314,0.10826188190247658,0.5039719914344877,5.200604619759935,1.366423703094184,1.859084770800053,4.931606930753706,1.0,-0.005443823866918184,0.913320974847377,-1.3708838974239241,0.009323612730414816,-3.14,-3.1365348886722795
315,0.5157136058706078,0.1082622680043371,0.5039727623238113,5.200605682793558,1.3664233365766725,1.859084641080246,4.9316020103340605,1.0,-0.005460126250369789,0.9133214954469183,-1.37088371400656,0.00935134641291295,-3.14,-3.1365199354970277
316,0.5157144431687012,0.108262654319171,0.5039735335913306,5.200606746105886,1.3664229698601174,1.8590845113024632,4.931597088609592,1.0,-0.005476432930976248,0.9133220162054027,-1.3708835305870077,0.009379087329768322,-3.14,-3.136504978466453
317,0.5157152808827273,0.10826304084709566,0.5039743052372387,5.200607809697001,1.366422602944409,1.8590843814666769,4.931592165579922,1.0,-0.005492743909978071,0.9133225371228871,-1.3708833471652917,0.009406835483019045,-3.14,-3.136490017579499
318,0.515716119012901,0.10826342758823082,0.5039750772617306,5.200608873566983,1.366422235829437,1.8590842515728565,4.931587241244674,1.0,-0.005509059188616063,0.9133230581994286,-1.3708831637414363,0.009434590874703807,-3.14,-3.136475052835107
319,0.5157169575594375,0.10826381454269474,0.5039758496649996,5.200609937715911,1.3664218685150913,1.8590841216209724,4.9315823156034675,1.0,-0.005525378768131656,0.9133235794350838,-1.3708829803154658,0.00946235350686214,-3.14,-3.1364600842322186
320,0.5157177965225528,0.10826420171060692,0.5039766224472395,5.200611002143866,1.36642150100126,1.8590839916109971,4.931577388655924,1.0,-0.005541702649766709,0.9133241008299088,-1.3708827968874033,0.0094901233815343,-3.14,-3.1364451117697763
321,0.5157186359024616,0.10826458909208572,0.5039773956086445,5.200612066850929,1.3664211332878335,1.8590838615429006,4.931572460401666,1.0,-0.005558030834763393,0.9133246223839607,-1.3708826134572736,0.009517900500761064,-3.14,-3.136430135446721
322,0.5157194756993803,0.10826497668725085,0.5039781691494091,5.20061313183718,1.3664207653747005,1.859083731416654,4.931567530840314,1.0,-0.005574363324364406,0.9133251440972965,-1.3708824300251012,0.009545684866584008,-3.14,-3.1364151552619934
323,0.5157203159135241,0.10826536449622183,0.5039789430697269,5.2006141971027,1.3664203972617501,1.859083601232227,4.93156259997149,1.0,-0.005590700119812805,0.9133256659699729,-1.3708822465909103,0.0095734764810453,-3.14,-3.1364001712145346
324,0.5157211565451097,0.10826575251911733,0.5039797173697927,5.200615262647569,1.3664200289488715,1.8590834709895916,4.931557667794814,1.0,-0.005607041222352146,0.9133261880020467,-1.3708820631547247,0.009601275346187847,-3.14,-3.1363851833032843
325,0.5157219975943526,0.10826614075605707,0.5039804920498013,5.200616328471868,1.3664196604359538,1.8590833406887177,4.931552734309907,1.0,-0.005623386633226462,0.913326710193575,-1.3708818797165692,0.009629081464055313,-3.14,-3.1363701915271824
326,0.515722839061469,0.10826652920715966,0.503981267109947,5.200617394575677,1.3664192917228866,1.8590832103295765,4.931547799516389,1.0,-0.0056397363536802095,0.9133272325446147,-1.3708816962764678,0.009656894836692027,-3.14,-3.136355195885169
327,0.5157236809466754,0.10826691787254579,0.5039820425504257,5.200618460959077,1.3664189228095576,1.8590830799121383,4.931542863413881,1.0,-0.00565609038495819,0.9133277550552223,-1.370881512834445,0.009684715466142904,-3.14,-3.136340196376183
328,0.5157245232501886,0.10826730675233431,0.50398281837143,5.200619527622147,1.3664185536958564,1.8590829494363739,4.931537926002004,1.0,-0.005672448728305691,0.9133282777254552,-1.3708813293905249,0.009712543354453583,-3.14,-3.136325192999163
329,0.5157253659722242,0.10826769584664495,0.5039835945731566,5.200620594564971,1.3664181843816716,1.8590828189022541,4.931532987280377,1.0,-0.005688811384968496,0.91332880055537,-1.3708811459447319,0.009740378503670474,-3.14,-3.136310185753048
330,0.515726209112999,0.10826808515559803,0.5039843711558003,5.200621661787629,1.3664178148668915,1.859082688309749,4.931528047248622,1.0,-0.005705178356192799,0.9133293235450242,-1.370880962497091,0.009768220915840642,-3.14,-3.1362951746367758
331,0.5157270526727307,0.1082684746793117,0.5039851481195549,5.200622729290197,1.366417445151406,1.8590825576588306,4.931523105906357,1.0,-0.005721549643225236,0.9133298466944744,-1.3708807790476256,0.009796070593011845,-3.14,-3.1362801596492846
332,0.5157278966516348,0.10826886441790692,0.5039859254646175,5.2006237970727645,1.3664170752351028,1.8590824269494681,4.931518163253204,1.0,-0.005737925247312803,0.9133303700037779,-1.3708805955963612,0.009823927537232435,-3.14,-3.136265140789512
333,0.5157287410499296,0.108269254371504,0.5039867031911821,5.200624865135405,1.36641670511787,1.8590822961816327,4.931513219288781,1.0,-0.005754305169703017,0.9133308934729917,-1.3708804121433216,0.009851791750551541,-3.14,-3.1362501180563944
334,0.5157295858678315,0.10826964454022274,0.5039874812994452,5.200625933478201,1.3664163347995963,1.8590821653552942,4.931508274012708,1.0,-0.005770689411643893,0.9133314171021729,-1.3708802286885318,0.00987966323501906,-3.14,-3.1362350914488695
335,0.5157304311055578,0.10827003492418194,0.5039882597896015,5.200627002101234,1.366415964280171,1.8590820344704249,4.931503327424604,1.0,-0.005787077974383767,0.9133319408913785,-1.3708800452320153,0.009907541992685445,-3.14,-3.1362200609658735
336,0.5157312767633259,0.10827042552350351,0.5039890386618472,5.200628071004584,1.366415593559481,1.8590819035269934,4.931498379524089,1.0,-0.005803470859171447,0.9133324648406659,-1.3708798617737978,0.009935428025601876,-3.14,-3.136205026606343
337,0.5157321228413535,0.10827081633830583,0.5039898179163788,5.200629140188331,1.3664152226374167,1.8590817725249709,4.931493430310782,1.0,-0.00581986806725615,0.9133329889500924,-1.370879678313903,0.009963321335820164,-3.14,-3.136189988369213
338,0.5157329693398579,0.10827120736871049,0.5039905975533905,5.2006302096525605,1.3664148515138639,1.8590816414643287,4.931488479784304,1.0,-0.005836269599887587,0.9133335132197148,-1.370879494852356,0.00999122192539289,-3.14,-3.136174946253419
339,0.5157338162590568,0.10827159861483779,0.5039913775730793,5.200631279397352,1.3664144801887113,1.8590815103450369,4.9314835279442715,1.0,-0.005852675458316012,0.9133340376495902,-1.3708793113891808,0.01001912979637345,-3.14,-3.1361599002578973
340,0.5157346635991683,0.10827199007680784,0.5039921579756409,5.200632349422783,1.3664141086618475,1.859081379167065,4.931478574790304,1.0,-0.005869085643791909,0.9133345622397764,-1.370879127924403,0.010047044950815686,-3.14,-3.1361448503815814
341,0.5157355113604101,0.10827238175474042,0.5039929387612727,5.200633419728937,1.3664137369331613,1.8590812479303842,4.931473620322019,1.0,-0.005885500157566365,0.9133350869903305,-1.3708789444580463,0.010074967390774313,-3.14,-3.1361297966234063
342,0.5157363595430001,0.10827277364875755,0.5039937199301685,5.200634490315895,1.3664133650025383,1.8590811166349654,4.931468664539037,1.0,-0.005901919000890855,0.9133356119013094,-1.3708787609901358,0.010102897118304689,-3.14,-3.1361147389823065
343,0.5157372081471565,0.10827316575897909,0.5039945014825272,5.200635561183733,1.366412992869868,1.859080985280778,4.931463707440974,1.0,-0.0059183421750171735,0.913336136972771,-1.3708785775206964,0.010130834135462717,-3.14,-3.136099677457215
344,0.5157380571730988,0.1082735580855252,0.5039952834185448,5.200636632332543,1.3664126205350384,1.859080853867793,4.931458749027452,1.0,-0.005934769681197797,0.9133366622047726,-1.3708783940497522,0.010158778444305272,-3.14,-3.136084612047066
345,0.5157389066210438,0.10827395062851689,0.503996065738417,5.200637703762397,1.3664122479979368,1.859080722395981,4.931453789298086,1.0,-0.005951201520685469,0.9133371875973713,-1.370878210577328,0.010186730046889692,-3.14,-3.136069542750792
346,0.5157397564912107,0.10827434338807562,0.5039968484423416,5.20063877547338,1.3664118752584504,1.859080590865312,4.9314488282524955,1.0,-0.005967637694733402,0.9133377131506245,-1.370878027103449,0.010214688945274083,-3.14,-3.136054469567326
347,0.5157406067838181,0.108274736364322,0.5039976315305144,5.200639847465571,1.366411502316467,1.8590804592757568,4.931443865890297,1.0,-0.0059840782045952725,0.9133382388645899,-1.3708778436281401,0.010242655141517232,-3.14,-3.1360393924956003
348,0.5157414574990851,0.10827512955737656,0.5039984150031335,5.200640919739055,1.366411129171875,1.8590803276272845,4.93143890221111,1.0,-0.006000523051525261,0.9133387647393248,-1.3708776601514254,0.010270628637678738,-3.14,-3.136024311534547
349,0.5157423086372304,0.10827552296736104,0.5039991988603947,5.200641992293909,1.3664107558245604,1.859080195919867,4.9314339372145515,1.0,-0.006016972236777921,0.9133392907748864,-1.3708774766733298,0.010298609435818777,-3.14,-3.136009226683098
350,0.5157431601984728,0.10827591659439632,0.5039999831024968,5.200643065130216,1.3664103822744114,1.8590800641534737,4.931428970900238,1.0,-0.006033425761608204,0.9133398169713326,-1.3708772931938786,0.010326597537998179,-3.14,-3.135994137940185
351,0.5157440121830316,0.10827631043860313,0.504000767729635,5.200644138248059,1.3664100085213153,1.8590799323280756,4.931424003267788,1.0,-0.006049883627271595,0.9133403433287207,-1.3708771097130963,0.010354592946278557,-3.14,-3.135979045304738
352,0.5157448645911263,0.10827670450010349,0.5040015527420084,5.200645211647515,1.3664096345651593,1.8590798004436417,4.931419034316817,1.0,-0.006066345835023987,0.9133408698471086,-1.370876926231008,0.010382595662722201,-3.14,-3.1359639487756885
353,0.5157457174229757,0.10827709877901802,0.5040023381398137,5.20064628532867,1.3664092604058307,1.8590796685001436,4.931414064046944,1.0,-0.006082812386121738,0.9133413965265536,-1.3708767427476387,0.010410605689392121,-3.14,-3.1359488483519664
354,0.5157465706787999,0.10827749327546847,0.5040031239232483,5.200647359291601,1.3664088860432164,1.859079536497551,4.931409092457785,1.0,-0.006099283281821669,0.9133419233671133,-1.3708765592630132,0.010438623028352054,-3.14,-3.135933744032502
355,0.5157474243588178,0.10827788798957658,0.5040039100925104,5.200648433536395,1.3664085114772035,1.8590794044358336,4.931404119548958,1.0,-0.0061157585233810275,0.9133424503688454,-1.3708763757771563,0.01046664768166639,-3.14,-3.135918635816225
356,0.5157482784632502,0.10827828292146326,0.5040046966477982,5.20064950806313,1.3664081367076795,1.8590792723149623,4.9313991453200785,1.0,-0.00613223811205737,0.9133429775318077,-1.3708761922900932,0.010494679651400073,-3.14,-3.1359035237020647
357,0.5157491329923163,0.10827867807125069,0.5040054835893084,5.200650582871887,1.3664077617345307,1.8590791401349067,4.931394169770763,1.0,-0.006148722049108934,0.9133435048560576,-1.3708760088018483,0.01052271893961901,-3.14,-3.13588840768895
358,0.5157499879462359,0.10827907343906014,0.5040062709172399,5.200651657962748,1.3664073865576438,1.8590790078956385,4.931389192900627,1.0,-0.006165210335794204,0.9133440323416526,-1.3708758253124471,0.01055076554838958,-3.14,-3.13587328777581
359,0.5157508433252291,0.10827946902501427,0.5040070586317902,5.200652733335796,1.366407011176906,1.8590788755971253,4.931384214709289,1.0,-0.0061817029733721805,0.9133445599886512,-1.3708756418219155,0.010578819479778937,-3.14,-3.135858163961572
360,0.5157516991295165,0.10827986482923375,0.504007846733158,5.20065380899111,1.366406635592204,1.8590787432393394,4.931379235196363,1.0,-0.006198199963102386,0.9133450877971104,-1.370875458330277,0.010606880735855024,-3.14,-3.135843036245165
361,0.5157525553593182,0.10828026085184153,0.5040086352215417,5.200654884928772,1.3664062598034237,1.8590786108222503,4.931374254361466,1.0,-0.006214701306244664,0.9133456157670884,-1.3708752748375574,0.01063494931868634,-3.14,-3.1358279046255157
362,0.515753412014855,0.10828065709295831,0.5040094240971392,5.2006559611488665,1.3664058838104536,1.8590784783458274,4.931369272204215,1.0,-0.006231207004059435,0.913346143898643,-1.3708750913437822,0.01066302523034225,-3.14,-3.1358127691015523
363,0.5157542690963467,0.10828105355270781,0.5040102133601497,5.2006570376514745,1.3664055076131778,1.8590783458100415,4.931364288724224,1.0,-0.006247717057807401,0.913346672191832,-1.3708749078489761,0.010691108472892607,-3.14,-3.1357976296722008
364,0.5157551266040153,0.10828145023121118,0.5040110030107717,5.200658114436676,1.3664051312114842,1.8590782132148622,4.931359303921109,1.0,-0.006264231468749884,0.9133472006467132,-1.370874724353164,0.010719199048408174,-3.14,-3.1357824863363883
365,0.5157559845380808,0.10828184712859004,0.5040117930492037,5.200659191504552,1.3664047546052593,1.8590780805602605,4.931354317794486,1.0,-0.006280750238148539,0.9133477292633443,-1.3708745408563712,0.01074729695896027,-3.14,-3.135767339093041
366,0.5157568428987638,0.10828224424496795,0.5040125834756444,5.200660268855187,1.3664043777943888,1.859077947846205,4.93134933034397,1.0,-0.006297273367265466,0.9133482580417835,-1.3708743573586233,0.01077540220662093,-3.14,-3.135752187941085
367,0.5157577016862861,0.10828264158046638,0.5040133742902937,5.200661346488659,1.366404000778759,1.8590778150726672,4.931344341569176,1.0,-0.006313800857363243,0.9133487869820885,-1.3708741738599448,0.010803514793462933,-3.14,-3.135737032879445
368,0.5157585609008686,0.10828303913520751,0.5040141654933494,5.2006624244050546,1.3664036235582568,1.8590776822396164,4.9313393514697195,1.0,-0.006330332709704976,0.9133493160843177,-1.3708739903603615,0.010831634721559817,-3.14,-3.1357218739070474
369,0.5157594205427322,0.10828343690931502,0.5040149570850121,5.200663502604452,1.3664032461327673,1.8590775493470222,4.931334360045215,1.0,-0.00634686892555406,0.9133498453485286,-1.370873806859899,0.010859761992985668,-3.14,-3.135706711022816
370,0.5157602806120987,0.10828383490291099,0.5040157490654796,5.200664581086935,1.3664028685021767,1.859077416394855,4.931329367295277,1.0,-0.006363409506174453,0.9133503747747794,-1.3708736233585819,0.010887896609815397,-3.14,-3.135691544225676
371,0.5157611411091895,0.10828423311611732,0.5040165414349524,5.200665659852583,1.3664024906663719,1.8590772833830846,4.93132437321952,1.0,-0.006379954452830497,0.9133509043631279,-1.3708734398564355,0.010916038574124537,-3.14,-3.135676373514551
372,0.5157620020342268,0.10828463154905747,0.5040173341936303,5.2006667389014805,1.3664021126252377,1.8590771503116814,4.93131937781756,1.0,-0.006396503766787081,0.9133514341136327,-1.3708732563534856,0.010944187887989468,-3.14,-3.135661198888365
373,0.5157628633874318,0.10828503020185376,0.5040181273417113,5.200667818233709,1.366401734378661,1.8590770171806146,4.93131438108901,1.0,-0.006413057449309437,0.9133519640263518,-1.3708730728497576,0.010972344553487116,-3.14,-3.135646020346042
374,0.5157637251690267,0.10828542907462971,0.5040189208793965,5.20066889784935,1.3664013559265265,1.8590768839898544,4.931309383033485,1.0,-0.006429615501663227,0.9133524941013428,-1.3708728893452764,0.011000508572695106,-3.14,-3.1356308378865045
375,0.5157645873792331,0.10828582816750726,0.5040197148068863,5.200669977748486,1.366400977268721,1.8590767507393708,4.931304383650598,1.0,-0.006446177925114674,0.9133530243386643,-1.3708727058400676,0.011028679947691895,-3.14,-3.1356156515086755
376,0.5157654500182736,0.1082862274806105,0.504020509124378,5.200671057931198,1.3664005984051286,1.859076617429134,4.931299382939964,1.0,-0.00646274472093039,0.9133535547383741,-1.3708725223341567,0.011056858680556558,-3.14,-3.1356004612114776
377,0.5157663130863704,0.10828662701406196,0.5040213038320744,5.200672138397568,1.3664002193356366,1.8590764840591123,4.931294380901197,1.0,-0.006479315890377368,0.9133540853005309,-1.3708723388275694,0.011085044773368812,-3.14,-3.1355852669938327
378,0.5157671765837456,0.10828702676798486,0.5040220989301739,5.200673219147681,1.3663998400601294,1.8590763506292771,4.931289377533911,1.0,-0.006495891434723161,0.9133546160251923,-1.370872155320331,0.011113238228209197,-3.14,-3.1355700688546624
379,0.515768040510622,0.10828742674250236,0.5040228944188776,5.200674300181616,1.3663994605784926,1.859076217139598,4.931284372837718,1.0,-0.006512471355235756,0.913355146912417,-1.3708719718124664,0.011141439047158933,-3.14,-3.135554866792888
380,0.5157689048672223,0.1082878269377376,0.5040236902983861,5.200675381499456,1.366399080890612,1.8590760835900446,4.931279366812232,1.0,-0.006529055653183581,0.913355677962263,-1.3708717883040018,0.011169647232299965,-3.14,-3.135539660807431
381,0.5157697696537691,0.1082882273538145,0.5040244865688991,5.200676463101283,1.366398700996372,1.8590759499805865,4.931274359457067,1.0,-0.00654564432983547,0.9133562091747888,-1.3708716047949625,0.011197862785714878,-3.14,-3.1355244508972118
382,0.5157706348704856,0.1082886279908557,0.504025283230618,5.200677544987181,1.3663983208956592,1.8590758163111936,4.931269350771835,1.0,-0.006562237386460762,0.9133567405500528,-1.370871421285374,0.01122608570948703,-3.14,-3.1355092370611506
383,0.5157715005175942,0.10828902884898514,0.5040260802837435,5.200678627157228,1.366397940588358,1.8590756825818353,4.931264340756149,1.0,-0.00657883482432925,0.9133572720881132,-1.370871237775262,0.011254316005700477,-3.14,-3.135494019298168
384,0.5157723665953186,0.10828942992832663,0.5040268777284767,5.20067970961151,1.3663975600743532,1.8590755487924817,4.931259329409624,1.0,-0.006595436644711067,0.9133578037890283,-1.370871054264652,0.011282553676439856,-3.14,-3.135478797607183
385,0.5157732331038817,0.1082898312290034,0.5040276755650162,5.200680792350109,1.3663971793535303,1.8590754149431026,4.931254316731871,1.0,-0.006612042848876936,0.9133583356528564,-1.37087087075357,0.011310798723790672,-3.14,-3.1354635719871156
386,0.5157741000435071,0.10829023275113912,0.5040284737935654,5.200681875373108,1.3663967984257743,1.8590752810336677,4.931249302722503,1.0,-0.0066286534380978895,0.9133588676796562,-1.370870687242041,0.011339051149838965,-3.14,-3.135448342436884
387,0.5157749674144179,0.10829063449485865,0.5040292724143242,5.200682958680586,1.3663964172909693,1.859075147064146,4.931244287381133,1.0,-0.006645268413645571,0.9133593998694861,-1.3708705037300914,0.011367310956671694,-3.14,-3.1354331089554073
388,0.5157758352168378,0.10829103646028508,0.5040300714274951,5.200684042272629,1.3663960359490006,1.8590750130345077,4.931239270707372,1.0,-0.0066618877767919814,0.9133599322224044,-1.3708703202177466,0.011395578146376376,-3.14,-3.1354178715416037
389,0.5157767034509912,0.10829143864754205,0.5040308708332786,5.2006851261493185,1.3663956543997533,1.8590748789447227,4.9312342527008335,1.0,-0.00667851152880958,0.9133604647384694,-1.370870136705032,0.011423852721041275,-3.14,-3.135402630194391
390,0.5157775721171011,0.10829184105675398,0.504031670631876,5.200686210310733,1.366395272643112,1.85907474479476,4.931229233361129,1.0,-0.006695139670971323,0.9133609974177402,-1.3708699531919737,0.011452134682755402,-3.14,-3.1353873849126868
391,0.5157784412153918,0.10829224368804502,0.5040324708234889,5.200687294756962,1.3663948906789607,1.8590746105845897,4.93122421268787,1.0,-0.0067117722045505574,0.913361530260275,-1.3708697696785974,0.011480424033608421,-3.14,-3.1353721356954085
392,0.5157793107460877,0.10829264654153906,0.5040332714083197,5.200688379488083,1.3663945085071847,1.859074476314181,4.931219190680669,1.0,-0.006728409130821085,0.9133620632661326,-1.370869586164929,0.011508720775690687,-3.14,-3.1353568825414726
393,0.5157801807094128,0.10829304961736037,0.5040340723865693,5.200689464504179,1.3663941261276682,1.859074341983504,4.931214167339137,1.0,-0.00674505045105725,0.9133625964353713,-1.3708694026509942,0.011537024911093386,-3.14,-3.135341625449796
394,0.5157810511055911,0.10829345291563411,0.5040348737584404,5.200690549805336,1.366393743540295,1.8590742075925275,4.931209142662887,1.0,-0.006761696166533773,0.91336312976805,-1.370869219136819,0.011565336441908318,-3.14,-3.135326364419295
395,0.5157819219348477,0.10829385643648375,0.5040356755241351,5.200691635391633,1.3663933607449505,1.8590740731412212,4.931204116651529,1.0,-0.0067783462785257894,0.9133636632642272,-1.370869035622429,0.011593655370227923,-3.14,-3.135311099448885
396,0.5157827931974072,0.10829426018003312,0.5040364776838541,5.200692721263152,1.366392977741519,1.8590739386295558,4.931199089304673,1.0,-0.00679500078830894,0.9133641969239616,-1.3708688521078496,0.01162198169814545,-3.14,-3.1352958305374816
397,0.5157836648934937,0.10829466414640833,0.5040372802378008,5.20069380741998,1.3663925945298836,1.8590738040574992,4.931194060621934,1.0,-0.0068116596971593175,0.9133647307473122,-1.3708686685931077,0.011650315427754831,-3.14,-3.1352805576839997
398,0.5157845370233326,0.10829506833573284,0.5040380831861776,5.200694893862195,1.3663922111099296,1.8590736694250216,4.931189030602919,1.0,-0.006828323006353561,0.9133652647343372,-1.370868485078229,0.011678656561150842,-3.14,-3.1352652808873547
399,0.5157854095871481,0.10829547274813274,0.5040388865291865,5.200695980589884,1.3663918274815394,1.8590735347320924,4.931183999247241,1.0,-0.006844990717168592,0.9133657988850954,-1.370868301563239,0.011707005100428757,-3.14,-3.1352500001464607
400,0.5157862825851662,0.10829587738373112,0.5040396902670297,5.200697067603126,1.366391443644599,1.859073399978681,4.931178966554511,1.0,-0.006861662830881855,0.913366333199646,-1.370868118048164,0.011735361047684632,-3.14,-3.1352347154602316
401,0.5157871560176117,0.10829628224265384,0.504040494399911,5.200698154902006,1.366391059598991,1.859073265164757,4.931173932524339,1.0,-0.0068783393487713285,0.9133668676780475,-1.37086793453303,0.011763724405015332,-3.14,-3.1352194268275815
402,0.5157880298847101,0.10829668732502563,0.5040412989280326,5.200699242486607,1.3663906753445996,1.8590731302902896,4.9311688971563346,1.0,-0.006895020272115312,0.9133674023203588,-1.3708677510178626,0.01179209517451828,-3.14,-3.1352041342474233
403,0.5157889041866861,0.10829709263097127,0.5040421038515972,5.2007003303570105,1.3663902908813088,1.8590729953552483,4.931163860450109,1.0,-0.006911705602192681,0.9133679371266389,-1.3708675675026887,0.011820473358291773,-3.14,-3.1351888377186703
404,0.5157897789237669,0.10829749816061635,0.5040429091708072,5.200701418513302,1.3663899062090017,1.8590728603596025,4.931158822405272,1.0,-0.00692839534028269,0.9133684720969464,-1.3708673839875336,0.011848858958434723,-3.14,-3.1351735372402354
405,0.5157906540961767,0.10829790391408477,0.5040437148858673,5.200702506955558,1.3663895213275636,1.859072725303321,4.931153783021433,1.0,-0.0069450894876650635,0.9133690072313406,-1.3708672004724236,0.011877251977046727,-3.14,-3.1351582328110306
406,0.5157915297041414,0.10829830989150246,0.5040445209969798,5.20070359568387,1.3663891362368765,1.8590725901863747,4.931148742298203,1.0,-0.006961788045619987,0.91336954252988,-1.3708670169573847,0.011905652416228171,-3.14,-3.135142924429968
407,0.5157924057478873,0.10829871609299593,0.5040453275043473,5.200704684698314,1.3663887509368233,1.8590724550087314,4.93114370023519,1.0,-0.006978491015428145,0.9133700779926238,-1.3708668334424439,0.011934060278080163,-3.14,-3.135127612095959
