jkpark150901/flame_robotics_drt/experiment/inspection_ik/session_20260716_101733/inspection_ik_dda_rb10_1300e_normalized_fallback_20260716_102251.csv
iteration,err_norm,position_error,orientation_error,tcp_x,tcp_y,tcp_z,q0_dda_joint_linear_track,q1_dda_joint_carriage,q2_dda_joint_base,q3_dda_joint_shoulder,q4_dda_joint_elbow,q5_dda_joint_wrist1,q6_dda_joint_wrist2,q7_dda_joint_wrist3
0,5.906110833762347,5.169396997093088,1.717780368105246,0.47255,3.7499999999986655,2.697,0.0,0.0,0.0,0.0,0.0,0.0,0.0,0.0
1,4.184930836578065,3.578125879157679,1.5673058777658455,2.239775731979099,3.6576220780172033,2.6965058100523076,1.7751585840758146,-0.014081108990557673,-0.11828485047344969,-0.053722317577491754,0.03134133683910619,0.11049760020718731,-0.09659202200504198,0.12676201527966072
2,4.053317520669987,2.9859903837850443,2.0710671196525694,2.395585049699536,2.816186544442534,1.2371480904073495,2.3103851027022086,-1.0,1.8000910199597444,3.14,-3.14,-3.14,-2.1711594604571687,3.14
3,4.148937013222552,3.4428451024378273,1.854600403692021,8.071888397391616,3.7464472762071304,1.2373509720091764,7.9,-0.04947120716270037,1.514878467571022,-3.14,3.14,3.14,-2.868000754659202,3.14
4,3.9685464745581465,3.3139924483926935,1.7270555328749266,8.100797384646604,3.4386797298124194,1.2373021281764152,7.9,-0.35126477778969284,1.5516925133586266,-3.14,3.14,3.14,-3.135100372636863,3.14
5,4.300538025515323,3.143311312431411,2.080694360964674,8.070712083003151,3.0976112477921256,1.2373012206486427,7.9,-0.6252116104155564,-2.378441025658921,-3.14,3.14,3.14,-3.14,3.14
6,3.060448428209678,2.4391179214881222,1.7177825582244737,5.564280428575901,4.272035978937935,1.2373012206486427,5.404231487392738,0.5214955925692296,-3.14,-3.14,3.14,3.14,-3.14,3.14
7,4.102969043652239,2.248063439324502,2.6952548535552294,5.655883672449719,4.102924155269674,1.5550961661507043,5.495869724712027,0.33041200039164453,-3.14,-0.14402859173329485,3.14,3.14,-3.14,3.14
8,4.568324205302421,3.0909933494099406,2.3581970429840635,6.414056758759036,4.710120477927207,1.2373012206486427,6.2167869771305755,1.0,-1.672871160134744,3.14,-3.14,3.14,-3.14,2.0841705818513208
9,3.9820938676767796,3.170210078519914,1.716650398406583,8.060049751352754,3.1909274744705836,1.2373001068479734,7.9,-0.5591042206708374,-3.14,3.14,3.14,3.14,-3.14,3.14
10,3.1698506933643436,2.349202147031352,1.7177825582244737,7.341261144717875,2.7505403863687055,1.2373012206486427,7.181212203534713,-1.0,-3.14,-3.14,3.14,3.14,-3.14,3.14
11,3.0316955772589624,2.249149614666978,1.7177825582244737,6.743045051113707,3.4738874184842645,1.2373012206486427,6.582996109930544,-0.27665296788444094,-3.14,-3.14,3.14,3.14,-3.14,3.14
12,3.1049398496843246,2.382472271631143,1.7177825582244737,6.405458433268067,3.9070724124942,1.2373012206486427,6.245409492084905,0.1565320261254945,-3.14,-3.14,3.14,3.14,-3.14,3.14
13,3.2123017054475542,2.5337745803683585,1.7177825582244737,6.218310420397523,4.178604460945636,1.2373012206486427,6.0582614792143605,0.42806407457693074,-3.14,-3.14,3.14,3.14,-3.14,3.14
14,3.3144322945895093,2.6645381631026743,1.7177825582244737,6.118781713550825,4.363148958357135,1.2373012206486427,5.958732772367663,0.6126085719884294,-3.14,-3.14,3.14,3.14,-3.14,3.14
15,3.411031980100758,2.7803906528344595,1.7177825582244737,6.071247980226718,4.504792729718222,1.2373012206486427,5.911199039043556,0.754252343349517,-3.14,-3.14,3.14,3.14,-3.14,3.14
16,3.509995120165061,2.8935002209729177,1.7177825582244737,6.055741544128657,4.630427813743659,1.2373012206486427,5.895692602945495,0.8798874273749537,-3.14,-3.14,3.14,3.14,-3.14,3.14
17,3.613998509527054,3.008432833937281,1.7177825582244737,6.061363677334412,4.750540386368706,1.2373012206486427,5.9013147361512495,1.0,-3.14,-3.14,3.14,3.14,-3.14,3.14
18,3.6215963413018493,3.0142881057497584,1.7177825582244737,6.081601957407316,4.750540386368706,1.2373012206486427,5.921553016224153,1.0,-3.14,-3.14,3.14,3.14,-3.14,3.14
19,3.6271979741892872,3.018622451309911,1.7177825582244737,6.096313544150937,4.750540386368706,1.2373012206486427,5.936264602967775,1.0,-3.14,-3.14,3.14,3.14,-3.14,3.14
20,3.6313112549309454,3.0218142219013635,1.7177825582244737,6.107007673480875,4.750540386368706,1.2373012206486427,5.946958732297712,1.0,-3.14,-3.14,3.14,3.14,-3.14,3.14
21,3.6343230484358613,3.024156002084834,1.7177825582244737,6.114781437393526,4.750540386368706,1.2373012206486427,5.954732496210363,1.0,-3.14,-3.14,3.14,3.14,-3.14,3.14
22,3.6365238530202766,3.0258696841153703,1.7177825582244737,6.12043233271237,4.750540386368706,1.2373012206486427,5.960383391529207,1.0,-3.14,-3.14,3.14,3.14,-3.14,3.14
23,3.63812971154533,3.0271214040658703,1.7177825582244737,6.124540074890203,4.750540386368706,1.2373012206486427,5.964491133707041,1.0,-3.14,-3.14,3.14,3.14,-3.14,3.14
24,3.6393002340322416,3.0280344757135267,1.7177825582244737,6.127526070002038,4.750540386368706,1.2373012206486427,5.967477128818876,1.0,-3.14,-3.14,3.14,3.14,-3.14,3.14
25,3.6401527947629875,3.0286998796848423,1.7177825582244737,6.129696646056208,4.750540386368706,1.2373012206486427,5.9696477048730445,1.0,-3.14,-3.14,3.14,3.14,-3.14,3.14
26,3.6407734274082775,3.0291844588440444,1.7177825582244737,6.131274478648181,4.750540386368706,1.2373012206486427,5.971225537465019,1.0,-3.14,-3.14,3.14,3.14,-3.14,3.14
27,3.6412250471044127,3.0295371756972402,1.7177825582244737,6.132421434859881,4.750540386368706,1.2373012206486427,5.972372493676719,1.0,-3.14,-3.14,3.14,3.14,-3.14,3.14
28,3.6415535862961823,3.0297938189704454,1.7177825582244737,6.133255178920087,4.750540386368706,1.2373012206486427,5.973206237736925,1.0,-3.14,-3.14,3.14,3.14,-3.14,3.14
29,3.64179253880442,3.0299805081495412,1.7177825582244737,6.13386124317157,4.750540386368706,1.2373012206486427,5.973812301988408,1.0,-3.14,-3.14,3.14,3.14,-3.14,3.14
30,3.6419663071863297,3.030116284894704,1.7177825582244737,6.134301802684324,4.750540386368706,1.2373012206486427,5.974252861501162,1.0,-3.14,-3.14,3.14,3.14,-3.14,3.14
31,3.642092659310576,3.030215019951443,1.7177825582244737,6.1346220536870915,4.750540386368706,1.2373012206486427,5.974573112503928,1.0,-3.14,-3.14,3.14,3.14,-3.14,3.14
32,3.6421845263945665,3.0302868115469597,1.7177825582244737,6.1348548501693,4.750540386368706,1.2373012206486427,5.974805908986137,1.0,-3.14,-3.14,3.14,3.14,-3.14,3.14
33,3.642251316529279,3.0303390083666626,1.7177825582244737,6.135024074314301,4.750540386368706,1.2373012206486427,5.974975133131138,1.0,-3.14,-3.14,3.14,3.14,-3.14,3.14
34,3.6422998729365923,3.03037695658451,1.7177825582244737,6.135147086530721,4.750540386368706,1.2373012206486427,5.975098145347558,1.0,-3.14,-3.14,3.14,3.14,-3.14,3.14
35,3.642335172356989,3.0304045446942953,1.7177825582244737,6.135236506426376,4.750540386368706,1.2373012206486427,5.975187565243214,1.0,-3.14,-3.14,3.14,3.14,-3.14,3.14
36,3.642360833678133,3.030424600509091,1.7177825582244737,6.13530150743174,4.750540386368706,1.2373012206486427,5.975252566248577,1.0,-3.14,-3.14,3.14,3.14,-3.14,3.14
37,3.6423794881723337,3.0304391802501875,1.7177825582244737,6.135348757886095,4.750540386368706,1.2373012206486427,5.9752998167029325,1.0,-3.14,-3.14,3.14,3.14,-3.14,3.14
38,3.642393048896358,3.030449778956824,1.7177825582244737,6.135383105130793,4.750540386368706,1.2373012206486427,5.975334163947631,1.0,-3.14,-3.14,3.14,3.14,-3.14,3.14
39,3.6424029066643953,3.0304574835772633,1.7177825582244737,6.135408072789505,4.750540386368706,1.2373012206486427,5.975359131606343,1.0,-3.14,-3.14,3.14,3.14,-3.14,3.14
40,3.642410072579101,3.0304630843277094,1.7177825582244737,6.135426222250605,4.750540386368706,1.2373012206486427,5.975377281067443,1.0,-3.14,-3.14,3.14,3.14,-3.14,3.14
41,3.64241528167951,3.030467155680364,1.7177825582244737,6.13543941543552,4.750540386368706,1.2373012206486427,5.9753904742523565,1.0,-3.14,-3.14,3.14,3.14,-3.14,3.14
42,3.642419068305476,3.030470115255864,1.7177825582244737,6.135449005809977,4.750540386368706,1.2373012206486427,5.975400064626814,1.0,-3.14,-3.14,3.14,3.14,-3.14,3.14
43,3.642421820892514,3.0304722666442405,1.7177825582244737,6.135455977233696,4.750540386368706,1.2373012206486427,5.975407036050533,1.0,-3.14,-3.14,3.14,3.14,-3.14,3.14
44,3.6424238218090106,3.030473830538056,1.7177825582244737,6.135461044892826,4.750540386368706,1.2373012206486427,5.975412103709663,1.0,-3.14,-3.14,3.14,3.14,-3.14,3.14
45,3.642425276317719,3.030474967366721,1.7177825582244737,6.135464728669638,4.750540386368706,1.2373012206486427,5.975415787486475,1.0,-3.14,-3.14,3.14,3.14,-3.14,3.14
46,3.6424263336300378,3.0304757937514193,1.7177825582244737,6.135467406476345,4.750540386368706,1.2373012206486427,5.975418465293183,1.0,-3.14,-3.14,3.14,3.14,-3.14,3.14
47,3.642427102211617,3.030476394467357,1.7177825582244737,6.135469353024448,4.750540386368706,1.2373012206486427,5.975420411841285,1.0,-3.14,-3.14,3.14,3.14,-3.14,3.14
48,3.642427660908749,3.030476831139789,1.7177825582244737,6.135470768006905,4.750540386368706,1.2373012206486427,5.975421826823742,1.0,-3.14,-3.14,3.14,3.14,-3.14,3.14
49,3.642428067036589,3.030477148565575,1.7177825582244737,6.135471796584286,4.750540386368706,1.2373012206486427,5.975422855401124,1.0,-3.14,-3.14,3.14,3.14,-3.14,3.14
50,3.6424283622587597,3.0304773793085524,1.7177825582244737,6.135472544276548,4.750540386368706,1.2373012206486427,5.975423603093385,1.0,-3.14,-3.14,3.14,3.14,-3.14,3.14
51,3.642428576861419,3.0304775470400704,1.7177825582244737,6.135473087788127,4.750540386368706,1.2373012206486427,5.975424146604964,1.0,-3.14,-3.14,3.14,3.14,-3.14,3.14
52,3.6424287328601865,3.030477668967324,1.7177825582244737,6.135473482876924,4.750540386368706,1.2373012206486427,5.975424541693761,1.0,-3.14,-3.14,3.14,3.14,-3.14,3.14
53,3.6424288462586563,3.0304777575985686,1.7177825582244737,6.135473770074408,4.750540386368706,1.2373012206486427,5.975424828891245,1.0,-3.14,-3.14,3.14,3.14,-3.14,3.14
54,3.6424289286901543,3.030477822026304,1.7177825582244737,6.135473978843664,4.750540386368706,1.2373012206486427,5.975425037660502,1.0,-3.14,-3.14,3.14,3.14,-3.14,3.14
55,3.642428988611171,3.030477868860046,1.7177825582244737,6.135474130601968,4.750540386368706,1.2373012206486427,5.9754251894188055,1.0,-3.14,-3.14,3.14,3.14,-3.14,3.14
56,3.6424290321688897,3.030477902904379,1.7177825582244737,6.135474240917936,4.750540386368706,1.2373012206486427,5.9754252997347725,1.0,-3.14,-3.14,3.14,3.14,-3.14,3.14
57,3.642429063831817,3.030477927651848,1.7177825582244737,6.1354743211086875,4.750540386368706,1.2373012206486427,5.975425379925525,1.0,-3.14,-3.14,3.14,3.14,-3.14,3.14
58,3.6424290868481974,3.0304779456412505,1.7177825582244737,6.135474379400857,4.750540386368706,1.2373012206486427,5.975425438217694,1.0,-3.14,-3.14,3.14,3.14,-3.14,3.14
59,3.6424291035792384,3.030477958718086,1.7177825582244737,6.135474421774531,4.750540386368706,1.2373012206486427,5.975425480591368,1.0,-3.14,-3.14,3.14,3.14,-3.14,3.14
60,3.642429115741346,3.030477968223884,1.7177825582244737,6.135474452576752,4.750540386368706,1.2373012206486427,5.975425511393589,1.0,-3.14,-3.14,3.14,3.14,-3.14,3.14
61,3.6424291245822116,3.0304779751338278,1.7177825582244737,6.135474474967466,4.750540386368706,1.2373012206486427,5.975425533784303,1.0,-3.14,-3.14,3.14,3.14,-3.14,3.14
62,3.6424291310088037,3.030477980156796,1.7177825582244737,6.135474491243698,4.750540386368706,1.2373012206486427,5.975425550060535,1.0,-3.14,-3.14,3.14,3.14,-3.14,3.14
63,3.642429135680414,3.0304779838080864,1.7177825582244737,6.135474503075197,4.750540386368706,1.2373012206486427,5.975425561892035,1.0,-3.14,-3.14,3.14,3.14,-3.14,3.14
64,3.6424291390762957,3.0304779864622784,1.7177825582244737,6.135474511675738,4.750540386368706,1.2373012206486427,5.9754255704925745,1.0,-3.14,-3.14,3.14,3.14,-3.14,3.14
65,3.6424291415448256,3.0304779883916604,1.7177825582244737,6.135474517927631,4.750540386368706,1.2373012206486427,5.975425576744469,1.0,-3.14,-3.14,3.14,3.14,-3.14,3.14
66,3.6424291433392475,3.0304779897941647,1.7177825582244737,6.135474522472252,4.750540386368706,1.2373012206486427,5.975425581289088,1.0,-3.14,-3.14,3.14,3.14,-3.14,3.14
67,3.642429144643646,3.030477990813671,1.7177825582244737,6.1354745257758205,4.750540386368706,1.2373012206486427,5.975425584592657,1.0,-3.14,-3.14,3.14,3.14,-3.14,3.14
68,3.6424291455918376,3.0304779915547697,1.7177825582244737,6.135474528177247,4.750540386368706,1.2373012206486427,5.975425586994084,1.0,-3.14,-3.14,3.14,3.14,-3.14,3.14
69,3.6424291462810956,3.030477992093488,1.7177825582244737,6.135474529922889,4.750540386368706,1.2373012206486427,5.975425588739726,1.0,-3.14,-3.14,3.14,3.14,-3.14,3.14
70,3.642429146782131,3.0304779924850926,1.7177825582244737,6.1354745311918295,4.750540386368706,1.2373012206486427,5.975425590008666,1.0,-3.14,-3.14,3.14,3.14,-3.14,3.14
71,3.6424291471463426,3.0304779927697574,1.7177825582244737,6.135474532114245,4.750540386368706,1.2373012206486427,5.975425590931083,1.0,-3.14,-3.14,3.14,3.14,-3.14,3.14
72,3.6424291474110952,3.0304779929766856,1.7177825582244737,6.135474532784769,4.750540386368706,1.2373012206486427,5.9754255916016055,1.0,-3.14,-3.14,3.14,3.14,-3.14,3.14
73,3.642429147603549,3.0304779931271058,1.7177825582244737,6.135474533272183,4.750540386368706,1.2373012206486427,5.97542559208902,1.0,-3.14,-3.14,3.14,3.14,-3.14,3.14
74,3.6424291477434463,3.0304779932364485,1.7177825582244737,6.1354745336264935,4.750540386368706,1.2373012206486427,5.975425592443331,1.0,-3.14,-3.14,3.14,3.14,-3.14,3.14
75,3.642429147845141,3.030477993315932,1.7177825582244737,6.135474533884049,4.750540386368706,1.2373012206486427,5.975425592700887,1.0,-3.14,-3.14,3.14,3.14,-3.14,3.14
76,3.642429147919065,3.0304779933737103,1.7177825582244737,6.135474534071272,4.750540386368706,1.2373012206486427,5.975425592888109,1.0,-3.14,-3.14,3.14,3.14,-3.14,3.14
77,3.642429147972801,3.03047799341571,1.7177825582244737,6.135474534207366,4.750540386368706,1.2373012206486427,5.9754255930242035,1.0,-3.14,-3.14,3.14,3.14,-3.14,3.14
78,3.6424291480118636,3.0304779934462407,1.7177825582244737,6.135474534306296,4.750540386368706,1.2373012206486427,5.975425593123134,1.0,-3.14,-3.14,3.14,3.14,-3.14,3.14
79,3.642429148040258,3.030477993468434,1.7177825582244737,6.13547453437821,4.750540386368706,1.2373012206486427,5.975425593195048,1.0,-3.14,-3.14,3.14,3.14,-3.14,3.14
80,3.642429148060899,3.030477993484567,1.7177825582244737,6.135474534430487,4.750540386368706,1.2373012206486427,5.975425593247324,1.0,-3.14,-3.14,3.14,3.14,-3.14,3.14
81,3.6424291480759035,3.030477993496294,1.7177825582244737,6.135474534468487,4.750540386368706,1.2373012206486427,5.9754255932853235,1.0,-3.14,-3.14,3.14,3.14,-3.14,3.14
82,3.6424291480868103,3.0304779935048183,1.7177825582244737,6.135474534496109,4.750540386368706,1.2373012206486427,5.975425593312947,1.0,-3.14,-3.14,3.14,3.14,-3.14,3.14
83,3.642429148094738,3.030477993511015,1.7177825582244737,6.135474534516189,4.750540386368706,1.2373012206486427,5.975425593333027,1.0,-3.14,-3.14,3.14,3.14,-3.14,3.14
84,3.6424291481005016,3.03047799351552,1.7177825582244737,6.135474534530785,4.750540386368706,1.2373012206486427,5.975425593347623,1.0,-3.14,-3.14,3.14,3.14,-3.14,3.14
85,3.642429148104691,3.030477993518794,1.7177825582244737,6.1354745345413955,4.750540386368706,1.2373012206486427,5.975425593358233,1.0,-3.14,-3.14,3.14,3.14,-3.14,3.14
86,3.6424291481077367,3.030477993521174,1.7177825582244737,6.135474534549108,4.750540386368706,1.2373012206486427,5.975425593365946,1.0,-3.14,-3.14,3.14,3.14,-3.14,3.14
87,3.6424291481099504,3.0304779935229047,1.7177825582244737,6.135474534554716,4.750540386368706,1.2373012206486427,5.975425593371553,1.0,-3.14,-3.14,3.14,3.14,-3.14,3.14
88,3.64242914811156,3.0304779935241624,1.7177825582244737,6.135474534558791,4.750540386368706,1.2373012206486427,5.975425593375628,1.0,-3.14,-3.14,3.14,3.14,-3.14,3.14
89,3.6424291481127296,3.0304779935250767,1.7177825582244737,6.135474534561754,4.750540386368706,1.2373012206486427,5.975425593378591,1.0,-3.14,-3.14,3.14,3.14,-3.14,3.14
90,3.64242914811358,3.0304779935257415,1.7177825582244737,6.135474534563907,4.750540386368706,1.2373012206486427,5.975425593380745,1.0,-3.14,-3.14,3.14,3.14,-3.14,3.14
91,3.6424291481141986,3.030477993526225,1.7177825582244737,6.135474534565474,4.750540386368706,1.2373012206486427,5.975425593382311,1.0,-3.14,-3.14,3.14,3.14,-3.14,3.14
92,3.642429148114647,3.0304779935265755,1.7177825582244737,6.135474534566611,4.750540386368706,1.2373012206486427,5.975425593383449,1.0,-3.14,-3.14,3.14,3.14,-3.14,3.14
93,3.6424291481149744,3.0304779935268313,1.7177825582244737,6.135474534567439,4.750540386368706,1.2373012206486427,5.9754255933842755,1.0,-3.14,-3.14,3.14,3.14,-3.14,3.14
94,3.642429148115211,3.0304779935270165,1.7177825582244737,6.135474534568039,4.750540386368706,1.2373012206486427,5.975425593384877,1.0,-3.14,-3.14,3.14,3.14,-3.14,3.14
95,3.6424291481153834,3.0304779935271515,1.7177825582244737,6.135474534568476,4.750540386368706,1.2373012206486427,5.975425593385314,1.0,-3.14,-3.14,3.14,3.14,-3.14,3.14
96,3.642429148115509,3.0304779935272497,1.7177825582244737,6.135474534568794,4.750540386368706,1.2373012206486427,5.975425593385632,1.0,-3.14,-3.14,3.14,3.14,-3.14,3.14
97,3.6424291481156006,3.0304779935273207,1.7177825582244737,6.135474534569025,4.750540386368706,1.2373012206486427,5.975425593385863,1.0,-3.14,-3.14,3.14,3.14,-3.14,3.14
98,3.642429148115667,3.030477993527373,1.7177825582244737,6.135474534569194,4.750540386368706,1.2373012206486427,5.9754255933860305,1.0,-3.14,-3.14,3.14,3.14,-3.14,3.14
99,3.6424291481157147,3.03047799352741,1.7177825582244737,6.1354745345693145,4.750540386368706,1.2373012206486427,5.975425593386152,1.0,-3.14,-3.14,3.14,3.14,-3.14,3.14
100,3.6424291481157494,3.0304779935274375,1.7177825582244737,6.135474534569403,4.750540386368706,1.2373012206486427,5.975425593386241,1.0,-3.14,-3.14,3.14,3.14,-3.14,3.14
101,3.642429148115776,3.0304779935274575,1.7177825582244737,6.135474534569469,4.750540386368706,1.2373012206486427,5.975425593386306,1.0,-3.14,-3.14,3.14,3.14,-3.14,3.14
102,3.6424291481157938,3.030477993527472,1.7177825582244737,6.135474534569515,4.750540386368706,1.2373012206486427,5.975425593386353,1.0,-3.14,-3.14,3.14,3.14,-3.14,3.14
103,3.642429148115807,3.0304779935274824,1.7177825582244737,6.135474534569549,4.750540386368706,1.2373012206486427,5.975425593386387,1.0,-3.14,-3.14,3.14,3.14,-3.14,3.14
104,3.642429148115817,3.0304779935274904,1.7177825582244737,6.135474534569574,4.750540386368706,1.2373012206486427,5.9754255933864115,1.0,-3.14,-3.14,3.14,3.14,-3.14,3.14
105,3.6424291481158235,3.0304779935274957,1.7177825582244737,6.135474534569592,4.750540386368706,1.2373012206486427,5.975425593386429,1.0,-3.14,-3.14,3.14,3.14,-3.14,3.14
106,3.6424291481158297,3.0304779935274997,1.7177825582244737,6.135474534569606,4.750540386368706,1.2373012206486427,5.975425593386443,1.0,-3.14,-3.14,3.14,3.14,-3.14,3.14
107,3.642429148115833,3.030477993527503,1.7177825582244737,6.135474534569615,4.750540386368706,1.2373012206486427,5.975425593386452,1.0,-3.14,-3.14,3.14,3.14,-3.14,3.14
108,3.642429148115836,3.030477993527505,1.7177825582244737,6.135474534569622,4.750540386368706,1.2373012206486427,5.9754255933864595,1.0,-3.14,-3.14,3.14,3.14,-3.14,3.14
109,3.642429148115838,3.030477993527507,1.7177825582244737,6.135474534569627,4.750540386368706,1.2373012206486427,5.975425593386465,1.0,-3.14,-3.14,3.14,3.14,-3.14,3.14
110,3.64242914811584,3.0304779935275077,1.7177825582244737,6.135474534569631,4.750540386368706,1.2373012206486427,5.975425593386468,1.0,-3.14,-3.14,3.14,3.14,-3.14,3.14
111,3.642429148115841,3.0304779935275086,1.7177825582244737,6.135474534569634,4.750540386368706,1.2373012206486427,5.975425593386471,1.0,-3.14,-3.14,3.14,3.14,-3.14,3.14
112,3.6424291481158417,3.030477993527509,1.7177825582244737,6.135474534569636,4.750540386368706,1.2373012206486427,5.975425593386473,1.0,-3.14,-3.14,3.14,3.14,-3.14,3.14
113,3.6424291481158417,3.030477993527509,1.7177825582244737,6.135474534569636,4.750540386368706,1.2373012206486427,5.975425593386474,1.0,-3.14,-3.14,3.14,3.14,-3.14,3.14
114,3.642429148115842,3.03047799352751,1.7177825582244737,6.135474534569638,4.750540386368706,1.2373012206486427,5.975425593386475,1.0,-3.14,-3.14,3.14,3.14,-3.14,3.14
115,3.642429148115842,3.03047799352751,1.7177825582244737,6.135474534569638,4.750540386368706,1.2373012206486427,5.9754255933864755,1.0,-3.14,-3.14,3.14,3.14,-3.14,3.14
116,3.6424291481158435,3.0304779935275103,1.7177825582244737,6.1354745345696395,4.750540386368706,1.2373012206486427,5.975425593386476,1.0,-3.14,-3.14,3.14,3.14,-3.14,3.14
117,3.6424291481158435,3.0304779935275103,1.7177825582244737,6.1354745345696395,4.750540386368706,1.2373012206486427,5.975425593386476,1.0,-3.14,-3.14,3.14,3.14,-3.14,3.14
118,3.6424291481158435,3.0304779935275103,1.7177825582244737,6.1354745345696395,4.750540386368706,1.2373012206486427,5.975425593386476,1.0,-3.14,-3.14,3.14,3.14,-3.14,3.14
119,3.6424291481158435,3.0304779935275103,1.7177825582244737,6.1354745345696395,4.750540386368706,1.2373012206486427,5.975425593386476,1.0,-3.14,-3.14,3.14,3.14,-3.14,3.14
120,3.6424291481158435,3.0304779935275103,1.7177825582244737,6.1354745345696395,4.750540386368706,1.2373012206486427,5.975425593386476,1.0,-3.14,-3.14,3.14,3.14,-3.14,3.14
121,3.6424291481158435,3.0304779935275103,1.7177825582244737,6.1354745345696395,4.750540386368706,1.2373012206486427,5.975425593386476,1.0,-3.14,-3.14,3.14,3.14,-3.14,3.14
122,3.6424291481158435,3.0304779935275103,1.7177825582244737,6.1354745345696395,4.750540386368706,1.2373012206486427,5.975425593386476,1.0,-3.14,-3.14,3.14,3.14,-3.14,3.14
123,3.6424291481158435,3.0304779935275103,1.7177825582244737,6.1354745345696395,4.750540386368706,1.2373012206486427,5.975425593386476,1.0,-3.14,-3.14,3.14,3.14,-3.14,3.14
124,3.6424291481158435,3.0304779935275103,1.7177825582244737,6.1354745345696395,4.750540386368706,1.2373012206486427,5.975425593386476,1.0,-3.14,-3.14,3.14,3.14,-3.14,3.14
125,3.6424291481158435,3.0304779935275103,1.7177825582244737,6.1354745345696395,4.750540386368706,1.2373012206486427,5.975425593386476,1.0,-3.14,-3.14,3.14,3.14,-3.14,3.14
126,3.6424291481158435,3.0304779935275103,1.7177825582244737,6.1354745345696395,4.750540386368706,1.2373012206486427,5.975425593386476,1.0,-3.14,-3.14,3.14,3.14,-3.14,3.14
127,3.6424291481158435,3.0304779935275103,1.7177825582244737,6.1354745345696395,4.750540386368706,1.2373012206486427,5.975425593386476,1.0,-3.14,-3.14,3.14,3.14,-3.14,3.14
128,3.6424291481158435,3.0304779935275103,1.7177825582244737,6.1354745345696395,4.750540386368706,1.2373012206486427,5.975425593386476,1.0,-3.14,-3.14,3.14,3.14,-3.14,3.14
129,3.6424291481158435,3.0304779935275103,1.7177825582244737,6.1354745345696395,4.750540386368706,1.2373012206486427,5.975425593386476,1.0,-3.14,-3.14,3.14,3.14,-3.14,3.14
130,3.6424291481158435,3.0304779935275103,1.7177825582244737,6.1354745345696395,4.750540386368706,1.2373012206486427,5.975425593386476,1.0,-3.14,-3.14,3.14,3.14,-3.14,3.14
131,3.6424291481158435,3.0304779935275103,1.7177825582244737,6.1354745345696395,4.750540386368706,1.2373012206486427,5.975425593386476,1.0,-3.14,-3.14,3.14,3.14,-3.14,3.14
132,3.6424291481158435,3.0304779935275103,1.7177825582244737,6.1354745345696395,4.750540386368706,1.2373012206486427,5.975425593386476,1.0,-3.14,-3.14,3.14,3.14,-3.14,3.14
133,3.6424291481158435,3.0304779935275103,1.7177825582244737,6.1354745345696395,4.750540386368706,1.2373012206486427,5.975425593386476,1.0,-3.14,-3.14,3.14,3.14,-3.14,3.14
134,3.6424291481158435,3.0304779935275103,1.7177825582244737,6.1354745345696395,4.750540386368706,1.2373012206486427,5.975425593386476,1.0,-3.14,-3.14,3.14,3.14,-3.14,3.14
135,3.6424291481158435,3.0304779935275103,1.7177825582244737,6.1354745345696395,4.750540386368706,1.2373012206486427,5.975425593386476,1.0,-3.14,-3.14,3.14,3.14,-3.14,3.14
136,3.6424291481158435,3.0304779935275103,1.7177825582244737,6.1354745345696395,4.750540386368706,1.2373012206486427,5.975425593386476,1.0,-3.14,-3.14,3.14,3.14,-3.14,3.14
137,3.6424291481158435,3.0304779935275103,1.7177825582244737,6.1354745345696395,4.750540386368706,1.2373012206486427,5.975425593386476,1.0,-3.14,-3.14,3.14,3.14,-3.14,3.14
138,3.6424291481158435,3.0304779935275103,1.7177825582244737,6.1354745345696395,4.750540386368706,1.2373012206486427,5.975425593386476,1.0,-3.14,-3.14,3.14,3.14,-3.14,3.14
139,3.6424291481158435,3.0304779935275103,1.7177825582244737,6.1354745345696395,4.750540386368706,1.2373012206486427,5.975425593386476,1.0,-3.14,-3.14,3.14,3.14,-3.14,3.14
140,3.6424291481158435,3.0304779935275103,1.7177825582244737,6.1354745345696395,4.750540386368706,1.2373012206486427,5.975425593386476,1.0,-3.14,-3.14,3.14,3.14,-3.14,3.14
141,3.6424291481158435,3.0304779935275103,1.7177825582244737,6.1354745345696395,4.750540386368706,1.2373012206486427,5.975425593386476,1.0,-3.14,-3.14,3.14,3.14,-3.14,3.14
142,3.6424291481158435,3.0304779935275103,1.7177825582244737,6.1354745345696395,4.750540386368706,1.2373012206486427,5.975425593386476,1.0,-3.14,-3.14,3.14,3.14,-3.14,3.14
143,3.6424291481158435,3.0304779935275103,1.7177825582244737,6.1354745345696395,4.750540386368706,1.2373012206486427,5.975425593386476,1.0,-3.14,-3.14,3.14,3.14,-3.14,3.14
144,3.6424291481158435,3.0304779935275103,1.7177825582244737,6.1354745345696395,4.750540386368706,1.2373012206486427,5.975425593386476,1.0,-3.14,-3.14,3.14,3.14,-3.14,3.14
145,3.6424291481158435,3.0304779935275103,1.7177825582244737,6.1354745345696395,4.750540386368706,1.2373012206486427,5.975425593386476,1.0,-3.14,-3.14,3.14,3.14,-3.14,3.14
146,3.6424291481158435,3.0304779935275103,1.7177825582244737,6.1354745345696395,4.750540386368706,1.2373012206486427,5.975425593386476,1.0,-3.14,-3.14,3.14,3.14,-3.14,3.14
147,3.6424291481158435,3.0304779935275103,1.7177825582244737,6.1354745345696395,4.750540386368706,1.2373012206486427,5.975425593386476,1.0,-3.14,-3.14,3.14,3.14,-3.14,3.14
148,3.6424291481158435,3.0304779935275103,1.7177825582244737,6.1354745345696395,4.750540386368706,1.2373012206486427,5.975425593386476,1.0,-3.14,-3.14,3.14,3.14,-3.14,3.14
149,3.6424291481158435,3.0304779935275103,1.7177825582244737,6.1354745345696395,4.750540386368706,1.2373012206486427,5.975425593386476,1.0,-3.14,-3.14,3.14,3.14,-3.14,3.14
150,3.6424291481158435,3.0304779935275103,1.7177825582244737,6.1354745345696395,4.750540386368706,1.2373012206486427,5.975425593386476,1.0,-3.14,-3.14,3.14,3.14,-3.14,3.14
151,3.6424291481158435,3.0304779935275103,1.7177825582244737,6.1354745345696395,4.750540386368706,1.2373012206486427,5.975425593386476,1.0,-3.14,-3.14,3.14,3.14,-3.14,3.14
152,3.6424291481158435,3.0304779935275103,1.7177825582244737,6.1354745345696395,4.750540386368706,1.2373012206486427,5.975425593386476,1.0,-3.14,-3.14,3.14,3.14,-3.14,3.14
153,3.6424291481158435,3.0304779935275103,1.7177825582244737,6.1354745345696395,4.750540386368706,1.2373012206486427,5.975425593386476,1.0,-3.14,-3.14,3.14,3.14,-3.14,3.14
154,3.6424291481158435,3.0304779935275103,1.7177825582244737,6.1354745345696395,4.750540386368706,1.2373012206486427,5.975425593386476,1.0,-3.14,-3.14,3.14,3.14,-3.14,3.14
155,3.6424291481158435,3.0304779935275103,1.7177825582244737,6.1354745345696395,4.750540386368706,1.2373012206486427,5.975425593386476,1.0,-3.14,-3.14,3.14,3.14,-3.14,3.14
156,3.6424291481158435,3.0304779935275103,1.7177825582244737,6.1354745345696395,4.750540386368706,1.2373012206486427,5.975425593386476,1.0,-3.14,-3.14,3.14,3.14,-3.14,3.14
157,3.6424291481158435,3.0304779935275103,1.7177825582244737,6.1354745345696395,4.750540386368706,1.2373012206486427,5.975425593386476,1.0,-3.14,-3.14,3.14,3.14,-3.14,3.14
158,3.6424291481158435,3.0304779935275103,1.7177825582244737,6.1354745345696395,4.750540386368706,1.2373012206486427,5.975425593386476,1.0,-3.14,-3.14,3.14,3.14,-3.14,3.14
159,3.6424291481158435,3.0304779935275103,1.7177825582244737,6.1354745345696395,4.750540386368706,1.2373012206486427,5.975425593386476,1.0,-3.14,-3.14,3.14,3.14,-3.14,3.14
160,3.6424291481158435,3.0304779935275103,1.7177825582244737,6.1354745345696395,4.750540386368706,1.2373012206486427,5.975425593386476,1.0,-3.14,-3.14,3.14,3.14,-3.14,3.14
161,3.6424291481158435,3.0304779935275103,1.7177825582244737,6.1354745345696395,4.750540386368706,1.2373012206486427,5.975425593386476,1.0,-3.14,-3.14,3.14,3.14,-3.14,3.14
162,3.6424291481158435,3.0304779935275103,1.7177825582244737,6.1354745345696395,4.750540386368706,1.2373012206486427,5.975425593386476,1.0,-3.14,-3.14,3.14,3.14,-3.14,3.14
163,3.6424291481158435,3.0304779935275103,1.7177825582244737,6.1354745345696395,4.750540386368706,1.2373012206486427,5.975425593386476,1.0,-3.14,-3.14,3.14,3.14,-3.14,3.14
164,3.6424291481158435,3.0304779935275103,1.7177825582244737,6.1354745345696395,4.750540386368706,1.2373012206486427,5.975425593386476,1.0,-3.14,-3.14,3.14,3.14,-3.14,3.14
165,3.6424291481158435,3.0304779935275103,1.7177825582244737,6.1354745345696395,4.750540386368706,1.2373012206486427,5.975425593386476,1.0,-3.14,-3.14,3.14,3.14,-3.14,3.14
166,3.6424291481158435,3.0304779935275103,1.7177825582244737,6.1354745345696395,4.750540386368706,1.2373012206486427,5.975425593386476,1.0,-3.14,-3.14,3.14,3.14,-3.14,3.14
167,3.6424291481158435,3.0304779935275103,1.7177825582244737,6.1354745345696395,4.750540386368706,1.2373012206486427,5.975425593386476,1.0,-3.14,-3.14,3.14,3.14,-3.14,3.14
168,3.6424291481158435,3.0304779935275103,1.7177825582244737,6.1354745345696395,4.750540386368706,1.2373012206486427,5.975425593386476,1.0,-3.14,-3.14,3.14,3.14,-3.14,3.14
169,3.6424291481158435,3.0304779935275103,1.7177825582244737,6.1354745345696395,4.750540386368706,1.2373012206486427,5.975425593386476,1.0,-3.14,-3.14,3.14,3.14,-3.14,3.14
170,3.6424291481158435,3.0304779935275103,1.7177825582244737,6.1354745345696395,4.750540386368706,1.2373012206486427,5.975425593386476,1.0,-3.14,-3.14,3.14,3.14,-3.14,3.14
171,3.6424291481158435,3.0304779935275103,1.7177825582244737,6.1354745345696395,4.750540386368706,1.2373012206486427,5.975425593386476,1.0,-3.14,-3.14,3.14,3.14,-3.14,3.14
172,3.6424291481158435,3.0304779935275103,1.7177825582244737,6.1354745345696395,4.750540386368706,1.2373012206486427,5.975425593386476,1.0,-3.14,-3.14,3.14,3.14,-3.14,3.14
173,3.6424291481158435,3.0304779935275103,1.7177825582244737,6.1354745345696395,4.750540386368706,1.2373012206486427,5.975425593386476,1.0,-3.14,-3.14,3.14,3.14,-3.14,3.14
174,3.6424291481158435,3.0304779935275103,1.7177825582244737,6.1354745345696395,4.750540386368706,1.2373012206486427,5.975425593386476,1.0,-3.14,-3.14,3.14,3.14,-3.14,3.14
175,3.6424291481158435,3.0304779935275103,1.7177825582244737,6.1354745345696395,4.750540386368706,1.2373012206486427,5.975425593386476,1.0,-3.14,-3.14,3.14,3.14,-3.14,3.14
176,3.6424291481158435,3.0304779935275103,1.7177825582244737,6.1354745345696395,4.750540386368706,1.2373012206486427,5.975425593386476,1.0,-3.14,-3.14,3.14,3.14,-3.14,3.14
177,3.6424291481158435,3.0304779935275103,1.7177825582244737,6.1354745345696395,4.750540386368706,1.2373012206486427,5.975425593386476,1.0,-3.14,-3.14,3.14,3.14,-3.14,3.14
178,3.6424291481158435,3.0304779935275103,1.7177825582244737,6.1354745345696395,4.750540386368706,1.2373012206486427,5.975425593386476,1.0,-3.14,-3.14,3.14,3.14,-3.14,3.14
179,3.6424291481158435,3.0304779935275103,1.7177825582244737,6.1354745345696395,4.750540386368706,1.2373012206486427,5.975425593386476,1.0,-3.14,-3.14,3.14,3.14,-3.14,3.14
180,3.6424291481158435,3.0304779935275103,1.7177825582244737,6.1354745345696395,4.750540386368706,1.2373012206486427,5.975425593386476,1.0,-3.14,-3.14,3.14,3.14,-3.14,3.14
181,3.6424291481158435,3.0304779935275103,1.7177825582244737,6.1354745345696395,4.750540386368706,1.2373012206486427,5.975425593386476,1.0,-3.14,-3.14,3.14,3.14,-3.14,3.14
182,3.6424291481158435,3.0304779935275103,1.7177825582244737,6.1354745345696395,4.750540386368706,1.2373012206486427,5.975425593386476,1.0,-3.14,-3.14,3.14,3.14,-3.14,3.14
183,3.6424291481158435,3.0304779935275103,1.7177825582244737,6.1354745345696395,4.750540386368706,1.2373012206486427,5.975425593386476,1.0,-3.14,-3.14,3.14,3.14,-3.14,3.14
184,3.6424291481158435,3.0304779935275103,1.7177825582244737,6.1354745345696395,4.750540386368706,1.2373012206486427,5.975425593386476,1.0,-3.14,-3.14,3.14,3.14,-3.14,3.14
185,3.6424291481158435,3.0304779935275103,1.7177825582244737,6.1354745345696395,4.750540386368706,1.2373012206486427,5.975425593386476,1.0,-3.14,-3.14,3.14,3.14,-3.14,3.14
186,3.6424291481158435,3.0304779935275103,1.7177825582244737,6.1354745345696395,4.750540386368706,1.2373012206486427,5.975425593386476,1.0,-3.14,-3.14,3.14,3.14,-3.14,3.14
187,3.6424291481158435,3.0304779935275103,1.7177825582244737,6.1354745345696395,4.750540386368706,1.2373012206486427,5.975425593386476,1.0,-3.14,-3.14,3.14,3.14,-3.14,3.14
188,3.6424291481158435,3.0304779935275103,1.7177825582244737,6.1354745345696395,4.750540386368706,1.2373012206486427,5.975425593386476,1.0,-3.14,-3.14,3.14,3.14,-3.14,3.14
189,3.6424291481158435,3.0304779935275103,1.7177825582244737,6.1354745345696395,4.750540386368706,1.2373012206486427,5.975425593386476,1.0,-3.14,-3.14,3.14,3.14,-3.14,3.14
190,3.6424291481158435,3.0304779935275103,1.7177825582244737,6.1354745345696395,4.750540386368706,1.2373012206486427,5.975425593386476,1.0,-3.14,-3.14,3.14,3.14,-3.14,3.14
191,3.6424291481158435,3.0304779935275103,1.7177825582244737,6.1354745345696395,4.750540386368706,1.2373012206486427,5.975425593386476,1.0,-3.14,-3.14,3.14,3.14,-3.14,3.14
192,3.6424291481158435,3.0304779935275103,1.7177825582244737,6.1354745345696395,4.750540386368706,1.2373012206486427,5.975425593386476,1.0,-3.14,-3.14,3.14,3.14,-3.14,3.14
193,3.6424291481158435,3.0304779935275103,1.7177825582244737,6.1354745345696395,4.750540386368706,1.2373012206486427,5.975425593386476,1.0,-3.14,-3.14,3.14,3.14,-3.14,3.14
194,3.6424291481158435,3.0304779935275103,1.7177825582244737,6.1354745345696395,4.750540386368706,1.2373012206486427,5.975425593386476,1.0,-3.14,-3.14,3.14,3.14,-3.14,3.14
195,3.6424291481158435,3.0304779935275103,1.7177825582244737,6.1354745345696395,4.750540386368706,1.2373012206486427,5.975425593386476,1.0,-3.14,-3.14,3.14,3.14,-3.14,3.14
196,3.6424291481158435,3.0304779935275103,1.7177825582244737,6.1354745345696395,4.750540386368706,1.2373012206486427,5.975425593386476,1.0,-3.14,-3.14,3.14,3.14,-3.14,3.14
197,3.6424291481158435,3.0304779935275103,1.7177825582244737,6.1354745345696395,4.750540386368706,1.2373012206486427,5.975425593386476,1.0,-3.14,-3.14,3.14,3.14,-3.14,3.14
198,3.6424291481158435,3.0304779935275103,1.7177825582244737,6.1354745345696395,4.750540386368706,1.2373012206486427,5.975425593386476,1.0,-3.14,-3.14,3.14,3.14,-3.14,3.14
199,3.6424291481158435,3.0304779935275103,1.7177825582244737,6.1354745345696395,4.750540386368706,1.2373012206486427,5.975425593386476,1.0,-3.14,-3.14,3.14,3.14,-3.14,3.14
200,3.6424291481158435,3.0304779935275103,1.7177825582244737,6.1354745345696395,4.750540386368706,1.2373012206486427,5.975425593386476,1.0,-3.14,-3.14,3.14,3.14,-3.14,3.14
201,3.6424291481158435,3.0304779935275103,1.7177825582244737,6.1354745345696395,4.750540386368706,1.2373012206486427,5.975425593386476,1.0,-3.14,-3.14,3.14,3.14,-3.14,3.14
202,3.6424291481158435,3.0304779935275103,1.7177825582244737,6.1354745345696395,4.750540386368706,1.2373012206486427,5.975425593386476,1.0,-3.14,-3.14,3.14,3.14,-3.14,3.14
203,3.6424291481158435,3.0304779935275103,1.7177825582244737,6.1354745345696395,4.750540386368706,1.2373012206486427,5.975425593386476,1.0,-3.14,-3.14,3.14,3.14,-3.14,3.14
204,3.6424291481158435,3.0304779935275103,1.7177825582244737,6.1354745345696395,4.750540386368706,1.2373012206486427,5.975425593386476,1.0,-3.14,-3.14,3.14,3.14,-3.14,3.14
205,3.6424291481158435,3.0304779935275103,1.7177825582244737,6.1354745345696395,4.750540386368706,1.2373012206486427,5.975425593386476,1.0,-3.14,-3.14,3.14,3.14,-3.14,3.14
206,3.6424291481158435,3.0304779935275103,1.7177825582244737,6.1354745345696395,4.750540386368706,1.2373012206486427,5.975425593386476,1.0,-3.14,-3.14,3.14,3.14,-3.14,3.14
207,3.6424291481158435,3.0304779935275103,1.7177825582244737,6.1354745345696395,4.750540386368706,1.2373012206486427,5.975425593386476,1.0,-3.14,-3.14,3.14,3.14,-3.14,3.14
208,3.6424291481158435,3.0304779935275103,1.7177825582244737,6.1354745345696395,4.750540386368706,1.2373012206486427,5.975425593386476,1.0,-3.14,-3.14,3.14,3.14,-3.14,3.14
209,3.6424291481158435,3.0304779935275103,1.7177825582244737,6.1354745345696395,4.750540386368706,1.2373012206486427,5.975425593386476,1.0,-3.14,-3.14,3.14,3.14,-3.14,3.14
210,3.6424291481158435,3.0304779935275103,1.7177825582244737,6.1354745345696395,4.750540386368706,1.2373012206486427,5.975425593386476,1.0,-3.14,-3.14,3.14,3.14,-3.14,3.14
211,3.6424291481158435,3.0304779935275103,1.7177825582244737,6.1354745345696395,4.750540386368706,1.2373012206486427,5.975425593386476,1.0,-3.14,-3.14,3.14,3.14,-3.14,3.14
212,3.6424291481158435,3.0304779935275103,1.7177825582244737,6.1354745345696395,4.750540386368706,1.2373012206486427,5.975425593386476,1.0,-3.14,-3.14,3.14,3.14,-3.14,3.14
213,3.6424291481158435,3.0304779935275103,1.7177825582244737,6.1354745345696395,4.750540386368706,1.2373012206486427,5.975425593386476,1.0,-3.14,-3.14,3.14,3.14,-3.14,3.14
214,3.6424291481158435,3.0304779935275103,1.7177825582244737,6.1354745345696395,4.750540386368706,1.2373012206486427,5.975425593386476,1.0,-3.14,-3.14,3.14,3.14,-3.14,3.14
215,3.6424291481158435,3.0304779935275103,1.7177825582244737,6.1354745345696395,4.750540386368706,1.2373012206486427,5.975425593386476,1.0,-3.14,-3.14,3.14,3.14,-3.14,3.14
216,3.6424291481158435,3.0304779935275103,1.7177825582244737,6.1354745345696395,4.750540386368706,1.2373012206486427,5.975425593386476,1.0,-3.14,-3.14,3.14,3.14,-3.14,3.14
217,3.6424291481158435,3.0304779935275103,1.7177825582244737,6.1354745345696395,4.750540386368706,1.2373012206486427,5.975425593386476,1.0,-3.14,-3.14,3.14,3.14,-3.14,3.14
218,3.6424291481158435,3.0304779935275103,1.7177825582244737,6.1354745345696395,4.750540386368706,1.2373012206486427,5.975425593386476,1.0,-3.14,-3.14,3.14,3.14,-3.14,3.14
219,3.6424291481158435,3.0304779935275103,1.7177825582244737,6.1354745345696395,4.750540386368706,1.2373012206486427,5.975425593386476,1.0,-3.14,-3.14,3.14,3.14,-3.14,3.14
220,3.6424291481158435,3.0304779935275103,1.7177825582244737,6.1354745345696395,4.750540386368706,1.2373012206486427,5.975425593386476,1.0,-3.14,-3.14,3.14,3.14,-3.14,3.14
221,3.6424291481158435,3.0304779935275103,1.7177825582244737,6.1354745345696395,4.750540386368706,1.2373012206486427,5.975425593386476,1.0,-3.14,-3.14,3.14,3.14,-3.14,3.14
222,3.6424291481158435,3.0304779935275103,1.7177825582244737,6.1354745345696395,4.750540386368706,1.2373012206486427,5.975425593386476,1.0,-3.14,-3.14,3.14,3.14,-3.14,3.14
223,3.6424291481158435,3.0304779935275103,1.7177825582244737,6.1354745345696395,4.750540386368706,1.2373012206486427,5.975425593386476,1.0,-3.14,-3.14,3.14,3.14,-3.14,3.14
224,3.6424291481158435,3.0304779935275103,1.7177825582244737,6.1354745345696395,4.750540386368706,1.2373012206486427,5.975425593386476,1.0,-3.14,-3.14,3.14,3.14,-3.14,3.14
225,3.6424291481158435,3.0304779935275103,1.7177825582244737,6.1354745345696395,4.750540386368706,1.2373012206486427,5.975425593386476,1.0,-3.14,-3.14,3.14,3.14,-3.14,3.14
226,3.6424291481158435,3.0304779935275103,1.7177825582244737,6.1354745345696395,4.750540386368706,1.2373012206486427,5.975425593386476,1.0,-3.14,-3.14,3.14,3.14,-3.14,3.14
227,3.6424291481158435,3.0304779935275103,1.7177825582244737,6.1354745345696395,4.750540386368706,1.2373012206486427,5.975425593386476,1.0,-3.14,-3.14,3.14,3.14,-3.14,3.14
228,3.6424291481158435,3.0304779935275103,1.7177825582244737,6.1354745345696395,4.750540386368706,1.2373012206486427,5.975425593386476,1.0,-3.14,-3.14,3.14,3.14,-3.14,3.14
229,3.6424291481158435,3.0304779935275103,1.7177825582244737,6.1354745345696395,4.750540386368706,1.2373012206486427,5.975425593386476,1.0,-3.14,-3.14,3.14,3.14,-3.14,3.14
230,3.6424291481158435,3.0304779935275103,1.7177825582244737,6.1354745345696395,4.750540386368706,1.2373012206486427,5.975425593386476,1.0,-3.14,-3.14,3.14,3.14,-3.14,3.14
231,3.6424291481158435,3.0304779935275103,1.7177825582244737,6.1354745345696395,4.750540386368706,1.2373012206486427,5.975425593386476,1.0,-3.14,-3.14,3.14,3.14,-3.14,3.14
232,3.6424291481158435,3.0304779935275103,1.7177825582244737,6.1354745345696395,4.750540386368706,1.2373012206486427,5.975425593386476,1.0,-3.14,-3.14,3.14,3.14,-3.14,3.14
233,3.6424291481158435,3.0304779935275103,1.7177825582244737,6.1354745345696395,4.750540386368706,1.2373012206486427,5.975425593386476,1.0,-3.14,-3.14,3.14,3.14,-3.14,3.14
234,3.6424291481158435,3.0304779935275103,1.7177825582244737,6.1354745345696395,4.750540386368706,1.2373012206486427,5.975425593386476,1.0,-3.14,-3.14,3.14,3.14,-3.14,3.14
235,3.6424291481158435,3.0304779935275103,1.7177825582244737,6.1354745345696395,4.750540386368706,1.2373012206486427,5.975425593386476,1.0,-3.14,-3.14,3.14,3.14,-3.14,3.14
236,3.6424291481158435,3.0304779935275103,1.7177825582244737,6.1354745345696395,4.750540386368706,1.2373012206486427,5.975425593386476,1.0,-3.14,-3.14,3.14,3.14,-3.14,3.14
237,3.6424291481158435,3.0304779935275103,1.7177825582244737,6.1354745345696395,4.750540386368706,1.2373012206486427,5.975425593386476,1.0,-3.14,-3.14,3.14,3.14,-3.14,3.14
238,3.6424291481158435,3.0304779935275103,1.7177825582244737,6.1354745345696395,4.750540386368706,1.2373012206486427,5.975425593386476,1.0,-3.14,-3.14,3.14,3.14,-3.14,3.14
239,3.6424291481158435,3.0304779935275103,1.7177825582244737,6.1354745345696395,4.750540386368706,1.2373012206486427,5.975425593386476,1.0,-3.14,-3.14,3.14,3.14,-3.14,3.14
240,3.6424291481158435,3.0304779935275103,1.7177825582244737,6.1354745345696395,4.750540386368706,1.2373012206486427,5.975425593386476,1.0,-3.14,-3.14,3.14,3.14,-3.14,3.14
241,3.6424291481158435,3.0304779935275103,1.7177825582244737,6.1354745345696395,4.750540386368706,1.2373012206486427,5.975425593386476,1.0,-3.14,-3.14,3.14,3.14,-3.14,3.14
242,3.6424291481158435,3.0304779935275103,1.7177825582244737,6.1354745345696395,4.750540386368706,1.2373012206486427,5.975425593386476,1.0,-3.14,-3.14,3.14,3.14,-3.14,3.14
243,3.6424291481158435,3.0304779935275103,1.7177825582244737,6.1354745345696395,4.750540386368706,1.2373012206486427,5.975425593386476,1.0,-3.14,-3.14,3.14,3.14,-3.14,3.14
244,3.6424291481158435,3.0304779935275103,1.7177825582244737,6.1354745345696395,4.750540386368706,1.2373012206486427,5.975425593386476,1.0,-3.14,-3.14,3.14,3.14,-3.14,3.14
245,3.6424291481158435,3.0304779935275103,1.7177825582244737,6.1354745345696395,4.750540386368706,1.2373012206486427,5.975425593386476,1.0,-3.14,-3.14,3.14,3.14,-3.14,3.14
246,3.6424291481158435,3.0304779935275103,1.7177825582244737,6.1354745345696395,4.750540386368706,1.2373012206486427,5.975425593386476,1.0,-3.14,-3.14,3.14,3.14,-3.14,3.14
247,3.6424291481158435,3.0304779935275103,1.7177825582244737,6.1354745345696395,4.750540386368706,1.2373012206486427,5.975425593386476,1.0,-3.14,-3.14,3.14,3.14,-3.14,3.14
248,3.6424291481158435,3.0304779935275103,1.7177825582244737,6.1354745345696395,4.750540386368706,1.2373012206486427,5.975425593386476,1.0,-3.14,-3.14,3.14,3.14,-3.14,3.14
249,3.6424291481158435,3.0304779935275103,1.7177825582244737,6.1354745345696395,4.750540386368706,1.2373012206486427,5.975425593386476,1.0,-3.14,-3.14,3.14,3.14,-3.14,3.14
250,3.6424291481158435,3.0304779935275103,1.7177825582244737,6.1354745345696395,4.750540386368706,1.2373012206486427,5.975425593386476,1.0,-3.14,-3.14,3.14,3.14,-3.14,3.14
251,3.6424291481158435,3.0304779935275103,1.7177825582244737,6.1354745345696395,4.750540386368706,1.2373012206486427,5.975425593386476,1.0,-3.14,-3.14,3.14,3.14,-3.14,3.14
252,3.6424291481158435,3.0304779935275103,1.7177825582244737,6.1354745345696395,4.750540386368706,1.2373012206486427,5.975425593386476,1.0,-3.14,-3.14,3.14,3.14,-3.14,3.14
253,3.6424291481158435,3.0304779935275103,1.7177825582244737,6.1354745345696395,4.750540386368706,1.2373012206486427,5.975425593386476,1.0,-3.14,-3.14,3.14,3.14,-3.14,3.14
254,3.6424291481158435,3.0304779935275103,1.7177825582244737,6.1354745345696395,4.750540386368706,1.2373012206486427,5.975425593386476,1.0,-3.14,-3.14,3.14,3.14,-3.14,3.14
255,3.6424291481158435,3.0304779935275103,1.7177825582244737,6.1354745345696395,4.750540386368706,1.2373012206486427,5.975425593386476,1.0,-3.14,-3.14,3.14,3.14,-3.14,3.14
256,3.6424291481158435,3.0304779935275103,1.7177825582244737,6.1354745345696395,4.750540386368706,1.2373012206486427,5.975425593386476,1.0,-3.14,-3.14,3.14,3.14,-3.14,3.14
257,3.6424291481158435,3.0304779935275103,1.7177825582244737,6.1354745345696395,4.750540386368706,1.2373012206486427,5.975425593386476,1.0,-3.14,-3.14,3.14,3.14,-3.14,3.14
258,3.6424291481158435,3.0304779935275103,1.7177825582244737,6.1354745345696395,4.750540386368706,1.2373012206486427,5.975425593386476,1.0,-3.14,-3.14,3.14,3.14,-3.14,3.14
259,3.6424291481158435,3.0304779935275103,1.7177825582244737,6.1354745345696395,4.750540386368706,1.2373012206486427,5.975425593386476,1.0,-3.14,-3.14,3.14,3.14,-3.14,3.14
260,3.6424291481158435,3.0304779935275103,1.7177825582244737,6.1354745345696395,4.750540386368706,1.2373012206486427,5.975425593386476,1.0,-3.14,-3.14,3.14,3.14,-3.14,3.14
261,3.6424291481158435,3.0304779935275103,1.7177825582244737,6.1354745345696395,4.750540386368706,1.2373012206486427,5.975425593386476,1.0,-3.14,-3.14,3.14,3.14,-3.14,3.14
262,3.6424291481158435,3.0304779935275103,1.7177825582244737,6.1354745345696395,4.750540386368706,1.2373012206486427,5.975425593386476,1.0,-3.14,-3.14,3.14,3.14,-3.14,3.14
263,3.6424291481158435,3.0304779935275103,1.7177825582244737,6.1354745345696395,4.750540386368706,1.2373012206486427,5.975425593386476,1.0,-3.14,-3.14,3.14,3.14,-3.14,3.14
264,3.6424291481158435,3.0304779935275103,1.7177825582244737,6.1354745345696395,4.750540386368706,1.2373012206486427,5.975425593386476,1.0,-3.14,-3.14,3.14,3.14,-3.14,3.14
265,3.6424291481158435,3.0304779935275103,1.7177825582244737,6.1354745345696395,4.750540386368706,1.2373012206486427,5.975425593386476,1.0,-3.14,-3.14,3.14,3.14,-3.14,3.14
266,3.6424291481158435,3.0304779935275103,1.7177825582244737,6.1354745345696395,4.750540386368706,1.2373012206486427,5.975425593386476,1.0,-3.14,-3.14,3.14,3.14,-3.14,3.14
267,3.6424291481158435,3.0304779935275103,1.7177825582244737,6.1354745345696395,4.750540386368706,1.2373012206486427,5.975425593386476,1.0,-3.14,-3.14,3.14,3.14,-3.14,3.14
268,3.6424291481158435,3.0304779935275103,1.7177825582244737,6.1354745345696395,4.750540386368706,1.2373012206486427,5.975425593386476,1.0,-3.14,-3.14,3.14,3.14,-3.14,3.14
269,3.6424291481158435,3.0304779935275103,1.7177825582244737,6.1354745345696395,4.750540386368706,1.2373012206486427,5.975425593386476,1.0,-3.14,-3.14,3.14,3.14,-3.14,3.14
270,3.6424291481158435,3.0304779935275103,1.7177825582244737,6.1354745345696395,4.750540386368706,1.2373012206486427,5.975425593386476,1.0,-3.14,-3.14,3.14,3.14,-3.14,3.14
271,3.6424291481158435,3.0304779935275103,1.7177825582244737,6.1354745345696395,4.750540386368706,1.2373012206486427,5.975425593386476,1.0,-3.14,-3.14,3.14,3.14,-3.14,3.14
272,3.6424291481158435,3.0304779935275103,1.7177825582244737,6.1354745345696395,4.750540386368706,1.2373012206486427,5.975425593386476,1.0,-3.14,-3.14,3.14,3.14,-3.14,3.14
273,3.6424291481158435,3.0304779935275103,1.7177825582244737,6.1354745345696395,4.750540386368706,1.2373012206486427,5.975425593386476,1.0,-3.14,-3.14,3.14,3.14,-3.14,3.14
274,3.6424291481158435,3.0304779935275103,1.7177825582244737,6.1354745345696395,4.750540386368706,1.2373012206486427,5.975425593386476,1.0,-3.14,-3.14,3.14,3.14,-3.14,3.14
275,3.6424291481158435,3.0304779935275103,1.7177825582244737,6.1354745345696395,4.750540386368706,1.2373012206486427,5.975425593386476,1.0,-3.14,-3.14,3.14,3.14,-3.14,3.14
276,3.6424291481158435,3.0304779935275103,1.7177825582244737,6.1354745345696395,4.750540386368706,1.2373012206486427,5.975425593386476,1.0,-3.14,-3.14,3.14,3.14,-3.14,3.14
277,3.6424291481158435,3.0304779935275103,1.7177825582244737,6.1354745345696395,4.750540386368706,1.2373012206486427,5.975425593386476,1.0,-3.14,-3.14,3.14,3.14,-3.14,3.14
278,3.6424291481158435,3.0304779935275103,1.7177825582244737,6.1354745345696395,4.750540386368706,1.2373012206486427,5.975425593386476,1.0,-3.14,-3.14,3.14,3.14,-3.14,3.14
279,3.6424291481158435,3.0304779935275103,1.7177825582244737,6.1354745345696395,4.750540386368706,1.2373012206486427,5.975425593386476,1.0,-3.14,-3.14,3.14,3.14,-3.14,3.14
280,3.6424291481158435,3.0304779935275103,1.7177825582244737,6.1354745345696395,4.750540386368706,1.2373012206486427,5.975425593386476,1.0,-3.14,-3.14,3.14,3.14,-3.14,3.14
281,3.6424291481158435,3.0304779935275103,1.7177825582244737,6.1354745345696395,4.750540386368706,1.2373012206486427,5.975425593386476,1.0,-3.14,-3.14,3.14,3.14,-3.14,3.14
282,3.6424291481158435,3.0304779935275103,1.7177825582244737,6.1354745345696395,4.750540386368706,1.2373012206486427,5.975425593386476,1.0,-3.14,-3.14,3.14,3.14,-3.14,3.14
283,3.6424291481158435,3.0304779935275103,1.7177825582244737,6.1354745345696395,4.750540386368706,1.2373012206486427,5.975425593386476,1.0,-3.14,-3.14,3.14,3.14,-3.14,3.14
284,3.6424291481158435,3.0304779935275103,1.7177825582244737,6.1354745345696395,4.750540386368706,1.2373012206486427,5.975425593386476,1.0,-3.14,-3.14,3.14,3.14,-3.14,3.14
285,3.6424291481158435,3.0304779935275103,1.7177825582244737,6.1354745345696395,4.750540386368706,1.2373012206486427,5.975425593386476,1.0,-3.14,-3.14,3.14,3.14,-3.14,3.14
286,3.6424291481158435,3.0304779935275103,1.7177825582244737,6.1354745345696395,4.750540386368706,1.2373012206486427,5.975425593386476,1.0,-3.14,-3.14,3.14,3.14,-3.14,3.14
287,3.6424291481158435,3.0304779935275103,1.7177825582244737,6.1354745345696395,4.750540386368706,1.2373012206486427,5.975425593386476,1.0,-3.14,-3.14,3.14,3.14,-3.14,3.14
288,3.6424291481158435,3.0304779935275103,1.7177825582244737,6.1354745345696395,4.750540386368706,1.2373012206486427,5.975425593386476,1.0,-3.14,-3.14,3.14,3.14,-3.14,3.14
289,3.6424291481158435,3.0304779935275103,1.7177825582244737,6.1354745345696395,4.750540386368706,1.2373012206486427,5.975425593386476,1.0,-3.14,-3.14,3.14,3.14,-3.14,3.14
290,3.6424291481158435,3.0304779935275103,1.7177825582244737,6.1354745345696395,4.750540386368706,1.2373012206486427,5.975425593386476,1.0,-3.14,-3.14,3.14,3.14,-3.14,3.14
291,3.6424291481158435,3.0304779935275103,1.7177825582244737,6.1354745345696395,4.750540386368706,1.2373012206486427,5.975425593386476,1.0,-3.14,-3.14,3.14,3.14,-3.14,3.14
292,3.6424291481158435,3.0304779935275103,1.7177825582244737,6.1354745345696395,4.750540386368706,1.2373012206486427,5.975425593386476,1.0,-3.14,-3.14,3.14,3.14,-3.14,3.14
293,3.6424291481158435,3.0304779935275103,1.7177825582244737,6.1354745345696395,4.750540386368706,1.2373012206486427,5.975425593386476,1.0,-3.14,-3.14,3.14,3.14,-3.14,3.14
294,3.6424291481158435,3.0304779935275103,1.7177825582244737,6.1354745345696395,4.750540386368706,1.2373012206486427,5.975425593386476,1.0,-3.14,-3.14,3.14,3.14,-3.14,3.14
295,3.6424291481158435,3.0304779935275103,1.7177825582244737,6.1354745345696395,4.750540386368706,1.2373012206486427,5.975425593386476,1.0,-3.14,-3.14,3.14,3.14,-3.14,3.14
296,3.6424291481158435,3.0304779935275103,1.7177825582244737,6.1354745345696395,4.750540386368706,1.2373012206486427,5.975425593386476,1.0,-3.14,-3.14,3.14,3.14,-3.14,3.14
297,3.6424291481158435,3.0304779935275103,1.7177825582244737,6.1354745345696395,4.750540386368706,1.2373012206486427,5.975425593386476,1.0,-3.14,-3.14,3.14,3.14,-3.14,3.14
298,3.6424291481158435,3.0304779935275103,1.7177825582244737,6.1354745345696395,4.750540386368706,1.2373012206486427,5.975425593386476,1.0,-3.14,-3.14,3.14,3.14,-3.14,3.14
299,3.6424291481158435,3.0304779935275103,1.7177825582244737,6.1354745345696395,4.750540386368706,1.2373012206486427,5.975425593386476,1.0,-3.14,-3.14,3.14,3.14,-3.14,3.14
300,3.6424291481158435,3.0304779935275103,1.7177825582244737,6.1354745345696395,4.750540386368706,1.2373012206486427,5.975425593386476,1.0,-3.14,-3.14,3.14,3.14,-3.14,3.14
301,3.6424291481158435,3.0304779935275103,1.7177825582244737,6.1354745345696395,4.750540386368706,1.2373012206486427,5.975425593386476,1.0,-3.14,-3.14,3.14,3.14,-3.14,3.14
302,3.6424291481158435,3.0304779935275103,1.7177825582244737,6.1354745345696395,4.750540386368706,1.2373012206486427,5.975425593386476,1.0,-3.14,-3.14,3.14,3.14,-3.14,3.14
303,3.6424291481158435,3.0304779935275103,1.7177825582244737,6.1354745345696395,4.750540386368706,1.2373012206486427,5.975425593386476,1.0,-3.14,-3.14,3.14,3.14,-3.14,3.14
304,3.6424291481158435,3.0304779935275103,1.7177825582244737,6.1354745345696395,4.750540386368706,1.2373012206486427,5.975425593386476,1.0,-3.14,-3.14,3.14,3.14,-3.14,3.14
305,3.6424291481158435,3.0304779935275103,1.7177825582244737,6.1354745345696395,4.750540386368706,1.2373012206486427,5.975425593386476,1.0,-3.14,-3.14,3.14,3.14,-3.14,3.14
306,3.6424291481158435,3.0304779935275103,1.7177825582244737,6.1354745345696395,4.750540386368706,1.2373012206486427,5.975425593386476,1.0,-3.14,-3.14,3.14,3.14,-3.14,3.14
307,3.6424291481158435,3.0304779935275103,1.7177825582244737,6.1354745345696395,4.750540386368706,1.2373012206486427,5.975425593386476,1.0,-3.14,-3.14,3.14,3.14,-3.14,3.14
308,3.6424291481158435,3.0304779935275103,1.7177825582244737,6.1354745345696395,4.750540386368706,1.2373012206486427,5.975425593386476,1.0,-3.14,-3.14,3.14,3.14,-3.14,3.14
309,3.6424291481158435,3.0304779935275103,1.7177825582244737,6.1354745345696395,4.750540386368706,1.2373012206486427,5.975425593386476,1.0,-3.14,-3.14,3.14,3.14,-3.14,3.14
310,3.6424291481158435,3.0304779935275103,1.7177825582244737,6.1354745345696395,4.750540386368706,1.2373012206486427,5.975425593386476,1.0,-3.14,-3.14,3.14,3.14,-3.14,3.14
311,3.6424291481158435,3.0304779935275103,1.7177825582244737,6.1354745345696395,4.750540386368706,1.2373012206486427,5.975425593386476,1.0,-3.14,-3.14,3.14,3.14,-3.14,3.14
312,3.6424291481158435,3.0304779935275103,1.7177825582244737,6.1354745345696395,4.750540386368706,1.2373012206486427,5.975425593386476,1.0,-3.14,-3.14,3.14,3.14,-3.14,3.14
313,3.6424291481158435,3.0304779935275103,1.7177825582244737,6.1354745345696395,4.750540386368706,1.2373012206486427,5.975425593386476,1.0,-3.14,-3.14,3.14,3.14,-3.14,3.14
314,3.6424291481158435,3.0304779935275103,1.7177825582244737,6.1354745345696395,4.750540386368706,1.2373012206486427,5.975425593386476,1.0,-3.14,-3.14,3.14,3.14,-3.14,3.14
315,3.6424291481158435,3.0304779935275103,1.7177825582244737,6.1354745345696395,4.750540386368706,1.2373012206486427,5.975425593386476,1.0,-3.14,-3.14,3.14,3.14,-3.14,3.14
316,3.6424291481158435,3.0304779935275103,1.7177825582244737,6.1354745345696395,4.750540386368706,1.2373012206486427,5.975425593386476,1.0,-3.14,-3.14,3.14,3.14,-3.14,3.14
317,3.6424291481158435,3.0304779935275103,1.7177825582244737,6.1354745345696395,4.750540386368706,1.2373012206486427,5.975425593386476,1.0,-3.14,-3.14,3.14,3.14,-3.14,3.14
318,3.6424291481158435,3.0304779935275103,1.7177825582244737,6.1354745345696395,4.750540386368706,1.2373012206486427,5.975425593386476,1.0,-3.14,-3.14,3.14,3.14,-3.14,3.14
319,3.6424291481158435,3.0304779935275103,1.7177825582244737,6.1354745345696395,4.750540386368706,1.2373012206486427,5.975425593386476,1.0,-3.14,-3.14,3.14,3.14,-3.14,3.14
320,3.6424291481158435,3.0304779935275103,1.7177825582244737,6.1354745345696395,4.750540386368706,1.2373012206486427,5.975425593386476,1.0,-3.14,-3.14,3.14,3.14,-3.14,3.14
321,3.6424291481158435,3.0304779935275103,1.7177825582244737,6.1354745345696395,4.750540386368706,1.2373012206486427,5.975425593386476,1.0,-3.14,-3.14,3.14,3.14,-3.14,3.14
322,3.6424291481158435,3.0304779935275103,1.7177825582244737,6.1354745345696395,4.750540386368706,1.2373012206486427,5.975425593386476,1.0,-3.14,-3.14,3.14,3.14,-3.14,3.14
323,3.6424291481158435,3.0304779935275103,1.7177825582244737,6.1354745345696395,4.750540386368706,1.2373012206486427,5.975425593386476,1.0,-3.14,-3.14,3.14,3.14,-3.14,3.14
324,3.6424291481158435,3.0304779935275103,1.7177825582244737,6.1354745345696395,4.750540386368706,1.2373012206486427,5.975425593386476,1.0,-3.14,-3.14,3.14,3.14,-3.14,3.14
325,3.6424291481158435,3.0304779935275103,1.7177825582244737,6.1354745345696395,4.750540386368706,1.2373012206486427,5.975425593386476,1.0,-3.14,-3.14,3.14,3.14,-3.14,3.14
326,3.6424291481158435,3.0304779935275103,1.7177825582244737,6.1354745345696395,4.750540386368706,1.2373012206486427,5.975425593386476,1.0,-3.14,-3.14,3.14,3.14,-3.14,3.14
327,3.6424291481158435,3.0304779935275103,1.7177825582244737,6.1354745345696395,4.750540386368706,1.2373012206486427,5.975425593386476,1.0,-3.14,-3.14,3.14,3.14,-3.14,3.14
328,3.6424291481158435,3.0304779935275103,1.7177825582244737,6.1354745345696395,4.750540386368706,1.2373012206486427,5.975425593386476,1.0,-3.14,-3.14,3.14,3.14,-3.14,3.14
329,3.6424291481158435,3.0304779935275103,1.7177825582244737,6.1354745345696395,4.750540386368706,1.2373012206486427,5.975425593386476,1.0,-3.14,-3.14,3.14,3.14,-3.14,3.14
330,3.6424291481158435,3.0304779935275103,1.7177825582244737,6.1354745345696395,4.750540386368706,1.2373012206486427,5.975425593386476,1.0,-3.14,-3.14,3.14,3.14,-3.14,3.14
331,3.6424291481158435,3.0304779935275103,1.7177825582244737,6.1354745345696395,4.750540386368706,1.2373012206486427,5.975425593386476,1.0,-3.14,-3.14,3.14,3.14,-3.14,3.14
332,3.6424291481158435,3.0304779935275103,1.7177825582244737,6.1354745345696395,4.750540386368706,1.2373012206486427,5.975425593386476,1.0,-3.14,-3.14,3.14,3.14,-3.14,3.14
333,3.6424291481158435,3.0304779935275103,1.7177825582244737,6.1354745345696395,4.750540386368706,1.2373012206486427,5.975425593386476,1.0,-3.14,-3.14,3.14,3.14,-3.14,3.14
334,3.6424291481158435,3.0304779935275103,1.7177825582244737,6.1354745345696395,4.750540386368706,1.2373012206486427,5.975425593386476,1.0,-3.14,-3.14,3.14,3.14,-3.14,3.14
335,3.6424291481158435,3.0304779935275103,1.7177825582244737,6.1354745345696395,4.750540386368706,1.2373012206486427,5.975425593386476,1.0,-3.14,-3.14,3.14,3.14,-3.14,3.14
336,3.6424291481158435,3.0304779935275103,1.7177825582244737,6.1354745345696395,4.750540386368706,1.2373012206486427,5.975425593386476,1.0,-3.14,-3.14,3.14,3.14,-3.14,3.14
337,3.6424291481158435,3.0304779935275103,1.7177825582244737,6.1354745345696395,4.750540386368706,1.2373012206486427,5.975425593386476,1.0,-3.14,-3.14,3.14,3.14,-3.14,3.14
338,3.6424291481158435,3.0304779935275103,1.7177825582244737,6.1354745345696395,4.750540386368706,1.2373012206486427,5.975425593386476,1.0,-3.14,-3.14,3.14,3.14,-3.14,3.14
339,3.6424291481158435,3.0304779935275103,1.7177825582244737,6.1354745345696395,4.750540386368706,1.2373012206486427,5.975425593386476,1.0,-3.14,-3.14,3.14,3.14,-3.14,3.14
340,3.6424291481158435,3.0304779935275103,1.7177825582244737,6.1354745345696395,4.750540386368706,1.2373012206486427,5.975425593386476,1.0,-3.14,-3.14,3.14,3.14,-3.14,3.14
341,3.6424291481158435,3.0304779935275103,1.7177825582244737,6.1354745345696395,4.750540386368706,1.2373012206486427,5.975425593386476,1.0,-3.14,-3.14,3.14,3.14,-3.14,3.14
342,3.6424291481158435,3.0304779935275103,1.7177825582244737,6.1354745345696395,4.750540386368706,1.2373012206486427,5.975425593386476,1.0,-3.14,-3.14,3.14,3.14,-3.14,3.14
343,3.6424291481158435,3.0304779935275103,1.7177825582244737,6.1354745345696395,4.750540386368706,1.2373012206486427,5.975425593386476,1.0,-3.14,-3.14,3.14,3.14,-3.14,3.14
344,3.6424291481158435,3.0304779935275103,1.7177825582244737,6.1354745345696395,4.750540386368706,1.2373012206486427,5.975425593386476,1.0,-3.14,-3.14,3.14,3.14,-3.14,3.14
345,3.6424291481158435,3.0304779935275103,1.7177825582244737,6.1354745345696395,4.750540386368706,1.2373012206486427,5.975425593386476,1.0,-3.14,-3.14,3.14,3.14,-3.14,3.14
346,3.6424291481158435,3.0304779935275103,1.7177825582244737,6.1354745345696395,4.750540386368706,1.2373012206486427,5.975425593386476,1.0,-3.14,-3.14,3.14,3.14,-3.14,3.14
347,3.6424291481158435,3.0304779935275103,1.7177825582244737,6.1354745345696395,4.750540386368706,1.2373012206486427,5.975425593386476,1.0,-3.14,-3.14,3.14,3.14,-3.14,3.14
348,3.6424291481158435,3.0304779935275103,1.7177825582244737,6.1354745345696395,4.750540386368706,1.2373012206486427,5.975425593386476,1.0,-3.14,-3.14,3.14,3.14,-3.14,3.14
349,3.6424291481158435,3.0304779935275103,1.7177825582244737,6.1354745345696395,4.750540386368706,1.2373012206486427,5.975425593386476,1.0,-3.14,-3.14,3.14,3.14,-3.14,3.14
350,3.6424291481158435,3.0304779935275103,1.7177825582244737,6.1354745345696395,4.750540386368706,1.2373012206486427,5.975425593386476,1.0,-3.14,-3.14,3.14,3.14,-3.14,3.14
351,3.6424291481158435,3.0304779935275103,1.7177825582244737,6.1354745345696395,4.750540386368706,1.2373012206486427,5.975425593386476,1.0,-3.14,-3.14,3.14,3.14,-3.14,3.14
352,3.6424291481158435,3.0304779935275103,1.7177825582244737,6.1354745345696395,4.750540386368706,1.2373012206486427,5.975425593386476,1.0,-3.14,-3.14,3.14,3.14,-3.14,3.14
353,3.6424291481158435,3.0304779935275103,1.7177825582244737,6.1354745345696395,4.750540386368706,1.2373012206486427,5.975425593386476,1.0,-3.14,-3.14,3.14,3.14,-3.14,3.14
354,3.6424291481158435,3.0304779935275103,1.7177825582244737,6.1354745345696395,4.750540386368706,1.2373012206486427,5.975425593386476,1.0,-3.14,-3.14,3.14,3.14,-3.14,3.14
355,3.6424291481158435,3.0304779935275103,1.7177825582244737,6.1354745345696395,4.750540386368706,1.2373012206486427,5.975425593386476,1.0,-3.14,-3.14,3.14,3.14,-3.14,3.14
356,3.6424291481158435,3.0304779935275103,1.7177825582244737,6.1354745345696395,4.750540386368706,1.2373012206486427,5.975425593386476,1.0,-3.14,-3.14,3.14,3.14,-3.14,3.14
357,3.6424291481158435,3.0304779935275103,1.7177825582244737,6.1354745345696395,4.750540386368706,1.2373012206486427,5.975425593386476,1.0,-3.14,-3.14,3.14,3.14,-3.14,3.14
358,3.6424291481158435,3.0304779935275103,1.7177825582244737,6.1354745345696395,4.750540386368706,1.2373012206486427,5.975425593386476,1.0,-3.14,-3.14,3.14,3.14,-3.14,3.14
359,3.6424291481158435,3.0304779935275103,1.7177825582244737,6.1354745345696395,4.750540386368706,1.2373012206486427,5.975425593386476,1.0,-3.14,-3.14,3.14,3.14,-3.14,3.14
360,3.6424291481158435,3.0304779935275103,1.7177825582244737,6.1354745345696395,4.750540386368706,1.2373012206486427,5.975425593386476,1.0,-3.14,-3.14,3.14,3.14,-3.14,3.14
361,3.6424291481158435,3.0304779935275103,1.7177825582244737,6.1354745345696395,4.750540386368706,1.2373012206486427,5.975425593386476,1.0,-3.14,-3.14,3.14,3.14,-3.14,3.14
362,3.6424291481158435,3.0304779935275103,1.7177825582244737,6.1354745345696395,4.750540386368706,1.2373012206486427,5.975425593386476,1.0,-3.14,-3.14,3.14,3.14,-3.14,3.14
363,3.6424291481158435,3.0304779935275103,1.7177825582244737,6.1354745345696395,4.750540386368706,1.2373012206486427,5.975425593386476,1.0,-3.14,-3.14,3.14,3.14,-3.14,3.14
364,3.6424291481158435,3.0304779935275103,1.7177825582244737,6.1354745345696395,4.750540386368706,1.2373012206486427,5.975425593386476,1.0,-3.14,-3.14,3.14,3.14,-3.14,3.14
365,3.6424291481158435,3.0304779935275103,1.7177825582244737,6.1354745345696395,4.750540386368706,1.2373012206486427,5.975425593386476,1.0,-3.14,-3.14,3.14,3.14,-3.14,3.14
366,3.6424291481158435,3.0304779935275103,1.7177825582244737,6.1354745345696395,4.750540386368706,1.2373012206486427,5.975425593386476,1.0,-3.14,-3.14,3.14,3.14,-3.14,3.14
367,3.6424291481158435,3.0304779935275103,1.7177825582244737,6.1354745345696395,4.750540386368706,1.2373012206486427,5.975425593386476,1.0,-3.14,-3.14,3.14,3.14,-3.14,3.14
368,3.6424291481158435,3.0304779935275103,1.7177825582244737,6.1354745345696395,4.750540386368706,1.2373012206486427,5.975425593386476,1.0,-3.14,-3.14,3.14,3.14,-3.14,3.14
369,3.6424291481158435,3.0304779935275103,1.7177825582244737,6.1354745345696395,4.750540386368706,1.2373012206486427,5.975425593386476,1.0,-3.14,-3.14,3.14,3.14,-3.14,3.14
370,3.6424291481158435,3.0304779935275103,1.7177825582244737,6.1354745345696395,4.750540386368706,1.2373012206486427,5.975425593386476,1.0,-3.14,-3.14,3.14,3.14,-3.14,3.14
371,3.6424291481158435,3.0304779935275103,1.7177825582244737,6.1354745345696395,4.750540386368706,1.2373012206486427,5.975425593386476,1.0,-3.14,-3.14,3.14,3.14,-3.14,3.14
372,3.6424291481158435,3.0304779935275103,1.7177825582244737,6.1354745345696395,4.750540386368706,1.2373012206486427,5.975425593386476,1.0,-3.14,-3.14,3.14,3.14,-3.14,3.14
373,3.6424291481158435,3.0304779935275103,1.7177825582244737,6.1354745345696395,4.750540386368706,1.2373012206486427,5.975425593386476,1.0,-3.14,-3.14,3.14,3.14,-3.14,3.14
374,3.6424291481158435,3.0304779935275103,1.7177825582244737,6.1354745345696395,4.750540386368706,1.2373012206486427,5.975425593386476,1.0,-3.14,-3.14,3.14,3.14,-3.14,3.14
375,3.6424291481158435,3.0304779935275103,1.7177825582244737,6.1354745345696395,4.750540386368706,1.2373012206486427,5.975425593386476,1.0,-3.14,-3.14,3.14,3.14,-3.14,3.14
376,3.6424291481158435,3.0304779935275103,1.7177825582244737,6.1354745345696395,4.750540386368706,1.2373012206486427,5.975425593386476,1.0,-3.14,-3.14,3.14,3.14,-3.14,3.14
377,3.6424291481158435,3.0304779935275103,1.7177825582244737,6.1354745345696395,4.750540386368706,1.2373012206486427,5.975425593386476,1.0,-3.14,-3.14,3.14,3.14,-3.14,3.14
378,3.6424291481158435,3.0304779935275103,1.7177825582244737,6.1354745345696395,4.750540386368706,1.2373012206486427,5.975425593386476,1.0,-3.14,-3.14,3.14,3.14,-3.14,3.14
379,3.6424291481158435,3.0304779935275103,1.7177825582244737,6.1354745345696395,4.750540386368706,1.2373012206486427,5.975425593386476,1.0,-3.14,-3.14,3.14,3.14,-3.14,3.14
380,3.6424291481158435,3.0304779935275103,1.7177825582244737,6.1354745345696395,4.750540386368706,1.2373012206486427,5.975425593386476,1.0,-3.14,-3.14,3.14,3.14,-3.14,3.14
381,3.6424291481158435,3.0304779935275103,1.7177825582244737,6.1354745345696395,4.750540386368706,1.2373012206486427,5.975425593386476,1.0,-3.14,-3.14,3.14,3.14,-3.14,3.14
382,3.6424291481158435,3.0304779935275103,1.7177825582244737,6.1354745345696395,4.750540386368706,1.2373012206486427,5.975425593386476,1.0,-3.14,-3.14,3.14,3.14,-3.14,3.14
383,3.6424291481158435,3.0304779935275103,1.7177825582244737,6.1354745345696395,4.750540386368706,1.2373012206486427,5.975425593386476,1.0,-3.14,-3.14,3.14,3.14,-3.14,3.14
384,3.6424291481158435,3.0304779935275103,1.7177825582244737,6.1354745345696395,4.750540386368706,1.2373012206486427,5.975425593386476,1.0,-3.14,-3.14,3.14,3.14,-3.14,3.14
385,3.6424291481158435,3.0304779935275103,1.7177825582244737,6.1354745345696395,4.750540386368706,1.2373012206486427,5.975425593386476,1.0,-3.14,-3.14,3.14,3.14,-3.14,3.14
386,3.6424291481158435,3.0304779935275103,1.7177825582244737,6.1354745345696395,4.750540386368706,1.2373012206486427,5.975425593386476,1.0,-3.14,-3.14,3.14,3.14,-3.14,3.14
387,3.6424291481158435,3.0304779935275103,1.7177825582244737,6.1354745345696395,4.750540386368706,1.2373012206486427,5.975425593386476,1.0,-3.14,-3.14,3.14,3.14,-3.14,3.14
388,3.6424291481158435,3.0304779935275103,1.7177825582244737,6.1354745345696395,4.750540386368706,1.2373012206486427,5.975425593386476,1.0,-3.14,-3.14,3.14,3.14,-3.14,3.14
389,3.6424291481158435,3.0304779935275103,1.7177825582244737,6.1354745345696395,4.750540386368706,1.2373012206486427,5.975425593386476,1.0,-3.14,-3.14,3.14,3.14,-3.14,3.14
390,3.6424291481158435,3.0304779935275103,1.7177825582244737,6.1354745345696395,4.750540386368706,1.2373012206486427,5.975425593386476,1.0,-3.14,-3.14,3.14,3.14,-3.14,3.14
391,3.6424291481158435,3.0304779935275103,1.7177825582244737,6.1354745345696395,4.750540386368706,1.2373012206486427,5.975425593386476,1.0,-3.14,-3.14,3.14,3.14,-3.14,3.14
392,3.6424291481158435,3.0304779935275103,1.7177825582244737,6.1354745345696395,4.750540386368706,1.2373012206486427,5.975425593386476,1.0,-3.14,-3.14,3.14,3.14,-3.14,3.14
393,3.6424291481158435,3.0304779935275103,1.7177825582244737,6.1354745345696395,4.750540386368706,1.2373012206486427,5.975425593386476,1.0,-3.14,-3.14,3.14,3.14,-3.14,3.14
394,3.6424291481158435,3.0304779935275103,1.7177825582244737,6.1354745345696395,4.750540386368706,1.2373012206486427,5.975425593386476,1.0,-3.14,-3.14,3.14,3.14,-3.14,3.14
395,3.6424291481158435,3.0304779935275103,1.7177825582244737,6.1354745345696395,4.750540386368706,1.2373012206486427,5.975425593386476,1.0,-3.14,-3.14,3.14,3.14,-3.14,3.14
396,3.6424291481158435,3.0304779935275103,1.7177825582244737,6.1354745345696395,4.750540386368706,1.2373012206486427,5.975425593386476,1.0,-3.14,-3.14,3.14,3.14,-3.14,3.14
397,3.6424291481158435,3.0304779935275103,1.7177825582244737,6.1354745345696395,4.750540386368706,1.2373012206486427,5.975425593386476,1.0,-3.14,-3.14,3.14,3.14,-3.14,3.14
398,3.6424291481158435,3.0304779935275103,1.7177825582244737,6.1354745345696395,4.750540386368706,1.2373012206486427,5.975425593386476,1.0,-3.14,-3.14,3.14,3.14,-3.14,3.14
399,3.6424291481158435,3.0304779935275103,1.7177825582244737,6.1354745345696395,4.750540386368706,1.2373012206486427,5.975425593386476,1.0,-3.14,-3.14,3.14,3.14,-3.14,3.14
400,3.6424291481158435,3.0304779935275103,1.7177825582244737,6.1354745345696395,4.750540386368706,1.2373012206486427,5.975425593386476,1.0,-3.14,-3.14,3.14,3.14,-3.14,3.14
401,3.6424291481158435,3.0304779935275103,1.7177825582244737,6.1354745345696395,4.750540386368706,1.2373012206486427,5.975425593386476,1.0,-3.14,-3.14,3.14,3.14,-3.14,3.14
402,3.6424291481158435,3.0304779935275103,1.7177825582244737,6.1354745345696395,4.750540386368706,1.2373012206486427,5.975425593386476,1.0,-3.14,-3.14,3.14,3.14,-3.14,3.14
403,3.6424291481158435,3.0304779935275103,1.7177825582244737,6.1354745345696395,4.750540386368706,1.2373012206486427,5.975425593386476,1.0,-3.14,-3.14,3.14,3.14,-3.14,3.14
404,3.6424291481158435,3.0304779935275103,1.7177825582244737,6.1354745345696395,4.750540386368706,1.2373012206486427,5.975425593386476,1.0,-3.14,-3.14,3.14,3.14,-3.14,3.14
405,3.6424291481158435,3.0304779935275103,1.7177825582244737,6.1354745345696395,4.750540386368706,1.2373012206486427,5.975425593386476,1.0,-3.14,-3.14,3.14,3.14,-3.14,3.14
406,3.6424291481158435,3.0304779935275103,1.7177825582244737,6.1354745345696395,4.750540386368706,1.2373012206486427,5.975425593386476,1.0,-3.14,-3.14,3.14,3.14,-3.14,3.14
407,3.6424291481158435,3.0304779935275103,1.7177825582244737,6.1354745345696395,4.750540386368706,1.2373012206486427,5.975425593386476,1.0,-3.14,-3.14,3.14,3.14,-3.14,3.14
408,3.6424291481158435,3.0304779935275103,1.7177825582244737,6.1354745345696395,4.750540386368706,1.2373012206486427,5.975425593386476,1.0,-3.14,-3.14,3.14,3.14,-3.14,3.14
409,3.6424291481158435,3.0304779935275103,1.7177825582244737,6.1354745345696395,4.750540386368706,1.2373012206486427,5.975425593386476,1.0,-3.14,-3.14,3.14,3.14,-3.14,3.14
410,3.6424291481158435,3.0304779935275103,1.7177825582244737,6.1354745345696395,4.750540386368706,1.2373012206486427,5.975425593386476,1.0,-3.14,-3.14,3.14,3.14,-3.14,3.14
411,3.6424291481158435,3.0304779935275103,1.7177825582244737,6.1354745345696395,4.750540386368706,1.2373012206486427,5.975425593386476,1.0,-3.14,-3.14,3.14,3.14,-3.14,3.14
412,3.6424291481158435,3.0304779935275103,1.7177825582244737,6.1354745345696395,4.750540386368706,1.2373012206486427,5.975425593386476,1.0,-3.14,-3.14,3.14,3.14,-3.14,3.14
413,3.6424291481158435,3.0304779935275103,1.7177825582244737,6.1354745345696395,4.750540386368706,1.2373012206486427,5.975425593386476,1.0,-3.14,-3.14,3.14,3.14,-3.14,3.14
414,3.6424291481158435,3.0304779935275103,1.7177825582244737,6.1354745345696395,4.750540386368706,1.2373012206486427,5.975425593386476,1.0,-3.14,-3.14,3.14,3.14,-3.14,3.14
415,3.6424291481158435,3.0304779935275103,1.7177825582244737,6.1354745345696395,4.750540386368706,1.2373012206486427,5.975425593386476,1.0,-3.14,-3.14,3.14,3.14,-3.14,3.14
416,3.6424291481158435,3.0304779935275103,1.7177825582244737,6.1354745345696395,4.750540386368706,1.2373012206486427,5.975425593386476,1.0,-3.14,-3.14,3.14,3.14,-3.14,3.14
417,3.6424291481158435,3.0304779935275103,1.7177825582244737,6.1354745345696395,4.750540386368706,1.2373012206486427,5.975425593386476,1.0,-3.14,-3.14,3.14,3.14,-3.14,3.14
418,3.6424291481158435,3.0304779935275103,1.7177825582244737,6.1354745345696395,4.750540386368706,1.2373012206486427,5.975425593386476,1.0,-3.14,-3.14,3.14,3.14,-3.14,3.14
419,3.6424291481158435,3.0304779935275103,1.7177825582244737,6.1354745345696395,4.750540386368706,1.2373012206486427,5.975425593386476,1.0,-3.14,-3.14,3.14,3.14,-3.14,3.14
420,3.6424291481158435,3.0304779935275103,1.7177825582244737,6.1354745345696395,4.750540386368706,1.2373012206486427,5.975425593386476,1.0,-3.14,-3.14,3.14,3.14,-3.14,3.14
421,3.6424291481158435,3.0304779935275103,1.7177825582244737,6.1354745345696395,4.750540386368706,1.2373012206486427,5.975425593386476,1.0,-3.14,-3.14,3.14,3.14,-3.14,3.14
422,3.6424291481158435,3.0304779935275103,1.7177825582244737,6.1354745345696395,4.750540386368706,1.2373012206486427,5.975425593386476,1.0,-3.14,-3.14,3.14,3.14,-3.14,3.14
423,3.6424291481158435,3.0304779935275103,1.7177825582244737,6.1354745345696395,4.750540386368706,1.2373012206486427,5.975425593386476,1.0,-3.14,-3.14,3.14,3.14,-3.14,3.14
424,3.6424291481158435,3.0304779935275103,1.7177825582244737,6.1354745345696395,4.750540386368706,1.2373012206486427,5.975425593386476,1.0,-3.14,-3.14,3.14,3.14,-3.14,3.14
425,3.6424291481158435,3.0304779935275103,1.7177825582244737,6.1354745345696395,4.750540386368706,1.2373012206486427,5.975425593386476,1.0,-3.14,-3.14,3.14,3.14,-3.14,3.14
426,3.6424291481158435,3.0304779935275103,1.7177825582244737,6.1354745345696395,4.750540386368706,1.2373012206486427,5.975425593386476,1.0,-3.14,-3.14,3.14,3.14,-3.14,3.14
427,3.6424291481158435,3.0304779935275103,1.7177825582244737,6.1354745345696395,4.750540386368706,1.2373012206486427,5.975425593386476,1.0,-3.14,-3.14,3.14,3.14,-3.14,3.14
428,3.6424291481158435,3.0304779935275103,1.7177825582244737,6.1354745345696395,4.750540386368706,1.2373012206486427,5.975425593386476,1.0,-3.14,-3.14,3.14,3.14,-3.14,3.14
429,3.6424291481158435,3.0304779935275103,1.7177825582244737,6.1354745345696395,4.750540386368706,1.2373012206486427,5.975425593386476,1.0,-3.14,-3.14,3.14,3.14,-3.14,3.14
430,3.6424291481158435,3.0304779935275103,1.7177825582244737,6.1354745345696395,4.750540386368706,1.2373012206486427,5.975425593386476,1.0,-3.14,-3.14,3.14,3.14,-3.14,3.14
431,3.6424291481158435,3.0304779935275103,1.7177825582244737,6.1354745345696395,4.750540386368706,1.2373012206486427,5.975425593386476,1.0,-3.14,-3.14,3.14,3.14,-3.14,3.14
432,3.6424291481158435,3.0304779935275103,1.7177825582244737,6.1354745345696395,4.750540386368706,1.2373012206486427,5.975425593386476,1.0,-3.14,-3.14,3.14,3.14,-3.14,3.14
433,3.6424291481158435,3.0304779935275103,1.7177825582244737,6.1354745345696395,4.750540386368706,1.2373012206486427,5.975425593386476,1.0,-3.14,-3.14,3.14,3.14,-3.14,3.14
434,3.6424291481158435,3.0304779935275103,1.7177825582244737,6.1354745345696395,4.750540386368706,1.2373012206486427,5.975425593386476,1.0,-3.14,-3.14,3.14,3.14,-3.14,3.14
435,3.6424291481158435,3.0304779935275103,1.7177825582244737,6.1354745345696395,4.750540386368706,1.2373012206486427,5.975425593386476,1.0,-3.14,-3.14,3.14,3.14,-3.14,3.14
436,3.6424291481158435,3.0304779935275103,1.7177825582244737,6.1354745345696395,4.750540386368706,1.2373012206486427,5.975425593386476,1.0,-3.14,-3.14,3.14,3.14,-3.14,3.14
437,3.6424291481158435,3.0304779935275103,1.7177825582244737,6.1354745345696395,4.750540386368706,1.2373012206486427,5.975425593386476,1.0,-3.14,-3.14,3.14,3.14,-3.14,3.14
438,3.6424291481158435,3.0304779935275103,1.7177825582244737,6.1354745345696395,4.750540386368706,1.2373012206486427,5.975425593386476,1.0,-3.14,-3.14,3.14,3.14,-3.14,3.14
439,3.6424291481158435,3.0304779935275103,1.7177825582244737,6.1354745345696395,4.750540386368706,1.2373012206486427,5.975425593386476,1.0,-3.14,-3.14,3.14,3.14,-3.14,3.14
440,3.6424291481158435,3.0304779935275103,1.7177825582244737,6.1354745345696395,4.750540386368706,1.2373012206486427,5.975425593386476,1.0,-3.14,-3.14,3.14,3.14,-3.14,3.14
441,3.6424291481158435,3.0304779935275103,1.7177825582244737,6.1354745345696395,4.750540386368706,1.2373012206486427,5.975425593386476,1.0,-3.14,-3.14,3.14,3.14,-3.14,3.14
442,3.6424291481158435,3.0304779935275103,1.7177825582244737,6.1354745345696395,4.750540386368706,1.2373012206486427,5.975425593386476,1.0,-3.14,-3.14,3.14,3.14,-3.14,3.14
443,3.6424291481158435,3.0304779935275103,1.7177825582244737,6.1354745345696395,4.750540386368706,1.2373012206486427,5.975425593386476,1.0,-3.14,-3.14,3.14,3.14,-3.14,3.14
444,3.6424291481158435,3.0304779935275103,1.7177825582244737,6.1354745345696395,4.750540386368706,1.2373012206486427,5.975425593386476,1.0,-3.14,-3.14,3.14,3.14,-3.14,3.14
445,3.6424291481158435,3.0304779935275103,1.7177825582244737,6.1354745345696395,4.750540386368706,1.2373012206486427,5.975425593386476,1.0,-3.14,-3.14,3.14,3.14,-3.14,3.14
446,3.6424291481158435,3.0304779935275103,1.7177825582244737,6.1354745345696395,4.750540386368706,1.2373012206486427,5.975425593386476,1.0,-3.14,-3.14,3.14,3.14,-3.14,3.14
447,3.6424291481158435,3.0304779935275103,1.7177825582244737,6.1354745345696395,4.750540386368706,1.2373012206486427,5.975425593386476,1.0,-3.14,-3.14,3.14,3.14,-3.14,3.14
448,3.6424291481158435,3.0304779935275103,1.7177825582244737,6.1354745345696395,4.750540386368706,1.2373012206486427,5.975425593386476,1.0,-3.14,-3.14,3.14,3.14,-3.14,3.14
449,3.6424291481158435,3.0304779935275103,1.7177825582244737,6.1354745345696395,4.750540386368706,1.2373012206486427,5.975425593386476,1.0,-3.14,-3.14,3.14,3.14,-3.14,3.14
450,3.6424291481158435,3.0304779935275103,1.7177825582244737,6.1354745345696395,4.750540386368706,1.2373012206486427,5.975425593386476,1.0,-3.14,-3.14,3.14,3.14,-3.14,3.14
451,3.6424291481158435,3.0304779935275103,1.7177825582244737,6.1354745345696395,4.750540386368706,1.2373012206486427,5.975425593386476,1.0,-3.14,-3.14,3.14,3.14,-3.14,3.14
452,3.6424291481158435,3.0304779935275103,1.7177825582244737,6.1354745345696395,4.750540386368706,1.2373012206486427,5.975425593386476,1.0,-3.14,-3.14,3.14,3.14,-3.14,3.14
453,3.6424291481158435,3.0304779935275103,1.7177825582244737,6.1354745345696395,4.750540386368706,1.2373012206486427,5.975425593386476,1.0,-3.14,-3.14,3.14,3.14,-3.14,3.14
454,3.6424291481158435,3.0304779935275103,1.7177825582244737,6.1354745345696395,4.750540386368706,1.2373012206486427,5.975425593386476,1.0,-3.14,-3.14,3.14,3.14,-3.14,3.14
455,3.6424291481158435,3.0304779935275103,1.7177825582244737,6.1354745345696395,4.750540386368706,1.2373012206486427,5.975425593386476,1.0,-3.14,-3.14,3.14,3.14,-3.14,3.14
456,3.6424291481158435,3.0304779935275103,1.7177825582244737,6.1354745345696395,4.750540386368706,1.2373012206486427,5.975425593386476,1.0,-3.14,-3.14,3.14,3.14,-3.14,3.14
457,3.6424291481158435,3.0304779935275103,1.7177825582244737,6.1354745345696395,4.750540386368706,1.2373012206486427,5.975425593386476,1.0,-3.14,-3.14,3.14,3.14,-3.14,3.14
458,3.6424291481158435,3.0304779935275103,1.7177825582244737,6.1354745345696395,4.750540386368706,1.2373012206486427,5.975425593386476,1.0,-3.14,-3.14,3.14,3.14,-3.14,3.14
459,3.6424291481158435,3.0304779935275103,1.7177825582244737,6.1354745345696395,4.750540386368706,1.2373012206486427,5.975425593386476,1.0,-3.14,-3.14,3.14,3.14,-3.14,3.14
460,3.6424291481158435,3.0304779935275103,1.7177825582244737,6.1354745345696395,4.750540386368706,1.2373012206486427,5.975425593386476,1.0,-3.14,-3.14,3.14,3.14,-3.14,3.14
461,3.6424291481158435,3.0304779935275103,1.7177825582244737,6.1354745345696395,4.750540386368706,1.2373012206486427,5.975425593386476,1.0,-3.14,-3.14,3.14,3.14,-3.14,3.14
462,3.6424291481158435,3.0304779935275103,1.7177825582244737,6.1354745345696395,4.750540386368706,1.2373012206486427,5.975425593386476,1.0,-3.14,-3.14,3.14,3.14,-3.14,3.14
463,3.6424291481158435,3.0304779935275103,1.7177825582244737,6.1354745345696395,4.750540386368706,1.2373012206486427,5.975425593386476,1.0,-3.14,-3.14,3.14,3.14,-3.14,3.14
464,3.6424291481158435,3.0304779935275103,1.7177825582244737,6.1354745345696395,4.750540386368706,1.2373012206486427,5.975425593386476,1.0,-3.14,-3.14,3.14,3.14,-3.14,3.14
465,3.6424291481158435,3.0304779935275103,1.7177825582244737,6.1354745345696395,4.750540386368706,1.2373012206486427,5.975425593386476,1.0,-3.14,-3.14,3.14,3.14,-3.14,3.14
466,3.6424291481158435,3.0304779935275103,1.7177825582244737,6.1354745345696395,4.750540386368706,1.2373012206486427,5.975425593386476,1.0,-3.14,-3.14,3.14,3.14,-3.14,3.14
467,3.6424291481158435,3.0304779935275103,1.7177825582244737,6.1354745345696395,4.750540386368706,1.2373012206486427,5.975425593386476,1.0,-3.14,-3.14,3.14,3.14,-3.14,3.14
468,3.6424291481158435,3.0304779935275103,1.7177825582244737,6.1354745345696395,4.750540386368706,1.2373012206486427,5.975425593386476,1.0,-3.14,-3.14,3.14,3.14,-3.14,3.14
469,3.6424291481158435,3.0304779935275103,1.7177825582244737,6.1354745345696395,4.750540386368706,1.2373012206486427,5.975425593386476,1.0,-3.14,-3.14,3.14,3.14,-3.14,3.14
470,3.6424291481158435,3.0304779935275103,1.7177825582244737,6.1354745345696395,4.750540386368706,1.2373012206486427,5.975425593386476,1.0,-3.14,-3.14,3.14,3.14,-3.14,3.14
471,3.6424291481158435,3.0304779935275103,1.7177825582244737,6.1354745345696395,4.750540386368706,1.2373012206486427,5.975425593386476,1.0,-3.14,-3.14,3.14,3.14,-3.14,3.14
472,3.6424291481158435,3.0304779935275103,1.7177825582244737,6.1354745345696395,4.750540386368706,1.2373012206486427,5.975425593386476,1.0,-3.14,-3.14,3.14,3.14,-3.14,3.14
473,3.6424291481158435,3.0304779935275103,1.7177825582244737,6.1354745345696395,4.750540386368706,1.2373012206486427,5.975425593386476,1.0,-3.14,-3.14,3.14,3.14,-3.14,3.14
474,3.6424291481158435,3.0304779935275103,1.7177825582244737,6.1354745345696395,4.750540386368706,1.2373012206486427,5.975425593386476,1.0,-3.14,-3.14,3.14,3.14,-3.14,3.14
475,3.6424291481158435,3.0304779935275103,1.7177825582244737,6.1354745345696395,4.750540386368706,1.2373012206486427,5.975425593386476,1.0,-3.14,-3.14,3.14,3.14,-3.14,3.14
476,3.6424291481158435,3.0304779935275103,1.7177825582244737,6.1354745345696395,4.750540386368706,1.2373012206486427,5.975425593386476,1.0,-3.14,-3.14,3.14,3.14,-3.14,3.14
477,3.6424291481158435,3.0304779935275103,1.7177825582244737,6.1354745345696395,4.750540386368706,1.2373012206486427,5.975425593386476,1.0,-3.14,-3.14,3.14,3.14,-3.14,3.14
478,3.6424291481158435,3.0304779935275103,1.7177825582244737,6.1354745345696395,4.750540386368706,1.2373012206486427,5.975425593386476,1.0,-3.14,-3.14,3.14,3.14,-3.14,3.14
479,3.6424291481158435,3.0304779935275103,1.7177825582244737,6.1354745345696395,4.750540386368706,1.2373012206486427,5.975425593386476,1.0,-3.14,-3.14,3.14,3.14,-3.14,3.14
480,3.6424291481158435,3.0304779935275103,1.7177825582244737,6.1354745345696395,4.750540386368706,1.2373012206486427,5.975425593386476,1.0,-3.14,-3.14,3.14,3.14,-3.14,3.14
481,3.6424291481158435,3.0304779935275103,1.7177825582244737,6.1354745345696395,4.750540386368706,1.2373012206486427,5.975425593386476,1.0,-3.14,-3.14,3.14,3.14,-3.14,3.14
482,3.6424291481158435,3.0304779935275103,1.7177825582244737,6.1354745345696395,4.750540386368706,1.2373012206486427,5.975425593386476,1.0,-3.14,-3.14,3.14,3.14,-3.14,3.14
483,3.6424291481158435,3.0304779935275103,1.7177825582244737,6.1354745345696395,4.750540386368706,1.2373012206486427,5.975425593386476,1.0,-3.14,-3.14,3.14,3.14,-3.14,3.14
484,3.6424291481158435,3.0304779935275103,1.7177825582244737,6.1354745345696395,4.750540386368706,1.2373012206486427,5.975425593386476,1.0,-3.14,-3.14,3.14,3.14,-3.14,3.14
485,3.6424291481158435,3.0304779935275103,1.7177825582244737,6.1354745345696395,4.750540386368706,1.2373012206486427,5.975425593386476,1.0,-3.14,-3.14,3.14,3.14,-3.14,3.14
486,3.6424291481158435,3.0304779935275103,1.7177825582244737,6.1354745345696395,4.750540386368706,1.2373012206486427,5.975425593386476,1.0,-3.14,-3.14,3.14,3.14,-3.14,3.14
487,3.6424291481158435,3.0304779935275103,1.7177825582244737,6.1354745345696395,4.750540386368706,1.2373012206486427,5.975425593386476,1.0,-3.14,-3.14,3.14,3.14,-3.14,3.14
488,3.6424291481158435,3.0304779935275103,1.7177825582244737,6.1354745345696395,4.750540386368706,1.2373012206486427,5.975425593386476,1.0,-3.14,-3.14,3.14,3.14,-3.14,3.14
489,3.6424291481158435,3.0304779935275103,1.7177825582244737,6.1354745345696395,4.750540386368706,1.2373012206486427,5.975425593386476,1.0,-3.14,-3.14,3.14,3.14,-3.14,3.14
490,3.6424291481158435,3.0304779935275103,1.7177825582244737,6.1354745345696395,4.750540386368706,1.2373012206486427,5.975425593386476,1.0,-3.14,-3.14,3.14,3.14,-3.14,3.14
491,3.6424291481158435,3.0304779935275103,1.7177825582244737,6.1354745345696395,4.750540386368706,1.2373012206486427,5.975425593386476,1.0,-3.14,-3.14,3.14,3.14,-3.14,3.14
492,3.6424291481158435,3.0304779935275103,1.7177825582244737,6.1354745345696395,4.750540386368706,1.2373012206486427,5.975425593386476,1.0,-3.14,-3.14,3.14,3.14,-3.14,3.14
493,3.6424291481158435,3.0304779935275103,1.7177825582244737,6.1354745345696395,4.750540386368706,1.2373012206486427,5.975425593386476,1.0,-3.14,-3.14,3.14,3.14,-3.14,3.14
494,3.6424291481158435,3.0304779935275103,1.7177825582244737,6.1354745345696395,4.750540386368706,1.2373012206486427,5.975425593386476,1.0,-3.14,-3.14,3.14,3.14,-3.14,3.14
495,3.6424291481158435,3.0304779935275103,1.7177825582244737,6.1354745345696395,4.750540386368706,1.2373012206486427,5.975425593386476,1.0,-3.14,-3.14,3.14,3.14,-3.14,3.14
496,3.6424291481158435,3.0304779935275103,1.7177825582244737,6.1354745345696395,4.750540386368706,1.2373012206486427,5.975425593386476,1.0,-3.14,-3.14,3.14,3.14,-3.14,3.14
497,3.6424291481158435,3.0304779935275103,1.7177825582244737,6.1354745345696395,4.750540386368706,1.2373012206486427,5.975425593386476,1.0,-3.14,-3.14,3.14,3.14,-3.14,3.14
498,3.6424291481158435,3.0304779935275103,1.7177825582244737,6.1354745345696395,4.750540386368706,1.2373012206486427,5.975425593386476,1.0,-3.14,-3.14,3.14,3.14,-3.14,3.14
499,3.6424291481158435,3.0304779935275103,1.7177825582244737,6.1354745345696395,4.750540386368706,1.2373012206486427,5.975425593386476,1.0,-3.14,-3.14,3.14,3.14,-3.14,3.14
500,3.6424291481158435,3.0304779935275103,1.7177825582244737,6.1354745345696395,4.750540386368706,1.2373012206486427,5.975425593386476,1.0,-3.14,-3.14,3.14,3.14,-3.14,3.14
501,3.6424291481158435,3.0304779935275103,1.7177825582244737,6.1354745345696395,4.750540386368706,1.2373012206486427,5.975425593386476,1.0,-3.14,-3.14,3.14,3.14,-3.14,3.14
502,3.6424291481158435,3.0304779935275103,1.7177825582244737,6.1354745345696395,4.750540386368706,1.2373012206486427,5.975425593386476,1.0,-3.14,-3.14,3.14,3.14,-3.14,3.14
503,3.6424291481158435,3.0304779935275103,1.7177825582244737,6.1354745345696395,4.750540386368706,1.2373012206486427,5.975425593386476,1.0,-3.14,-3.14,3.14,3.14,-3.14,3.14
504,3.6424291481158435,3.0304779935275103,1.7177825582244737,6.1354745345696395,4.750540386368706,1.2373012206486427,5.975425593386476,1.0,-3.14,-3.14,3.14,3.14,-3.14,3.14
505,3.6424291481158435,3.0304779935275103,1.7177825582244737,6.1354745345696395,4.750540386368706,1.2373012206486427,5.975425593386476,1.0,-3.14,-3.14,3.14,3.14,-3.14,3.14
506,3.6424291481158435,3.0304779935275103,1.7177825582244737,6.1354745345696395,4.750540386368706,1.2373012206486427,5.975425593386476,1.0,-3.14,-3.14,3.14,3.14,-3.14,3.14
507,3.6424291481158435,3.0304779935275103,1.7177825582244737,6.1354745345696395,4.750540386368706,1.2373012206486427,5.975425593386476,1.0,-3.14,-3.14,3.14,3.14,-3.14,3.14
508,3.6424291481158435,3.0304779935275103,1.7177825582244737,6.1354745345696395,4.750540386368706,1.2373012206486427,5.975425593386476,1.0,-3.14,-3.14,3.14,3.14,-3.14,3.14
509,3.6424291481158435,3.0304779935275103,1.7177825582244737,6.1354745345696395,4.750540386368706,1.2373012206486427,5.975425593386476,1.0,-3.14,-3.14,3.14,3.14,-3.14,3.14
510,3.6424291481158435,3.0304779935275103,1.7177825582244737,6.1354745345696395,4.750540386368706,1.2373012206486427,5.975425593386476,1.0,-3.14,-3.14,3.14,3.14,-3.14,3.14
511,3.6424291481158435,3.0304779935275103,1.7177825582244737,6.1354745345696395,4.750540386368706,1.2373012206486427,5.975425593386476,1.0,-3.14,-3.14,3.14,3.14,-3.14,3.14
512,3.6424291481158435,3.0304779935275103,1.7177825582244737,6.1354745345696395,4.750540386368706,1.2373012206486427,5.975425593386476,1.0,-3.14,-3.14,3.14,3.14,-3.14,3.14
513,3.6424291481158435,3.0304779935275103,1.7177825582244737,6.1354745345696395,4.750540386368706,1.2373012206486427,5.975425593386476,1.0,-3.14,-3.14,3.14,3.14,-3.14,3.14
514,3.6424291481158435,3.0304779935275103,1.7177825582244737,6.1354745345696395,4.750540386368706,1.2373012206486427,5.975425593386476,1.0,-3.14,-3.14,3.14,3.14,-3.14,3.14
515,3.6424291481158435,3.0304779935275103,1.7177825582244737,6.1354745345696395,4.750540386368706,1.2373012206486427,5.975425593386476,1.0,-3.14,-3.14,3.14,3.14,-3.14,3.14
516,3.6424291481158435,3.0304779935275103,1.7177825582244737,6.1354745345696395,4.750540386368706,1.2373012206486427,5.975425593386476,1.0,-3.14,-3.14,3.14,3.14,-3.14,3.14
517,3.6424291481158435,3.0304779935275103,1.7177825582244737,6.1354745345696395,4.750540386368706,1.2373012206486427,5.975425593386476,1.0,-3.14,-3.14,3.14,3.14,-3.14,3.14
518,3.6424291481158435,3.0304779935275103,1.7177825582244737,6.1354745345696395,4.750540386368706,1.2373012206486427,5.975425593386476,1.0,-3.14,-3.14,3.14,3.14,-3.14,3.14
519,3.6424291481158435,3.0304779935275103,1.7177825582244737,6.1354745345696395,4.750540386368706,1.2373012206486427,5.975425593386476,1.0,-3.14,-3.14,3.14,3.14,-3.14,3.14
520,3.6424291481158435,3.0304779935275103,1.7177825582244737,6.1354745345696395,4.750540386368706,1.2373012206486427,5.975425593386476,1.0,-3.14,-3.14,3.14,3.14,-3.14,3.14
521,3.6424291481158435,3.0304779935275103,1.7177825582244737,6.1354745345696395,4.750540386368706,1.2373012206486427,5.975425593386476,1.0,-3.14,-3.14,3.14,3.14,-3.14,3.14
522,3.6424291481158435,3.0304779935275103,1.7177825582244737,6.1354745345696395,4.750540386368706,1.2373012206486427,5.975425593386476,1.0,-3.14,-3.14,3.14,3.14,-3.14,3.14
523,3.6424291481158435,3.0304779935275103,1.7177825582244737,6.1354745345696395,4.750540386368706,1.2373012206486427,5.975425593386476,1.0,-3.14,-3.14,3.14,3.14,-3.14,3.14
524,3.6424291481158435,3.0304779935275103,1.7177825582244737,6.1354745345696395,4.750540386368706,1.2373012206486427,5.975425593386476,1.0,-3.14,-3.14,3.14,3.14,-3.14,3.14
525,3.6424291481158435,3.0304779935275103,1.7177825582244737,6.1354745345696395,4.750540386368706,1.2373012206486427,5.975425593386476,1.0,-3.14,-3.14,3.14,3.14,-3.14,3.14
526,3.6424291481158435,3.0304779935275103,1.7177825582244737,6.1354745345696395,4.750540386368706,1.2373012206486427,5.975425593386476,1.0,-3.14,-3.14,3.14,3.14,-3.14,3.14
527,3.6424291481158435,3.0304779935275103,1.7177825582244737,6.1354745345696395,4.750540386368706,1.2373012206486427,5.975425593386476,1.0,-3.14,-3.14,3.14,3.14,-3.14,3.14
528,3.6424291481158435,3.0304779935275103,1.7177825582244737,6.1354745345696395,4.750540386368706,1.2373012206486427,5.975425593386476,1.0,-3.14,-3.14,3.14,3.14,-3.14,3.14
529,3.6424291481158435,3.0304779935275103,1.7177825582244737,6.1354745345696395,4.750540386368706,1.2373012206486427,5.975425593386476,1.0,-3.14,-3.14,3.14,3.14,-3.14,3.14
530,3.6424291481158435,3.0304779935275103,1.7177825582244737,6.1354745345696395,4.750540386368706,1.2373012206486427,5.975425593386476,1.0,-3.14,-3.14,3.14,3.14,-3.14,3.14
531,3.6424291481158435,3.0304779935275103,1.7177825582244737,6.1354745345696395,4.750540386368706,1.2373012206486427,5.975425593386476,1.0,-3.14,-3.14,3.14,3.14,-3.14,3.14
532,3.6424291481158435,3.0304779935275103,1.7177825582244737,6.1354745345696395,4.750540386368706,1.2373012206486427,5.975425593386476,1.0,-3.14,-3.14,3.14,3.14,-3.14,3.14
533,3.6424291481158435,3.0304779935275103,1.7177825582244737,6.1354745345696395,4.750540386368706,1.2373012206486427,5.975425593386476,1.0,-3.14,-3.14,3.14,3.14,-3.14,3.14
534,3.6424291481158435,3.0304779935275103,1.7177825582244737,6.1354745345696395,4.750540386368706,1.2373012206486427,5.975425593386476,1.0,-3.14,-3.14,3.14,3.14,-3.14,3.14
535,3.6424291481158435,3.0304779935275103,1.7177825582244737,6.1354745345696395,4.750540386368706,1.2373012206486427,5.975425593386476,1.0,-3.14,-3.14,3.14,3.14,-3.14,3.14
536,3.6424291481158435,3.0304779935275103,1.7177825582244737,6.1354745345696395,4.750540386368706,1.2373012206486427,5.975425593386476,1.0,-3.14,-3.14,3.14,3.14,-3.14,3.14
537,3.6424291481158435,3.0304779935275103,1.7177825582244737,6.1354745345696395,4.750540386368706,1.2373012206486427,5.975425593386476,1.0,-3.14,-3.14,3.14,3.14,-3.14,3.14
538,3.6424291481158435,3.0304779935275103,1.7177825582244737,6.1354745345696395,4.750540386368706,1.2373012206486427,5.975425593386476,1.0,-3.14,-3.14,3.14,3.14,-3.14,3.14
539,3.6424291481158435,3.0304779935275103,1.7177825582244737,6.1354745345696395,4.750540386368706,1.2373012206486427,5.975425593386476,1.0,-3.14,-3.14,3.14,3.14,-3.14,3.14
540,3.6424291481158435,3.0304779935275103,1.7177825582244737,6.1354745345696395,4.750540386368706,1.2373012206486427,5.975425593386476,1.0,-3.14,-3.14,3.14,3.14,-3.14,3.14
541,3.6424291481158435,3.0304779935275103,1.7177825582244737,6.1354745345696395,4.750540386368706,1.2373012206486427,5.975425593386476,1.0,-3.14,-3.14,3.14,3.14,-3.14,3.14
542,3.6424291481158435,3.0304779935275103,1.7177825582244737,6.1354745345696395,4.750540386368706,1.2373012206486427,5.975425593386476,1.0,-3.14,-3.14,3.14,3.14,-3.14,3.14
543,3.6424291481158435,3.0304779935275103,1.7177825582244737,6.1354745345696395,4.750540386368706,1.2373012206486427,5.975425593386476,1.0,-3.14,-3.14,3.14,3.14,-3.14,3.14
544,3.6424291481158435,3.0304779935275103,1.7177825582244737,6.1354745345696395,4.750540386368706,1.2373012206486427,5.975425593386476,1.0,-3.14,-3.14,3.14,3.14,-3.14,3.14
545,3.6424291481158435,3.0304779935275103,1.7177825582244737,6.1354745345696395,4.750540386368706,1.2373012206486427,5.975425593386476,1.0,-3.14,-3.14,3.14,3.14,-3.14,3.14
546,3.6424291481158435,3.0304779935275103,1.7177825582244737,6.1354745345696395,4.750540386368706,1.2373012206486427,5.975425593386476,1.0,-3.14,-3.14,3.14,3.14,-3.14,3.14
547,3.6424291481158435,3.0304779935275103,1.7177825582244737,6.1354745345696395,4.750540386368706,1.2373012206486427,5.975425593386476,1.0,-3.14,-3.14,3.14,3.14,-3.14,3.14
548,3.6424291481158435,3.0304779935275103,1.7177825582244737,6.1354745345696395,4.750540386368706,1.2373012206486427,5.975425593386476,1.0,-3.14,-3.14,3.14,3.14,-3.14,3.14
549,3.6424291481158435,3.0304779935275103,1.7177825582244737,6.1354745345696395,4.750540386368706,1.2373012206486427,5.975425593386476,1.0,-3.14,-3.14,3.14,3.14,-3.14,3.14
550,3.6424291481158435,3.0304779935275103,1.7177825582244737,6.1354745345696395,4.750540386368706,1.2373012206486427,5.975425593386476,1.0,-3.14,-3.14,3.14,3.14,-3.14,3.14
551,3.6424291481158435,3.0304779935275103,1.7177825582244737,6.1354745345696395,4.750540386368706,1.2373012206486427,5.975425593386476,1.0,-3.14,-3.14,3.14,3.14,-3.14,3.14
552,3.6424291481158435,3.0304779935275103,1.7177825582244737,6.1354745345696395,4.750540386368706,1.2373012206486427,5.975425593386476,1.0,-3.14,-3.14,3.14,3.14,-3.14,3.14
553,3.6424291481158435,3.0304779935275103,1.7177825582244737,6.1354745345696395,4.750540386368706,1.2373012206486427,5.975425593386476,1.0,-3.14,-3.14,3.14,3.14,-3.14,3.14
554,3.6424291481158435,3.0304779935275103,1.7177825582244737,6.1354745345696395,4.750540386368706,1.2373012206486427,5.975425593386476,1.0,-3.14,-3.14,3.14,3.14,-3.14,3.14
555,3.6424291481158435,3.0304779935275103,1.7177825582244737,6.1354745345696395,4.750540386368706,1.2373012206486427,5.975425593386476,1.0,-3.14,-3.14,3.14,3.14,-3.14,3.14
556,3.6424291481158435,3.0304779935275103,1.7177825582244737,6.1354745345696395,4.750540386368706,1.2373012206486427,5.975425593386476,1.0,-3.14,-3.14,3.14,3.14,-3.14,3.14
557,3.6424291481158435,3.0304779935275103,1.7177825582244737,6.1354745345696395,4.750540386368706,1.2373012206486427,5.975425593386476,1.0,-3.14,-3.14,3.14,3.14,-3.14,3.14
558,3.6424291481158435,3.0304779935275103,1.7177825582244737,6.1354745345696395,4.750540386368706,1.2373012206486427,5.975425593386476,1.0,-3.14,-3.14,3.14,3.14,-3.14,3.14
559,3.6424291481158435,3.0304779935275103,1.7177825582244737,6.1354745345696395,4.750540386368706,1.2373012206486427,5.975425593386476,1.0,-3.14,-3.14,3.14,3.14,-3.14,3.14
560,3.6424291481158435,3.0304779935275103,1.7177825582244737,6.1354745345696395,4.750540386368706,1.2373012206486427,5.975425593386476,1.0,-3.14,-3.14,3.14,3.14,-3.14,3.14
561,3.6424291481158435,3.0304779935275103,1.7177825582244737,6.1354745345696395,4.750540386368706,1.2373012206486427,5.975425593386476,1.0,-3.14,-3.14,3.14,3.14,-3.14,3.14
562,3.6424291481158435,3.0304779935275103,1.7177825582244737,6.1354745345696395,4.750540386368706,1.2373012206486427,5.975425593386476,1.0,-3.14,-3.14,3.14,3.14,-3.14,3.14
563,3.6424291481158435,3.0304779935275103,1.7177825582244737,6.1354745345696395,4.750540386368706,1.2373012206486427,5.975425593386476,1.0,-3.14,-3.14,3.14,3.14,-3.14,3.14
564,3.6424291481158435,3.0304779935275103,1.7177825582244737,6.1354745345696395,4.750540386368706,1.2373012206486427,5.975425593386476,1.0,-3.14,-3.14,3.14,3.14,-3.14,3.14
565,3.6424291481158435,3.0304779935275103,1.7177825582244737,6.1354745345696395,4.750540386368706,1.2373012206486427,5.975425593386476,1.0,-3.14,-3.14,3.14,3.14,-3.14,3.14
566,3.6424291481158435,3.0304779935275103,1.7177825582244737,6.1354745345696395,4.750540386368706,1.2373012206486427,5.975425593386476,1.0,-3.14,-3.14,3.14,3.14,-3.14,3.14
567,3.6424291481158435,3.0304779935275103,1.7177825582244737,6.1354745345696395,4.750540386368706,1.2373012206486427,5.975425593386476,1.0,-3.14,-3.14,3.14,3.14,-3.14,3.14
568,3.6424291481158435,3.0304779935275103,1.7177825582244737,6.1354745345696395,4.750540386368706,1.2373012206486427,5.975425593386476,1.0,-3.14,-3.14,3.14,3.14,-3.14,3.14
569,3.6424291481158435,3.0304779935275103,1.7177825582244737,6.1354745345696395,4.750540386368706,1.2373012206486427,5.975425593386476,1.0,-3.14,-3.14,3.14,3.14,-3.14,3.14
570,3.6424291481158435,3.0304779935275103,1.7177825582244737,6.1354745345696395,4.750540386368706,1.2373012206486427,5.975425593386476,1.0,-3.14,-3.14,3.14,3.14,-3.14,3.14
571,3.6424291481158435,3.0304779935275103,1.7177825582244737,6.1354745345696395,4.750540386368706,1.2373012206486427,5.975425593386476,1.0,-3.14,-3.14,3.14,3.14,-3.14,3.14
572,3.6424291481158435,3.0304779935275103,1.7177825582244737,6.1354745345696395,4.750540386368706,1.2373012206486427,5.975425593386476,1.0,-3.14,-3.14,3.14,3.14,-3.14,3.14
573,3.6424291481158435,3.0304779935275103,1.7177825582244737,6.1354745345696395,4.750540386368706,1.2373012206486427,5.975425593386476,1.0,-3.14,-3.14,3.14,3.14,-3.14,3.14
574,3.6424291481158435,3.0304779935275103,1.7177825582244737,6.1354745345696395,4.750540386368706,1.2373012206486427,5.975425593386476,1.0,-3.14,-3.14,3.14,3.14,-3.14,3.14
575,3.6424291481158435,3.0304779935275103,1.7177825582244737,6.1354745345696395,4.750540386368706,1.2373012206486427,5.975425593386476,1.0,-3.14,-3.14,3.14,3.14,-3.14,3.14
576,3.6424291481158435,3.0304779935275103,1.7177825582244737,6.1354745345696395,4.750540386368706,1.2373012206486427,5.975425593386476,1.0,-3.14,-3.14,3.14,3.14,-3.14,3.14
577,3.6424291481158435,3.0304779935275103,1.7177825582244737,6.1354745345696395,4.750540386368706,1.2373012206486427,5.975425593386476,1.0,-3.14,-3.14,3.14,3.14,-3.14,3.14
578,3.6424291481158435,3.0304779935275103,1.7177825582244737,6.1354745345696395,4.750540386368706,1.2373012206486427,5.975425593386476,1.0,-3.14,-3.14,3.14,3.14,-3.14,3.14
579,3.6424291481158435,3.0304779935275103,1.7177825582244737,6.1354745345696395,4.750540386368706,1.2373012206486427,5.975425593386476,1.0,-3.14,-3.14,3.14,3.14,-3.14,3.14
