jkpark150901/flame_robotics_drt/experiment/inspection_ik/session_20260722_142108/fallback/inspection_ik_20260722_142158_rb20_1900es_normalized_fallback.csv
iteration,err_norm,position_error,orientation_error,tcp_x,tcp_y,tcp_z,q0_rt_joint_linear_track,q1_rt_joint_carriage,q2_rt_base,q3_rt_shoulder,q4_rt_elbow,q5_rt_wrist1,q6_rt_wrist2,q7_rt_wrist3
0,2.389660757072695,0.9190176560083998,2.118055223809005,4.631485322295147,1.792568905300028,2.0768260148498023,4.497223448237209,1.0,3.14,-0.5028966482600117,-0.002811534091514911,-3.14,3.14,3.14
1,2.075378056311399,0.7735667908770819,1.8740869162486988,4.610785762172579,1.9456237217146453,1.9661817918734894,4.476280124604988,1.0,3.14,-0.5075826369149734,-0.24343337499983417,-3.14,3.14,3.14
2,1.7905560123596393,0.589463109932195,1.6659912324078892,4.589359285697632,2.147008995863941,1.7839655841530824,4.454533902839329,1.0,3.14,-0.6399064199307058,-0.31973255542482054,-3.135208918705502,3.14,3.134948720915792
3,1.501957720389095,0.4502348954500976,1.4219768244931041,4.573668258344473,2.288157971183481,1.5769274499739048,4.438619401222266,1.0,3.14,-0.7192044843852681,-0.485440400661578,-3.128797696539729,3.14,3.128443607075658
4,1.2492472659452212,0.3534682782004968,1.1935795301664678,4.562215603016196,2.3124965124288974,1.3958443773935265,4.42707617077316,0.9665184317737556,3.14,-0.7416697635694468,-0.6929416268378139,-3.1214921873727572,3.14,3.121102965215357
5,1.062800812356081,0.2942684754297451,1.0192841055608757,4.555167209007152,2.274200564482229,1.2737838853942278,4.420038192610617,0.9337634776212941,3.14,-0.7235994658775126,-0.8872772415401204,-3.1138058663361887,3.14,3.1133759738333096
6,0.9401920037103518,0.2636349428000139,0.9016045235617067,4.551165461948336,2.220250345685001,1.204257845961456,4.416090549858738,0.9128182491573191,3.14,-0.6880295095433298,-1.042651502914253,-3.106370224625992,3.14,3.1058818770086343
7,0.8648796414178345,0.24919489149344487,0.8278048449054148,4.5486838622986685,2.1711875658729376,1.1697073220116891,4.413671737170891,0.9023179542608026,3.14,-0.6487198674197192,-1.1577768967215354,-3.0997472722759833,3.14,3.099186095955986
8,0.8204654241959825,0.24198359200360486,0.7837812560083179,4.546732431627017,2.132873083016448,1.1555505176993495,4.411777463880379,0.899178868420775,3.14,-0.6118774115839296,-1.240349257997504,-3.094259377034203,3.14,3.093616380679552
9,0.7948404549898979,0.23744962101242603,0.7584494663164972,4.54486272872703,2.1052180096948594,1.1522542943530893,4.409955438753455,0.9009026554275422,3.14,-0.5797546562960989,-1.2991198531141541,-3.089968167854427,3.14,3.089238438309883
10,0.7800889141761588,0.23377663665207948,0.7441818544835519,4.542956761372336,2.0862762078801755,1.1541773912517586,4.408088004515378,0.9057381872197925,3.14,-0.5526986568284191,-1.3413951185557211,-3.0867564484095893,3.14,3.085937529729217
11,0.7713520644717056,0.23039923111179292,0.7361015850564012,4.541036828887514,2.073852996972442,1.1581857017929946,4.4061991129266636,0.9125026552429681,3.14,-0.5302030125954124,-1.3726377585736524,-3.0844270016766324,3.14,3.083517725817761
12,0.7657667187939404,0.22721841458254474,0.7312501149449459,4.539157437443706,2.0660481882913904,1.1626467671518677,4.404345085208095,0.9204085239479083,3.14,-0.511457299611992,-1.3967043944121227,-3.082772225901383,3.14,3.0817720309422687
13,0.7617069552497671,0.22426497994885275,0.7279177516555076,4.537361663085931,2.061381652927328,1.1667892715348112,4.402570567870756,0.928938006010981,3.14,-0.4956260734104504,-1.4162130460533504,-3.081609471243832,3.14,3.080518051063137
14,0.7582911280772325,0.22157659557814346,0.7251717959496605,4.535671415357815,2.058767880114967,1.1703154770867543,4.400898696589073,0.9377565162822152,3.14,-0.48197528529021066,-1.4328826545892515,-3.080792873881731,3.14,3.079610013846519
15,0.7550735290462234,0.21916464328385687,0.7225444514218053,4.5340908829831195,2.0574447411296077,1.173173204919521,4.399334560655926,0.9466531552042857,3.14,-0.46991443061289295,-1.4478053070782024,-3.0802128758561134,3.14,3.0789383821997496
16,0.7518553505327693,0.21701440708522166,0.719834176818651,4.532613017178512,2.0568968990399417,1.1754251505039126,4.397871743878038,0.9554995547592209,3.14,-0.458995645781314,-1.4616504958786616,-3.0797907114970737,3.14,3.07842438463339
17,0.748570800845845,0.2150946768837077,0.7169831031453423,4.531225200973047,2.0567884387888236,1.1771767119832854,4.396498057232799,0.9642214032245562,3.14,-0.44889390631796866,-1.4748120099684228,-3.0794716884578484,3.14,3.078013315689207
18,0.7452200978116719,0.21336746585077068,0.7140038865749259,4.529913160931296,2.0569088108182214,1.1785385119639993,4.395199506838913,0.9727788977325595,3.14,-0.43938160215768507,-1.4875099871576345,-3.0792189687095592,3.14,3.0776683248483363
19,0.7418314374926089,0.21179496646650958,0.7109379329855822,4.528663270058492,2.057131903589588,1.1796090236429098,4.393962642078582,0.9811535426878747,3.14,-0.4303041100019362,-1.4998595296180217,-3.079008446232475,3.14,3.07736529695995
20,0.7384405916413663,0.2103435208683719,0.7078330198897144,4.52746367853368,2.0573864134076687,1.1804683897380752,4.3927757204665685,0.9893394406217894,3.14,-0.4215591357526067,-1.511915295579738,-3.078824800373816,3.14,3.0770889060927074
21,0.7350809491628308,0.2089852894149494,0.704732511979595,4.526304694487638,2.057635217370851,1.181178058378389,4.39162911299703,0.9973377145880205,3.14,-0.4130805300724862,-1.5236994124578522,-3.078658591417443,3.14,3.0768297106969373
22,0.731972693978826,0.2083557440715421,0.7016711852967843,4.5251787367442455,2.052708476686376,1.1817830806794893,4.39051527385625,1.0,3.14,-0.40482627604744753,-1.5352182015826172,-3.078504199291753,3.14,3.076582091614659
23,0.7300835239890552,0.20805341450513726,0.699780573380741,4.524184768494311,2.046441744456245,1.1827798733889359,4.389531313478237,1.0,3.14,-0.3978145872883548,-1.5442578858051985,-3.078372903950757,3.14,3.076356913519043
24,0.7293593356349988,0.20766247023080656,0.6991327975592416,4.523365806824358,2.0418332491569378,1.184120544916848,4.388719710763671,1.0,3.14,-0.392411276111609,-1.5503719757956376,-3.078279923783031,3.14,3.07616936025268
25,0.7292831439917723,0.20724236693692777,0.6991711095581116,4.522706103328658,2.038520625206573,1.1855006842855345,4.388065293754993,1.0,3.14,-0.38835668088297337,-1.5544057703441303,-3.078228526993434,3.14,3.0760229028470953
26,0.7295338920995232,0.20683490931930484,0.6995479796700006,4.522186969748378,2.0361907258473204,1.1867636976855584,4.387549874073923,1.0,3.14,-0.3853850118887586,-1.5569924768775407,-3.0782131686655254,3.14,3.075912131633436
27,0.7299202121093179,0.20646620236571553,0.7000558234466926,4.521788254321912,2.0345874198578873,1.1878425408391082,4.387153709620151,1.0,3.14,-0.38325420662905185,-1.5585947362246584,-3.078225463683924,3.14,3.075828753039074
28,0.730334208269347,0.20614984029401312,0.700577904666402,4.521489908816191,2.0335092539824773,1.188721729116191,4.386857074717826,1.0,3.14,-0.38175853263786114,-1.559543051255758,-3.0782571281067903,3.14,3.0757645462763823
29,0.7307200810345127,0.20589028941649926,0.7010545763188415,4.521273196180518,2.032802560806603,1.1894132236407553,4.3866414784921375,1.0,3.14,-0.3807312073521882,-1.5600684892730614,-3.0783012087339605,3.14,3.0757126025621235
30,0.731053349848155,0.20568594290884146,0.7014606739861247,4.521121435947189,2.0323531069291785,1.1899416206463946,4.3864904235039575,1.0,3.14,-0.38004175156583164,-1.5603291072806613,-3.078352410126563,3.14,3.0756676582246687
31,0.7313274350579266,0.20553160756483602,0.7017907702495348,4.521020342413473,2.032077905719054,1.190335454522841,4.386389756992721,1.0,3.14,-0.3795909860832038,-1.56043053544653,-3.0784069907696834,3.14,3.0756259947640108
32,0.731545231575908,0.20542036138610328,0.7020498344368062,4.520958062353287,2.0319179594787764,1.190622425975998,4.386327720203898,1.0,3.14,-0.37930536500421663,-1.5604415542354464,-3.078462489376379,3.14,3.0755851677123482
33,0.731713995798475,0.20534482949624183,0.7022475256269284,4.520925019450673,2.031832206818889,1.1908270761016884,4.386294802525923,1.0,3.14,-0.379131555569616,-1.560405596580064,-3.0785174164949742,3.14,3.0755436999679446
34,0.7318423828097724,0.20529798020041734,0.7023948709041791,4.52091365295054,2.0317926864086333,1.1909699237128097,4.38628348790129,1.0,3.14,-0.37903169124556374,-1.560349053426851,-3.0785709744247147,3.14,3.075500802911523
35,0.7319388437802766,0.20527355871859318,0.7025024679138362,4.520918113852556,2.031780797983384,1.1910674270812736,4.386287957022533,1.0,3.14,-0.3789794413462221,-1.560287143971201,-3.078622828954721,3.14,3.0754561490022083
36,0.7320108569132148,0.20526626834192693,0.7025796296182718,4.520933960190517,2.031784489595906,1.1911323663133897,4.3863037871271136,1.0,3.14,-0.37895688541407235,-1.5602279764036842,-3.0786729361967367,3.14,3.075409699234555
37,0.7320646479934594,0.20527178967081744,0.7026340861542427,4.520957875835119,2.031796191862245,1.1911744006532836,4.386327674115867,1.0,3.14,-0.3789521048715892,-1.5601752943340876,-3.0787214184997107,3.14,3.0753615795144653
38,0.7321051812015588,0.20528670643980973,0.7026719953954553,4.520987424980935,2.0318113340851136,1.1912006590740836,4.386357189420701,1.0,3.14,-0.37895737575189575,-1.5601302889862414,-3.078768480131057,3.14,3.075311996684348
39,0.7321362844064819,0.20530838591325576,0.7026981069374142,4.521020846311923,2.0318273009266634,1.191216289168131,4.386390575842954,1.0,3.14,-0.37896784381573245,-1.5600927614838722,-3.078814353160971,3.14,3.0752611846648317
40,0.7321608281181091,0.20533484503334376,0.7027159863400676,4.521056885835753,2.031842714486655,1.191224930524106,4.386426581537803,1.0,3.14,-0.37898057412310665,-1.5600618430102278,-3.0788592651255478,3.14,3.075209372310594
41,0.7321809126371414,0.20536462088027005,0.702728246907186,4.521094664638101,2.031856951370336,1.1912291029858515,4.386464328541283,1.0,3.14,-0.378993883395628,-1.5600364213853517,-3.0789034216600446,3.14,3.0751567661875687
42,0.7321980400527179,0.2053966551711788,0.7027367618381941,4.521133576593487,2.0318698258301002,1.191230513396103,4.386503210987347,1.0,3.14,-0.3790068808737417,-1.560015377977879,-3.07894699891881,3.14,3.075103543099907
43,0.7322132610674152,0.20543019674648547,0.7027428451278604,4.521173210815197,2.031881387776931,1.1912302907516974,4.386542817879807,1.0,3.14,-0.3790191595387246,-1.5599977060497465,-3.078990142021582,3.14,3.075049848615406
44,0.7322272942588782,0.20546472248739256,0.7027473985478556,4.521213293928659,2.0318917984850673,1.1912291619044884,4.386582875563273,1.0,3.14,-0.3790305935054363,-1.5599825580346989,-3.0790329669160403,3.14,3.0749957989861407
45,0.7322406194164257,0.20549987518869747,0.7027510268019284,4.52125364783507,2.0319012575802238,1.1912275798474787,4.386623205602347,1.0,3.14,-0.3790412088100655,-1.5599692526516684,-3.079075563924929,3.14,3.0749414847378937
46,0.7322535484234998,0.20553541603144584,0.7027541251186457,4.521294159318153,2.0319099629499457,1.1912258153768676,4.386663694451359,1.0,3.14,-0.3790511038266407,-1.5599572613331485,-3.0791180018870645,3.14,3.074886974841711
47,0.7322662777118574,0.2055711890592597,0.7027569442025943,4.521334758529848,2.03191809109016,1.1912240212139578,4.3867042719705225,1.0,3.14,-0.37906040244375966,-1.5599461857729413,-3.0791603322502885,3.14,3.0748323208287154
48,0.7322789261770563,0.20560709518186482,0.7027596372962541,4.521375404013008,2.031925789597661,1.1912222759038897,4.386744896459816,1.0,3.14,-0.3790692282798106,-1.5599357333709543,-3.0792025927758133,3.14,3.074777560509943
49,0.7322915619788014,0.2056430735264751,0.7027622935394747,4.521416072454438,2.0319331764502566,1.191220613187615,4.3867855444125174,1.0,3.14,-0.37907769196773405,-1.5599256941586348,-3.0792448107066486,3.14,3.0747227211556396
50,0.7323042210674209,0.20567908831866577,0.7027649611069097,4.521456751803621,2.031940342720797,1.191219041158993,4.386826203629066,1.0,3.14,-0.3790858862180069,-1.5599159208332691,-3.079287005369747,3.14,3.0746678221049453
51,0.7323169196971892,0.20571511983384247,0.7027676628979075,4.521497436745838,2.0319473567098774,1.191217554391784,4.386866868683181,1.0,3.14,-0.37909388523885884,-1.5599063123904597,-3.079329190246675,3.14,3.074612876841738
52,0.7323296626669564,0.2057511582846027,0.7027704069194376,4.521538125793743,2.03195426835285,1.1912161413365878,4.386907538006076,1.0,3.14,-0.37910174637106064,-1.559896801227912,-3.0793713745790945,3.14,3.0745578946036205
53,0.732342448591469,0.20578719978402196,0.7027731929688569,4.521578819470898,2.0319611133062163,1.1912147886134372,4.386948212063238,1.0,3.14,-0.37910951264833875,-1.5598873433005331,-3.0794135645860043,3.14,3.074502881601499
54,0.7323552731558852,0.20582324374798364,0.7027760167937925,4.5216195192172295,2.0319679164519657,1.1912134833248071,4.386988892254118,1.0,3.14,-0.3791172155500104,-1.5598779108043757,-3.0794557643682885,3.14,3.074447841925674
55,0.7323681310338652,0.20585929127465413,0.702778872572481,4.521660226760782,2.03197469475065,1.1912122141499364,4.387029580279206,1.0,3.14,-0.37912487756313595,-1.5598684868697603,-3.079497976568515,3.14,3.0743927782066365
56,0.7323810169445605,0.2058953441728204,0.702781754305655,4.521700943782499,2.031981459476302,1.1912109717229198,4.387070277801141,1.0,3.14,-0.3791325143845808,-1.5598590617987245,-3.079540202843729,3.14,3.0743376920884904
57,0.7323939261731308,0.20593140441032481,0.7027846565251809,4.5217416717588375,2.031988217913582,1.19120974861721,4.387110986284575,1.0,3.14,-0.3791401367163844,-1.5598496304569862,-3.079582444198353,3.14,3.074282584562245
58,0.7324068547712095,0.20596747382654607,0.7027875745907791,4.521782411907536,2.0319949746126387,1.1912085391369447,4.387151706939878,1.0,3.14,-0.3791477516735244,-1.5598401905079673,-3.079624701214451,3.14,3.074227456196315
59,0.7324197995777361,0.20600355400465734,0.702790504751835,4.521823165189209,2.0320017322947757,1.1912073390342441,4.387192440723266,1.0,3.14,-0.3791553638537038,-1.5598307412470036,-3.079666974208064,3.14,3.074172307292991
60,0.7324327581483792,0.20603964623577362,0.702793444086303,4.52186393233588,2.032008492491203,1.1912061452191334,4.38723318836429,1.0,3.14,-0.3791629761287712,-1.5598212828538032,-3.079709263333235,3.14,3.0741171379925354
61,0.7324457286467957,0.20607575153203278,0.7027963903849375,4.521904713889542,2.032015255983285,1.1912049554958666,4.387273950403688,1.0,3.14,-0.3791705902161393,-1.5598118159297112,-3.0797515686496726,3.14,3.0740619483408875
62,0.7324587097280967,0.20611187066235748,0.7027993420203282,4.5219455102414505,2.0320220230987465,1.1912037683396137,4.38731472723219,1.0,3.14,-0.379178207081927,-1.5598023412241682,-3.079793890165622,3.14,3.0740067383325465
63,0.7324717004304145,0.20614800419561446,0.7028022978218971,4.521986321667533,2.0320287939057398,1.1912025827162878,4.38735551912562,1.0,3.14,-0.37918582721887995,-1.5597928594833719,-3.0798362278641527,3.14,3.0739515079368633
64,0.7324847000816479,0.20618415254289973,0.7028052569667389,4.522027148358118,2.032035568336148,1.1912013979423888,4.3873963262744216,1.0,3.14,-0.3791934508333937,-1.5597833713752765,-3.079878581718606,3.14,3.073896257113488
65,0.7324977082233222,0.20622031599494697,0.7028082188895861,4.522067990441689,2.032042346260981,1.1912002135792015,4.387437148807286,1.0,3.14,-0.37920107796806213,-1.5597738774602736,-3.0799209517011343,3.14,3.0738409858209
66,0.7325107245507946,0.20625649475320776,0.702811183211535,4.52210884800316,2.032049127534189,1.1911990293549715,4.387477986809368,1.0,3.14,-0.3792087085795396,-1.559764378187619,-3.079963337786975,3.14,3.073785694020681
67,0.7325237488677152,0.2062926889545677,0.7028141496854494,4.522149721097533,2.0320559120162485,1.1911978451090082,4.387518840335895,1.0,3.14,-0.3792163425861525,-1.5597548739050344,-3.080005739956195,3.14,3.0737303816792507
68,0.7325367810522689,0.20632889869031493,0.7028171181552539,4.522190609759808,2.0320626995852464,1.191196660752452,4.387559709422064,1.0,3.14,-0.3792239798955594,-1.5597453648738913,-3.0800481581940184,3.14,3.073675048768194
69,0.7325498210327253,0.20636512402029378,0.7028200885263376,4.522231514012002,2.0320694901406147,1.1911954762413626,4.387600594090053,1.0,3.14,-0.37923162041963565,-1.5597358512856083,-3.080090592490434,3.14,3.073619695263862
70,0.7325628687701402,0.206401364983196,0.702823060744509,4.522272433868001,2.032076283602808,1.1911942915587077,4.387641494353878,1.0,3.14,-0.37923926408146486,-1.5597263332769817,-3.0801330428394884,3.14,3.0735643211466637
71,0.732575924246391,0.20643762160387621,0.7028260347813818,4.522313369336828,2.032083079910992,1.1911931067026336,4.387682410222659,1.0,3.14,-0.3792469108176794,-1.5597168109434087,-3.0801755092385084,3.14,3.073508926400286
72,0.7325889874560798,0.20647389389841064,0.7028290106244465,4.522354320424772,2.032089879019985,1.1911919216790625,4.387723341702755,1.0,3.14,-0.37925456057824675,-1.5597072843497086,-3.080217991687364,3.14,3.0734535110109578
73,0.7326020584012074,0.20651018187752618,0.7028319882705059,4.522395287136737,2.032096680897133,1.1911907364972112,4.387764288799127,1.0,3.14,-0.379262213325,-1.5596977535386414,-3.0802604901878405,3.14,3.073398074966817
74,0.7326151370877625,0.20654648554887026,0.7028349677214503,4.522436269477073,2.0321034855194737,1.191189551167017,4.387805251516154,1.0,3.14,-0.37926986902969484,-1.5596882185374048,-3.0803030047431212,3.14,3.073342618257396
75,0.7326282235236166,0.20658280491844297,0.7028379489816321,4.522477267450029,2.032110292871331,1.1911883656977833,4.387846229858112,1.0,3.14,-0.3792775276720277,-1.5596786793624635,-3.080345535357387,3.14,3.07328714087322
76,0.7326413177172794,0.20661913999148995,0.7028409320563068,4.522518281060005,2.032117102942377,1.1911871800975684,4.387887223829417,1.0,3.14,-0.3792851892378381,-1.55966913602305,-3.0803880820355114,3.14,3.0732316428055007
77,0.732654419677224,0.20665549077302875,0.7028439169507656,4.5225593103116655,2.032123915726115,1.1911859943730074,4.387928233434743,1.0,3.14,-0.3792928537175845,-1.5596595885236482,-3.080430644782838,3.14,3.073176124045915
78,0.7326675294115467,0.2066918572681294,0.7028469036698998,4.522600355209961,2.0321307312187376,1.1911848085293721,4.387969258679044,1.0,3.14,-0.37930052110511475,-1.5596500368657145,-3.08047322360502,3.14,3.073120584586444
79,0.7326806469278391,0.20672823948205366,0.7028498922180217,4.522641415760117,2.0321375494182785,1.1911836225707342,4.38801029956755,1.0,3.14,-0.3793081913967066,-1.559640481048846,-3.0805158185079082,3.14,3.073065024419261
80,0.73269377223318,0.2067646374203027,0.7028528825988387,4.522682491967601,2.032144370324007,1.1911824365001764,4.388051356105725,1.0,3.14,-0.37931586459034156,-1.55963092107155,-3.0805584294974766,3.14,3.073009443536656
81,0.7327069053341788,0.20680105108861685,0.7028558748155022,4.522723583838077,2.0321511939359955,1.1911812503199928,4.388092428299234,1.0,3.14,-0.3793235406851701,-1.559621356931739,-3.0806010565797703,3.14,3.072953841930986
82,0.7327200462370509,0.2068374804929577,0.7028588688706863,4.52276469137737,2.0321580202548257,1.1911800640318728,4.388133516153897,1.0,3.14,-0.37933121968112476,-1.5596117886270386,-3.080643699760874,3.14,3.07289821959464
83,0.7327331949476904,0.2068739256394613,0.7028618647666782,4.522805814591422,2.0321648492813877,1.1911788776370533,4.388174619675658,1.0,3.14,-0.3793389015786488,-1.559602216154969,-3.0806863590468914,3.14,3.0728425765200233
84,0.7327463514717462,0.2069103865344205,0.7028648625054613,4.522846953486275,2.0321716810167527,1.1911776911364411,4.388215738870552,1.0,3.14,-0.3793465863785084,-1.5595926395130457,-3.0807290344439338,3.14,3.0727869126995415
85,0.7327595158146769,0.20694686318423983,0.702867862088789,4.522888108068036,2.0321785154620846,1.1911765045307061,4.388256873744684,1.0,3.14,-0.37935427408166644,-1.5595830586988322,-3.080771725958114,3.14,3.0727312281255963
86,0.7327726879818088,0.20698335559541098,0.7028708635182451,4.522929278342861,2.0321853526185936,1.1911753178203541,4.388298024304208,1.0,3.14,-0.3793619646891996,-1.5595734737099567,-3.0808144335955423,3.14,3.072675522790582
87,0.732785867978368,0.20701986377449474,0.7028738667952906,4.522970464316946,2.0321921924875044,1.1911741310057804,4.388339190555314,1.0,3.14,-0.379369658202245,-1.5595638845441182,-3.0808571573623262,3.14,3.0726197966868853
88,0.7327990558095122,0.20705638772809404,0.7028768719213006,4.523011665996504,2.0321990350700374,1.191172944087304,4.388380372504216,1.0,3.14,-0.37937735462196825,-1.55955429119908,-3.0808998972645703,3.14,3.0725640498068825
89,0.7328122514803564,0.20709292746285468,0.7028798788975889,4.523052883387777,2.0322058803674072,1.191171757065197,4.388421570157149,1.0,3.14,-0.3793850539495451,-1.5595446936726596,-3.080942653308376,3.14,3.0725082821429432
90,0.7328254549959847,0.20712948298544134,0.7028828877254311,4.523094116497013,2.0322127283808142,1.1911705699396997,4.388462783520359,1.0,3.14,-0.3793927561861496,-1.5595350919627184,-3.080985425499844,3.14,3.0724524936874293
91,0.7328386663614628,0.2071660543025379,0.7028858984060756,4.523135365330471,2.0322195791114437,1.1911693827110363,4.3885040126001025,1.0,3.14,-0.3794004613329501,-1.5595254860671528,-3.081028213845073,3.14,3.072396684432697
92,0.732851885581846,0.20720264142084197,0.7028889109407562,4.523176629894416,2.0322264325604733,1.19116819537942,4.38854525740264,1.0,3.14,-0.37940816939110755,-1.5595158759838834,-3.081071018350162,3.14,3.072340854371096
93,0.732865112662186,0.2072392443470584,0.7028919253306941,4.523217910195119,2.032233288729071,1.191167007945058,4.388586517934241,1.0,3.14,-0.3794158803617748,-1.5595062617108508,-3.08111383902121,3.14,3.0722850034949714
94,0.7328783476075318,0.2072758630879012,0.702894941577109,4.523259206238856,2.0322401476183938,1.191165820408157,4.388627794201178,1.0,3.14,-0.3794235942460976,-1.5594966432460087,-3.081156675864318,3.14,3.072229131796664
95,0.7328915904229335,0.20731249765008763,0.7028979596812143,4.523300518031904,2.032247009229598,1.1911646327689223,4.388669086209726,1.0,3.14,-0.37943131104521644,-1.5594870205873184,-3.0811995288855867,3.14,3.0721732392685097
96,0.7329048411134442,0.20734914804034293,0.7029009796442242,4.52334184558055,2.0322538735638327,1.1911634450275592,4.388710393966163,1.0,3.14,-0.37943903076026664,-1.5594773937327493,-3.0812423980911205,3.14,3.072117325902842
97,0.7329180996841184,0.20738581426538952,0.7029040014673525,4.5233831888910725,2.032260740622242,1.1911622571842748,4.388751717476772,1.0,3.14,-0.37944675339238026,-1.559467762680273,-3.0812852834870244,3.14,3.07206139169199
98,0.7329313661400152,0.20742249633195745,0.7029070251518159,4.523424547969762,2.0322676104059747,1.1911610692392782,4.388793056747838,1.0,3.14,-0.379454478942687,-1.5594581274278627,-3.081328185079406,3.14,3.07200543662828
99,0.7329446404861977,0.20745919424678072,0.7029100506988293,4.523465922822911,2.032274482916171,1.1911598811927784,4.388834411785648,1.0,3.14,-0.37946220741231496,-1.559448487973493,-3.081371102874375,3.14,3.0719494607040345
100,0.7329579227277326,0.20749590801659443,0.7029130781096102,4.523507313456813,2.0322813581539765,1.1911586930449847,4.388875782596494,1.0,3.14,-0.3794699388023912,-1.5594388443151384,-3.0814140368780434,3.14,3.071893463911573
101,0.7329712128696897,0.20753263764813545,0.7029161073853772,4.523548719877763,2.0322882361205328,1.1911575047961094,4.3889171691866675,1.0,3.14,-0.3794776731140419,-1.559429196450773,-3.081456987096525,3.14,3.0718374462432116
102,0.7329845109171433,0.20756938314814447,0.7029191385273501,4.5235901420920595,2.0322951168169836,1.1911563164463637,4.388958571562466,1.0,3.14,-0.3794854103483933,-1.5594195443783698,-3.0814999535359378,3.14,3.0717814076912644
103,0.7329978168751708,0.20760614452336792,0.7029221715367496,4.5236315801060085,2.032302000244471,1.1911551279959607,4.3889999897301895,1.0,3.14,-0.37949315050657123,-1.5594098880959013,-3.0815429362024,3.14,3.0717253482480413
104,0.7330111307488545,0.20764292178055022,0.7029252064147984,4.523673033925912,2.032308886404139,1.1911539394451132,4.38904142369614,1.0,3.14,-0.3795008935897021,-1.559400227601339,-3.0815859351020336,3.14,3.0716692679058504
105,0.7330244525432793,0.20767971492644363,0.702928243162719,4.523714503558082,2.032315775297132,1.1911527507940352,4.389082873466624,1.0,3.14,-0.37950863959891223,-1.5593905628926528,-3.0816289502409635,3.14,3.0716131666569955
106,0.7330377822635344,0.20771652396780144,0.7029312817817353,4.52375598900883,2.0323226669245926,1.1911515620429405,4.389124339047948,1.0,3.14,-0.37951638853532843,-1.5593808939678115,-3.0816719816253157,3.14,3.0715570444937783
107,0.733051119914711,0.2077533489113771,0.7029343222730724,4.523797490284467,2.032329561287668,1.1911503731920434,4.389165820446424,1.0,3.14,-0.3795241404000785,-1.5593712208247827,-3.0817150292612197,3.14,3.0715009014084975
108,0.7330644655019054,0.20779018976392974,0.7029373646379566,4.523839007391312,2.032336458387503,1.1911491842415591,4.389207317668367,1.0,3.14,-0.3795318951942897,-1.559361543461533,-3.0817580931548068,3.14,3.071444737393448
109,0.7330778190302175,0.20782704653222503,0.7029404088776137,4.523880540335688,2.0323433582252424,1.191147995191701,4.389248830720096,1.0,3.14,-0.3795396529190906,-1.5593518618760283,-3.0818011733122113,3.14,3.0713885524409226
110,0.7330911805047514,0.20786391922302733,0.7029434549932729,4.52392208912392,2.032350260802033,1.191146806042687,4.38929035960793,1.0,3.14,-0.37954741357560945,-1.5593421760662318,-3.0818442697395696,3.14,3.0713323465432105
111,0.7331045499306117,0.2079008078430998,0.702946502986162,4.523963653762327,2.0323571661190236,1.1911456167947312,4.389331904338192,1.0,3.14,-0.3795551771649763,-1.559332486030106,-3.0818873824430213,3.14,3.071276119692598
112,0.7331179273129089,0.20793771239921885,0.7029495528575102,4.524005234257246,2.0323640741773614,1.1911444274480496,4.389373464917211,1.0,3.14,-0.37956294368832033,-1.5593227917656136,-3.0819305114287077,3.14,3.0712198718813695
113,0.7331313126567577,0.20797463289815907,0.7029526046085475,4.52404683061501,2.032370984978194,1.1911432380028575,4.389415041351317,1.0,3.14,-0.37957071314677204,-1.5593130932707147,-3.0819736567027727,3.14,3.0711636031018044
114,0.7331447059672745,0.20801156934669504,0.7029556582405059,4.524088442841951,2.03237789852267,1.1911420484593733,4.38945663364684,1.0,3.14,-0.3795784855414617,-1.5593033905433686,-3.082016818271363,3.14,3.07110731334618
115,0.7331581072495791,0.20804852175160815,0.7029587137546166,4.524130070944411,2.0323848148119406,1.1911408588178118,4.389498241810117,1.0,3.14,-0.3795862608735211,-1.5592936835815336,-3.082059996140628,3.14,3.0710510026067714
116,0.7331715165087974,0.20808549011968158,0.7029617711521134,4.5241717149287295,2.0323917338471533,1.1911396690783915,4.38953986584749,1.0,3.14,-0.3795940391440815,-1.5592839723831666,-3.0821031903167184,3.14,3.0709946708758498
117,0.7331849337500562,0.20812247445770585,0.7029648304342294,4.524213374801257,2.032398655629461,1.1911384792413284,4.389581505765298,1.0,3.14,-0.3796018203542759,-1.559274256946223,-3.0821464008057893,3.14,3.0709383181456835
118,0.7331983589784865,0.20815947477246544,0.7029678916021986,4.524255050568336,2.032405580160014,1.1911372893068402,4.389623161569887,1.0,3.14,-0.3796096045052365,-1.559264537268658,-3.082189627613997,3.14,3.070881944408538
119,0.7332117921992223,0.20819649107075655,0.7029709546572571,4.524296742236322,2.0324125074399633,1.1911360992751447,4.389664833267606,1.0,3.14,-0.37961739159809665,-1.5592548133484252,-3.0822328707474997,3.14,3.0708255496566754
120,0.7332252334174043,0.20823352335937442,0.7029740196006411,4.524338449811568,2.0324194374704625,1.1911349091464598,4.389706520864806,1.0,3.14,-0.37962518163399017,-1.559245085183476,-3.0822761302124597,3.14,3.070769133882355
121,0.7332386826381726,0.20827057164511806,0.7029770864335878,4.524380173300432,2.0324263702526633,1.1911337189210047,4.389748224367841,1.0,3.14,-0.379632974614051,-1.559235352771762,-3.082319406015041,3.14,3.070712697077833
122,0.7332521398666717,0.20830763593478804,0.7029801551573341,4.524421912709272,2.0324333057877193,1.1911325285989964,4.389789943783069,1.0,3.14,-0.37964077053941464,-1.5592256161112332,-3.0823626981614103,3.14,3.070656239235363
123,0.7332656051080526,0.2083447162351931,0.70298322577312,4.524463668044457,2.0324402440767857,1.1911313381806545,4.389831679116853,1.0,3.14,-0.37964856941121594,-1.559215875199838,-3.0824060066577363,3.14,3.0705997603471955
124,0.7332790783674663,0.20838181255314012,0.7029862982821852,4.524505439312351,2.0324471851210157,1.1911301476661975,4.3898734303755536,1.0,3.14,-0.3796563712305906,-1.5592061300355244,-3.0824493315101904,3.14,3.070543260405577
125,0.7332925596500697,0.20841892489544092,0.7029893726857693,4.524547226519326,2.032454128921565,1.1911289570558456,4.38991519756554,1.0,3.14,-0.3796641759986748,-1.5591963806162388,-3.082492672724947,3.14,3.070486739402752
126,0.7333060489610214,0.20845605326890815,0.702992448985114,4.524589029671752,2.0324610754795893,1.1911277663498183,4.389956980693181,1.0,3.14,-0.3796719837166056,-1.5591866269399257,-3.0825360303081824,3.14,3.0704301973309622
127,0.733319546305484,0.2084931976803615,0.702995527181462,4.524630848776007,2.0324680247962448,1.1911265755483342,4.389998779764849,1.0,3.14,-0.37967979438552024,-1.5591768690045302,-3.0825794042660757,3.14,3.070373634182445
128,0.7333330516886261,0.20853035813662385,0.7029986072760556,4.524672683838473,2.0324749768726877,1.1911253846516139,4.390040594786924,1.0,3.14,-0.3796876080065564,-1.5591671068079949,-3.082622794604809,3.14,3.0703170499494354
129,0.7333465651156158,0.20856753464451472,0.7030016892701388,4.524714534865527,2.032481931710076,1.1911241936598784,4.390082425765781,1.0,3.14,-0.37969542458085226,-1.559157340348261,-3.0826662013305657,3.14,3.0702604446241666
130,0.7333600865916281,0.20860472721086423,0.7030047731649567,4.524756401863559,2.0324888893095676,1.1911230025733477,4.390124272707805,1.0,3.14,-0.379703244109547,-1.5591475696232695,-3.0827096244495324,3.14,3.0702038181988667
131,0.7333736161218396,0.2086419358425009,0.703007858961755,4.524798284838956,2.0324958496723213,1.1911218113922426,4.39016613561938,1.0,3.14,-0.3797110665937795,-1.5591377946309593,-3.082753063967899,3.14,3.070147170665762
132,0.7333871537114317,0.2086791605462609,0.7030109466617804,4.524840183798111,2.032502812799495,1.191120620116785,4.390208014506897,1.0,3.14,-0.3797188920346897,-1.5591280153692688,-3.082796519891856,3.14,3.070090502017075
133,0.7334006993655877,0.20871640132897604,0.7030140362662798,4.524882098747416,2.032509778692251,1.191119428747196,4.390249909376746,1.0,3.14,-0.37972672043341815,-1.5591182318361347,-3.082839992227598,3.14,3.0700338122450264
134,0.7334142530894975,0.20875365819749217,0.7030171277765009,4.524924029693275,2.032516747351746,1.1911182372836964,4.390291820235324,1.0,3.14,-0.3797345517911052,-1.5591084440294938,-3.082883480981322,3.14,3.0699771013418324
135,0.7334278148883506,0.2087909311586473,0.7030202211936938,4.5249659766420836,2.0325237187791427,1.1911170457265088,4.390333747089025,1.0,3.14,-0.3797423861088925,-1.5590986519472796,-3.082926986159227,3.14,3.0699203692997075
136,0.7334413847673433,0.2088282202192873,0.703023316519108,4.525007939600247,2.032530692975603,1.1911158540758557,4.390375689944254,1.0,3.14,-0.3797502233879217,-1.5590888555874256,-3.082970507767514,3.14,3.069863616110862
137,0.7334549627316749,0.20886552538626627,0.703026413753994,4.525049918574178,2.0325376699422875,1.1911146623319597,4.390417648807415,1.0,3.14,-0.37975806362933523,-1.5590790549478644,-3.0830140458123876,3.14,3.0698068417675044
138,0.733468548786546,0.20890284666642828,0.703029512899604,4.525091913570278,2.0325446496803607,1.1911134704950423,4.390459623684913,1.0,3.14,-0.3797659068342762,-1.5590692500265262,-3.083057600300055,3.14,3.0697500462618383
139,0.733482142937163,0.208940184066635,0.7030326139571906,4.525133924594968,2.0325516321909833,1.1911122785653283,4.390501614583161,1.0,3.14,-0.3797737530038874,-1.559059440821342,-3.0831011712367253,3.14,3.069693229586066
140,0.7334957451887357,0.20897753759374285,0.7030357169280064,4.525175951654663,2.0325586174753205,1.191111086543039,4.390543621508572,1.0,3.14,-0.37978160213931295,-1.55904962733024,-3.08314475862861,3.14,3.0696363917323866
141,0.7335093555464773,0.2090149072546137,0.7030388218133063,4.525217994755782,2.0325656055345354,1.1911098944283995,4.390585644467563,1.0,3.14,-0.379789454241697,-1.5590398095511477,-3.0831883624819234,3.14,3.0695795326929947
142,0.7335229740156045,0.20905229305611156,0.7030419286143452,4.525260053904749,2.032572596369794,1.191108702221633,4.390627683466554,1.0,3.14,-0.37979730931218475,-1.559029987481991,-3.0832319828028822,3.14,3.069522652460083
143,0.7335366006013363,0.20908969500510474,0.703045037332379,4.525302129107991,2.0325795899822614,1.1911075099229635,4.390669738511968,1.0,3.14,-0.37980516735192144,-1.5590201611206955,-3.083275619597706,3.14,3.069465751025841
144,0.7335502353088978,0.20912711310846535,0.7030481479686647,4.525344220371937,2.0325865863731027,1.1911063175326158,4.390711809610232,1.0,3.14,-0.3798130283620527,-1.559010330465185,-3.0833192728726164,3.14,3.0694088283824557
145,0.7335638781435154,0.2091645473730654,0.7030512605244601,4.525386327703019,2.0325935855434856,1.1911051250508138,4.390753896767774,1.0,3.14,-0.3798208923437254,-1.559000495513382,-3.0833629426338383,3.14,3.06935188452211
146,0.7335775291104211,0.209201997805784,0.7030543750010226,4.525428451107673,2.032600587494576,1.1911039324777826,4.390795999991028,1.0,3.14,-0.379828759298086,-1.5589906562632085,-3.083406628887598,3.14,3.069294919436984
147,0.7335911882148485,0.209239464413501,0.7030574913996132,4.525470590592338,2.0326075922275426,1.1911027398137475,4.39083811928643,1.0,3.14,-0.3798366292262821,-1.5589808127125842,-3.0834503316401256,3.14,3.069237933119255
148,0.7336048554620368,0.20927694720309983,0.7030606097214916,4.525512746163456,2.032614599743553,1.1911015470589341,4.390880254660418,1.0,3.14,-0.3798445021294615,-1.5589709648594283,-3.083494050897653,3.14,3.0691809255610973
149,0.7336185308572276,0.20931444618146858,0.703063729967919,4.525554917827474,2.032621610043776,1.191100354213568,4.390922406119435,1.0,3.14,-0.37985237800877264,-1.558961112701659,-3.083537786666415,3.14,3.069123896754682
150,0.7336322144056655,0.20935196135549505,0.703066852140158,4.525597105590838,2.032628623129382,1.1910991612778754,4.390964573669924,1.0,3.14,-0.3798602568653646,-1.5589512562371923,-3.0835815389526475,3.14,3.0690668466921767
151,0.7336459061126006,0.20938949273207458,0.7030699762394701,4.525639309460001,2.03263563900154,1.1910979682520817,4.391006757318337,1.0,3.14,-0.3798681387003867,-1.558941395463945,-3.0836253077625915,3.14,3.069009775365747
152,0.7336596059832848,0.20942704031810214,0.7030731022671204,4.5256815294414166,2.0326426576614205,1.191096775136414,4.391048957071122,1.0,3.14,-0.3798760235149889,-1.5589315303798306,-3.0836690931024884,3.14,3.0689526827675544
153,0.7336733140229742,0.2094646041204774,0.7030762302243733,4.525723765541543,2.0326496791101945,1.191095581931099,4.391091172934737,1.0,3.14,-0.3798839113103216,-1.558921660982762,-3.083712894978583,3.14,3.0688955688897575
154,0.7336870302369298,0.20950218414610391,0.7030793601124935,4.525766017766843,2.032656703349035,1.1910943886363636,4.391133404915639,1.0,3.14,-0.37989180208753626,-1.5589117872706515,-3.0837567133971224,3.14,3.0688384337245123
155,0.7337007546304144,0.20953978040188675,0.7030824919327485,4.525808286123779,2.032663730379113,1.1910931952524353,4.391175653020287,1.0,3.14,-0.37989969584778377,-1.5589019092414098,-3.0838005483643567,3.14,3.0687812772639713
156,0.7337144872086951,0.20957739289473515,0.7030856256864051,4.52585057061882,2.0326707602016025,1.1910920017795414,4.3912179172551475,1.0,3.14,-0.3799075925922164,-1.5588920268929463,-3.0838443998865386,3.14,3.0687240995002845
157,0.7337282279770427,0.20961502163156043,0.7030887613747311,4.525892871258434,2.032677792817675,1.1910908082179104,4.3912601976266865,1.0,3.14,-0.37991549232198635,-1.5588821402231696,-3.083888267969922,3.14,3.068666900425598
158,0.7337419769407316,0.2096526666192789,0.7030918989989963,4.525935188049097,2.0326848282285064,1.1910896145677694,4.391302494141375,1.0,3.14,-0.37992339503824707,-1.5588722492299867,-3.0839321526207653,3.14,3.0686096800320555
159,0.7337557341050398,0.20969032786480873,0.70309503856047,4.525977520997285,2.0326918664352704,1.191088420829347,4.391344806805687,1.0,3.14,-0.37993130074215203,-1.5588623539113031,-3.083976053845328,3.14,3.068552438311797
160,0.7337694994752498,0.2097280053750722,0.7030981800604234,4.5260198701094785,2.032698907439143,1.191087227002873,4.3913871356261005,1.0,3.14,-0.3799392094348549,-1.558852454265024,-3.0840199716498726,3.14,3.06849517525696
161,0.7337832730566458,0.20976569915699253,0.7031013235001279,4.52606223539216,2.032705951241298,1.1910860330885753,4.391429480609094,1.0,3.14,-0.3799471211175105,-1.5588425502890524,-3.0840639060406647,3.14,3.0684378908596788
162,0.733797054854518,0.20980340921750137,0.7031044688808563,4.526104616851819,2.0327129978429146,1.1910848390866833,4.3914718417611525,1.0,3.14,-0.37995503579127415,-1.5588326419812908,-3.0841078570239713,3.14,3.068380585112084
163,0.7338108448741568,0.20984113556352565,0.703107616203881,4.52614701449494,2.0327200472451676,1.1910836449974265,4.39151421908876,1.0,3.14,-0.3799629534573013,-1.5588227293396406,-3.084151824606063,3.14,3.0683232580063042
164,0.733824643120861,0.20987887820200432,0.7031107654704772,4.526189428328022,2.0327270994492355,1.1910824508210345,4.39155661259841,1.0,3.14,-0.37997087411674774,-1.5588128123620015,-3.084195808793212,3.14,3.068265909534464
165,0.7338384495999284,0.20991663713987024,0.7031139166819202,4.526231858357556,2.0327341544562954,1.1910812565577378,4.3915990222965915,1.0,3.14,-0.3799787977707704,-1.558802891046272,-3.0842398095916947,3.14,3.068208539688685
166,0.7338522643166645,0.20995441238406873,0.7031170698394859,4.526274304590045,2.032741212267527,1.1910800622077662,4.391641448189803,1.0,3.14,-0.3799867244205263,-1.5587929653903496,-3.084283827007788,3.14,3.0681511484610864
167,0.7338660872763756,0.2099922039415412,0.7031202249444509,4.526316767031989,2.032748272884109,1.1910788677713506,4.391683890284543,1.0,3.14,-0.37999465406717303,-1.5587830353921304,-3.084327861047773,3.14,3.0680937358437834
168,0.7338799184843727,0.2100300118192369,0.7031233819980929,4.526359245689895,2.0327553363072215,1.1910776732487216,4.391726348587315,1.0,3.14,-0.38000258671186904,-1.5587731010495096,-3.0843719117179327,3.14,3.0680363018288888
169,0.7338937579459698,0.21006783602410378,0.7031265410016909,4.526401740570271,2.0327624025380437,1.1910764786401102,4.3917688231046235,1.0,3.14,-0.38001052235577276,-1.5587631623603813,-3.084415979024552,3.14,3.067978846408512
170,0.7339076056664863,0.21010567656309817,0.7031297019565252,4.526444251679631,2.0327694715777587,1.1910752839457488,4.391811313842978,1.0,3.14,-0.3800184610000436,-1.5587532193226368,-3.0844600629739194,3.14,3.067921369574759
171,0.7339214616512425,0.21014353344317452,0.7031328648638756,4.526486779024487,2.032776543427547,1.1910740891658678,4.39185382080889,1.0,3.14,-0.3800264026458412,-1.5587432719341685,-3.084504163572326,3.14,3.0678638713197337
172,0.7339353259055662,0.21018140667129673,0.7031360297250228,4.5265293226113625,2.032783618088591,1.1910728943006996,4.391896344008877,1.0,3.14,-0.38003434729432584,-1.5587333201928666,-3.084548280826064,3.14,3.067806351635536
173,0.7339491984347847,0.21021929625442418,0.70313919654125,4.526571882446775,2.032790695562073,1.1910716993504769,4.3919388834494555,1.0,3.14,-0.38004229494665803,-1.5587233640966196,-3.0845924147414303,3.14,3.0677488105142627
174,0.7339630792442323,0.21025720219952476,0.70314236531384,4.52661445853725,2.0327977758491764,1.1910705043154317,4.3919814391371474,1.0,3.14,-0.38005024560399925,-1.5587134036433155,-3.0846365653247227,3.14,3.067691247948008
175,0.7339769683392435,0.21029512451356816,0.7031455360440761,4.526657050889317,2.032804858951086,1.1910693091957965,4.392024011078479,1.0,3.14,-0.3800581992675114,-1.5587034388308407,-3.0846807325822425,3.14,3.0676336639288624
176,0.7339908657251607,0.21033306320352818,0.7031487087332441,4.526699659509507,2.0328119448689854,1.1910681139918051,4.392066599279977,1.0,3.14,-0.3800661559383565,-1.5586934696570807,-3.0847249165202935,3.14,3.067576058448914
177,0.7340047714073268,0.21037101827638122,0.7031518833826291,4.526742284404356,2.0328190336040604,1.1910669187036895,4.3921092037481735,1.0,3.14,-0.3800741156176978,-1.5586834961199194,-3.084769117145181,3.14,3.067518431500247
178,0.7340186853910897,0.21040898973910577,0.7031550599935185,4.526784925580399,2.0328261251574946,1.191065723331685,4.392151824489603,1.0,3.14,-0.380082078306698,-1.5586735182172398,-3.084813334463215,3.14,3.067460783074943
179,0.7340326076818017,0.2104469775986845,0.7031582385671998,4.526827583044179,2.032833219530477,1.1910645278760246,4.392194461510804,1.0,3.14,-0.38009004400652147,-1.5586635359469225,-3.0848575684807056,3.14,3.067403113165081
180,0.7340465382848156,0.21048498186210235,0.703161419104961,4.526870256802239,2.0328403167241937,1.1910633323369426,4.392237114818316,1.0,3.14,-0.38009801271833266,-1.558653549306849,-3.0849018192039668,3.14,3.0673454217627354
181,0.7340604772054921,0.21052300253635292,0.7031646016080912,4.52691294686113,2.032847416739831,1.1910621367146736,4.392279784418687,1.0,3.14,-0.38010598444329613,-1.558643558294898,-3.0849460866393157,3.14,3.0672877088599786
182,0.7340744244491931,0.21056103962842398,0.7031677860778809,4.526955653227399,2.0328545195785783,1.1910609410094515,4.392322470318461,1.0,3.14,-0.3801139591825777,-1.5586335629089476,-3.084990370793071,3.14,3.0672299744488796
183,0.7340883800212848,0.2105990931453124,0.7031709725156217,4.526998375907602,2.0328616252416234,1.1910597452215124,4.39236517252419,1.0,3.14,-0.380121936937343,-1.5586235631468746,-3.0850346716715538,3.14,3.0671722185215047
184,0.7341023439271367,0.21063716309401753,0.7031741609226047,4.527041114908295,2.032868733730156,1.1910585493510903,4.392407891042428,1.0,3.14,-0.3801299177087586,-1.5586135590065542,-3.0850789892810893,3.14,3.0671144410699163
185,0.7341163161721223,0.21067524948153973,0.7031773513001236,4.527083870236038,2.032875845045365,1.1910573533984226,4.392450625879732,1.0,3.14,-0.3801379014979912,-1.5586035504858606,-3.0851233236280033,3.14,3.067056642086174
186,0.7341302967616191,0.21071335231488714,0.7031805436494722,4.527126641897397,2.0328829591884414,1.1910561573637435,4.392493377042664,1.0,3.14,-0.380145888306209,-1.5585935375826667,-3.085167674718626,3.14,3.0669988215623345
187,0.7341442857010085,0.21075147160106664,0.7031837379719442,4.5271694298989384,2.032890076160577,1.1910549612472892,4.392536144537787,1.0,3.14,-0.38015387813457974,-1.5585835202948446,-3.0852120425592893,3.14,3.066940979490451
188,0.7341582829956752,0.21078960734709112,0.7031869342688365,4.527212234247233,2.0328971959629625,1.1910537650492972,4.392578928371668,1.0,3.14,-0.3801618709842716,-1.5585734986202648,-3.085256427156327,3.14,3.0668831158625744
189,0.7341722886510067,0.21082775955997518,0.7031901325414444,4.527255054948853,2.0329043185967897,1.191052568770003,4.392621728550877,1.0,3.14,-0.38016986685645404,-1.5585634725567967,-3.085300828516077,3.14,3.066825230670751
190,0.7341863026723959,0.210865928246737,0.7031933327910662,4.527297892010376,2.0329114440632523,1.191051372409644,4.3926645450819874,1.0,3.14,-0.38017786575229684,-1.558553442102308,-3.0853452466448785,3.14,3.0667673239070252
191,0.734200325065238,0.21090411341439788,0.7031965350189996,4.527340745438381,2.0329185723635432,1.1910501759684575,4.392707377971577,1.0,3.14,-0.38018586767296975,-1.5585434072546658,-3.0853896815490742,3.14,3.066709395563438
192,0.7342143558349339,0.21094231506998334,0.7031997392265436,4.527383615239453,2.032925703498856,1.191048979446681,4.392750227226226,1.0,3.14,-0.38019387261964355,-1.5585333680117357,-3.085434133235009,3.14,3.066651445632027
193,0.7342283949868851,0.21098053322052027,0.7032029454149992,4.527426501420176,2.0329328374703852,1.191047782844552,4.392793092852516,1.0,3.14,-0.3802018805934894,-1.558523324371382,-3.0854786017090303,3.14,3.066593474104827
194,0.7342424425264998,0.2110187678730416,0.7032061535856664,4.527469403987142,2.0329399742793273,1.1910465861623087,4.392835974857036,1.0,3.14,-0.3802098915956792,-1.558513276331468,-3.0855230869774886,3.14,3.066535480973869
195,0.7342564984591889,0.21105701903458207,0.7032093637398471,4.527512322946945,2.032947113926876,1.1910453894001902,4.392878873246374,1.0,3.14,-0.3802179056273848,-1.5585032238898555,-3.085567589046736,3.14,3.066477466231182
196,0.7342705627903662,0.21109528671217845,0.7032125758788446,4.5275552583061796,2.032954256414229,1.191044192558433,4.392921788027125,1.0,3.14,-0.38022592268977945,-1.5584931670444053,-3.085612107923128,3.14,3.0664194298687906
197,0.7342846355254509,0.21113357091287344,0.7032157900039626,4.527598210071447,2.032961401742582,1.1910429956372783,4.392964719205883,1.0,3.14,-0.380233942784036,-1.5584831057929769,-3.085656643613023,3.14,3.0663613718787173
198,0.7342987166698646,0.21117187164370882,0.7032190061165051,4.527641178249347,2.0329685499131345,1.1910417986369641,4.3930076667892495,1.0,3.14,-0.3802419659113286,-1.5584730401334277,-3.0857011961227814,3.14,3.0663032922529805
199,0.7343128062290324,0.2112101889117325,0.7032222242177774,4.527684162846486,2.0329757009270835,1.1910406015577302,4.393050630783826,1.0,3.14,-0.38024999207283144,-1.5584629700636154,-3.085745765458766,3.14,3.0662451909835964
200,0.7343269042083846,0.21124852272399916,0.7032254443090864,4.5277271638694785,2.032982854785627,1.1910394043998165,4.39309361119622,1.0,3.14,-0.3802580212697192,-1.5584528955813957,-3.0857903516273426,3.14,3.066187068062577
201,0.7343410106133539,0.21128687308756042,0.7032286663917396,4.527770181324933,2.032990011489965,1.1910382071634622,4.393136608033041,1.0,3.14,-0.38026605350316756,-1.5584428166846227,-3.08583495463488,3.14,3.0661289234819327
202,0.7343551254493781,0.2113252400094736,0.7032318904670447,4.527813215219466,2.032997171041297,1.1910370098489085,4.393179621300901,1.0,3.14,-0.38027408877435215,-1.55843273337115,-3.0858795744877483,3.14,3.066070757233669
203,0.7343692487218972,0.21136362349680077,0.7032351165363109,4.527856265559699,2.033004333440824,1.1910358124563958,4.393222651006417,1.0,3.14,-0.38028212708444964,-1.5584226456388295,-3.085924211192322,3.14,3.0660125693097893
204,0.7343833804363565,0.21140202355660576,0.7032383446008477,4.527899332352252,2.033011498689747,1.1910346149861641,4.393265697156209,1.0,3.14,-0.380290168434637,-1.5584125534855116,-3.0859688647549772,3.14,3.0659543597022934
205,0.7343975205982038,0.21144044019595482,0.7032415746619672,4.527942415603752,2.0330186667892667,1.1910334174384565,4.393308759756898,1.0,3.14,-0.38029821282609133,-1.558402456909046,-3.0860135351820923,3.14,3.0658961284031783
206,0.7344116692128917,0.2114788734219212,0.7032448067209803,4.52798551532083,2.033025837740587,1.191032219813513,4.393351838815111,1.0,3.14,-0.38030626025999126,-1.5583923559072805,-3.086058222480049,3.14,3.065837875404438
207,0.7344258262858752,0.21151732324157654,0.7032480407791996,4.528028631510115,2.0330330115449096,1.191031022111575,4.3933949343374765,1.0,3.14,-0.3803143107375153,-1.5583822504780627,-3.0861029266552316,3.14,3.0657796006980624
208,0.7344399918226148,0.21155578966199798,0.7032512768379396,4.528071764178245,2.0330401882034392,1.1910298243328856,4.393438046330628,1.0,3.14,-0.38032236425984217,-1.5583721406192377,-3.0861476477140264,3.14,3.0657213042760394
209,0.7344541658285728,0.211594272690267,0.7032545148985139,4.528114913331858,2.0330473677173777,1.191028626477686,4.393481174801201,1.0,3.14,-0.38033042082815144,-1.5583620263286508,-3.0861923856628226,3.14,3.0656629861303526
210,0.7344683483092173,0.21163277233346853,0.7032577549622381,4.528158078977598,2.0330545500879316,1.1910274285462201,4.3935243197558345,1.0,3.14,-0.3803384804436235,-1.5583519076041445,-3.0862371405080125,3.14,3.0656046462529836
211,0.7344825392700196,0.21167128859869014,0.7032609970304283,4.528201261122112,2.033061735316305,1.1910262305387291,4.393567481201172,1.0,3.14,-0.38034654310743926,-1.5583417844435614,-3.0862819122559904,3.14,3.06554628463591
212,0.7344967387164533,0.2117098214930183,0.703264241104403,4.5282444597720435,2.033068923403705,1.1910250324554577,4.3936106591438575,1.0,3.14,-0.3803546088207797,-1.5583316568447412,-3.0863267009131534,3.14,3.0654879012711063
213,0.734510946653998,0.21174837102355032,0.703267487185479,4.52828767493405,2.033076114351338,1.1910238342966488,4.393653853590542,1.0,3.14,-0.3803626775848265,-1.558321524805524,-3.0863715064859014,3.14,3.065429496150544
214,0.7345251630881351,0.2117869371973831,0.7032707352749754,4.528330906614785,2.03308330816041,1.1910226360625458,4.393697064547876,1.0,3.14,-0.38037074940076193,-1.5583113883237483,-3.086416328980637,3.14,3.065371069266192
215,0.7345393880243511,0.2118255200216159,0.7032739853742133,4.528374154820908,2.0330905048321295,1.1910214377533923,4.393740292022517,1.0,3.14,-0.380378824269769,-1.5583012473972506,-3.0864611684037646,3.14,3.0653126206100154
216,0.7345536214681365,0.2118641195033528,0.7032772374845129,4.528417419559082,2.0330977043677048,1.191020239369434,4.393783536021123,1.0,3.14,-0.3803869021930307,-1.5582911020238668,-3.0865060247616927,3.14,3.0652541501739754
217,0.7345678634249844,0.21190273564970072,0.7032804916071953,4.5284607008359705,2.0331049067683438,1.1910190409109143,4.393826796550356,1.0,3.14,-0.380394983171731,-1.5582809522014311,-3.0865508980608314,3.14,3.0651956579500315
218,0.7345821139003927,0.2119413684677717,0.703283747743585,4.528503998658246,2.0331121120352567,1.1910178423780786,4.393870073616883,1.0,3.14,-0.38040306720705425,-1.558270797927777,-3.0865957883075934,3.14,3.065137143930139
219,0.7345963728998619,0.2119800179646774,0.7032870058950049,4.528547313032577,2.0331193201696536,1.1910166437711724,4.3939133672273725,1.0,3.14,-0.3804111543001855,-1.558260639200736,-3.0866406955083945,3.14,3.0650786081062504
220,0.7346106404288979,0.21201868414753533,0.7032902660627784,4.528590643965641,2.033126531172745,1.1910154450904396,4.393956677388497,1.0,3.14,-0.38041924445231057,-1.5582504760181393,-3.0866856196696526,3.14,3.065020050470315
221,0.7346249164930102,0.21205736702346695,0.7032935282482324,4.528633991464118,2.0331337450457427,1.1910142463361277,4.394000004106932,1.0,3.14,-0.380427337664615,-1.5582403083778156,-3.086730560797789,3.14,3.064961471014279
222,0.7346392010977107,0.212096066599596,0.7032967924526927,4.52867735553469,2.033140961789858,1.1910130475084815,4.394043347389356,1.0,3.14,-0.3804354339382856,-1.5582301362775934,-3.0867755188992265,3.14,3.0649028697300853
223,0.7346534942485157,0.212134782883047,0.7033000586774862,4.52872073618404,2.0331481814063044,1.1910118486077481,4.394086707242452,1.0,3.14,-0.38044353327450947,-1.5582199597152995,-3.086820493980392,3.14,3.0648442466096735
224,0.7346677959509452,0.2121735158809508,0.7033033269239427,4.528764133418857,2.0331554038962936,1.1910106496341735,4.394130083672905,1.0,3.14,-0.38045163567447393,-1.5582097786887597,-3.086865486047714,3.14,3.06478560164498
225,0.7346821062105255,0.21221226560044423,0.7033065971933891,4.528807547245838,2.03316262926104,1.1910094505880044,4.394173476687405,1.0,3.14,-0.3804597411393674,-1.5581995931957981,-3.086910495107624,3.14,3.0647269348279385
226,0.7346964250327822,0.2122510320486613,0.7033098694871576,4.528850977671674,2.0331698575017576,1.1910082514694889,4.394216886292644,1.0,3.14,-0.38046784967037833,-1.558189403234238,-3.086955521166556,3.14,3.064668246150479
227,0.7347107524232493,0.21228981523274346,0.7033131438065776,4.528894424703066,2.0331770886196625,1.1910070522788738,4.394260312495318,1.0,3.14,-0.38047596126869615,-1.5581792088019009,-3.087000564230946,3.14,3.0646095356045278
228,0.734725088387461,0.21232861515983323,0.7033164201529817,4.528937888346714,2.0331843226159685,1.1910058530164063,4.394303755302125,1.0,3.14,-0.38048407593551037,-1.558169009896608,-3.087045624307235,3.14,3.0645508031820095
229,0.7347394329309574,0.21236743183708018,0.7033196985277033,4.528981368609329,2.033191559491893,1.1910046536823362,4.394347214719768,1.0,3.14,-0.38049219367201137,-1.5581588065161773,-3.087090701401864,3.14,3.064492048874844
230,0.7347537860592821,0.2124062652716313,0.7033229789320744,4.529024865497614,2.033198799248652,1.1910034542769101,4.394390690754953,1.0,3.14,-0.3805003144793902,-1.5581485986584278,-3.0871357955212777,3.14,3.0644332726749495
231,0.7347681477779825,0.2124451154706457,0.7033262613674318,4.5290683790182875,2.0332060418874636,1.1910022548003771,4.394434183414391,1.0,3.14,-0.3805084383588379,-1.558138386321176,-3.0871809066719234,3.14,3.0643744745742394
232,0.7347825180926087,0.21248398244127345,0.70332954583511,4.5291119091780585,2.0332132874095445,1.1910010552529868,4.394477692704791,1.0,3.14,-0.3805165653115466,-1.558128169502237,-3.087226034860251,3.14,3.064315654564625
233,0.7347968970087165,0.21252286619068084,0.7033328323364461,4.529155455983652,2.033220535816115,1.190999855634987,4.394521218632871,1.0,3.14,-0.380524695338709,-1.5581179481994252,-3.0872711800927135,3.14,3.0642568126380136
234,0.734811284531864,0.21256176672602742,0.7033361208727764,4.529199019441786,2.0332277871083932,1.1909986559466286,4.394564761205349,1.0,3.14,-0.38053282844151753,-1.5581077224105537,-3.087316342375766,3.14,3.06419794878631
235,0.7348256806676143,0.2126006840544832,0.7033394114454407,4.52924259955919,2.0332350412876,1.1909974561881604,4.394608320428949,1.0,3.14,-0.38054096462116593,-1.5580974921334336,-3.0873615217158665,3.14,3.0641390630014156
236,0.7348400854215342,0.21263961818321944,0.703342704055777,4.529286196342593,2.033242298354954,1.1909962563598326,4.394651896310396,1.0,3.14,-0.3805491038788483,-1.558087257365876,-3.0874067181194755,3.14,3.064080155275229
237,0.734854498799193,0.2126785691194062,0.7033459987051268,4.529329809798724,2.033249558311678,1.1909950564618959,4.39469548885642,1.0,3.14,-0.3805572462157593,-1.5580770181056893,-3.0874519315930566,3.14,3.0640212255996437
238,0.7348689208061656,0.21271753687022416,0.703349295394831,4.529373439934322,2.033256821158991,1.1909938564946012,4.394739098073753,1.0,3.14,-0.3805653916330937,-1.5580667743506817,-3.0874971621430753,3.14,3.0639622739665526
239,0.7348833514480301,0.21275652144285148,0.7033525941262312,4.529417086756125,2.0332640868981184,1.1909926564581985,4.394782723969131,1.0,3.14,-0.3805735401320477,-1.5580565260986594,-3.0875424097760003,3.14,3.0639033003678438
240,0.7348977907303683,0.21279552284447326,0.7033558949006702,4.529460750270877,2.0332713555302813,1.19099145635294,4.394826366549294,1.0,3.14,-0.38058169171381717,-1.5580462733474278,-3.087587674498303,3.14,3.0638443047954027
241,0.7349122386587656,0.21283454108227814,0.7033591977194923,4.529504430485324,2.033278627056704,1.1909902561790764,4.394870025820985,1.0,3.14,-0.38058984637959925,-1.5580360160947908,-3.0876329563164573,3.14,3.063785287241111
242,0.7349266952388122,0.21287357616345495,0.7033625025840431,4.529548127406215,2.0332859014786098,1.1909890559368603,4.39491370179095,1.0,3.14,-0.38059800413059075,-1.558025754338551,-3.08767825523694,3.14,3.063726247696848
243,0.7349411604761013,0.21291262809519948,0.7033658094956676,4.529591841040303,2.0332931787972237,1.1909878556265432,4.394957394465938,1.0,3.14,-0.38060616496799005,-1.5580154880765098,-3.08772357126623,3.14,3.0636671861544884
244,0.7349556343762301,0.2129516968847067,0.7033691184557131,4.529635571394343,2.033300459013771,1.1909866552483779,4.395001103852702,1.0,3.14,-0.38061432889299507,-1.5580052173064673,-3.087768904410809,3.14,3.0636081026059054
245,0.7349701169448001,0.21299078253917952,0.7033724294655268,4.529679318475097,2.0333077421294776,1.1909854548026166,4.395044829958,1.0,3.14,-0.38062249590680497,-1.5579949420262227,-3.0878142546771623,3.14,3.063548997042968
246,0.7349846081874171,0.21302988506582346,0.7033757425264571,4.529723082289328,2.03331502814557,1.1909842542895124,4.39508857278859,1.0,3.14,-0.3806306660106192,-1.5579846622335731,-3.087859622071777,3.14,3.063489869457542
247,0.7349991081096897,0.21306900447184307,0.7033790576398544,4.5297668628438,2.0333223170632753,1.1909830537093191,4.395132332351237,1.0,3.14,-0.3806388392056376,-1.5579743779263149,-3.087905006601143,3.14,3.0634307198414903
248,0.7350136167172304,0.2131081407644502,0.7033823748070683,4.5298106601452846,2.0333296088838217,1.1909818530622898,4.395176108652705,1.0,3.14,-0.38064701549306107,-1.5579640891022426,-3.0879504082717526,3.14,3.063371548186672
249,0.7350281340156577,0.21314729395086243,0.7033856940294515,4.529854474200557,2.0333369036084377,1.1909806523486788,4.395219901699766,1.0,3.14,-0.38065519487409044,-1.5579537957591503,-3.0879958270901016,3.14,3.0633123544849434
250,0.7350426600105904,0.21318646403829392,0.7033890153083556,4.529898305016391,2.033344201238351,1.1909794515687397,4.395263711499193,1.0,3.14,-0.38066337734992745,-1.5579434978948306,-3.088041263062688,3.14,3.0632531387281574
251,0.7350571947076532,0.21322565103396574,0.7033923386451333,4.529942152599566,2.033351501774793,1.1909782507227273,4.395307538057762,1.0,3.14,-0.38067156292177456,-1.5579331955070739,-3.0880867161960124,3.14,3.063193900908164
252,0.7350717381124754,0.21326485494510414,0.7033956640411393,4.529986016956867,2.033358805218992,1.190977049810896,4.3953513813822545,1.0,3.14,-0.38067975159083395,-1.5579228885936711,-3.088132186496578,3.14,3.0631346410168097
253,0.7350862902306897,0.2133040757789392,0.7033989914977294,4.5300298980950835,2.03336611157218,1.190975848833501,4.395395241479454,1.0,3.14,-0.3806879433583093,-1.55791257715241,-3.0881776739708915,3.14,3.0630753590459374
254,0.7351008510679323,0.21334331354269925,0.7034023210162588,4.530073796021003,2.0333734208355887,1.190974647790798,4.395439118356147,1.0,3.14,-0.3806961382254044,-1.5579022611810776,-3.088223178625461,3.14,3.0630160549873873
255,0.7351154206298439,0.21338256824362026,0.7034056525980854,4.530117710741419,2.0333807330104494,1.1909734466830428,4.395483012019123,1.0,3.14,-0.3807043361933235,-1.5578919406774598,-3.0882687004667977,3.14,3.0629567288329964
256,0.7351299989220673,0.21342183988893787,0.7034089862445672,4.530161642263128,2.033388048097996,1.1909722455104907,4.3955269224751765,1.0,3.14,-0.3807125372632717,-1.5578816156393416,-3.0883142395014165,3.14,3.062897380574598
257,0.7351445859502519,0.21346112848589827,0.7034123219570623,4.530205590592933,2.03339536609946,1.1909710442733983,4.395570849731106,1.0,3.14,-0.38072074143645424,-1.557871286064506,-3.0883597957358337,3.14,3.0628380102040227
258,0.7351591817200492,0.21350043404174357,0.7034156597369309,4.530249555737637,2.033402687016077,1.1909698429720212,4.395614793793711,1.0,3.14,-0.3807289487140774,-1.5578609519507356,-3.088405369176569,3.14,3.0627786177130973
259,0.7351737862371152,0.21353975656372404,0.7034189995855344,4.530293537704048,2.0334100108490802,1.190968641606618,4.395658754669796,1.0,3.14,-0.38073715909734746,-1.5578506132958105,-3.0884509598301446,3.14,3.0627192030936454
260,0.7351883995071106,0.2135790960590904,0.7034223415042347,4.530337536498976,2.0334173375997064,1.1909674401774448,4.395702732366169,1.0,3.14,-0.3807453725874718,-1.55784027009751,-3.0884965677030856,3.14,3.0626597663374877
261,0.7352030215356974,0.21361845253509745,0.7034256854943933,4.530381552129235,2.03342466726919,1.1909662386847586,4.39574672688964,1.0,3.14,-0.38075358918565816,-1.5578299223536127,-3.088542192801919,3.14,3.062600307436442
262,0.7352176523285449,0.2136578259990048,0.7034290315573756,4.530425584601644,2.0334319998587684,1.1909650371288183,4.395790738247024,1.0,3.14,-0.3807618088931145,-1.557819570061895,-3.088587835133176,3.14,3.0625408263823215
263,0.7352322918913251,0.21369721645807677,0.7034323796945443,4.530469633923025,2.0334393353696782,1.190963835509881,4.39583476644514,1.0,3.14,-0.3807700317110494,-1.557809213220133,-3.0886334947033887,3.14,3.062481323166937
264,0.7352469402297114,0.2137366239195736,0.7034357299072669,4.530513700100198,2.0334466738031565,1.1909626338282049,4.395878811490808,1.0,3.14,-0.3807782576406725,-1.557798851826101,-3.088679171519093,3.14,3.062421797782097
265,0.7352615973493856,0.21377604839077055,0.703439082196908,4.530557783139998,2.033454015160442,1.1909614320840496,4.395922873390853,1.0,3.14,-0.38078648668319365,-1.5577884858775712,-3.088724865586828,3.14,3.062362250219605
266,0.7352762632560301,0.2138154898789357,0.7034424365648366,4.530601883049251,2.033461359442774,1.1909602302776734,4.3959669521521025,1.0,3.14,-0.38079471883982313,-1.5577781153723154,-3.088770576913134,3.14,3.062302680471262
267,0.7352909379553336,0.21385494839134822,0.7034457930124204,4.530645999834796,2.0334687066513917,1.1909590284093348,4.39601104778139,1.0,3.14,-0.38080295411177206,-1.557767740308104,-3.088816305504555,3.14,3.0622430885288656
268,0.735305621452986,0.21389442393528404,0.703449151541029,4.530690133503468,2.033476056787536,1.1909578264792944,4.39605516028555,1.0,3.14,-0.3808111925002519,-1.557757360682706,-3.088862051367638,3.14,3.0621834743842107
269,0.7353203137546835,0.21393391651802926,0.7034525121520329,4.530734284062111,2.0334834098524466,1.1909566244878123,4.39609928967142,1.0,3.14,-0.38081943400647444,-1.557746976493889,-3.0889078145089317,3.14,3.062123838029088
270,0.7353350148661244,0.21397342614686782,0.7034558748468026,4.53077845151757,2.033490765847365,1.1909554224351473,4.3961434359458424,1.0,3.14,-0.38082767863165284,-1.5577365877394198,-3.0889535949349884,3.14,3.0620641794552856
271,0.7353497247930135,0.2140129528290917,0.7034592396267105,4.530822635876694,2.033498124773534,1.1909542203215602,4.396187599115664,1.0,3.14,-0.3808359263770001,-1.557726194417063,-3.088999392652363,3.14,3.0620044986545882
272,0.7353644435410578,0.214052496571992,0.7034626064931311,4.530866837146335,2.033505486632196,1.1909530181473127,4.396231779187732,1.0,3.14,-0.3808441772437295,-1.5577157965245823,-3.089045207667612,3.14,3.0619447956187775
273,0.7353791711159668,0.21409205738286513,0.7034659754474368,4.530911055333347,2.033512851424594,1.1909518159126649,4.3962759761689,1.0,3.14,-0.3808524312330557,-1.5577053940597403,-3.0890910399872964,3.14,3.061885070339631
274,0.7353939075234583,0.21413163526901444,0.7034693464910038,4.530955290444594,2.033520219151972,1.1909506136178782,4.396320190066024,1.0,3.14,-0.3808606883461934,-1.5576949870202983,-3.0891368896179783,3.14,3.061825322808924
275,0.7354086527692494,0.2141712302377387,0.7034727196252073,4.530999542486933,2.0335275898155745,1.1909494112632146,4.396364420885962,1.0,3.14,-0.380868948584358,-1.557684575404016,-3.0891827565662235,3.14,3.0617655530184273
276,0.7354234068590634,0.21421084229634782,0.7034760948514253,4.531043811467233,2.033534963416647,1.1909482088489356,4.396408668635577,1.0,3.14,-0.38087721194876556,-1.5576741592086518,-3.0892286408386007,3.14,3.06170576095991
277,0.7354381697986273,0.21425047145215248,0.7034794721710343,4.531088097392365,2.033542339956435,1.1909470063753036,4.396452933321737,1.0,3.14,-0.3808854784406325,-1.5576637384319634,-3.0892745424416805,3.14,3.061645946625137
278,0.7354529415936741,0.21429011771246737,0.7034828515854145,4.531132400269201,2.0335497194361847,1.1909458038425809,4.396497214951312,1.0,3.14,-0.3808937480611756,-1.5576533130717063,-3.0893204613820364,3.14,3.0615861100058694
279,0.7354677222499377,0.21432978108460726,0.7034862330959453,4.531176720104617,2.0335571018571437,1.1909446012510316,4.396541513531173,1.0,3.14,-0.3809020208116127,-1.5576428831256346,-3.089366397666245,3.14,3.0615262510938663
280,0.7354825117731563,0.21436946157589282,0.7034896167040077,4.531221056905491,2.033564487220559,1.1909433986009166,4.396585829068197,1.0,3.14,-0.3809102966931621,-1.5576324485915019,-3.0894123513008855,3.14,3.061466369880882
281,0.7354973101690742,0.21440915919365156,0.7034930024109837,4.531265410678712,2.0335718755276804,1.190942195892501,4.3966301615692664,1.0,3.14,-0.3809185757070422,-1.5576220094670599,-3.08945832229254,3.14,3.0614064663586693
282,0.7355121174434373,0.21444887394520723,0.7034963902182557,4.531309781431161,2.033579266779755,1.1909409931260488,4.396674511041263,1.0,3.14,-0.38092685785447244,-1.5576115657500595,-3.089504310647792,3.14,3.061346540518976
283,0.7355269336019977,0.21448860583789744,0.7034997801272064,4.531354169169735,2.033586660978033,1.1909397903018222,4.396718877491075,1.0,3.14,-0.3809351431366726,-1.5576011174382505,-3.0895503163732303,3.14,3.061286592353548
284,0.73554175865051,0.21452835487905123,0.7035031721392224,4.531398573901324,2.0335940581237644,1.1909385874200875,4.396763260925593,1.0,3.14,-0.3809434315548631,-1.5575906645293796,-3.089596339475444,3.14,3.0612266218541264
285,0.7355565925947335,0.21456812107600878,0.7035065662556879,4.531442995632826,2.0336014582182016,1.1909373844811078,4.396807661351711,1.0,3.14,-0.38095172311026515,-1.5575802070211942,-3.089642379961026,3.14,3.06116662901245
286,0.7355714354404302,0.21460790443611114,0.7035099624779899,4.531487434371142,2.033608861262594,1.1909361814851491,4.396852078776326,1.0,3.14,-0.38096001780409955,-1.5575697449114394,-3.0896884378365725,3.14,3.061106613820255
287,0.7355862871933687,0.21464770496670438,0.7035133608075164,4.531531890123177,2.033616267258195,1.1909349784324765,4.3968965132063405,1.0,3.14,-0.38096831563758876,-1.5575592781978596,-3.0897345131086813,3.14,3.061046576269273
288,0.7356011478593192,0.21468752267513672,0.7035167612456554,4.531576362895839,2.0336236762062563,1.1909337753233555,4.396940964648659,1.0,3.14,-0.38097661661195525,-1.5575488068781966,-3.0897806057839534,3.14,3.060986516351232
289,0.7356160174440568,0.21472735756876196,0.7035201637937968,4.531620852696041,2.033631088108032,1.1909325721580521,4.3969854331101885,1.0,3.14,-0.38098492072842244,-1.5575383309501922,-3.089826715868993,3.14,3.0609264340578584
290,0.7356308959533608,0.21476720965493307,0.7035235684533302,4.531665359530695,2.0336385029647768,1.1909313689368317,4.397029918597842,1.0,3.14,-0.38099322798821417,-1.5575278504115864,-3.089872843370406,3.14,3.060866329380874
291,0.7356457833930141,0.214807078941012,0.7035269752256477,4.531709883406723,2.0336459207777438,1.1909301656599611,4.397074421118535,1.0,3.14,-0.38100153839255446,-1.557517365260118,-3.089918988294802,3.14,3.0608062023119973
292,0.7356606797688043,0.21484696543435977,0.7035303841121415,4.531754424331045,2.0336533415481894,1.1909289623277077,4.397118940679185,1.0,3.14,-0.381009851942668,-1.557506875493524,-3.089965150648793,3.14,3.060746052842944
293,0.7356755850865224,0.21488686914234179,0.7035337951142057,4.531798982310586,2.033660765277368,1.1909277589403384,4.397163477286715,1.0,3.14,-0.3810181686397803,-1.5574963811095408,-3.090011330438993,3.14,3.060685880965427
294,0.7356904993519641,0.21492679007233167,0.7035372082332338,4.531843557352279,2.0336681919665383,1.1909265554981205,4.397208030948051,1.0,3.14,-0.38102648848511733,-1.5574858821059023,-3.0900575276720206,3.14,3.0606256866711545
295,0.7357054225709271,0.21496672823169774,0.703540623470621,4.531888149463052,2.0336756216169563,1.1909253520013214,4.397252601670122,1.0,3.14,-0.38103481147990587,-1.5574753784803423,-3.0901037423544953,3.14,3.060565469951832
296,0.7357203547492158,0.21500668362781958,0.7035440408277637,4.531932758649844,2.0336830542298787,1.1909241484502098,4.39729718945986,1.0,3.14,-0.38104313762537256,-1.557464870230593,-3.0901499744930403,3.14,3.0605052307991625
297,0.7357352958926383,0.2150466562680785,0.7035474603060595,4.531977384919595,2.0336904898065664,1.1909229448450531,4.397341794324204,1.0,3.14,-0.3810514669227458,-1.5574543573543846,-3.0901962240942815,3.14,3.0604449692048443
298,0.7357502460070036,0.21508664615985393,0.7035508819069066,4.532022028279245,2.033697928348277,1.1909217411861206,4.39738641627009,1.0,3.14,-0.3810597993732531,-1.5574438398494468,-3.0902424911648474,3.14,3.060384685160573
299,0.7357652050981296,0.21512665331053862,0.703554305631703,4.532066688735746,2.03370536985627,1.190920537473681,4.397431055304466,1.0,3.14,-0.3810681349781235,-1.5574333177135073,-3.0902887757113686,3.14,3.060324378658041
300,0.735780173171835,0.21516667772751952,0.7035577314818504,4.532111366296045,2.033712814331807,1.190919333708004,4.397475711434276,1.0,3.14,-0.38107647373858633,-1.557422790944293,-3.09033507774048,3.14,3.060264049688937
301,0.7357951502339422,0.21520671941819103,0.703561159458749,4.532156060967094,2.033720261776147,1.1909181298893583,4.397520384666471,1.0,3.14,-0.38108481565587127,-1.5574122595395292,-3.0903813972588177,3.14,3.060203698244947
302,0.7358101362902802,0.21524677838995634,0.7035645895638007,4.532200772755858,2.033727712190553,1.1909169260180141,4.397565075008007,1.0,3.14,-0.3810931607312093,-1.55740172349694,-3.0904277342730215,3.14,3.0601433243177536
303,0.7358251313466799,0.21528685465021027,0.7035680217984105,4.532245501669291,2.0337351655762888,1.190915722094242,4.397609782465839,1.0,3.14,-0.3811015089658311,-1.557391182814247,-3.0904740887897337,3.14,3.0600829278990354
304,0.7358401354089779,0.21532694820636156,0.7035714561639799,4.53229024771436,2.0337426219346133,1.190914518118312,4.397654507046929,1.0,3.14,-0.381109860360968,-1.557380637489173,-3.0905204608155996,3.14,3.060022508980468
305,0.7358551484830121,0.21536705906581521,0.7035748926619152,4.532335010898031,2.0337500812667937,1.1909133140904953,4.397699248758241,1.0,3.14,-0.3811182149178527,-1.5573700875194365,-3.0905668503572667,3.14,3.059962067553724
306,0.7358701705746279,0.21540718723598662,0.703578331293622,4.532379791227278,2.0337575435740924,1.1909121100110625,4.397744007606745,1.0,3.14,-0.3811265726377176,-1.5573595329027572,-3.090613257421386,3.14,3.0599016036104723
307,0.7358852016896726,0.21544733272429,0.7035817720605079,4.532424588709076,2.0337650088577743,1.1909109058802856,4.397788783599412,1.0,3.14,-0.3811349335217961,-1.5573489736368518,-3.0906596820146097,3.14,3.0598411171423785
308,0.7359002418339987,0.21548749553814564,0.7035852149639809,4.5324694033504045,2.0337724771191064,1.1909097016984358,4.397833576743218,1.0,3.14,-0.3811432975713221,-1.557338409719436,-3.090706124143595,3.14,3.059780608141105
309,0.7359152910134619,0.21552767568497364,0.7035886600054483,4.532514235158243,2.033779948359353,1.1909084974657855,4.39787838704514,1.0,3.14,-0.38115166478752993,-1.5573278411482248,-3.0907525838150005,3.14,3.0597200765983104
310,0.7359303492339224,0.21556787317220297,0.7035921071863221,4.532559084139581,2.033787422579781,1.190907293182607,4.397923214512163,1.0,3.14,-0.3811600351716546,-1.557317267920931,-3.090799061035488,3.14,3.0596595225056507
311,0.7359454165012443,0.21560808800726103,0.7035955565080123,4.532603950301405,2.03379489978166,1.1909060888491732,4.397968059151272,1.0,3.14,-0.3811684087249317,-1.5573066900352666,-3.0908455558117214,3.14,3.0595989458547783
312,0.7359604928212963,0.2156483201975839,0.703599007971931,4.53264883365071,2.0338023799662555,1.1909048844657562,4.398012920969457,1.0,3.14,-0.3811767854485972,-1.5572961074889424,-3.0908920681503687,3.14,3.059538346637342
313,0.7359755781999501,0.21568856975060746,0.7036024615794906,4.532693734194494,2.0338098631348367,1.1909036800326305,4.39805779997371,1.0,3.14,-0.3811851653438878,-1.5572855202796672,-3.0909385980580995,3.14,3.059477724844987
314,0.7359906726430828,0.21572883667376969,0.7036059173321052,4.532738651939752,2.0338173492886735,1.1909024755500681,4.398102696171029,1.0,3.14,-0.38119354841204117,-1.5572749284051486,-3.0909851455415867,3.14,3.059417080469356
315,0.7360057761565749,0.21576912097451673,0.7036093752311904,4.532783586893492,2.033824838429036,1.1909012710183449,4.398147609568414,1.0,3.14,-0.38120193465429475,-1.557264331863093,-3.091031710607506,3.14,3.0593564135020874
316,0.7360208887463107,0.21580942266029607,0.7036128352781608,4.532828539062721,2.033832330557195,1.1909000664377336,4.39819254017287,1.0,3.14,-0.381210324071887,-1.557253730651206,-3.091078293262535,3.14,3.0592957239348175
317,0.7360360104181797,0.21584974173855923,0.7036162974744335,4.53287350845445,2.0338398256744203,1.190898861808509,4.398237487991403,1.0,3.14,-0.3812187166660569,-1.5572431247671914,-3.0911248935133555,3.14,3.059235011759178
318,0.7360511411780732,0.21589007821675926,0.7036197618214267,4.532918495075691,2.0338473237819854,1.1908976571309462,4.398282453031024,1.0,3.14,-0.38122711243804425,-1.5572325142087509,-3.0911715113666514,3.14,3.0591742769667976
319,0.7360662810318904,0.21593043210235635,0.7036232283205589,4.532963498933466,2.0338548248811623,1.1908964524053203,4.398327435298749,1.0,3.14,-0.38123551138908895,-1.557221898973586,-3.091218146829109,3.14,3.0591135195493018
320,0.736081429985531,0.21597080340280927,0.7036266969732504,4.533008520034792,2.0338623289732243,1.1908952476319064,4.398372434801596,1.0,3.14,-0.38124391352043147,-1.557211279059396,-3.0912647999074183,3.14,3.059052739498313
321,0.736096588044901,0.21601119212558761,0.7036301677809215,4.533053558386699,2.0338698360594445,1.1908940428109813,4.398417451546587,1.0,3.14,-0.38125231883331295,-1.5572006544638795,-3.091311470608271,3.14,3.05899193680545
322,0.7361117552159088,0.21605159827815865,0.7036336407449933,4.5330986139962155,2.0338773461410993,1.1908928379428203,4.3984624855407475,1.0,3.14,-0.3812607273289759,-1.557190025184733,-3.091358158938363,3.14,3.0589311114623277
323,0.736126931504469,0.21609202186799373,0.7036371158668899,4.533143686870371,2.033884859219462,1.1908916330277,4.398507536791106,1.0,3.14,-0.3812691390086621,-1.5571793912196528,-3.0914048649043915,3.14,3.058870263460558
324,0.7361421169164979,0.2161324629025689,0.7036405931480343,4.5331887770162025,2.0338923752958085,1.190890428065897,4.398552605304696,1.0,3.14,-0.38127755387361495,-1.5571687525663322,-3.091451588513057,3.14,3.05880939279175
325,0.7361573114579195,0.21617292138936767,0.7036440725898507,4.533233884440754,2.033899894371417,1.1908892230576886,4.398597691088554,1.0,3.14,-0.3812859719250777,-1.5571581092224644,-3.091498329771064,3.14,3.0587484994475087
326,0.7361725151346575,0.2162133973358694,0.7036475541937666,4.533279009151063,2.033907416447563,1.1908880180033523,4.398642794149719,1.0,3.14,-0.38129439316429437,-1.557147461185741,-3.0915450886851175,3.14,3.0586875834194363
327,0.7361877279526424,0.21625389074956186,0.7036510379612062,4.533324151154179,2.0339149415255235,1.1908868129031656,4.398687914495235,1.0,3.14,-0.38130281759250984,-1.5571368084538522,-3.091591865261927,3.14,3.0586266446991313
328,0.7362029499178082,0.2162944016379352,0.7036545238935992,4.533369310457152,2.03392246960658,1.1908856077574053,4.398733052132148,1.0,3.14,-0.3813112452109696,-1.5571261510244863,-3.091638659508205,3.14,3.0585656832781885
329,0.7362181810360938,0.2163349300084865,0.7036580119923729,4.533414487067039,2.033930000692008,1.1908844025663519,4.398778207067512,1.0,3.14,-0.3813196760209188,-1.5571154888953314,-3.091685471430665,3.14,3.0585046991482
330,0.7362334213134407,0.21637547586870914,0.7036615022589581,4.533459680990893,2.0339375347830893,1.1908831973302825,4.398823379308378,1.0,3.14,-0.38132811002360445,-1.5571048220640729,-3.0917323010360254,3.14,3.0584436923007536
331,0.7362486707557969,0.2164160392261081,0.703664994694785,4.533504892235779,2.033945071881104,1.1908819920494764,4.398868568861806,1.0,3.14,-0.38133654722027327,-1.5570941505283953,-3.091779148331006,3.14,3.058382662727435
332,0.7362639293691124,0.2164566200881861,0.7036684893012862,4.533550120808761,2.033952611987332,1.1908807867242137,4.398913775734857,1.0,3.14,-0.3813449876121728,-1.557083474285982,-3.09182601332233,3.14,3.0583216104198256
333,0.7362791971593423,0.21649721846245348,0.7036719860798932,4.533595366716909,2.0339601551030575,1.190879581354773,4.398958999934597,1.0,3.14,-0.3813534312005512,-1.5570727933345148,-3.091872896016724,3.14,3.058260535369503
334,0.7362944741324448,0.2165378343564206,0.7036754850320398,4.533640629967294,2.03396770122956,1.1908783759414345,4.399004241468093,1.0,3.14,-0.3813618779866572,-1.5570621076716746,-3.0919197964209157,3.14,3.0581994375680432
335,0.736309760294384,0.21657846777760473,0.7036789861591612,4.533685910566992,2.033975250368124,1.190877170484478,4.39904950034242,1.0,3.14,-0.38137032797174014,-1.55705141729514,-3.091966714541637,3.14,3.0581383170070167
336,0.7363250556511267,0.21661911873352357,0.7036824894626931,4.533731208523082,2.033982802520032,1.1908759649841851,4.399094776564652,1.0,3.14,-0.38137878115704965,-1.557040722202589,-3.0920136503856224,3.14,3.058077173677992
337,0.7363403602086456,0.2166597872317035,0.7036859949440715,4.533776523842651,2.03399035768657,1.1908747594408358,4.399140070141872,1.0,3.14,-0.3813872375438365,-1.557030022391698,-3.0920606039596086,3.14,3.058016007572533
338,0.7363556739729146,0.21670047327966682,0.7036895026047347,4.53382185653278,2.033997915869022,1.1908735538547115,4.3991853810811605,1.0,3.14,-0.3813956971333517,-1.557019317860142,-3.0921075752703358,3.14,3.057954818682202
339,0.7363709969499141,0.21674117688494704,0.7036930124461209,4.533867206600565,2.034005477068673,1.1908723482260934,4.399230709389605,1.0,3.14,-0.38140415992684656,-1.5570086086055945,-3.092154564324547,3.14,3.0578936069985567
340,0.7363863291456292,0.21678189805507617,0.70369652446967,4.5339125740530966,2.03401304128681,1.1908711425552634,4.3992760550742975,1.0,3.14,-0.3814126259255737,-1.556997894625728,-3.0922015711289874,3.14,3.0578323725131513
341,0.7364016705660471,0.2168226367975932,0.7037000386768232,4.533957958897475,2.0340206085247203,1.1908699368425044,4.399321418142332,1.0,3.14,-0.3814210951307853,-1.5569871759182128,-3.092248595690406,3.14,3.057771115217537
342,0.7364170212171611,0.2168633931200381,0.7037035550690217,4.5340033611408,2.03402817878369,1.1908687310880977,4.399366798600806,1.0,3.14,-0.381429567543735,-1.5569764524807193,-3.0922956380155537,3.14,3.057709835103261
343,0.7364323811049667,0.21690416702995588,0.7037070736477078,4.534048780790178,2.0340357520650088,1.1908675252923269,4.3994121964568205,1.0,3.14,-0.38143804316567664,-1.5569657243109145,-3.092342698111185,3.14,3.0576485321618683
344,0.736447750235465,0.2169449585348963,0.7037105944143258,4.534094217852718,2.0340433283699646,1.190866319455475,4.399457611717484,1.0,3.14,-0.3814465219978646,-1.5569549914064662,-3.092389775984056,3.14,3.0575872063848992
345,0.7364631286146617,0.21698576764240993,0.7037141173703207,4.534139672335531,2.034050907699847,1.190865113577825,4.399503044389903,1.0,3.14,-0.3814550040415542,-1.5569442537650389,-3.0924368716409267,3.14,3.0575258577638915
346,0.7364785162485659,0.21702659436005473,0.7037176425171373,4.534185144245736,2.034058490055947,1.1908639076596605,4.399548494481191,1.0,3.14,-0.38146348929800095,-1.556933511384297,-3.09248398508856,3.14,3.057464486290379
347,0.7364939131431903,0.21706743869538658,0.7037211698562233,4.534230633590449,2.0340660754395543,1.1908627017012663,4.399593961998464,1.0,3.14,-0.38147197776846115,-1.5569227642619026,-3.092531116333721,3.14,3.057403091955892
348,0.7365093193045531,0.21710830065597017,0.7037246993890262,4.534276140376797,2.0340736638519625,1.190861495702927,4.399639446948843,1.0,3.14,-0.3814804694541913,-1.5569120123955167,-3.092578265383178,3.14,3.0573416747519584
349,0.7365247347386762,0.21714918024937446,0.7037282311169947,4.534321664611906,2.0340812552944607,1.1908602896649263,4.39968494933945,1.0,3.14,-0.3814889643564491,-1.5569012557828,-3.0926254322437026,3.14,3.057280234670102
350,0.7365401594515851,0.21719007748316574,0.7037317650415785,4.534367206302906,2.034088849768344,1.1908590835875508,4.399730469177414,1.0,3.14,-0.3814974624764924,-1.5568904944214095,-3.092672616922068,3.14,3.0572187717018426
351,0.7365555934493095,0.21723099236491888,0.7037353011642279,4.53441276545693,2.034096447274906,1.1908578774710832,4.399776006469865,1.0,3.14,-0.38150596381558033,-1.556879728309003,-3.0927198194250516,3.14,3.0571572858386977
352,0.7365710367378849,0.21727192490221545,0.7037388394863957,4.534458342081122,2.0341040478154393,1.1908566713158113,4.399821561223939,1.0,3.14,-0.3815144683749711,-1.5568689574432366,-3.0927670397594325,3.14,3.0570957770721803
353,0.7365864893233488,0.2173128751026309,0.7037423800095334,4.534503936182618,2.03411165139124,1.1908554651220205,4.399867133446773,1.0,3.14,-0.3815229761559251,-1.556858181821764,-3.092814277931993,3.14,3.0570342453938006
354,0.7366019512117458,0.21735384297375585,0.7037459227350964,4.534549547768568,2.034119258003602,1.1908542588899973,4.399912723145512,1.0,3.14,-0.38153148715970225,-1.5568474014422378,-3.092861533949519,3.14,3.0569726907950656
355,0.7366174224091225,0.21739482852317685,0.7037494676645384,4.5345951768461195,2.0341268676538236,1.190853052620028,4.3999583303272995,1.0,3.14,-0.3815400013875637,-1.556836616302309,-3.092908807818798,3.14,3.0569111132674784
356,0.7366329029215292,0.21743583175848502,0.7037530147993154,4.534640823422425,2.0341344803432,1.1908518463123998,4.400003954999285,1.0,3.14,-0.38154851884077085,-1.5568258263996286,-3.092956099546621,3.14,3.056849512802539
357,0.7366483927550223,0.21747685268727734,0.7037565641408847,4.534686487504642,2.03414209607303,1.1908506399674,4.400049597168622,1.0,3.14,-0.3815570395205856,-1.5568150317318448,-3.0930034091397824,3.14,3.0567878893917433
358,0.7366638919156606,0.21751789131715288,0.7037601156907036,4.53473216909993,2.03414971484461,1.1908494335853164,4.4000952568424685,1.0,3.14,-0.3815655634282707,-1.5568042322966047,-3.0930507366050786,3.14,3.056726243026585
359,0.7366794004095101,0.21755894765571726,0.7037636694502316,4.534777868215455,2.0341573366592405,1.1908482271664362,4.400140934027985,1.0,3.14,-0.3815740905650896,-1.5567934280915539,-3.093098081949309,3.14,3.056664573698553
360,0.736694918242637,0.21760002171057463,0.7037672254209288,4.534823584858383,2.0341649615182202,1.190847020711049,4.400186628732334,1.0,3.14,-0.3815826209323059,-1.556782619114337,-3.093145445179276,3.14,3.056602881399134
361,0.7367104454211147,0.21764111348933685,0.7037707836042547,4.534869319035886,2.034172589422849,1.1908458142194418,4.400232340962686,1.0,3.14,-0.3815911545311839,-1.5567718053625976,-3.093192826301785,3.14,3.0565411661198096
362,0.7367259819510208,0.21768222299961917,0.7037743440016729,4.53491507075514,2.0341802203744273,1.1908446076919046,4.400278070726211,1.0,3.14,-0.38159969136298877,-1.5567609868339767,-3.093240225323644,3.14,3.05647942785206
363,0.7367415278384354,0.21772335024903958,0.7037779066146456,4.534960840023325,2.0341878543742578,1.1908434011287266,4.400323818030086,1.0,3.14,-0.3816082314289861,-1.556750163526114,-3.0932876422516635,3.14,3.0564176665873606
364,0.7367570830894444,0.2177644952452191,0.7037814714446374,4.535006626847621,2.0341954914236426,1.1908421945301972,4.400369582881488,1.0,3.14,-0.3816167747304421,-1.5567393354366488,-3.093335077092658,3.14,3.0563558823171837
365,0.7367726477101358,0.21780565799578272,0.7037850384931124,4.535052431235215,2.0342031315238835,1.190840987896606,4.400415365287603,1.0,3.14,-0.3816253212686236,-1.5567285025632187,-3.093382529853444,3.14,3.056294075032998
366,0.7367882217066051,0.21784683850836065,0.7037886077615374,4.535098253193298,2.0342107746762843,1.1908397812282439,4.4004611652556145,1.0,3.14,-0.3816338710447974,-1.5567176649034598,-3.093430000540841,3.14,3.056232244726269
367,0.7368038050849496,0.21788803679058644,0.7037921792513787,4.535144092729064,2.034218420882149,1.1908385745254004,4.400506982792716,1.0,3.14,-0.38164242406023213,-1.5567068224550062,-3.093477489161671,3.14,3.0561703913884593
368,0.7368193978512723,0.21792925285009665,0.7037957529641049,4.535189949849712,2.034226070142783,1.1908373677883672,4.4005528179060995,1.0,3.14,-0.381650980316196,-1.5566959752154912,-3.09352499572276,3.14,3.0561085150110263
369,0.7368350000116791,0.2179704866945299,0.7037993289011855,4.53523582456244,2.0342337224594917,1.1908361610174356,4.400598670602963,1.0,3.14,-0.38165953981395817,-1.5566851231825465,-3.0935725202309357,3.14,3.056046615585426
370,0.7368506115722808,0.218011738331532,0.70380290706409,4.535281716874455,2.0342413778335806,1.1908349542128969,4.400644540890509,1.0,3.14,-0.3816681025547883,-1.5566742663538022,-3.093620062693029,3.14,3.0559846931031096
371,0.7368662325391933,0.21805300776875014,0.7038064874542901,4.5353276267929665,2.034249036266357,1.190833747375043,4.400690428775943,1.0,3.14,-0.3816766685399567,-1.5566634047268877,-3.093667623115874,3.14,3.0559227475555253
372,0.7368818629185366,0.21809429501383645,0.7038100700732577,4.5353735543251865,2.034256697759128,1.1908325405041658,4.4007363342664725,1.0,3.14,-0.3816852377707342,-1.5566525382994303,-3.093715201506307,3.14,3.0558607789341177
373,0.7368975027164322,0.2181356000744441,0.7038136549224662,4.53541949947833,2.034264362313203,1.1908313336005583,4.400782257369311,1.0,3.14,-0.3816938102483925,-1.5566416670690557,-3.0937627978711686,3.14,3.0557987872303283
374,0.7369131519390107,0.21817692295823404,0.7038172420033897,4.535465462259618,2.034272029929889,1.1908301266645134,4.400828198091676,1.0,3.14,-0.3817023859742034,-1.5566307910333892,-3.0938104122173007,3.14,3.0557367724355946
375,0.736928810592403,0.21821826367286853,0.7038208313175038,4.535511442676276,2.0342797006104965,1.190828919696324,4.400874156440787,1.0,3.14,-0.3817109649494397,-1.5566199101900533,-3.0938580445515487,3.14,3.0556747345413506
376,0.7369444786827456,0.21825962222601444,0.7038244228662844,4.53555744073553,2.034287374356336,1.1908277126962832,4.400920132423869,1.0,3.14,-0.3817195471753747,-1.5566090245366706,-3.093905694880761,3.14,3.0556126735390277
377,0.7369601562161795,0.21830099862534047,0.7038280166512086,4.53560345644461,2.0342950511687174,1.1908265056646856,4.400966126048149,1.0,3.14,-0.3817281326532821,-1.5565981340708614,-3.0939533632117886,3.14,3.055550589420053
378,0.7369758431988509,0.21834239287852208,0.703831612673756,4.535649489810754,2.0343027310489528,1.190825298601825,4.401012137320859,1.0,3.14,-0.38173672138443654,-1.5565872387902444,-3.0940010495514856,3.14,3.0554884821758503
379,0.736991539636909,0.21838380499323662,0.7038352109354047,4.5356955408412,2.0343104139983543,1.1908240915079962,4.401058166249235,1.0,3.14,-0.3817453133701129,-1.5565763386924372,-3.094048753906709,3.14,3.05542635179784
380,0.7370072455365065,0.21842523497716423,0.7038388114376364,4.535741609543189,2.034318100018235,1.190822884383494,4.401104212840514,1.0,3.14,-0.3817539086115868,-1.5565654337750559,-3.0940964762843186,3.14,3.055364198277439
381,0.7370229609038028,0.21846668283799114,0.7038424141819315,4.535787695923969,2.034325789109908,1.1908216772286133,4.401150277101941,1.0,3.14,-0.3817625071101347,-1.5565545240357153,-3.094144216691177,3.14,3.0553020216060607
382,0.7370386857449596,0.21850814858340523,0.7038460191697734,4.535833799990789,2.034333481274688,1.1908204700436502,4.401196359040761,1.0,3.14,-0.38177110886703314,-1.5565436094720286,-3.09419197513415,3.14,3.0552398217751153
383,0.7370544200661444,0.21854963222110171,0.7038496264026443,4.535879921750906,2.0343411765138892,1.1908192628288994,4.4012424586642265,1.0,3.14,-0.3817797138835599,-1.556532690081608,-3.0942397516201052,3.14,3.0551775987760093
384,0.7370701638735282,0.21859113375877376,0.7038532358820313,4.535926061211574,2.0343488748288276,1.1908180555846581,4.40128857597959,1.0,3.14,-0.3817883221609925,-1.5565217658620636,-3.094287546155915,3.14,3.0551153526001453
385,0.737085917173286,0.21863265320412245,0.7038568476094168,4.535972218380056,2.0343565762208202,1.1908168483112227,4.40133471099411,1.0,3.14,-0.3817969337006099,-1.5565108368110043,-3.0943353587484537,3.14,3.0550530832389233
386,0.737101679971597,0.21867419056485085,0.7038604615862903,4.536018393263617,2.0343642806911832,1.19081564100889,4.401380863715048,1.0,3.14,-0.3818055485036912,-1.556499902926038,-3.094383189404598,3.14,3.054990790683739
387,0.7371174522746474,0.21871574584866915,0.7038640778141377,4.536064585869527,2.034371988241234,1.1908144336779565,4.4014270341496715,1.0,3.14,-0.3818141665715162,-1.5564889642047708,-3.094431038131228,3.14,3.054928474925985
388,0.7371332340886237,0.2187573190632874,0.7038676962944492,4.536110796205058,2.0343796988722906,1.1908132263187199,4.401473222305247,1.0,3.14,-0.3818227879053654,-1.5564780206448072,-3.094478904935227,3.14,3.0548661359570506
389,0.7371490254197202,0.218798910216421,0.7038713170287144,4.536157024277489,2.0343874125856733,1.1908120189314797,4.40151942818905,1.0,3.14,-0.38183141250651936,-1.5564670722437504,-3.0945267898234805,3.14,3.054803773768321
390,0.7371648262741323,0.21884051931578713,0.7038749400184225,4.536203270094096,2.0343951293827005,1.1908108115165323,4.4015656518083555,1.0,3.14,-0.38184004037626024,-1.5564561189992026,-3.0945746928028774,3.14,3.0547413883511787
391,0.7371806366580627,0.21888214636911058,0.7038785652650672,4.536249533662167,2.0344028492646933,1.190809604074176,4.401611893170446,1.0,3.14,-0.3818486715158702,-1.5564451609087642,-3.0946226138803095,3.14,3.0546789796970018
392,0.737196456577717,0.21892379138411774,0.7038821927701404,4.536295814988989,2.0344105722329724,1.190808396604711,4.401658152282605,1.0,3.14,-0.3818573059266318,-1.556434197970034,-3.094670553062671,3.14,3.054616547797165
393,0.7372122860393046,0.218965454368536,0.703885822535137,4.536342114081852,2.0344182982888595,1.1908071891084349,4.40170442915212,1.0,3.14,-0.3818659436098287,-1.5564232301806094,-3.0947185103568597,3.14,3.054554092643041
394,0.7372281250490413,0.2190071353301039,0.703889454561551,4.5363884309480556,2.0344260274336765,1.1908059815856489,4.401750723786286,1.0,3.14,-0.3818745845667444,-1.5564122575380872,-3.094766485769776,3.14,3.0544916142259964
395,0.737243973613145,0.2190488342765565,0.7038930888508788,4.536434765594897,2.034433759668747,1.1908047740366516,4.401797036192396,1.0,3.14,-0.3818832287986639,-1.5564012800400613,-3.094814479308323,3.14,3.0544291125373966
396,0.7372598317378397,0.2190905512156353,0.7038967254046185,4.536481118029679,2.034441494995395,1.190803566461744,4.401843366377752,1.0,3.14,-0.3818918763068722,-1.556390297684125,-3.094862490979408,3.14,3.0543665875686026
397,0.7372756994293523,0.21913228615508665,0.7039003642242663,4.5365274882597095,2.0344492334149447,1.1908023588612262,4.4018897143496565,1.0,3.14,-0.3819005270926553,-1.5563793104678707,-3.0949105207899383,3.14,3.054304039310972
398,0.737291576693915,0.21917403910265962,0.7039040053113237,4.5365738762923,2.03445697492872,1.1908011512353989,4.401936080115417,1.0,3.14,-0.3819091811572995,-1.5563683183888881,-3.0949585687468275,3.14,3.0542414677558583
399,0.7373074635377653,0.21921581006610683,0.7039076486672894,4.5366202821347645,2.0344647195380485,1.190799943584564,4.401982463682345,1.0,3.14,-0.3819178385020917,-1.5563573214447661,-3.09500663485699,3.14,3.0541788728946124
400,0.7373233599671426,0.2192575990531862,0.703911294293665,4.536666705794423,2.034472467244256,1.1907987359090226,4.402028865057756,1.0,3.14,-0.3819264991283199,-1.5563463196330924,-3.0950547191273436,3.14,3.0541162547185814
401,0.7373392659882921,0.21929940607165563,0.703914942191953,4.536713147278595,2.034480218048669,1.1907975282090764,4.402075284248967,1.0,3.14,-0.381935163037272,-1.5563353129514528,-3.0951028215648093,3.14,3.0540536132191085
402,0.7373551816074643,0.21934123112928192,0.7039185923636574,4.53675960659461,2.034487971952617,1.190796320485028,4.4021217212633035,1.0,3.14,-0.38194383023023665,-1.5563243013974317,-3.095150942176311,3.14,3.0539909483875336
403,0.737371106830912,0.21938307423383285,0.7039222448102819,4.536806083749797,2.0344957289574275,1.1907951127371792,4.40216817610809,1.0,3.14,-0.3819525007085036,-1.5563132849686128,-3.0951990809687753,3.14,3.053928260215193
404,0.7373870416648939,0.21942493539308017,0.7039258995333324,4.536852578751489,2.0345034890644285,1.1907939049658338,4.402214648790658,1.0,3.14,-0.38196117447336253,-1.5563022636625776,-3.0952472379491316,3.14,3.0538655486934196
405,0.7374029861156728,0.2194668146147997,0.703929556534315,4.536899091607025,2.0345112522749513,1.190792697171295,4.402261139318342,1.0,3.14,-0.3819698515261043,-1.5562912374769058,-3.0952954131243127,3.14,3.0538028138135433
406,0.7374189401895158,0.21950871190677115,0.7039332158147382,4.5369456223237465,2.0345190185903266,1.190791489353866,4.402307647698479,1.0,3.14,-0.3819785318680201,-1.5562802064091763,-3.0953436065012543,3.14,3.053740055566889
407,0.7374349038926954,0.21955062727677946,0.70393687737611,4.536992170909,2.0345267880118856,1.190790281513851,4.402354173938412,1.0,3.14,-0.38198721550040193,-1.5562691704569667,-3.0953918180868945,3.14,3.05367727394478
408,0.7374508772314851,0.2195925607326077,0.7039405412199402,4.537038737370131,2.0345345605409593,1.190789073651553,4.402400718045485,1.0,3.14,-0.3819959024245422,-1.5562581296178526,-3.0954400478881743,3.14,3.0536144689385347
409,0.7374668602121668,0.21963451228205103,0.70394420734774,4.537085321714497,2.0345423361788817,1.1907878657672788,4.40244728002705,1.0,3.14,-0.38200459264173364,-1.5562470838894085,-3.0954882959120384,3.14,3.053551640539468
410,0.7374828528410252,0.21967648193290343,0.703947875761021,4.537131923949453,2.034550114926985,1.1907866578613309,4.40249385989046,1.0,3.14,-0.38201328615327024,-1.5562360332692076,-3.095536562165434,3.14,3.0534887887388913
411,0.7374988551243492,0.21971846969296394,0.703951546461296,4.537178544082362,2.0345578967866045,1.1907854499340167,4.402540457643071,1.0,3.14,-0.38202198296044615,-1.5562249777548207,-3.0955848466553113,3.14,3.053425913528114
412,0.7375148670684326,0.21976047557003334,0.7039552194500792,4.537225182120586,2.0345656817590734,1.1907842419856405,4.402587073292246,1.0,3.14,-0.3820306830645562,-1.5562139173438183,-3.095633149388623,3.14,3.0533630148984394
413,0.7375308886795725,0.21980249957191883,0.7039588947288861,4.537271838071494,2.0345734698457285,1.190783034016509,4.402633706845348,1.0,3.14,-0.3820393864668959,-1.5562028520337685,-3.095681470372326,3.14,3.0533000928411695
414,0.7375469199640726,0.21984454170643286,0.7039625722992319,4.537318511942461,2.034581261047905,1.1907818260269287,4.402680358309748,1.0,3.14,-0.3820480931687613,-1.5561917818222388,-3.0957298096133785,3.14,3.0532371473476014
415,0.7375629609282391,0.21988660198138796,0.7039662521626342,4.537365203740862,2.03458905536694,1.190780618017205,4.402727027692818,1.0,3.14,-0.38205680317144924,-1.5561807067067948,-3.0957781671187425,3.14,3.053174178409029
416,0.7375790115783832,0.21992868040460148,0.7039699343206111,4.5374119134740765,2.034596852804171,1.1907794099876459,4.402773715001935,1.0,3.14,-0.38206551647625686,-1.5561696266850007,-3.095826542895383,3.14,3.0531111860167433
417,0.7375950719208205,0.21997077698389544,0.703973618774682,4.537458641149489,2.0346046533609368,1.190778201938558,4.4028204202444785,1.0,3.14,-0.38207423308448224,-1.5561585417544188,-3.0958749369502683,3.14,3.0530481701620302
418,0.7376111419618716,0.22001289172709543,0.7039773055263681,4.5375053867744874,2.034612457038574,1.1907769938702504,4.402867143427835,1.0,3.14,-0.3820829529974235,-1.5561474519126108,-3.0959233492903686,3.14,3.052985130836174
419,0.7376272217078608,0.22005502464203203,0.7039809945771894,4.537552150356465,2.034620263838425,1.1907757857830295,4.402913884559391,1.0,3.14,-0.38209167621638046,-1.556136357157136,-3.0959717799226576,3.14,3.052922068030454
420,0.7376433111651169,0.22009717573653856,0.7039846859286693,4.537598931902817,2.0346280737618296,1.1907745776772045,4.40296064364654,1.0,3.14,-0.3821004027426525,-1.556125257485553,-3.0960202288541123,3.14,3.0528589817361462
421,0.7376594103399735,0.22013934501845236,0.7039883795823313,4.537645731420944,2.034635886810127,1.190773369553084,4.403007420696677,1.0,3.14,-0.38210913257753987,-1.556114152895419,-3.0960686960917125,3.14,3.052795871944524
422,0.737675519238769,0.220181532495613,0.7039920755396992,4.537692548918247,2.0346437029846594,1.1907721614109767,4.403054215717203,1.0,3.14,-0.38211786572234374,-1.5561030433842888,-3.0961171816424407,3.14,3.0527327386468555
423,0.7376916378678453,0.22022373817586668,0.7039957738023,4.537739384402135,2.0346515222867714,1.190770953251192,4.403101028715522,1.0,3.14,-0.38212660217836586,-1.556091928949716,-3.096165685513282,3.14,3.0526695818344067
424,0.7377077662335494,0.2202659620670623,0.7039994743716591,4.53778623788002,2.034659344717803,1.19076974507404,4.403147859699041,1.0,3.14,-0.38213534194690807,-1.556080809589254,-3.096214207711226,3.14,3.0526064014984398
425,0.7377239043422331,0.22030820417705368,0.7040031772493057,4.537833109359319,2.0346671702791004,1.1907685368798313,4.403194708675174,1.0,3.14,-0.3821440850292733,-1.5560696853004528,-3.096262748243263,3.14,3.052543197630213
426,0.7377400522002511,0.2203504645136939,0.7040068824367677,4.537879998847446,2.0346749989720063,1.1907673286688747,4.403241575651333,1.0,3.14,-0.38215283142676487,-1.5560585560808626,-3.0963113071163884,3.14,3.0524799702209813
427,0.7377562098139647,0.22039274308484794,0.7040105899355757,4.53792690635183,2.0346828307978657,1.190766120441483,4.403288460634941,1.0,3.14,-0.3821615811406867,-1.5560474219280311,-3.096359884337599,3.14,3.0524167192619958
428,0.7377723771897381,0.22043503989837707,0.7040142997472602,4.537973831879894,2.034690665758026,1.1907649121979658,4.403335363633419,1.0,3.14,-0.382170334172344,-1.5560362828395047,-3.096408479913895,3.14,3.052353444744504
429,0.7377885543339407,0.2204773549621498,0.7040180118733542,4.53802077543907,2.034698503853833,1.190763703938635,4.403382284654195,1.0,3.14,-0.38217909052304183,-1.5560251388128281,-3.096457093852281,3.14,3.0522901466597503
430,0.7378047412529458,0.2205196882840384,0.7040217263153904,4.538067737036792,2.034706345086634,1.1907624956638023,4.4034292237047,1.0,3.14,-0.38218785019408585,-1.5560139898455454,-3.0965057261597626,3.14,3.052226824998975
431,0.7378209379531325,0.22056203987192016,0.7040254430749032,4.538114716680502,2.0347141894577763,1.1907612873737805,4.403476180792371,1.0,3.14,-0.38219661318678255,-1.5560028359351985,-3.0965543768433488,3.14,3.052163479753415
432,0.7378371444408832,0.2206044097336745,0.7040291621534279,4.53816171437764,2.034722036968609,1.1907600790688815,4.4035231559246455,1.0,3.14,-0.3822053795024392,-1.5559916770793278,-3.096603045910052,3.14,3.0521001109143038
433,0.7378533607225839,0.220646797877184,0.7040328835525012,4.538208730135653,2.0347298876204825,1.1907588707494183,4.403570149108967,1.0,3.14,-0.3822141491423639,-1.5559805132754725,-3.096651733366888,3.14,3.052036718472871
434,0.7378695868046279,0.22068920431033856,0.7040366072736596,4.538255763961994,2.034737741414746,1.1907576624157037,4.403617160352784,1.0,3.14,-0.3822229221078644,-1.5559693445211706,-3.096700439220875,3.14,3.0519733024203433
435,0.73788582269341,0.2207316290410281,0.704040333318443,4.538302815864114,2.0347455983527487,1.1907564540680522,4.403664189663545,1.0,3.14,-0.3822316984002496,-1.555958170813958,-3.096749163479034,3.14,3.051909862747943
436,0.7379020683953327,0.22077407207715008,0.70404406168839,4.538349885849475,2.034753458435844,1.190755245706777,4.403711237048707,1.0,3.14,-0.38224047802082955,-1.5559469921513693,-3.0967979061483892,3.14,3.051846399446889
437,0.7379183239167991,0.22081653342660085,0.7040477923850421,4.538396973925535,2.0347613216653837,1.1907540373321923,4.403758302515727,1.0,3.14,-0.3822492609709143,-1.5559358085309376,-3.096846667235968,3.14,3.051782912508397
438,0.7379345892642205,0.22085901309728795,0.7040515254099414,4.538444080099767,2.0347691880427208,1.1907528289446137,4.403805386072069,1.0,3.14,-0.38225804725181456,-1.5559246199501946,-3.0968954467488006,3.14,3.0517194019236786
