jkpark150901/flame_robotics_drt/experiment/inspection_ik/session_20260722_142108/fallback/inspection_ik_20260722_142159_rb20_1900es_normalized_fallback.csv
iteration,err_norm,position_error,orientation_error,tcp_x,tcp_y,tcp_z,q0_rt_joint_linear_track,q1_rt_joint_carriage,q2_rt_base,q3_rt_shoulder,q4_rt_elbow,q5_rt_wrist1,q6_rt_wrist2,q7_rt_wrist3
0,2.2324888895543817,1.6728007061909775,1.438753537750404,4.568021271959659,2.039731542536577,1.1900826516526941,4.433368352039476,1.0,3.14,-0.38776469850527184,-1.54877162332489,-3.1274470332008715,3.14,3.012007982191078
1,1.4575624953764945,1.0997561162715979,0.9428539944255332,5.124265963857289,2.134631975556206,1.390402497087691,4.989493914097146,1.0,3.14,-0.44257685975872685,-1.165757331711205,-3.14,2.972013569940867,3.050439432080253
2,0.941829206469054,0.6941690317555467,0.6317650147574496,5.48740268649506,2.1304216033686902,1.5878572736440661,5.352646969902333,1.0,3.14,-0.4524756748383456,-0.8811333427616359,-3.14,2.9246274281498583,3.051747579262195
3,0.6103596502576942,0.4243313488005794,0.4369431921052846,5.725772750270703,2.0952221266996474,1.7297518925288695,5.591074213655485,1.0,3.14,-0.465588043453945,-0.6638343189804219,-3.14,2.9190878811531444,3.0546680463062903
4,0.40735099742369263,0.25328260940387143,0.31832625472288456,5.886416516278783,2.054506656752136,1.828385113082085,5.751778758428177,1.0,3.14,-0.486152068251198,-0.4866906385056794,-3.14,2.939182750804582,3.0628566665043224
5,0.3012731029110963,0.16932804318458355,0.24889139960263784,5.998654856320606,2.014915773350535,1.8973325573056874,5.864072765561503,1.0,3.14,-0.5113405232156878,-0.3365738400704791,-3.14,2.975479896214861,3.0763500343661536
6,0.270007759086427,0.16983637858004733,0.20973591103710904,6.080663353125448,1.976681566254105,1.9462894431250006,5.946133120687586,1.0,3.14,-0.53551258050496,-0.21099668320926054,-3.14,3.019580893062888,3.095284125560254
7,0.2852398919135735,0.21369964403626676,0.1887301396679179,6.143202202648768,1.939577115304558,1.9817296561244808,6.008722224846243,1.0,3.14,-0.5521045786820754,-0.11475547375695148,-3.14,3.062496719866635,3.1204052816814825
8,0.3198041392758014,0.2639759109572101,0.18022199009594497,6.191723245209301,1.905580895572119,2.007679128189113,6.057290401183831,1.0,3.14,-0.557472628039135,-0.05231602712189633,-3.14,3.096423431302827,3.14
9,0.3548621987297262,0.3070820426263546,0.17742896311426345,6.227999932131461,1.8772838754610632,2.02661480333676,6.093607530140526,1.0,3.14,-0.5536889632364932,-0.019282972365158857,-3.14,3.118776645028058,3.14
10,0.3829057608070627,0.3396778600113122,0.1762264916448064,6.253083486149209,1.8550885724509873,2.040499589324603,6.118723677249902,1.0,3.14,-0.5454506268820362,-0.004793608066312401,-3.14,3.1320913628202396,3.14
11,0.4035434113196761,0.3629977365072703,0.17570764047485837,6.269688436812255,1.8383569240801554,2.050586966804665,6.135353638239955,1.0,3.14,-0.5365546518508814,0.0003982497410385307,-3.14,3.14,3.14
12,0.41769107580794385,0.37878924287767224,0.17535574266392404,6.280280942647636,1.8265662139115795,2.0575317448486365,6.145964922608147,1.0,3.14,-0.5288206758837101,0.0017231411846268237,-3.14,3.14,3.14
13,0.4280417222962018,0.39013499046109784,0.17538008936064586,6.287281190346774,1.8175573710508235,2.062749926631641,6.152979518285382,1.0,3.14,-0.5222032920179015,0.0011383815431838945,-3.14,3.14,3.14
14,0.43542086387974194,0.39813503006219436,0.1755214984754545,6.291770806882587,1.810797994552066,2.0666151665302195,6.157479900175577,1.0,3.14,-0.5170315385670461,0.00021760976204875473,-3.14,3.14,3.14
15,0.4406200027408382,0.4037278604708213,0.17568785801028886,6.294596216832675,1.8057829824616913,2.0694551894960775,6.160313297309451,1.0,3.14,-0.5131450493266684,-0.0005909930995827273,-3.14,3.14,3.14
16,0.44426375563081105,0.40762422006479687,0.1758432667973967,6.296350380072741,1.802090062592517,2.071531449326953,6.162073342096595,1.0,3.14,-0.5102762500249588,-0.0012112008449176874,-3.14,3.14,3.14
17,0.44681112171968196,0.41033535669804416,0.17597491099648438,6.297426619995369,1.7993858083085428,2.0730437903177177,6.16315388896317,1.0,3.14,-0.5081774277170726,-0.0016663674549827134,-3.14,3.14,3.14
18,0.44858969022845624,0.4122210841350039,0.1760804719881063,6.298078687480591,1.7974144476726144,2.0741419844657574,6.16380909614565,1.0,3.14,-0.5066498836789631,-0.0019955832125331686,-3.14,3.14,3.14
19,0.4498304536048998,0.4135325231383719,0.17616222288866976,6.298467850553643,1.7959829082919823,2.0749372030669133,6.164200539166971,1.0,3.14,-0.505542219049772,-0.002232648802378937,-3.14,3.14,3.14
20,0.4506954736060522,0.41444446582898503,0.17622405977279829,6.298695638954686,1.794946927662984,2.0755115082713465,6.164429977527681,1.0,3.14,-0.50474146585195,-0.0024031328693760994,-3.14,3.14,3.14
21,0.4512981962391355,0.41507850854153583,0.17627006254334013,6.298825491657912,1.79419951329638,2.0759252291867463,6.164561020604091,1.0,3.14,-0.5041641594247086,-0.0025256516182270102,-3.14,3.14,3.14
22,0.4517179398542752,0.415519246868564,0.17630387498763808,6.298896746992492,1.7936617897816638,2.076222560014041,6.164633132346684,1.0,3.14,-0.5037489905120278,-0.0026136292581958416,-3.14,3.14,3.14
23,0.45201011483070436,0.41582554207541744,0.17632850519823068,6.2989335858477045,1.7932759080199696,2.0764357666176183,6.164670585778391,1.0,3.14,-0.5034511177456837,-0.0026767361196837775,-3.14,3.14,3.14
24,0.4522134020849227,0.4160383505289426,0.17634632472195164,6.298950713179786,1.792999631456476,2.0765883300391357,6.164688153123707,1.0,3.14,-0.5032378651165029,-0.002721944270192708,-3.14,3.14,3.14
25,0.4523547861876456,0.41618616743058395,0.17635914885453244,6.298956950370582,1.7928022463317175,2.0766972854790544,6.1646947046808975,1.0,3.14,-0.5030855014319395,-0.0027542834503183904,-3.14,3.14,3.14
26,0.45245308049010274,0.4162888144852971,0.17636833951546965,6.298957495969273,1.7926614984412002,2.076774955520006,6.164695474442412,1.0,3.14,-0.5029768453754352,-0.002777381814108532,-3.14,3.14,3.14
27,0.45252139393501584,0.41636007660662866,0.1763749040867411,6.298955340750436,1.7925613152988675,2.0768302292283662,6.164693478780751,1.0,3.14,-0.5028994937144204,-0.0027938545239242704,-3.14,3.14,3.14
28,0.45256885586946277,0.4164095378042527,0.1763795800341907,6.298952147659865,1.7924901229136458,2.076869502311013,6.164690399075084,1.0,3.14,-0.5028445165669171,-0.002805584270352918,-3.14,3.14,3.14
29,0.45260182109296243,0.41644385947201845,0.17638290306094648,6.298948794606187,1.7924396087691028,2.0768973654433305,6.164687126473008,1.0,3.14,-0.5028055007194352,-0.00281392436023388,-3.14,3.14,3.14
30,0.45262471113494934,0.4164676702920222,0.1763852600037077,6.298945705924737,1.792403817111967,2.076917106348444,6.164684094795318,1.0,3.14,-0.5027778509476508,-0.0028198459266476376,-3.14,3.14,3.14
31,0.4526406011609788,0.4164841856029801,0.17638692890537566,6.298943052224824,1.7923784901101751,2.0769310747430048,6.164681481432579,1.0,3.14,-0.5027582816483686,-0.002824044627986407,-3.14,3.14,3.14
32,0.45265162915607754,0.41649563834777253,0.1763881088705638,6.298940868909053,1.7923605898888308,2.076940946741278,6.164679326625685,1.0,3.14,-0.5027444482077045,-0.002827017910073086,-3.14,3.14,3.14
33,0.45265928103512965,0.4165035788240652,0.17638894204488914,6.2989391249296345,1.792347952966497,2.076947915839058,6.164677602772523,1.0,3.14,-0.5027346805354075,-0.0028291208672473135,-3.14,3.14,3.14
34,0.45266458919683183,0.4165090831114766,0.17638952965377203,6.298937761470085,1.792339041179325,2.0769528304811384,6.164676253506374,1.0,3.14,-0.5027277910051159,-0.0028306065555325213,-3.14,3.14,3.14
35,0.4526682707329629,0.4165128979521354,0.17638994362837643,6.298936712738422,1.7923327626463788,2.0769562928986454,6.164675214774248,1.0,3.14,-0.5027229363897192,-0.0028316550267757784,-3.14,3.14,3.14
36,0.4526708235915093,0.41651554142819486,0.17639023498912554,6.298935916342487,1.7923283434011081,2.0769587299527856,6.164674425416647,1.0,3.14,-0.5027195188522294,-0.0028323941962693972,-3.14,3.14,3.14
37,0.4526725934587589,0.4165173729021712,0.17639043986623126,6.298935317772599,1.7923252355590875,2.076960443803484,6.164673831796478,1.0,3.14,-0.502717115102029,-0.002832914810170558,-3.14,3.14,3.14
38,0.4526738202596126,0.41651864159076935,0.1763905838087664,6.298934871690804,1.7923230517587327,2.076961648076038,6.164673389192724,1.0,3.14,-0.5027154258077521,-0.002833281159652363,-3.14,3.14,3.14
39,0.4526746704766322,0.4165195202907007,0.17639068486027398,6.298934541604496,1.792321518446784,2.0769624936289066,6.164673061548452,1.0,3.14,-0.5027142395426354,-0.0028335387358678294,-3.14,3.14,3.14
40,0.45267525960584315,0.4165201287893653,0.17639075574880209,6.298934298821405,1.7923204426494443,2.0769630868813276,6.164672820478735,1.0,3.14,-0.502713407132051,-0.0028337196893678906,-3.14,3.14,3.14
41,0.452675667754967,0.4165205501114595,0.17639080544325253,6.298934121175783,1.7923196883738488,2.076963502828533,6.164672644034414,1.0,3.14,-0.5027128234312928,-0.0028338467170852776,-3.14,3.14,3.14
42,0.4526759504753211,0.41652084179127546,0.17639084025740104,6.2989339917767335,1.7923191598735355,2.0769637942709203,6.164672515477083,1.0,3.14,-0.5027124144006266,-0.0028339358253770615,-3.14,3.14,3.14
43,0.4526761462819535,0.4165210436920255,0.1763908646318754,6.298933897893237,1.7923187897976374,2.0769639983496444,6.16467242218299,1.0,3.14,-0.5027121279502826,-0.002833998291193569,-3.14,3.14,3.14
44,0.452676281873287,0.41652118342879074,0.17639088168721978,6.298933830015342,1.7923185308091902,2.076964141168941,6.164672354717574,1.0,3.14,-0.5027119274640642,-0.002834042052147413,-3.14,3.14,3.14
45,0.452676375753195,0.4165212801287595,0.17639089361458493,6.298933781092105,1.7923183496640371,2.0769642410614364,6.1646723060828394,1.0,3.14,-0.5027117872233084,-0.0028340726905051244,-3.14,3.14,3.14
46,0.45267644074393687,0.4165213470380652,0.17639090195138205,6.298933745928733,1.7923182230325854,2.076964310892305,6.164672271121146,1.0,3.14,-0.5027116891771795,-0.002834094128878056,-3.14,3.14,3.14
47,0.4526764857291948,0.41652139332866184,0.1763909077755763,6.298933720718635,1.7923181345544432,2.076964359683516,6.164672246051964,1.0,3.14,-0.5027116206655532,-0.0028341091215199573,-3.14,3.14,3.14
48,0.4526765168628848,0.41652142535052705,0.17639091184248537,6.2989337026855345,1.7923180727641561,2.07696439375771,6.164672228117276,1.0,3.14,-0.5027115728150939,-0.002834119600911167,-3.14,3.14,3.14
49,0.45267653840728106,0.4165214474992956,0.17639091468102375,6.298933689812904,1.7923180296317338,2.076964417543032,6.164672215313338,1.0,3.14,-0.5027115394105411,-0.0028341269220095605,-3.14,3.14,3.14
50,0.45267655331402934,0.41652146281732344,0.17639091666134457,6.298933680641338,1.79231799953663,2.0769644341389326,6.164672206189704,1.0,3.14,-0.5027115161010927,-0.0028341320342209716,-3.14,3.14,3.14
51,0.45267656362686237,0.416521473410055,0.17639091804235074,6.298933674118045,1.7923179785470058,2.076964445713627,6.16467219969984,1.0,3.14,-0.5027114998428478,-0.0028341356023712195,-3.14,3.14,3.14
52,0.4526765707606624,0.4165214807343541,0.17639091900503104,6.2989336694857325,1.7923179639138447,2.0769644537830563,6.164672195090833,1.0,3.14,-0.5027114885074024,-0.002834138091733289,-3.14,3.14,3.14
53,0.45267657569482234,0.4165214857981769,0.1763909196758443,6.298933666201078,1.792317953716108,2.0769644594065775,6.1646721918224205,1.0,3.14,-0.5027114806072704,-0.00283413982774178,-3.14,3.14,3.14
54,0.4526765791071941,0.41652148929880917,0.17639092014311097,6.298933663875187,1.792317946612018,2.076964463324112,6.164672189507843,1.0,3.14,-0.5027114751034036,-0.0028341410379003366,-3.14,3.14,3.14
55,0.4526765814668646,0.4165214917185616,0.17639092046847624,6.298933662230282,1.7923179416648247,2.0769644660522304,6.164672187870818,1.0,3.14,-0.5027114712703399,-0.002834141881170227,-3.14,3.14,3.14
56,0.4526765830984132,0.4165214933910131,0.1763909206949602,6.298933661068352,1.7923179382208405,2.076964467951407,6.164672186714372,1.0,3.14,-0.5027114686017925,-0.0028341424685672935,-3.14,3.14,3.14
57,0.45267658422639573,0.41652149454684406,0.17639092085255983,6.298933660248484,1.7923179358240993,2.0769644692730838,6.164672185898322,1.0,3.14,-0.5027114667445849,-0.0028341428775869627,-3.14,3.14,3.14
58,0.45267658500615743,0.41652149534556615,0.176390920962193,6.298933659670573,1.792317934156681,2.0769644701925767,6.1646721853230675,1.0,3.14,-0.5027114654524485,-0.002834143162301726,-3.14,3.14,3.14
59,0.45267658554514173,0.4165214958974624,0.1763909210384342,6.2989336592636045,1.7923179329970063,2.076964470832076,6.164672184917946,1.0,3.14,-0.5027114645537297,-0.0028341433604247798,-3.14,3.14,3.14
60,0.4526765859176634,0.4165214962787755,0.17639092109144194,6.2989336589772735,1.7923179321906972,2.0769644712767126,6.1646721846329,1.0,3.14,-0.5027114639288279,-0.002834143498248721,-3.14,3.14,3.14
61,0.4526765861751077,0.41652149654220805,0.17639092112828453,6.298933658775991,1.792317931630237,2.0769644715857765,6.164672184432509,1.0,3.14,-0.5027114634944406,-0.0028341435940969343,-3.14,3.14,3.14
62,0.45267658635300917,0.41652149672418726,0.17639092115388302,6.298933658634608,1.792317931240769,2.0769644718005473,6.164672184291745,1.0,3.14,-0.5027114631925673,-0.0028341436607343387,-3.14,3.14,3.14
63,0.4526765864759312,0.4165214968498859,0.17639092117166655,6.298933658535372,1.7923179309701969,2.0769644719497538,6.16467218419294,1.0,3.14,-0.5027114629828388,-0.0028341437070504363,-3.14,3.14,3.14
64,0.452676586560857,0.41652149693670426,0.17639092118401786,6.298933658465769,1.7923179307822703,2.076964472053385,6.164672184123638,1.0,3.14,-0.5027114628371651,-0.0028341437392336018,-3.14,3.14,3.14
65,0.4526765866195288,0.41652149699666496,0.17639092119259203,6.298933658416985,1.7923179306517774,2.0769644721253453,6.1646721840750605,1.0,3.14,-0.5027114627360073,-0.002834143761590597,-3.14,3.14,3.14
66,0.4526765866600572,0.41652149703807145,0.1763909211985456,6.298933658382812,1.792317930561187,2.0769644721753004,6.164672184041033,1.0,3.14,-0.5027114626657789,-0.0028341437771177377,-3.14,3.14,3.14
67,0.4526765866880526,0.41652149706666464,0.17639092120267705,6.298933658358891,1.7923179304983115,2.076964472209973,6.164672184017212,1.0,3.14,-0.5027114626170339,-0.0028341437878988173,-3.14,3.14,3.14
68,0.4526765867073887,0.41652149708640795,0.1763909212055444,6.298933658342155,1.7923179304546812,2.0769644722340326,6.164672184000545,1.0,3.14,-0.5027114625832079,-0.0028341437953828363,-3.14,3.14,3.14
69,0.45267658672074174,0.41652149710003883,0.17639092120753228,6.298933658330451,1.7923179304244121,2.0769644722507246,6.164672183988889,1.0,3.14,-0.5027114625597394,-0.0028341438005769076,-3.14,3.14,3.14
70,0.4526765867299625,0.41652149710945013,0.1763909212089128,6.298933658322273,1.7923179304034167,2.0769644722623024,6.164672183980744,1.0,3.14,-0.5027114625434606,-0.002834143804180975,-3.14,3.14,3.14
71,0.4526765867363311,0.4165214971159467,0.17639092120986816,6.298933658316559,1.7923179303888566,2.0769644722703315,6.164672183975053,1.0,3.14,-0.5027114625321712,-0.002834143806681235,-3.14,3.14,3.14
72,0.4526765867407263,0.41652149712042996,0.1763909212105312,6.298933658312569,1.7923179303787617,2.076964472275898,6.16467218397108,1.0,3.14,-0.5027114625243434,-0.002834143808415351,-3.14,3.14,3.14
73,0.4526765867437625,0.4165214971235259,0.1763909212109918,6.298933658309785,1.7923179303717633,2.0769644722797573,6.164672183968307,1.0,3.14,-0.5027114625189167,-0.0028341438096178865,-3.14,3.14,3.14
74,0.4526765867458574,0.4165214971256622,0.17639092121130942,6.298933658307843,1.7923179303669128,2.0769644722824325,6.164672183966372,1.0,3.14,-0.5027114625151553,-0.0028341438104516315,-3.14,3.14,3.14
75,0.45267658674730443,0.41652149712713743,0.17639092121153085,6.298933658306489,1.7923179303635512,2.0769644722842857,6.164672183965024,1.0,3.14,-0.5027114625125486,-0.002834143811029599,-3.14,3.14,3.14
76,0.4526765867483038,0.41652149712815484,0.1763909212116827,6.298933658305545,1.7923179303612224,2.0769644722855705,6.164672183964084,1.0,3.14,-0.5027114625107425,-0.0028341438114301474,-3.14,3.14,3.14
77,0.45267658674899386,0.41652149712885744,0.176390921211789,6.298933658304888,1.792317930359609,2.07696447228646,6.164672183963429,1.0,3.14,-0.5027114625094914,-0.0028341438117077283,-3.14,3.14,3.14
78,0.45267658674946815,0.41652149712934045,0.1763909212118624,6.298933658304428,1.7923179303584917,2.076964472287076,6.1646721839629715,1.0,3.14,-0.5027114625086248,-0.0028341438119000284,-3.14,3.14,3.14
79,0.4526765867497966,0.416521497129675,0.17639092121191427,6.298933658304109,1.7923179303577177,2.076964472287503,6.1646721839626535,1.0,3.14,-0.5027114625080245,-0.002834143812033233,-3.14,3.14,3.14
80,0.4526765867500229,0.41652149712990577,0.17639092121194844,6.298933658303887,1.7923179303571817,2.0769644722877985,6.164672183962432,1.0,3.14,-0.5027114625076088,-0.002834143812125503,-3.14,3.14,3.14
81,0.45267658675018,0.4165214971300655,0.17639092121197375,6.298933658303733,1.7923179303568109,2.076964472288003,6.164672183962279,1.0,3.14,-0.5027114625073211,-0.0028341438121894116,-3.14,3.14,3.14
82,0.4526765867502871,0.41652149713017433,0.17639092121199018,6.298933658303625,1.7923179303565544,2.076964472288145,6.164672183962171,1.0,3.14,-0.5027114625071222,-0.002834143812233658,-3.14,3.14,3.14
83,0.45267658675036215,0.4165214971302503,0.1763909212120016,6.29893365830355,1.7923179303563765,2.076964472288243,6.164672183962097,1.0,3.14,-0.5027114625069843,-0.0028341438122642384,-3.14,3.14,3.14
84,0.4526765867504133,0.4165214971303026,0.17639092121200917,6.298933658303499,1.7923179303562538,2.0769644722883096,6.164672183962045,1.0,3.14,-0.502711462506889,-0.0028341438122854515,-3.14,3.14,3.14
85,0.45267658675044953,0.4165214971303395,0.1763909212120155,6.298933658303463,1.792317930356168,2.076964472288357,6.1646721839620096,1.0,3.14,-0.5027114625068225,-0.0028341438123000873,-3.14,3.14,3.14
86,0.4526765867504738,0.4165214971303648,0.1763909212120193,6.298933658303438,1.7923179303561088,2.07696447228839,6.164672183961985,1.0,3.14,-0.5027114625067767,-0.0028341438123102897,-3.14,3.14,3.14
87,0.4526765867504905,0.4165214971303817,0.17639092121202182,6.298933658303421,1.792317930356068,2.0769644722884117,6.164672183961967,1.0,3.14,-0.5027114625067451,-0.002834143812317356,-3.14,3.14,3.14
88,0.45267658675050265,0.4165214971303935,0.17639092121202435,6.298933658303408,1.7923179303560395,2.0769644722884277,6.1646721839619545,1.0,3.14,-0.502711462506723,-0.0028341438123222025,-3.14,3.14,3.14
89,0.4526765867505105,0.41652149713040143,0.17639092121202563,6.298933658303399,1.79231793035602,2.0769644722884384,6.164672183961946,1.0,3.14,-0.5027114625067078,-0.002834143812325592,-3.14,3.14,3.14
90,0.4526765867505157,0.41652149713040665,0.17639092121202563,6.298933658303393,1.7923179303560066,2.0769644722884464,6.164672183961939,1.0,3.14,-0.5027114625066973,-0.002834143812327934,-3.14,3.14,3.14
91,0.45267658675052,0.41652149713041087,0.17639092121202687,6.2989336583033895,1.7923179303559973,2.0769644722884513,6.164672183961936,1.0,3.14,-0.5027114625066902,-0.002834143812329563,-3.14,3.14,3.14
92,0.45267658675052264,0.4165214971304138,0.17639092121202687,6.298933658303387,1.7923179303559906,2.0769644722884553,6.164672183961933,1.0,3.14,-0.5027114625066851,-0.002834143812330664,-3.14,3.14,3.14
93,0.4526765867505241,0.41652149713041525,0.17639092121202687,6.298933658303385,1.7923179303559869,2.076964472288457,6.164672183961931,1.0,3.14,-0.5027114625066819,-0.002834143812331455,-3.14,3.14,3.14
94,0.45267658675052524,0.4165214971304164,0.17639092121202687,6.298933658303383,1.7923179303559835,2.076964472288459,6.16467218396193,1.0,3.14,-0.5027114625066795,-0.0028341438123319594,-3.14,3.14,3.14
95,0.45267658675052636,0.41652149713041725,0.17639092121202687,6.298933658303382,1.7923179303559815,2.07696447228846,6.164672183961929,1.0,3.14,-0.502711462506678,-0.002834143812332316,-3.14,3.14,3.14
96,0.4526765867505263,0.4165214971304175,0.17639092121202687,6.2989336583033815,1.7923179303559804,2.076964472288461,6.164672183961928,1.0,3.14,-0.502711462506677,-0.0028341438123325553,-3.14,3.14,3.14
97,0.4526765867505269,0.41652149713041814,0.17639092121202687,6.2989336583033815,1.7923179303559795,2.0769644722884615,6.164672183961928,1.0,3.14,-0.5027114625066762,-0.002834143812332702,-3.14,3.14,3.14
98,0.45267658675052685,0.4165214971304181,0.17639092121202815,6.298933658303381,1.7923179303559786,2.076964472288462,6.164672183961927,1.0,3.14,-0.5027114625066756,-0.0028341438123328333,-3.14,3.14,3.14
99,0.4526765867505272,0.4165214971304184,0.17639092121202815,6.298933658303381,1.7923179303559782,2.076964472288462,6.164672183961927,1.0,3.14,-0.5027114625066754,-0.002834143812332923,-3.14,3.14,3.14
100,0.45267658675052763,0.41652149713041875,0.17639092121202815,6.298933658303381,1.7923179303559778,2.0769644722884624,6.164672183961927,1.0,3.14,-0.502711462506675,-0.002834143812332939,-3.14,3.14,3.14
101,0.4526765867505276,0.4165214971304189,0.17639092121202815,6.298933658303381,1.7923179303559775,2.0769644722884624,6.164672183961927,1.0,3.14,-0.5027114625066748,-0.0028341438123329955,-3.14,3.14,3.14
102,0.4526765867505279,0.416521497130419,0.17639092121202815,6.298933658303381,1.7923179303559773,2.0769644722884624,6.164672183961927,1.0,3.14,-0.5027114625066748,-0.002834143812333049,-3.14,3.14,3.14
103,0.4526765867505278,0.416521497130419,0.17639092121202943,6.298933658303381,1.7923179303559773,2.0769644722884624,6.164672183961927,1.0,3.14,-0.5027114625066746,-0.002834143812333049,-3.14,3.14,3.14
104,0.4526765867505278,0.416521497130419,0.17639092121202943,6.298933658303381,1.7923179303559773,2.0769644722884624,6.164672183961927,1.0,3.14,-0.5027114625066746,-0.002834143812333063,-3.14,3.14,3.14
105,0.4526765867505278,0.416521497130419,0.17639092121202815,6.298933658303381,1.7923179303559773,2.0769644722884624,6.164672183961927,1.0,3.14,-0.5027114625066746,-0.002834143812333079,-3.14,3.14,3.14
106,0.4526765867505278,0.416521497130419,0.17639092121202815,6.298933658303381,1.7923179303559773,2.0769644722884624,6.164672183961927,1.0,3.14,-0.5027114625066746,-0.002834143812333083,-3.14,3.14,3.14
107,0.4526765867505278,0.416521497130419,0.17639092121202815,6.298933658303381,1.7923179303559773,2.0769644722884624,6.164672183961927,1.0,3.14,-0.5027114625066746,-0.002834143812333083,-3.14,3.14,3.14
108,0.4526765867505278,0.416521497130419,0.17639092121202815,6.298933658303381,1.7923179303559773,2.0769644722884624,6.164672183961927,1.0,3.14,-0.5027114625066746,-0.002834143812333083,-3.14,3.14,3.14
109,0.4526765867505278,0.416521497130419,0.17639092121202815,6.298933658303381,1.7923179303559773,2.0769644722884624,6.164672183961927,1.0,3.14,-0.5027114625066746,-0.002834143812333083,-3.14,3.14,3.14
110,0.4526765867505278,0.416521497130419,0.17639092121202815,6.298933658303381,1.7923179303559773,2.0769644722884624,6.164672183961927,1.0,3.14,-0.5027114625066746,-0.002834143812333083,-3.14,3.14,3.14
111,0.4526765867505278,0.416521497130419,0.17639092121202815,6.298933658303381,1.7923179303559773,2.0769644722884624,6.164672183961927,1.0,3.14,-0.5027114625066746,-0.002834143812333083,-3.14,3.14,3.14
112,0.4526765867505278,0.416521497130419,0.17639092121202815,6.298933658303381,1.7923179303559773,2.0769644722884624,6.164672183961927,1.0,3.14,-0.5027114625066746,-0.002834143812333083,-3.14,3.14,3.14
113,0.4526765867505278,0.416521497130419,0.17639092121202815,6.298933658303381,1.7923179303559773,2.0769644722884624,6.164672183961927,1.0,3.14,-0.5027114625066746,-0.002834143812333083,-3.14,3.14,3.14
114,0.4526765867505278,0.416521497130419,0.17639092121202815,6.298933658303381,1.7923179303559773,2.0769644722884624,6.164672183961927,1.0,3.14,-0.5027114625066746,-0.002834143812333083,-3.14,3.14,3.14
115,0.4526765867505278,0.416521497130419,0.17639092121202815,6.298933658303381,1.7923179303559773,2.0769644722884624,6.164672183961927,1.0,3.14,-0.5027114625066746,-0.002834143812333083,-3.14,3.14,3.14
116,0.4526765867505278,0.416521497130419,0.17639092121202815,6.298933658303381,1.7923179303559773,2.0769644722884624,6.164672183961927,1.0,3.14,-0.5027114625066746,-0.002834143812333083,-3.14,3.14,3.14
117,0.4526765867505278,0.416521497130419,0.17639092121202815,6.298933658303381,1.7923179303559773,2.0769644722884624,6.164672183961927,1.0,3.14,-0.5027114625066746,-0.002834143812333083,-3.14,3.14,3.14
118,0.4526765867505278,0.416521497130419,0.17639092121202815,6.298933658303381,1.7923179303559773,2.0769644722884624,6.164672183961927,1.0,3.14,-0.5027114625066746,-0.002834143812333083,-3.14,3.14,3.14
119,0.4526765867505278,0.416521497130419,0.17639092121202815,6.298933658303381,1.7923179303559773,2.0769644722884624,6.164672183961927,1.0,3.14,-0.5027114625066746,-0.002834143812333083,-3.14,3.14,3.14
120,0.4526765867505278,0.416521497130419,0.17639092121202815,6.298933658303381,1.7923179303559773,2.0769644722884624,6.164672183961927,1.0,3.14,-0.5027114625066746,-0.002834143812333083,-3.14,3.14,3.14
121,0.4526765867505278,0.416521497130419,0.17639092121202815,6.298933658303381,1.7923179303559773,2.0769644722884624,6.164672183961927,1.0,3.14,-0.5027114625066746,-0.002834143812333083,-3.14,3.14,3.14
122,0.4526765867505278,0.416521497130419,0.17639092121202815,6.298933658303381,1.7923179303559773,2.0769644722884624,6.164672183961927,1.0,3.14,-0.5027114625066746,-0.002834143812333083,-3.14,3.14,3.14
123,0.4526765867505278,0.416521497130419,0.17639092121202815,6.298933658303381,1.7923179303559773,2.0769644722884624,6.164672183961927,1.0,3.14,-0.5027114625066746,-0.002834143812333083,-3.14,3.14,3.14
124,0.4526765867505278,0.416521497130419,0.17639092121202815,6.298933658303381,1.7923179303559773,2.0769644722884624,6.164672183961927,1.0,3.14,-0.5027114625066746,-0.002834143812333083,-3.14,3.14,3.14
125,0.4526765867505278,0.416521497130419,0.17639092121202815,6.298933658303381,1.7923179303559773,2.0769644722884624,6.164672183961927,1.0,3.14,-0.5027114625066746,-0.002834143812333083,-3.14,3.14,3.14
126,0.4526765867505278,0.416521497130419,0.17639092121202815,6.298933658303381,1.7923179303559773,2.0769644722884624,6.164672183961927,1.0,3.14,-0.5027114625066746,-0.002834143812333083,-3.14,3.14,3.14
127,0.4526765867505278,0.416521497130419,0.17639092121202815,6.298933658303381,1.7923179303559773,2.0769644722884624,6.164672183961927,1.0,3.14,-0.5027114625066746,-0.002834143812333083,-3.14,3.14,3.14
128,0.4526765867505278,0.416521497130419,0.17639092121202815,6.298933658303381,1.7923179303559773,2.0769644722884624,6.164672183961927,1.0,3.14,-0.5027114625066746,-0.002834143812333083,-3.14,3.14,3.14
129,0.4526765867505278,0.416521497130419,0.17639092121202815,6.298933658303381,1.7923179303559773,2.0769644722884624,6.164672183961927,1.0,3.14,-0.5027114625066746,-0.002834143812333083,-3.14,3.14,3.14
130,0.4526765867505278,0.416521497130419,0.17639092121202815,6.298933658303381,1.7923179303559773,2.0769644722884624,6.164672183961927,1.0,3.14,-0.5027114625066746,-0.002834143812333083,-3.14,3.14,3.14
131,0.4526765867505278,0.416521497130419,0.17639092121202815,6.298933658303381,1.7923179303559773,2.0769644722884624,6.164672183961927,1.0,3.14,-0.5027114625066746,-0.002834143812333083,-3.14,3.14,3.14
132,0.4526765867505278,0.416521497130419,0.17639092121202815,6.298933658303381,1.7923179303559773,2.0769644722884624,6.164672183961927,1.0,3.14,-0.5027114625066746,-0.002834143812333083,-3.14,3.14,3.14
133,0.4526765867505278,0.416521497130419,0.17639092121202815,6.298933658303381,1.7923179303559773,2.0769644722884624,6.164672183961927,1.0,3.14,-0.5027114625066746,-0.002834143812333083,-3.14,3.14,3.14
134,0.4526765867505278,0.416521497130419,0.17639092121202815,6.298933658303381,1.7923179303559773,2.0769644722884624,6.164672183961927,1.0,3.14,-0.5027114625066746,-0.002834143812333083,-3.14,3.14,3.14
135,0.4526765867505278,0.416521497130419,0.17639092121202815,6.298933658303381,1.7923179303559773,2.0769644722884624,6.164672183961927,1.0,3.14,-0.5027114625066746,-0.002834143812333083,-3.14,3.14,3.14
136,0.4526765867505278,0.416521497130419,0.17639092121202815,6.298933658303381,1.7923179303559773,2.0769644722884624,6.164672183961927,1.0,3.14,-0.5027114625066746,-0.002834143812333083,-3.14,3.14,3.14
137,0.4526765867505278,0.416521497130419,0.17639092121202815,6.298933658303381,1.7923179303559773,2.0769644722884624,6.164672183961927,1.0,3.14,-0.5027114625066746,-0.002834143812333083,-3.14,3.14,3.14
138,0.4526765867505278,0.416521497130419,0.17639092121202815,6.298933658303381,1.7923179303559773,2.0769644722884624,6.164672183961927,1.0,3.14,-0.5027114625066746,-0.002834143812333083,-3.14,3.14,3.14
139,0.4526765867505278,0.416521497130419,0.17639092121202815,6.298933658303381,1.7923179303559773,2.0769644722884624,6.164672183961927,1.0,3.14,-0.5027114625066746,-0.002834143812333083,-3.14,3.14,3.14
140,0.4526765867505278,0.416521497130419,0.17639092121202815,6.298933658303381,1.7923179303559773,2.0769644722884624,6.164672183961927,1.0,3.14,-0.5027114625066746,-0.002834143812333083,-3.14,3.14,3.14
141,0.4526765867505278,0.416521497130419,0.17639092121202815,6.298933658303381,1.7923179303559773,2.0769644722884624,6.164672183961927,1.0,3.14,-0.5027114625066746,-0.002834143812333083,-3.14,3.14,3.14
142,0.4526765867505278,0.416521497130419,0.17639092121202815,6.298933658303381,1.7923179303559773,2.0769644722884624,6.164672183961927,1.0,3.14,-0.5027114625066746,-0.002834143812333083,-3.14,3.14,3.14
143,0.4526765867505278,0.416521497130419,0.17639092121202815,6.298933658303381,1.7923179303559773,2.0769644722884624,6.164672183961927,1.0,3.14,-0.5027114625066746,-0.002834143812333083,-3.14,3.14,3.14
144,0.4526765867505278,0.416521497130419,0.17639092121202815,6.298933658303381,1.7923179303559773,2.0769644722884624,6.164672183961927,1.0,3.14,-0.5027114625066746,-0.002834143812333083,-3.14,3.14,3.14
145,0.4526765867505278,0.416521497130419,0.17639092121202815,6.298933658303381,1.7923179303559773,2.0769644722884624,6.164672183961927,1.0,3.14,-0.5027114625066746,-0.002834143812333083,-3.14,3.14,3.14
146,0.4526765867505278,0.416521497130419,0.17639092121202815,6.298933658303381,1.7923179303559773,2.0769644722884624,6.164672183961927,1.0,3.14,-0.5027114625066746,-0.002834143812333083,-3.14,3.14,3.14
147,0.4526765867505278,0.416521497130419,0.17639092121202815,6.298933658303381,1.7923179303559773,2.0769644722884624,6.164672183961927,1.0,3.14,-0.5027114625066746,-0.002834143812333083,-3.14,3.14,3.14
148,0.4526765867505278,0.416521497130419,0.17639092121202815,6.298933658303381,1.7923179303559773,2.0769644722884624,6.164672183961927,1.0,3.14,-0.5027114625066746,-0.002834143812333083,-3.14,3.14,3.14
149,0.4526765867505278,0.416521497130419,0.17639092121202815,6.298933658303381,1.7923179303559773,2.0769644722884624,6.164672183961927,1.0,3.14,-0.5027114625066746,-0.002834143812333083,-3.14,3.14,3.14
150,0.4526765867505278,0.416521497130419,0.17639092121202815,6.298933658303381,1.7923179303559773,2.0769644722884624,6.164672183961927,1.0,3.14,-0.5027114625066746,-0.002834143812333083,-3.14,3.14,3.14
151,0.4526765867505278,0.416521497130419,0.17639092121202815,6.298933658303381,1.7923179303559773,2.0769644722884624,6.164672183961927,1.0,3.14,-0.5027114625066746,-0.002834143812333083,-3.14,3.14,3.14
152,0.4526765867505278,0.416521497130419,0.17639092121202815,6.298933658303381,1.7923179303559773,2.0769644722884624,6.164672183961927,1.0,3.14,-0.5027114625066746,-0.002834143812333083,-3.14,3.14,3.14
153,0.4526765867505278,0.416521497130419,0.17639092121202815,6.298933658303381,1.7923179303559773,2.0769644722884624,6.164672183961927,1.0,3.14,-0.5027114625066746,-0.002834143812333083,-3.14,3.14,3.14
154,0.4526765867505278,0.416521497130419,0.17639092121202815,6.298933658303381,1.7923179303559773,2.0769644722884624,6.164672183961927,1.0,3.14,-0.5027114625066746,-0.002834143812333083,-3.14,3.14,3.14
155,0.4526765867505278,0.416521497130419,0.17639092121202815,6.298933658303381,1.7923179303559773,2.0769644722884624,6.164672183961927,1.0,3.14,-0.5027114625066746,-0.002834143812333083,-3.14,3.14,3.14
156,0.4526765867505278,0.416521497130419,0.17639092121202815,6.298933658303381,1.7923179303559773,2.0769644722884624,6.164672183961927,1.0,3.14,-0.5027114625066746,-0.002834143812333083,-3.14,3.14,3.14
157,0.4526765867505278,0.416521497130419,0.17639092121202815,6.298933658303381,1.7923179303559773,2.0769644722884624,6.164672183961927,1.0,3.14,-0.5027114625066746,-0.002834143812333083,-3.14,3.14,3.14
158,0.4526765867505278,0.416521497130419,0.17639092121202815,6.298933658303381,1.7923179303559773,2.0769644722884624,6.164672183961927,1.0,3.14,-0.5027114625066746,-0.002834143812333083,-3.14,3.14,3.14
159,0.4526765867505278,0.416521497130419,0.17639092121202815,6.298933658303381,1.7923179303559773,2.0769644722884624,6.164672183961927,1.0,3.14,-0.5027114625066746,-0.002834143812333083,-3.14,3.14,3.14
160,0.4526765867505278,0.416521497130419,0.17639092121202815,6.298933658303381,1.7923179303559773,2.0769644722884624,6.164672183961927,1.0,3.14,-0.5027114625066746,-0.002834143812333083,-3.14,3.14,3.14
161,0.4526765867505278,0.416521497130419,0.17639092121202815,6.298933658303381,1.7923179303559773,2.0769644722884624,6.164672183961927,1.0,3.14,-0.5027114625066746,-0.002834143812333083,-3.14,3.14,3.14
162,0.4526765867505278,0.416521497130419,0.17639092121202815,6.298933658303381,1.7923179303559773,2.0769644722884624,6.164672183961927,1.0,3.14,-0.5027114625066746,-0.002834143812333083,-3.14,3.14,3.14
163,0.4526765867505278,0.416521497130419,0.17639092121202815,6.298933658303381,1.7923179303559773,2.0769644722884624,6.164672183961927,1.0,3.14,-0.5027114625066746,-0.002834143812333083,-3.14,3.14,3.14
164,0.4526765867505278,0.416521497130419,0.17639092121202815,6.298933658303381,1.7923179303559773,2.0769644722884624,6.164672183961927,1.0,3.14,-0.5027114625066746,-0.002834143812333083,-3.14,3.14,3.14
165,0.4526765867505278,0.416521497130419,0.17639092121202815,6.298933658303381,1.7923179303559773,2.0769644722884624,6.164672183961927,1.0,3.14,-0.5027114625066746,-0.002834143812333083,-3.14,3.14,3.14
166,0.4526765867505278,0.416521497130419,0.17639092121202815,6.298933658303381,1.7923179303559773,2.0769644722884624,6.164672183961927,1.0,3.14,-0.5027114625066746,-0.002834143812333083,-3.14,3.14,3.14
167,0.4526765867505278,0.416521497130419,0.17639092121202815,6.298933658303381,1.7923179303559773,2.0769644722884624,6.164672183961927,1.0,3.14,-0.5027114625066746,-0.002834143812333083,-3.14,3.14,3.14
168,0.4526765867505278,0.416521497130419,0.17639092121202815,6.298933658303381,1.7923179303559773,2.0769644722884624,6.164672183961927,1.0,3.14,-0.5027114625066746,-0.002834143812333083,-3.14,3.14,3.14
169,0.4526765867505278,0.416521497130419,0.17639092121202815,6.298933658303381,1.7923179303559773,2.0769644722884624,6.164672183961927,1.0,3.14,-0.5027114625066746,-0.002834143812333083,-3.14,3.14,3.14
170,0.4526765867505278,0.416521497130419,0.17639092121202815,6.298933658303381,1.7923179303559773,2.0769644722884624,6.164672183961927,1.0,3.14,-0.5027114625066746,-0.002834143812333083,-3.14,3.14,3.14
171,0.4526765867505278,0.416521497130419,0.17639092121202815,6.298933658303381,1.7923179303559773,2.0769644722884624,6.164672183961927,1.0,3.14,-0.5027114625066746,-0.002834143812333083,-3.14,3.14,3.14
172,0.4526765867505278,0.416521497130419,0.17639092121202815,6.298933658303381,1.7923179303559773,2.0769644722884624,6.164672183961927,1.0,3.14,-0.5027114625066746,-0.002834143812333083,-3.14,3.14,3.14
173,0.4526765867505278,0.416521497130419,0.17639092121202815,6.298933658303381,1.7923179303559773,2.0769644722884624,6.164672183961927,1.0,3.14,-0.5027114625066746,-0.002834143812333083,-3.14,3.14,3.14
174,0.4526765867505278,0.416521497130419,0.17639092121202815,6.298933658303381,1.7923179303559773,2.0769644722884624,6.164672183961927,1.0,3.14,-0.5027114625066746,-0.002834143812333083,-3.14,3.14,3.14
175,0.4526765867505278,0.416521497130419,0.17639092121202815,6.298933658303381,1.7923179303559773,2.0769644722884624,6.164672183961927,1.0,3.14,-0.5027114625066746,-0.002834143812333083,-3.14,3.14,3.14
176,0.4526765867505278,0.416521497130419,0.17639092121202815,6.298933658303381,1.7923179303559773,2.0769644722884624,6.164672183961927,1.0,3.14,-0.5027114625066746,-0.002834143812333083,-3.14,3.14,3.14
177,0.4526765867505278,0.416521497130419,0.17639092121202815,6.298933658303381,1.7923179303559773,2.0769644722884624,6.164672183961927,1.0,3.14,-0.5027114625066746,-0.002834143812333083,-3.14,3.14,3.14
178,0.4526765867505278,0.416521497130419,0.17639092121202815,6.298933658303381,1.7923179303559773,2.0769644722884624,6.164672183961927,1.0,3.14,-0.5027114625066746,-0.002834143812333083,-3.14,3.14,3.14
179,0.4526765867505278,0.416521497130419,0.17639092121202815,6.298933658303381,1.7923179303559773,2.0769644722884624,6.164672183961927,1.0,3.14,-0.5027114625066746,-0.002834143812333083,-3.14,3.14,3.14
180,0.4526765867505278,0.416521497130419,0.17639092121202815,6.298933658303381,1.7923179303559773,2.0769644722884624,6.164672183961927,1.0,3.14,-0.5027114625066746,-0.002834143812333083,-3.14,3.14,3.14
181,0.4526765867505278,0.416521497130419,0.17639092121202815,6.298933658303381,1.7923179303559773,2.0769644722884624,6.164672183961927,1.0,3.14,-0.5027114625066746,-0.002834143812333083,-3.14,3.14,3.14
182,0.4526765867505278,0.416521497130419,0.17639092121202815,6.298933658303381,1.7923179303559773,2.0769644722884624,6.164672183961927,1.0,3.14,-0.5027114625066746,-0.002834143812333083,-3.14,3.14,3.14
183,0.4526765867505278,0.416521497130419,0.17639092121202815,6.298933658303381,1.7923179303559773,2.0769644722884624,6.164672183961927,1.0,3.14,-0.5027114625066746,-0.002834143812333083,-3.14,3.14,3.14
184,0.4526765867505278,0.416521497130419,0.17639092121202815,6.298933658303381,1.7923179303559773,2.0769644722884624,6.164672183961927,1.0,3.14,-0.5027114625066746,-0.002834143812333083,-3.14,3.14,3.14
185,0.4526765867505278,0.416521497130419,0.17639092121202815,6.298933658303381,1.7923179303559773,2.0769644722884624,6.164672183961927,1.0,3.14,-0.5027114625066746,-0.002834143812333083,-3.14,3.14,3.14
186,0.4526765867505278,0.416521497130419,0.17639092121202815,6.298933658303381,1.7923179303559773,2.0769644722884624,6.164672183961927,1.0,3.14,-0.5027114625066746,-0.002834143812333083,-3.14,3.14,3.14
187,0.4526765867505278,0.416521497130419,0.17639092121202815,6.298933658303381,1.7923179303559773,2.0769644722884624,6.164672183961927,1.0,3.14,-0.5027114625066746,-0.002834143812333083,-3.14,3.14,3.14
188,0.4526765867505278,0.416521497130419,0.17639092121202815,6.298933658303381,1.7923179303559773,2.0769644722884624,6.164672183961927,1.0,3.14,-0.5027114625066746,-0.002834143812333083,-3.14,3.14,3.14
189,0.4526765867505278,0.416521497130419,0.17639092121202815,6.298933658303381,1.7923179303559773,2.0769644722884624,6.164672183961927,1.0,3.14,-0.5027114625066746,-0.002834143812333083,-3.14,3.14,3.14
190,0.4526765867505278,0.416521497130419,0.17639092121202815,6.298933658303381,1.7923179303559773,2.0769644722884624,6.164672183961927,1.0,3.14,-0.5027114625066746,-0.002834143812333083,-3.14,3.14,3.14
191,0.4526765867505278,0.416521497130419,0.17639092121202815,6.298933658303381,1.7923179303559773,2.0769644722884624,6.164672183961927,1.0,3.14,-0.5027114625066746,-0.002834143812333083,-3.14,3.14,3.14
192,0.4526765867505278,0.416521497130419,0.17639092121202815,6.298933658303381,1.7923179303559773,2.0769644722884624,6.164672183961927,1.0,3.14,-0.5027114625066746,-0.002834143812333083,-3.14,3.14,3.14
193,0.4526765867505278,0.416521497130419,0.17639092121202815,6.298933658303381,1.7923179303559773,2.0769644722884624,6.164672183961927,1.0,3.14,-0.5027114625066746,-0.002834143812333083,-3.14,3.14,3.14
194,0.4526765867505278,0.416521497130419,0.17639092121202815,6.298933658303381,1.7923179303559773,2.0769644722884624,6.164672183961927,1.0,3.14,-0.5027114625066746,-0.002834143812333083,-3.14,3.14,3.14
195,0.4526765867505278,0.416521497130419,0.17639092121202815,6.298933658303381,1.7923179303559773,2.0769644722884624,6.164672183961927,1.0,3.14,-0.5027114625066746,-0.002834143812333083,-3.14,3.14,3.14
196,0.4526765867505278,0.416521497130419,0.17639092121202815,6.298933658303381,1.7923179303559773,2.0769644722884624,6.164672183961927,1.0,3.14,-0.5027114625066746,-0.002834143812333083,-3.14,3.14,3.14
197,0.4526765867505278,0.416521497130419,0.17639092121202815,6.298933658303381,1.7923179303559773,2.0769644722884624,6.164672183961927,1.0,3.14,-0.5027114625066746,-0.002834143812333083,-3.14,3.14,3.14
198,0.4526765867505278,0.416521497130419,0.17639092121202815,6.298933658303381,1.7923179303559773,2.0769644722884624,6.164672183961927,1.0,3.14,-0.5027114625066746,-0.002834143812333083,-3.14,3.14,3.14
199,0.4526765867505278,0.416521497130419,0.17639092121202815,6.298933658303381,1.7923179303559773,2.0769644722884624,6.164672183961927,1.0,3.14,-0.5027114625066746,-0.002834143812333083,-3.14,3.14,3.14
200,0.4526765867505278,0.416521497130419,0.17639092121202815,6.298933658303381,1.7923179303559773,2.0769644722884624,6.164672183961927,1.0,3.14,-0.5027114625066746,-0.002834143812333083,-3.14,3.14,3.14
201,0.4526765867505278,0.416521497130419,0.17639092121202815,6.298933658303381,1.7923179303559773,2.0769644722884624,6.164672183961927,1.0,3.14,-0.5027114625066746,-0.002834143812333083,-3.14,3.14,3.14
202,0.4526765867505278,0.416521497130419,0.17639092121202815,6.298933658303381,1.7923179303559773,2.0769644722884624,6.164672183961927,1.0,3.14,-0.5027114625066746,-0.002834143812333083,-3.14,3.14,3.14
203,0.4526765867505278,0.416521497130419,0.17639092121202815,6.298933658303381,1.7923179303559773,2.0769644722884624,6.164672183961927,1.0,3.14,-0.5027114625066746,-0.002834143812333083,-3.14,3.14,3.14
204,0.4526765867505278,0.416521497130419,0.17639092121202815,6.298933658303381,1.7923179303559773,2.0769644722884624,6.164672183961927,1.0,3.14,-0.5027114625066746,-0.002834143812333083,-3.14,3.14,3.14
205,0.4526765867505278,0.416521497130419,0.17639092121202815,6.298933658303381,1.7923179303559773,2.0769644722884624,6.164672183961927,1.0,3.14,-0.5027114625066746,-0.002834143812333083,-3.14,3.14,3.14
206,0.4526765867505278,0.416521497130419,0.17639092121202815,6.298933658303381,1.7923179303559773,2.0769644722884624,6.164672183961927,1.0,3.14,-0.5027114625066746,-0.002834143812333083,-3.14,3.14,3.14
207,0.4526765867505278,0.416521497130419,0.17639092121202815,6.298933658303381,1.7923179303559773,2.0769644722884624,6.164672183961927,1.0,3.14,-0.5027114625066746,-0.002834143812333083,-3.14,3.14,3.14
208,0.4526765867505278,0.416521497130419,0.17639092121202815,6.298933658303381,1.7923179303559773,2.0769644722884624,6.164672183961927,1.0,3.14,-0.5027114625066746,-0.002834143812333083,-3.14,3.14,3.14
209,0.4526765867505278,0.416521497130419,0.17639092121202815,6.298933658303381,1.7923179303559773,2.0769644722884624,6.164672183961927,1.0,3.14,-0.5027114625066746,-0.002834143812333083,-3.14,3.14,3.14
210,0.4526765867505278,0.416521497130419,0.17639092121202815,6.298933658303381,1.7923179303559773,2.0769644722884624,6.164672183961927,1.0,3.14,-0.5027114625066746,-0.002834143812333083,-3.14,3.14,3.14
211,0.4526765867505278,0.416521497130419,0.17639092121202815,6.298933658303381,1.7923179303559773,2.0769644722884624,6.164672183961927,1.0,3.14,-0.5027114625066746,-0.002834143812333083,-3.14,3.14,3.14
212,0.4526765867505278,0.416521497130419,0.17639092121202815,6.298933658303381,1.7923179303559773,2.0769644722884624,6.164672183961927,1.0,3.14,-0.5027114625066746,-0.002834143812333083,-3.14,3.14,3.14
213,0.4526765867505278,0.416521497130419,0.17639092121202815,6.298933658303381,1.7923179303559773,2.0769644722884624,6.164672183961927,1.0,3.14,-0.5027114625066746,-0.002834143812333083,-3.14,3.14,3.14
214,0.4526765867505278,0.416521497130419,0.17639092121202815,6.298933658303381,1.7923179303559773,2.0769644722884624,6.164672183961927,1.0,3.14,-0.5027114625066746,-0.002834143812333083,-3.14,3.14,3.14
215,0.4526765867505278,0.416521497130419,0.17639092121202815,6.298933658303381,1.7923179303559773,2.0769644722884624,6.164672183961927,1.0,3.14,-0.5027114625066746,-0.002834143812333083,-3.14,3.14,3.14
216,0.4526765867505278,0.416521497130419,0.17639092121202815,6.298933658303381,1.7923179303559773,2.0769644722884624,6.164672183961927,1.0,3.14,-0.5027114625066746,-0.002834143812333083,-3.14,3.14,3.14
217,0.4526765867505278,0.416521497130419,0.17639092121202815,6.298933658303381,1.7923179303559773,2.0769644722884624,6.164672183961927,1.0,3.14,-0.5027114625066746,-0.002834143812333083,-3.14,3.14,3.14
218,0.4526765867505278,0.416521497130419,0.17639092121202815,6.298933658303381,1.7923179303559773,2.0769644722884624,6.164672183961927,1.0,3.14,-0.5027114625066746,-0.002834143812333083,-3.14,3.14,3.14
219,0.4526765867505278,0.416521497130419,0.17639092121202815,6.298933658303381,1.7923179303559773,2.0769644722884624,6.164672183961927,1.0,3.14,-0.5027114625066746,-0.002834143812333083,-3.14,3.14,3.14
220,0.4526765867505278,0.416521497130419,0.17639092121202815,6.298933658303381,1.7923179303559773,2.0769644722884624,6.164672183961927,1.0,3.14,-0.5027114625066746,-0.002834143812333083,-3.14,3.14,3.14
221,0.4526765867505278,0.416521497130419,0.17639092121202815,6.298933658303381,1.7923179303559773,2.0769644722884624,6.164672183961927,1.0,3.14,-0.5027114625066746,-0.002834143812333083,-3.14,3.14,3.14
222,0.4526765867505278,0.416521497130419,0.17639092121202815,6.298933658303381,1.7923179303559773,2.0769644722884624,6.164672183961927,1.0,3.14,-0.5027114625066746,-0.002834143812333083,-3.14,3.14,3.14
223,0.4526765867505278,0.416521497130419,0.17639092121202815,6.298933658303381,1.7923179303559773,2.0769644722884624,6.164672183961927,1.0,3.14,-0.5027114625066746,-0.002834143812333083,-3.14,3.14,3.14
224,0.4526765867505278,0.416521497130419,0.17639092121202815,6.298933658303381,1.7923179303559773,2.0769644722884624,6.164672183961927,1.0,3.14,-0.5027114625066746,-0.002834143812333083,-3.14,3.14,3.14
225,0.4526765867505278,0.416521497130419,0.17639092121202815,6.298933658303381,1.7923179303559773,2.0769644722884624,6.164672183961927,1.0,3.14,-0.5027114625066746,-0.002834143812333083,-3.14,3.14,3.14
226,0.4526765867505278,0.416521497130419,0.17639092121202815,6.298933658303381,1.7923179303559773,2.0769644722884624,6.164672183961927,1.0,3.14,-0.5027114625066746,-0.002834143812333083,-3.14,3.14,3.14
227,0.4526765867505278,0.416521497130419,0.17639092121202815,6.298933658303381,1.7923179303559773,2.0769644722884624,6.164672183961927,1.0,3.14,-0.5027114625066746,-0.002834143812333083,-3.14,3.14,3.14
228,0.4526765867505278,0.416521497130419,0.17639092121202815,6.298933658303381,1.7923179303559773,2.0769644722884624,6.164672183961927,1.0,3.14,-0.5027114625066746,-0.002834143812333083,-3.14,3.14,3.14
229,0.4526765867505278,0.416521497130419,0.17639092121202815,6.298933658303381,1.7923179303559773,2.0769644722884624,6.164672183961927,1.0,3.14,-0.5027114625066746,-0.002834143812333083,-3.14,3.14,3.14
230,0.4526765867505278,0.416521497130419,0.17639092121202815,6.298933658303381,1.7923179303559773,2.0769644722884624,6.164672183961927,1.0,3.14,-0.5027114625066746,-0.002834143812333083,-3.14,3.14,3.14
231,0.4526765867505278,0.416521497130419,0.17639092121202815,6.298933658303381,1.7923179303559773,2.0769644722884624,6.164672183961927,1.0,3.14,-0.5027114625066746,-0.002834143812333083,-3.14,3.14,3.14
232,0.4526765867505278,0.416521497130419,0.17639092121202815,6.298933658303381,1.7923179303559773,2.0769644722884624,6.164672183961927,1.0,3.14,-0.5027114625066746,-0.002834143812333083,-3.14,3.14,3.14
233,0.4526765867505278,0.416521497130419,0.17639092121202815,6.298933658303381,1.7923179303559773,2.0769644722884624,6.164672183961927,1.0,3.14,-0.5027114625066746,-0.002834143812333083,-3.14,3.14,3.14
234,0.4526765867505278,0.416521497130419,0.17639092121202815,6.298933658303381,1.7923179303559773,2.0769644722884624,6.164672183961927,1.0,3.14,-0.5027114625066746,-0.002834143812333083,-3.14,3.14,3.14
235,0.4526765867505278,0.416521497130419,0.17639092121202815,6.298933658303381,1.7923179303559773,2.0769644722884624,6.164672183961927,1.0,3.14,-0.5027114625066746,-0.002834143812333083,-3.14,3.14,3.14
236,0.4526765867505278,0.416521497130419,0.17639092121202815,6.298933658303381,1.7923179303559773,2.0769644722884624,6.164672183961927,1.0,3.14,-0.5027114625066746,-0.002834143812333083,-3.14,3.14,3.14
237,0.4526765867505278,0.416521497130419,0.17639092121202815,6.298933658303381,1.7923179303559773,2.0769644722884624,6.164672183961927,1.0,3.14,-0.5027114625066746,-0.002834143812333083,-3.14,3.14,3.14
238,0.4526765867505278,0.416521497130419,0.17639092121202815,6.298933658303381,1.7923179303559773,2.0769644722884624,6.164672183961927,1.0,3.14,-0.5027114625066746,-0.002834143812333083,-3.14,3.14,3.14
239,0.4526765867505278,0.416521497130419,0.17639092121202815,6.298933658303381,1.7923179303559773,2.0769644722884624,6.164672183961927,1.0,3.14,-0.5027114625066746,-0.002834143812333083,-3.14,3.14,3.14
240,0.4526765867505278,0.416521497130419,0.17639092121202815,6.298933658303381,1.7923179303559773,2.0769644722884624,6.164672183961927,1.0,3.14,-0.5027114625066746,-0.002834143812333083,-3.14,3.14,3.14
241,0.4526765867505278,0.416521497130419,0.17639092121202815,6.298933658303381,1.7923179303559773,2.0769644722884624,6.164672183961927,1.0,3.14,-0.5027114625066746,-0.002834143812333083,-3.14,3.14,3.14
242,0.4526765867505278,0.416521497130419,0.17639092121202815,6.298933658303381,1.7923179303559773,2.0769644722884624,6.164672183961927,1.0,3.14,-0.5027114625066746,-0.002834143812333083,-3.14,3.14,3.14
243,0.4526765867505278,0.416521497130419,0.17639092121202815,6.298933658303381,1.7923179303559773,2.0769644722884624,6.164672183961927,1.0,3.14,-0.5027114625066746,-0.002834143812333083,-3.14,3.14,3.14
244,0.4526765867505278,0.416521497130419,0.17639092121202815,6.298933658303381,1.7923179303559773,2.0769644722884624,6.164672183961927,1.0,3.14,-0.5027114625066746,-0.002834143812333083,-3.14,3.14,3.14
245,0.4526765867505278,0.416521497130419,0.17639092121202815,6.298933658303381,1.7923179303559773,2.0769644722884624,6.164672183961927,1.0,3.14,-0.5027114625066746,-0.002834143812333083,-3.14,3.14,3.14
246,0.4526765867505278,0.416521497130419,0.17639092121202815,6.298933658303381,1.7923179303559773,2.0769644722884624,6.164672183961927,1.0,3.14,-0.5027114625066746,-0.002834143812333083,-3.14,3.14,3.14
247,0.4526765867505278,0.416521497130419,0.17639092121202815,6.298933658303381,1.7923179303559773,2.0769644722884624,6.164672183961927,1.0,3.14,-0.5027114625066746,-0.002834143812333083,-3.14,3.14,3.14
248,0.4526765867505278,0.416521497130419,0.17639092121202815,6.298933658303381,1.7923179303559773,2.0769644722884624,6.164672183961927,1.0,3.14,-0.5027114625066746,-0.002834143812333083,-3.14,3.14,3.14
249,0.4526765867505278,0.416521497130419,0.17639092121202815,6.298933658303381,1.7923179303559773,2.0769644722884624,6.164672183961927,1.0,3.14,-0.5027114625066746,-0.002834143812333083,-3.14,3.14,3.14
250,0.4526765867505278,0.416521497130419,0.17639092121202815,6.298933658303381,1.7923179303559773,2.0769644722884624,6.164672183961927,1.0,3.14,-0.5027114625066746,-0.002834143812333083,-3.14,3.14,3.14
251,0.4526765867505278,0.416521497130419,0.17639092121202815,6.298933658303381,1.7923179303559773,2.0769644722884624,6.164672183961927,1.0,3.14,-0.5027114625066746,-0.002834143812333083,-3.14,3.14,3.14
252,0.4526765867505278,0.416521497130419,0.17639092121202815,6.298933658303381,1.7923179303559773,2.0769644722884624,6.164672183961927,1.0,3.14,-0.5027114625066746,-0.002834143812333083,-3.14,3.14,3.14
253,0.4526765867505278,0.416521497130419,0.17639092121202815,6.298933658303381,1.7923179303559773,2.0769644722884624,6.164672183961927,1.0,3.14,-0.5027114625066746,-0.002834143812333083,-3.14,3.14,3.14
254,0.4526765867505278,0.416521497130419,0.17639092121202815,6.298933658303381,1.7923179303559773,2.0769644722884624,6.164672183961927,1.0,3.14,-0.5027114625066746,-0.002834143812333083,-3.14,3.14,3.14
255,0.4526765867505278,0.416521497130419,0.17639092121202815,6.298933658303381,1.7923179303559773,2.0769644722884624,6.164672183961927,1.0,3.14,-0.5027114625066746,-0.002834143812333083,-3.14,3.14,3.14
256,0.4526765867505278,0.416521497130419,0.17639092121202815,6.298933658303381,1.7923179303559773,2.0769644722884624,6.164672183961927,1.0,3.14,-0.5027114625066746,-0.002834143812333083,-3.14,3.14,3.14
257,0.4526765867505278,0.416521497130419,0.17639092121202815,6.298933658303381,1.7923179303559773,2.0769644722884624,6.164672183961927,1.0,3.14,-0.5027114625066746,-0.002834143812333083,-3.14,3.14,3.14
258,0.4526765867505278,0.416521497130419,0.17639092121202815,6.298933658303381,1.7923179303559773,2.0769644722884624,6.164672183961927,1.0,3.14,-0.5027114625066746,-0.002834143812333083,-3.14,3.14,3.14
259,0.4526765867505278,0.416521497130419,0.17639092121202815,6.298933658303381,1.7923179303559773,2.0769644722884624,6.164672183961927,1.0,3.14,-0.5027114625066746,-0.002834143812333083,-3.14,3.14,3.14
260,0.4526765867505278,0.416521497130419,0.17639092121202815,6.298933658303381,1.7923179303559773,2.0769644722884624,6.164672183961927,1.0,3.14,-0.5027114625066746,-0.002834143812333083,-3.14,3.14,3.14
261,0.4526765867505278,0.416521497130419,0.17639092121202815,6.298933658303381,1.7923179303559773,2.0769644722884624,6.164672183961927,1.0,3.14,-0.5027114625066746,-0.002834143812333083,-3.14,3.14,3.14
262,0.4526765867505278,0.416521497130419,0.17639092121202815,6.298933658303381,1.7923179303559773,2.0769644722884624,6.164672183961927,1.0,3.14,-0.5027114625066746,-0.002834143812333083,-3.14,3.14,3.14
263,0.4526765867505278,0.416521497130419,0.17639092121202815,6.298933658303381,1.7923179303559773,2.0769644722884624,6.164672183961927,1.0,3.14,-0.5027114625066746,-0.002834143812333083,-3.14,3.14,3.14
264,0.4526765867505278,0.416521497130419,0.17639092121202815,6.298933658303381,1.7923179303559773,2.0769644722884624,6.164672183961927,1.0,3.14,-0.5027114625066746,-0.002834143812333083,-3.14,3.14,3.14
265,0.4526765867505278,0.416521497130419,0.17639092121202815,6.298933658303381,1.7923179303559773,2.0769644722884624,6.164672183961927,1.0,3.14,-0.5027114625066746,-0.002834143812333083,-3.14,3.14,3.14
266,0.4526765867505278,0.416521497130419,0.17639092121202815,6.298933658303381,1.7923179303559773,2.0769644722884624,6.164672183961927,1.0,3.14,-0.5027114625066746,-0.002834143812333083,-3.14,3.14,3.14
267,0.4526765867505278,0.416521497130419,0.17639092121202815,6.298933658303381,1.7923179303559773,2.0769644722884624,6.164672183961927,1.0,3.14,-0.5027114625066746,-0.002834143812333083,-3.14,3.14,3.14
268,0.4526765867505278,0.416521497130419,0.17639092121202815,6.298933658303381,1.7923179303559773,2.0769644722884624,6.164672183961927,1.0,3.14,-0.5027114625066746,-0.002834143812333083,-3.14,3.14,3.14
269,0.4526765867505278,0.416521497130419,0.17639092121202815,6.298933658303381,1.7923179303559773,2.0769644722884624,6.164672183961927,1.0,3.14,-0.5027114625066746,-0.002834143812333083,-3.14,3.14,3.14
270,0.4526765867505278,0.416521497130419,0.17639092121202815,6.298933658303381,1.7923179303559773,2.0769644722884624,6.164672183961927,1.0,3.14,-0.5027114625066746,-0.002834143812333083,-3.14,3.14,3.14
271,0.4526765867505278,0.416521497130419,0.17639092121202815,6.298933658303381,1.7923179303559773,2.0769644722884624,6.164672183961927,1.0,3.14,-0.5027114625066746,-0.002834143812333083,-3.14,3.14,3.14
272,0.4526765867505278,0.416521497130419,0.17639092121202815,6.298933658303381,1.7923179303559773,2.0769644722884624,6.164672183961927,1.0,3.14,-0.5027114625066746,-0.002834143812333083,-3.14,3.14,3.14
273,0.4526765867505278,0.416521497130419,0.17639092121202815,6.298933658303381,1.7923179303559773,2.0769644722884624,6.164672183961927,1.0,3.14,-0.5027114625066746,-0.002834143812333083,-3.14,3.14,3.14
274,0.4526765867505278,0.416521497130419,0.17639092121202815,6.298933658303381,1.7923179303559773,2.0769644722884624,6.164672183961927,1.0,3.14,-0.5027114625066746,-0.002834143812333083,-3.14,3.14,3.14
275,0.4526765867505278,0.416521497130419,0.17639092121202815,6.298933658303381,1.7923179303559773,2.0769644722884624,6.164672183961927,1.0,3.14,-0.5027114625066746,-0.002834143812333083,-3.14,3.14,3.14
276,0.4526765867505278,0.416521497130419,0.17639092121202815,6.298933658303381,1.7923179303559773,2.0769644722884624,6.164672183961927,1.0,3.14,-0.5027114625066746,-0.002834143812333083,-3.14,3.14,3.14
277,0.4526765867505278,0.416521497130419,0.17639092121202815,6.298933658303381,1.7923179303559773,2.0769644722884624,6.164672183961927,1.0,3.14,-0.5027114625066746,-0.002834143812333083,-3.14,3.14,3.14
278,0.4526765867505278,0.416521497130419,0.17639092121202815,6.298933658303381,1.7923179303559773,2.0769644722884624,6.164672183961927,1.0,3.14,-0.5027114625066746,-0.002834143812333083,-3.14,3.14,3.14
279,0.4526765867505278,0.416521497130419,0.17639092121202815,6.298933658303381,1.7923179303559773,2.0769644722884624,6.164672183961927,1.0,3.14,-0.5027114625066746,-0.002834143812333083,-3.14,3.14,3.14
280,0.4526765867505278,0.416521497130419,0.17639092121202815,6.298933658303381,1.7923179303559773,2.0769644722884624,6.164672183961927,1.0,3.14,-0.5027114625066746,-0.002834143812333083,-3.14,3.14,3.14
281,0.4526765867505278,0.416521497130419,0.17639092121202815,6.298933658303381,1.7923179303559773,2.0769644722884624,6.164672183961927,1.0,3.14,-0.5027114625066746,-0.002834143812333083,-3.14,3.14,3.14
282,0.4526765867505278,0.416521497130419,0.17639092121202815,6.298933658303381,1.7923179303559773,2.0769644722884624,6.164672183961927,1.0,3.14,-0.5027114625066746,-0.002834143812333083,-3.14,3.14,3.14
283,0.4526765867505278,0.416521497130419,0.17639092121202815,6.298933658303381,1.7923179303559773,2.0769644722884624,6.164672183961927,1.0,3.14,-0.5027114625066746,-0.002834143812333083,-3.14,3.14,3.14
284,0.4526765867505278,0.416521497130419,0.17639092121202815,6.298933658303381,1.7923179303559773,2.0769644722884624,6.164672183961927,1.0,3.14,-0.5027114625066746,-0.002834143812333083,-3.14,3.14,3.14
285,0.4526765867505278,0.416521497130419,0.17639092121202815,6.298933658303381,1.7923179303559773,2.0769644722884624,6.164672183961927,1.0,3.14,-0.5027114625066746,-0.002834143812333083,-3.14,3.14,3.14
286,0.4526765867505278,0.416521497130419,0.17639092121202815,6.298933658303381,1.7923179303559773,2.0769644722884624,6.164672183961927,1.0,3.14,-0.5027114625066746,-0.002834143812333083,-3.14,3.14,3.14
287,0.4526765867505278,0.416521497130419,0.17639092121202815,6.298933658303381,1.7923179303559773,2.0769644722884624,6.164672183961927,1.0,3.14,-0.5027114625066746,-0.002834143812333083,-3.14,3.14,3.14
288,0.4526765867505278,0.416521497130419,0.17639092121202815,6.298933658303381,1.7923179303559773,2.0769644722884624,6.164672183961927,1.0,3.14,-0.5027114625066746,-0.002834143812333083,-3.14,3.14,3.14
289,0.4526765867505278,0.416521497130419,0.17639092121202815,6.298933658303381,1.7923179303559773,2.0769644722884624,6.164672183961927,1.0,3.14,-0.5027114625066746,-0.002834143812333083,-3.14,3.14,3.14
290,0.4526765867505278,0.416521497130419,0.17639092121202815,6.298933658303381,1.7923179303559773,2.0769644722884624,6.164672183961927,1.0,3.14,-0.5027114625066746,-0.002834143812333083,-3.14,3.14,3.14
291,0.4526765867505278,0.416521497130419,0.17639092121202815,6.298933658303381,1.7923179303559773,2.0769644722884624,6.164672183961927,1.0,3.14,-0.5027114625066746,-0.002834143812333083,-3.14,3.14,3.14
292,0.4526765867505278,0.416521497130419,0.17639092121202815,6.298933658303381,1.7923179303559773,2.0769644722884624,6.164672183961927,1.0,3.14,-0.5027114625066746,-0.002834143812333083,-3.14,3.14,3.14
293,0.4526765867505278,0.416521497130419,0.17639092121202815,6.298933658303381,1.7923179303559773,2.0769644722884624,6.164672183961927,1.0,3.14,-0.5027114625066746,-0.002834143812333083,-3.14,3.14,3.14
294,0.4526765867505278,0.416521497130419,0.17639092121202815,6.298933658303381,1.7923179303559773,2.0769644722884624,6.164672183961927,1.0,3.14,-0.5027114625066746,-0.002834143812333083,-3.14,3.14,3.14
295,0.4526765867505278,0.416521497130419,0.17639092121202815,6.298933658303381,1.7923179303559773,2.0769644722884624,6.164672183961927,1.0,3.14,-0.5027114625066746,-0.002834143812333083,-3.14,3.14,3.14
296,0.4526765867505278,0.416521497130419,0.17639092121202815,6.298933658303381,1.7923179303559773,2.0769644722884624,6.164672183961927,1.0,3.14,-0.5027114625066746,-0.002834143812333083,-3.14,3.14,3.14
297,0.4526765867505278,0.416521497130419,0.17639092121202815,6.298933658303381,1.7923179303559773,2.0769644722884624,6.164672183961927,1.0,3.14,-0.5027114625066746,-0.002834143812333083,-3.14,3.14,3.14
298,0.4526765867505278,0.416521497130419,0.17639092121202815,6.298933658303381,1.7923179303559773,2.0769644722884624,6.164672183961927,1.0,3.14,-0.5027114625066746,-0.002834143812333083,-3.14,3.14,3.14
299,0.4526765867505278,0.416521497130419,0.17639092121202815,6.298933658303381,1.7923179303559773,2.0769644722884624,6.164672183961927,1.0,3.14,-0.5027114625066746,-0.002834143812333083,-3.14,3.14,3.14
300,0.4526765867505278,0.416521497130419,0.17639092121202815,6.298933658303381,1.7923179303559773,2.0769644722884624,6.164672183961927,1.0,3.14,-0.5027114625066746,-0.002834143812333083,-3.14,3.14,3.14
301,0.4526765867505278,0.416521497130419,0.17639092121202815,6.298933658303381,1.7923179303559773,2.0769644722884624,6.164672183961927,1.0,3.14,-0.5027114625066746,-0.002834143812333083,-3.14,3.14,3.14
302,0.4526765867505278,0.416521497130419,0.17639092121202815,6.298933658303381,1.7923179303559773,2.0769644722884624,6.164672183961927,1.0,3.14,-0.5027114625066746,-0.002834143812333083,-3.14,3.14,3.14
303,0.4526765867505278,0.416521497130419,0.17639092121202815,6.298933658303381,1.7923179303559773,2.0769644722884624,6.164672183961927,1.0,3.14,-0.5027114625066746,-0.002834143812333083,-3.14,3.14,3.14
304,0.4526765867505278,0.416521497130419,0.17639092121202815,6.298933658303381,1.7923179303559773,2.0769644722884624,6.164672183961927,1.0,3.14,-0.5027114625066746,-0.002834143812333083,-3.14,3.14,3.14
305,0.4526765867505278,0.416521497130419,0.17639092121202815,6.298933658303381,1.7923179303559773,2.0769644722884624,6.164672183961927,1.0,3.14,-0.5027114625066746,-0.002834143812333083,-3.14,3.14,3.14
306,0.4526765867505278,0.416521497130419,0.17639092121202815,6.298933658303381,1.7923179303559773,2.0769644722884624,6.164672183961927,1.0,3.14,-0.5027114625066746,-0.002834143812333083,-3.14,3.14,3.14
307,0.4526765867505278,0.416521497130419,0.17639092121202815,6.298933658303381,1.7923179303559773,2.0769644722884624,6.164672183961927,1.0,3.14,-0.5027114625066746,-0.002834143812333083,-3.14,3.14,3.14
308,0.4526765867505278,0.416521497130419,0.17639092121202815,6.298933658303381,1.7923179303559773,2.0769644722884624,6.164672183961927,1.0,3.14,-0.5027114625066746,-0.002834143812333083,-3.14,3.14,3.14
309,0.4526765867505278,0.416521497130419,0.17639092121202815,6.298933658303381,1.7923179303559773,2.0769644722884624,6.164672183961927,1.0,3.14,-0.5027114625066746,-0.002834143812333083,-3.14,3.14,3.14
310,0.4526765867505278,0.416521497130419,0.17639092121202815,6.298933658303381,1.7923179303559773,2.0769644722884624,6.164672183961927,1.0,3.14,-0.5027114625066746,-0.002834143812333083,-3.14,3.14,3.14
311,0.4526765867505278,0.416521497130419,0.17639092121202815,6.298933658303381,1.7923179303559773,2.0769644722884624,6.164672183961927,1.0,3.14,-0.5027114625066746,-0.002834143812333083,-3.14,3.14,3.14
312,0.4526765867505278,0.416521497130419,0.17639092121202815,6.298933658303381,1.7923179303559773,2.0769644722884624,6.164672183961927,1.0,3.14,-0.5027114625066746,-0.002834143812333083,-3.14,3.14,3.14
313,0.4526765867505278,0.416521497130419,0.17639092121202815,6.298933658303381,1.7923179303559773,2.0769644722884624,6.164672183961927,1.0,3.14,-0.5027114625066746,-0.002834143812333083,-3.14,3.14,3.14
314,0.4526765867505278,0.416521497130419,0.17639092121202815,6.298933658303381,1.7923179303559773,2.0769644722884624,6.164672183961927,1.0,3.14,-0.5027114625066746,-0.002834143812333083,-3.14,3.14,3.14
315,0.4526765867505278,0.416521497130419,0.17639092121202815,6.298933658303381,1.7923179303559773,2.0769644722884624,6.164672183961927,1.0,3.14,-0.5027114625066746,-0.002834143812333083,-3.14,3.14,3.14
316,0.4526765867505278,0.416521497130419,0.17639092121202815,6.298933658303381,1.7923179303559773,2.0769644722884624,6.164672183961927,1.0,3.14,-0.5027114625066746,-0.002834143812333083,-3.14,3.14,3.14
317,0.4526765867505278,0.416521497130419,0.17639092121202815,6.298933658303381,1.7923179303559773,2.0769644722884624,6.164672183961927,1.0,3.14,-0.5027114625066746,-0.002834143812333083,-3.14,3.14,3.14
318,0.4526765867505278,0.416521497130419,0.17639092121202815,6.298933658303381,1.7923179303559773,2.0769644722884624,6.164672183961927,1.0,3.14,-0.5027114625066746,-0.002834143812333083,-3.14,3.14,3.14
319,0.4526765867505278,0.416521497130419,0.17639092121202815,6.298933658303381,1.7923179303559773,2.0769644722884624,6.164672183961927,1.0,3.14,-0.5027114625066746,-0.002834143812333083,-3.14,3.14,3.14
320,0.4526765867505278,0.416521497130419,0.17639092121202815,6.298933658303381,1.7923179303559773,2.0769644722884624,6.164672183961927,1.0,3.14,-0.5027114625066746,-0.002834143812333083,-3.14,3.14,3.14
321,0.4526765867505278,0.416521497130419,0.17639092121202815,6.298933658303381,1.7923179303559773,2.0769644722884624,6.164672183961927,1.0,3.14,-0.5027114625066746,-0.002834143812333083,-3.14,3.14,3.14
322,0.4526765867505278,0.416521497130419,0.17639092121202815,6.298933658303381,1.7923179303559773,2.0769644722884624,6.164672183961927,1.0,3.14,-0.5027114625066746,-0.002834143812333083,-3.14,3.14,3.14
323,0.4526765867505278,0.416521497130419,0.17639092121202815,6.298933658303381,1.7923179303559773,2.0769644722884624,6.164672183961927,1.0,3.14,-0.5027114625066746,-0.002834143812333083,-3.14,3.14,3.14
324,0.4526765867505278,0.416521497130419,0.17639092121202815,6.298933658303381,1.7923179303559773,2.0769644722884624,6.164672183961927,1.0,3.14,-0.5027114625066746,-0.002834143812333083,-3.14,3.14,3.14
325,0.4526765867505278,0.416521497130419,0.17639092121202815,6.298933658303381,1.7923179303559773,2.0769644722884624,6.164672183961927,1.0,3.14,-0.5027114625066746,-0.002834143812333083,-3.14,3.14,3.14
326,0.4526765867505278,0.416521497130419,0.17639092121202815,6.298933658303381,1.7923179303559773,2.0769644722884624,6.164672183961927,1.0,3.14,-0.5027114625066746,-0.002834143812333083,-3.14,3.14,3.14
327,0.4526765867505278,0.416521497130419,0.17639092121202815,6.298933658303381,1.7923179303559773,2.0769644722884624,6.164672183961927,1.0,3.14,-0.5027114625066746,-0.002834143812333083,-3.14,3.14,3.14
328,0.4526765867505278,0.416521497130419,0.17639092121202815,6.298933658303381,1.7923179303559773,2.0769644722884624,6.164672183961927,1.0,3.14,-0.5027114625066746,-0.002834143812333083,-3.14,3.14,3.14
329,0.4526765867505278,0.416521497130419,0.17639092121202815,6.298933658303381,1.7923179303559773,2.0769644722884624,6.164672183961927,1.0,3.14,-0.5027114625066746,-0.002834143812333083,-3.14,3.14,3.14
330,0.4526765867505278,0.416521497130419,0.17639092121202815,6.298933658303381,1.7923179303559773,2.0769644722884624,6.164672183961927,1.0,3.14,-0.5027114625066746,-0.002834143812333083,-3.14,3.14,3.14
331,0.4526765867505278,0.416521497130419,0.17639092121202815,6.298933658303381,1.7923179303559773,2.0769644722884624,6.164672183961927,1.0,3.14,-0.5027114625066746,-0.002834143812333083,-3.14,3.14,3.14
332,0.4526765867505278,0.416521497130419,0.17639092121202815,6.298933658303381,1.7923179303559773,2.0769644722884624,6.164672183961927,1.0,3.14,-0.5027114625066746,-0.002834143812333083,-3.14,3.14,3.14
333,0.4526765867505278,0.416521497130419,0.17639092121202815,6.298933658303381,1.7923179303559773,2.0769644722884624,6.164672183961927,1.0,3.14,-0.5027114625066746,-0.002834143812333083,-3.14,3.14,3.14
334,0.4526765867505278,0.416521497130419,0.17639092121202815,6.298933658303381,1.7923179303559773,2.0769644722884624,6.164672183961927,1.0,3.14,-0.5027114625066746,-0.002834143812333083,-3.14,3.14,3.14
335,0.4526765867505278,0.416521497130419,0.17639092121202815,6.298933658303381,1.7923179303559773,2.0769644722884624,6.164672183961927,1.0,3.14,-0.5027114625066746,-0.002834143812333083,-3.14,3.14,3.14
336,0.4526765867505278,0.416521497130419,0.17639092121202815,6.298933658303381,1.7923179303559773,2.0769644722884624,6.164672183961927,1.0,3.14,-0.5027114625066746,-0.002834143812333083,-3.14,3.14,3.14
337,0.4526765867505278,0.416521497130419,0.17639092121202815,6.298933658303381,1.7923179303559773,2.0769644722884624,6.164672183961927,1.0,3.14,-0.5027114625066746,-0.002834143812333083,-3.14,3.14,3.14
338,0.4526765867505278,0.416521497130419,0.17639092121202815,6.298933658303381,1.7923179303559773,2.0769644722884624,6.164672183961927,1.0,3.14,-0.5027114625066746,-0.002834143812333083,-3.14,3.14,3.14
339,0.4526765867505278,0.416521497130419,0.17639092121202815,6.298933658303381,1.7923179303559773,2.0769644722884624,6.164672183961927,1.0,3.14,-0.5027114625066746,-0.002834143812333083,-3.14,3.14,3.14
340,0.4526765867505278,0.416521497130419,0.17639092121202815,6.298933658303381,1.7923179303559773,2.0769644722884624,6.164672183961927,1.0,3.14,-0.5027114625066746,-0.002834143812333083,-3.14,3.14,3.14
341,0.4526765867505278,0.416521497130419,0.17639092121202815,6.298933658303381,1.7923179303559773,2.0769644722884624,6.164672183961927,1.0,3.14,-0.5027114625066746,-0.002834143812333083,-3.14,3.14,3.14
342,0.4526765867505278,0.416521497130419,0.17639092121202815,6.298933658303381,1.7923179303559773,2.0769644722884624,6.164672183961927,1.0,3.14,-0.5027114625066746,-0.002834143812333083,-3.14,3.14,3.14
343,0.4526765867505278,0.416521497130419,0.17639092121202815,6.298933658303381,1.7923179303559773,2.0769644722884624,6.164672183961927,1.0,3.14,-0.5027114625066746,-0.002834143812333083,-3.14,3.14,3.14
344,0.4526765867505278,0.416521497130419,0.17639092121202815,6.298933658303381,1.7923179303559773,2.0769644722884624,6.164672183961927,1.0,3.14,-0.5027114625066746,-0.002834143812333083,-3.14,3.14,3.14
345,0.4526765867505278,0.416521497130419,0.17639092121202815,6.298933658303381,1.7923179303559773,2.0769644722884624,6.164672183961927,1.0,3.14,-0.5027114625066746,-0.002834143812333083,-3.14,3.14,3.14
346,0.4526765867505278,0.416521497130419,0.17639092121202815,6.298933658303381,1.7923179303559773,2.0769644722884624,6.164672183961927,1.0,3.14,-0.5027114625066746,-0.002834143812333083,-3.14,3.14,3.14
347,0.4526765867505278,0.416521497130419,0.17639092121202815,6.298933658303381,1.7923179303559773,2.0769644722884624,6.164672183961927,1.0,3.14,-0.5027114625066746,-0.002834143812333083,-3.14,3.14,3.14
348,0.4526765867505278,0.416521497130419,0.17639092121202815,6.298933658303381,1.7923179303559773,2.0769644722884624,6.164672183961927,1.0,3.14,-0.5027114625066746,-0.002834143812333083,-3.14,3.14,3.14
349,0.4526765867505278,0.416521497130419,0.17639092121202815,6.298933658303381,1.7923179303559773,2.0769644722884624,6.164672183961927,1.0,3.14,-0.5027114625066746,-0.002834143812333083,-3.14,3.14,3.14
350,0.4526765867505278,0.416521497130419,0.17639092121202815,6.298933658303381,1.7923179303559773,2.0769644722884624,6.164672183961927,1.0,3.14,-0.5027114625066746,-0.002834143812333083,-3.14,3.14,3.14
351,0.4526765867505278,0.416521497130419,0.17639092121202815,6.298933658303381,1.7923179303559773,2.0769644722884624,6.164672183961927,1.0,3.14,-0.5027114625066746,-0.002834143812333083,-3.14,3.14,3.14
352,0.4526765867505278,0.416521497130419,0.17639092121202815,6.298933658303381,1.7923179303559773,2.0769644722884624,6.164672183961927,1.0,3.14,-0.5027114625066746,-0.002834143812333083,-3.14,3.14,3.14
353,0.4526765867505278,0.416521497130419,0.17639092121202815,6.298933658303381,1.7923179303559773,2.0769644722884624,6.164672183961927,1.0,3.14,-0.5027114625066746,-0.002834143812333083,-3.14,3.14,3.14
354,0.4526765867505278,0.416521497130419,0.17639092121202815,6.298933658303381,1.7923179303559773,2.0769644722884624,6.164672183961927,1.0,3.14,-0.5027114625066746,-0.002834143812333083,-3.14,3.14,3.14
355,0.4526765867505278,0.416521497130419,0.17639092121202815,6.298933658303381,1.7923179303559773,2.0769644722884624,6.164672183961927,1.0,3.14,-0.5027114625066746,-0.002834143812333083,-3.14,3.14,3.14
356,0.4526765867505278,0.416521497130419,0.17639092121202815,6.298933658303381,1.7923179303559773,2.0769644722884624,6.164672183961927,1.0,3.14,-0.5027114625066746,-0.002834143812333083,-3.14,3.14,3.14
357,0.4526765867505278,0.416521497130419,0.17639092121202815,6.298933658303381,1.7923179303559773,2.0769644722884624,6.164672183961927,1.0,3.14,-0.5027114625066746,-0.002834143812333083,-3.14,3.14,3.14
358,0.4526765867505278,0.416521497130419,0.17639092121202815,6.298933658303381,1.7923179303559773,2.0769644722884624,6.164672183961927,1.0,3.14,-0.5027114625066746,-0.002834143812333083,-3.14,3.14,3.14
359,0.4526765867505278,0.416521497130419,0.17639092121202815,6.298933658303381,1.7923179303559773,2.0769644722884624,6.164672183961927,1.0,3.14,-0.5027114625066746,-0.002834143812333083,-3.14,3.14,3.14
360,0.4526765867505278,0.416521497130419,0.17639092121202815,6.298933658303381,1.7923179303559773,2.0769644722884624,6.164672183961927,1.0,3.14,-0.5027114625066746,-0.002834143812333083,-3.14,3.14,3.14
361,0.4526765867505278,0.416521497130419,0.17639092121202815,6.298933658303381,1.7923179303559773,2.0769644722884624,6.164672183961927,1.0,3.14,-0.5027114625066746,-0.002834143812333083,-3.14,3.14,3.14
362,0.4526765867505278,0.416521497130419,0.17639092121202815,6.298933658303381,1.7923179303559773,2.0769644722884624,6.164672183961927,1.0,3.14,-0.5027114625066746,-0.002834143812333083,-3.14,3.14,3.14
363,0.4526765867505278,0.416521497130419,0.17639092121202815,6.298933658303381,1.7923179303559773,2.0769644722884624,6.164672183961927,1.0,3.14,-0.5027114625066746,-0.002834143812333083,-3.14,3.14,3.14
364,0.4526765867505278,0.416521497130419,0.17639092121202815,6.298933658303381,1.7923179303559773,2.0769644722884624,6.164672183961927,1.0,3.14,-0.5027114625066746,-0.002834143812333083,-3.14,3.14,3.14
365,0.4526765867505278,0.416521497130419,0.17639092121202815,6.298933658303381,1.7923179303559773,2.0769644722884624,6.164672183961927,1.0,3.14,-0.5027114625066746,-0.002834143812333083,-3.14,3.14,3.14
366,0.4526765867505278,0.416521497130419,0.17639092121202815,6.298933658303381,1.7923179303559773,2.0769644722884624,6.164672183961927,1.0,3.14,-0.5027114625066746,-0.002834143812333083,-3.14,3.14,3.14
367,0.4526765867505278,0.416521497130419,0.17639092121202815,6.298933658303381,1.7923179303559773,2.0769644722884624,6.164672183961927,1.0,3.14,-0.5027114625066746,-0.002834143812333083,-3.14,3.14,3.14
368,0.4526765867505278,0.416521497130419,0.17639092121202815,6.298933658303381,1.7923179303559773,2.0769644722884624,6.164672183961927,1.0,3.14,-0.5027114625066746,-0.002834143812333083,-3.14,3.14,3.14
369,0.4526765867505278,0.416521497130419,0.17639092121202815,6.298933658303381,1.7923179303559773,2.0769644722884624,6.164672183961927,1.0,3.14,-0.5027114625066746,-0.002834143812333083,-3.14,3.14,3.14
370,0.4526765867505278,0.416521497130419,0.17639092121202815,6.298933658303381,1.7923179303559773,2.0769644722884624,6.164672183961927,1.0,3.14,-0.5027114625066746,-0.002834143812333083,-3.14,3.14,3.14
371,0.4526765867505278,0.416521497130419,0.17639092121202815,6.298933658303381,1.7923179303559773,2.0769644722884624,6.164672183961927,1.0,3.14,-0.5027114625066746,-0.002834143812333083,-3.14,3.14,3.14
372,0.4526765867505278,0.416521497130419,0.17639092121202815,6.298933658303381,1.7923179303559773,2.0769644722884624,6.164672183961927,1.0,3.14,-0.5027114625066746,-0.002834143812333083,-3.14,3.14,3.14
373,0.4526765867505278,0.416521497130419,0.17639092121202815,6.298933658303381,1.7923179303559773,2.0769644722884624,6.164672183961927,1.0,3.14,-0.5027114625066746,-0.002834143812333083,-3.14,3.14,3.14
374,0.4526765867505278,0.416521497130419,0.17639092121202815,6.298933658303381,1.7923179303559773,2.0769644722884624,6.164672183961927,1.0,3.14,-0.5027114625066746,-0.002834143812333083,-3.14,3.14,3.14
375,0.4526765867505278,0.416521497130419,0.17639092121202815,6.298933658303381,1.7923179303559773,2.0769644722884624,6.164672183961927,1.0,3.14,-0.5027114625066746,-0.002834143812333083,-3.14,3.14,3.14
376,0.4526765867505278,0.416521497130419,0.17639092121202815,6.298933658303381,1.7923179303559773,2.0769644722884624,6.164672183961927,1.0,3.14,-0.5027114625066746,-0.002834143812333083,-3.14,3.14,3.14
377,0.4526765867505278,0.416521497130419,0.17639092121202815,6.298933658303381,1.7923179303559773,2.0769644722884624,6.164672183961927,1.0,3.14,-0.5027114625066746,-0.002834143812333083,-3.14,3.14,3.14
378,0.4526765867505278,0.416521497130419,0.17639092121202815,6.298933658303381,1.7923179303559773,2.0769644722884624,6.164672183961927,1.0,3.14,-0.5027114625066746,-0.002834143812333083,-3.14,3.14,3.14
379,0.4526765867505278,0.416521497130419,0.17639092121202815,6.298933658303381,1.7923179303559773,2.0769644722884624,6.164672183961927,1.0,3.14,-0.5027114625066746,-0.002834143812333083,-3.14,3.14,3.14
380,0.4526765867505278,0.416521497130419,0.17639092121202815,6.298933658303381,1.7923179303559773,2.0769644722884624,6.164672183961927,1.0,3.14,-0.5027114625066746,-0.002834143812333083,-3.14,3.14,3.14
381,0.4526765867505278,0.416521497130419,0.17639092121202815,6.298933658303381,1.7923179303559773,2.0769644722884624,6.164672183961927,1.0,3.14,-0.5027114625066746,-0.002834143812333083,-3.14,3.14,3.14
382,0.4526765867505278,0.416521497130419,0.17639092121202815,6.298933658303381,1.7923179303559773,2.0769644722884624,6.164672183961927,1.0,3.14,-0.5027114625066746,-0.002834143812333083,-3.14,3.14,3.14
383,0.4526765867505278,0.416521497130419,0.17639092121202815,6.298933658303381,1.7923179303559773,2.0769644722884624,6.164672183961927,1.0,3.14,-0.5027114625066746,-0.002834143812333083,-3.14,3.14,3.14
384,0.4526765867505278,0.416521497130419,0.17639092121202815,6.298933658303381,1.7923179303559773,2.0769644722884624,6.164672183961927,1.0,3.14,-0.5027114625066746,-0.002834143812333083,-3.14,3.14,3.14
385,0.4526765867505278,0.416521497130419,0.17639092121202815,6.298933658303381,1.7923179303559773,2.0769644722884624,6.164672183961927,1.0,3.14,-0.5027114625066746,-0.002834143812333083,-3.14,3.14,3.14
386,0.4526765867505278,0.416521497130419,0.17639092121202815,6.298933658303381,1.7923179303559773,2.0769644722884624,6.164672183961927,1.0,3.14,-0.5027114625066746,-0.002834143812333083,-3.14,3.14,3.14
387,0.4526765867505278,0.416521497130419,0.17639092121202815,6.298933658303381,1.7923179303559773,2.0769644722884624,6.164672183961927,1.0,3.14,-0.5027114625066746,-0.002834143812333083,-3.14,3.14,3.14
388,0.4526765867505278,0.416521497130419,0.17639092121202815,6.298933658303381,1.7923179303559773,2.0769644722884624,6.164672183961927,1.0,3.14,-0.5027114625066746,-0.002834143812333083,-3.14,3.14,3.14
389,0.4526765867505278,0.416521497130419,0.17639092121202815,6.298933658303381,1.7923179303559773,2.0769644722884624,6.164672183961927,1.0,3.14,-0.5027114625066746,-0.002834143812333083,-3.14,3.14,3.14
390,0.4526765867505278,0.416521497130419,0.17639092121202815,6.298933658303381,1.7923179303559773,2.0769644722884624,6.164672183961927,1.0,3.14,-0.5027114625066746,-0.002834143812333083,-3.14,3.14,3.14
391,0.4526765867505278,0.416521497130419,0.17639092121202815,6.298933658303381,1.7923179303559773,2.0769644722884624,6.164672183961927,1.0,3.14,-0.5027114625066746,-0.002834143812333083,-3.14,3.14,3.14
392,0.4526765867505278,0.416521497130419,0.17639092121202815,6.298933658303381,1.7923179303559773,2.0769644722884624,6.164672183961927,1.0,3.14,-0.5027114625066746,-0.002834143812333083,-3.14,3.14,3.14
393,0.4526765867505278,0.416521497130419,0.17639092121202815,6.298933658303381,1.7923179303559773,2.0769644722884624,6.164672183961927,1.0,3.14,-0.5027114625066746,-0.002834143812333083,-3.14,3.14,3.14
394,0.4526765867505278,0.416521497130419,0.17639092121202815,6.298933658303381,1.7923179303559773,2.0769644722884624,6.164672183961927,1.0,3.14,-0.5027114625066746,-0.002834143812333083,-3.14,3.14,3.14
395,0.4526765867505278,0.416521497130419,0.17639092121202815,6.298933658303381,1.7923179303559773,2.0769644722884624,6.164672183961927,1.0,3.14,-0.5027114625066746,-0.002834143812333083,-3.14,3.14,3.14
396,0.4526765867505278,0.416521497130419,0.17639092121202815,6.298933658303381,1.7923179303559773,2.0769644722884624,6.164672183961927,1.0,3.14,-0.5027114625066746,-0.002834143812333083,-3.14,3.14,3.14
397,0.4526765867505278,0.416521497130419,0.17639092121202815,6.298933658303381,1.7923179303559773,2.0769644722884624,6.164672183961927,1.0,3.14,-0.5027114625066746,-0.002834143812333083,-3.14,3.14,3.14
398,0.4526765867505278,0.416521497130419,0.17639092121202815,6.298933658303381,1.7923179303559773,2.0769644722884624,6.164672183961927,1.0,3.14,-0.5027114625066746,-0.002834143812333083,-3.14,3.14,3.14
399,0.4526765867505278,0.416521497130419,0.17639092121202815,6.298933658303381,1.7923179303559773,2.0769644722884624,6.164672183961927,1.0,3.14,-0.5027114625066746,-0.002834143812333083,-3.14,3.14,3.14
400,0.4526765867505278,0.416521497130419,0.17639092121202815,6.298933658303381,1.7923179303559773,2.0769644722884624,6.164672183961927,1.0,3.14,-0.5027114625066746,-0.002834143812333083,-3.14,3.14,3.14
401,0.4526765867505278,0.416521497130419,0.17639092121202815,6.298933658303381,1.7923179303559773,2.0769644722884624,6.164672183961927,1.0,3.14,-0.5027114625066746,-0.002834143812333083,-3.14,3.14,3.14
402,0.4526765867505278,0.416521497130419,0.17639092121202815,6.298933658303381,1.7923179303559773,2.0769644722884624,6.164672183961927,1.0,3.14,-0.5027114625066746,-0.002834143812333083,-3.14,3.14,3.14
403,0.4526765867505278,0.416521497130419,0.17639092121202815,6.298933658303381,1.7923179303559773,2.0769644722884624,6.164672183961927,1.0,3.14,-0.5027114625066746,-0.002834143812333083,-3.14,3.14,3.14
404,0.4526765867505278,0.416521497130419,0.17639092121202815,6.298933658303381,1.7923179303559773,2.0769644722884624,6.164672183961927,1.0,3.14,-0.5027114625066746,-0.002834143812333083,-3.14,3.14,3.14
405,0.4526765867505278,0.416521497130419,0.17639092121202815,6.298933658303381,1.7923179303559773,2.0769644722884624,6.164672183961927,1.0,3.14,-0.5027114625066746,-0.002834143812333083,-3.14,3.14,3.14
406,0.4526765867505278,0.416521497130419,0.17639092121202815,6.298933658303381,1.7923179303559773,2.0769644722884624,6.164672183961927,1.0,3.14,-0.5027114625066746,-0.002834143812333083,-3.14,3.14,3.14
407,0.4526765867505278,0.416521497130419,0.17639092121202815,6.298933658303381,1.7923179303559773,2.0769644722884624,6.164672183961927,1.0,3.14,-0.5027114625066746,-0.002834143812333083,-3.14,3.14,3.14
408,0.4526765867505278,0.416521497130419,0.17639092121202815,6.298933658303381,1.7923179303559773,2.0769644722884624,6.164672183961927,1.0,3.14,-0.5027114625066746,-0.002834143812333083,-3.14,3.14,3.14
409,0.4526765867505278,0.416521497130419,0.17639092121202815,6.298933658303381,1.7923179303559773,2.0769644722884624,6.164672183961927,1.0,3.14,-0.5027114625066746,-0.002834143812333083,-3.14,3.14,3.14
410,0.4526765867505278,0.416521497130419,0.17639092121202815,6.298933658303381,1.7923179303559773,2.0769644722884624,6.164672183961927,1.0,3.14,-0.5027114625066746,-0.002834143812333083,-3.14,3.14,3.14
411,0.4526765867505278,0.416521497130419,0.17639092121202815,6.298933658303381,1.7923179303559773,2.0769644722884624,6.164672183961927,1.0,3.14,-0.5027114625066746,-0.002834143812333083,-3.14,3.14,3.14
412,0.4526765867505278,0.416521497130419,0.17639092121202815,6.298933658303381,1.7923179303559773,2.0769644722884624,6.164672183961927,1.0,3.14,-0.5027114625066746,-0.002834143812333083,-3.14,3.14,3.14
413,0.4526765867505278,0.416521497130419,0.17639092121202815,6.298933658303381,1.7923179303559773,2.0769644722884624,6.164672183961927,1.0,3.14,-0.5027114625066746,-0.002834143812333083,-3.14,3.14,3.14
414,0.4526765867505278,0.416521497130419,0.17639092121202815,6.298933658303381,1.7923179303559773,2.0769644722884624,6.164672183961927,1.0,3.14,-0.5027114625066746,-0.002834143812333083,-3.14,3.14,3.14
415,0.4526765867505278,0.416521497130419,0.17639092121202815,6.298933658303381,1.7923179303559773,2.0769644722884624,6.164672183961927,1.0,3.14,-0.5027114625066746,-0.002834143812333083,-3.14,3.14,3.14
416,0.4526765867505278,0.416521497130419,0.17639092121202815,6.298933658303381,1.7923179303559773,2.0769644722884624,6.164672183961927,1.0,3.14,-0.5027114625066746,-0.002834143812333083,-3.14,3.14,3.14
417,0.4526765867505278,0.416521497130419,0.17639092121202815,6.298933658303381,1.7923179303559773,2.0769644722884624,6.164672183961927,1.0,3.14,-0.5027114625066746,-0.002834143812333083,-3.14,3.14,3.14
418,0.4526765867505278,0.416521497130419,0.17639092121202815,6.298933658303381,1.7923179303559773,2.0769644722884624,6.164672183961927,1.0,3.14,-0.5027114625066746,-0.002834143812333083,-3.14,3.14,3.14
419,0.4526765867505278,0.416521497130419,0.17639092121202815,6.298933658303381,1.7923179303559773,2.0769644722884624,6.164672183961927,1.0,3.14,-0.5027114625066746,-0.002834143812333083,-3.14,3.14,3.14
420,0.4526765867505278,0.416521497130419,0.17639092121202815,6.298933658303381,1.7923179303559773,2.0769644722884624,6.164672183961927,1.0,3.14,-0.5027114625066746,-0.002834143812333083,-3.14,3.14,3.14
421,0.4526765867505278,0.416521497130419,0.17639092121202815,6.298933658303381,1.7923179303559773,2.0769644722884624,6.164672183961927,1.0,3.14,-0.5027114625066746,-0.002834143812333083,-3.14,3.14,3.14
422,0.4526765867505278,0.416521497130419,0.17639092121202815,6.298933658303381,1.7923179303559773,2.0769644722884624,6.164672183961927,1.0,3.14,-0.5027114625066746,-0.002834143812333083,-3.14,3.14,3.14
423,0.4526765867505278,0.416521497130419,0.17639092121202815,6.298933658303381,1.7923179303559773,2.0769644722884624,6.164672183961927,1.0,3.14,-0.5027114625066746,-0.002834143812333083,-3.14,3.14,3.14
424,0.4526765867505278,0.416521497130419,0.17639092121202815,6.298933658303381,1.7923179303559773,2.0769644722884624,6.164672183961927,1.0,3.14,-0.5027114625066746,-0.002834143812333083,-3.14,3.14,3.14
425,0.4526765867505278,0.416521497130419,0.17639092121202815,6.298933658303381,1.7923179303559773,2.0769644722884624,6.164672183961927,1.0,3.14,-0.5027114625066746,-0.002834143812333083,-3.14,3.14,3.14
426,0.4526765867505278,0.416521497130419,0.17639092121202815,6.298933658303381,1.7923179303559773,2.0769644722884624,6.164672183961927,1.0,3.14,-0.5027114625066746,-0.002834143812333083,-3.14,3.14,3.14
427,0.4526765867505278,0.416521497130419,0.17639092121202815,6.298933658303381,1.7923179303559773,2.0769644722884624,6.164672183961927,1.0,3.14,-0.5027114625066746,-0.002834143812333083,-3.14,3.14,3.14
428,0.4526765867505278,0.416521497130419,0.17639092121202815,6.298933658303381,1.7923179303559773,2.0769644722884624,6.164672183961927,1.0,3.14,-0.5027114625066746,-0.002834143812333083,-3.14,3.14,3.14
429,0.4526765867505278,0.416521497130419,0.17639092121202815,6.298933658303381,1.7923179303559773,2.0769644722884624,6.164672183961927,1.0,3.14,-0.5027114625066746,-0.002834143812333083,-3.14,3.14,3.14
430,0.4526765867505278,0.416521497130419,0.17639092121202815,6.298933658303381,1.7923179303559773,2.0769644722884624,6.164672183961927,1.0,3.14,-0.5027114625066746,-0.002834143812333083,-3.14,3.14,3.14
431,0.4526765867505278,0.416521497130419,0.17639092121202815,6.298933658303381,1.7923179303559773,2.0769644722884624,6.164672183961927,1.0,3.14,-0.5027114625066746,-0.002834143812333083,-3.14,3.14,3.14
432,0.4526765867505278,0.416521497130419,0.17639092121202815,6.298933658303381,1.7923179303559773,2.0769644722884624,6.164672183961927,1.0,3.14,-0.5027114625066746,-0.002834143812333083,-3.14,3.14,3.14
433,0.4526765867505278,0.416521497130419,0.17639092121202815,6.298933658303381,1.7923179303559773,2.0769644722884624,6.164672183961927,1.0,3.14,-0.5027114625066746,-0.002834143812333083,-3.14,3.14,3.14
434,0.4526765867505278,0.416521497130419,0.17639092121202815,6.298933658303381,1.7923179303559773,2.0769644722884624,6.164672183961927,1.0,3.14,-0.5027114625066746,-0.002834143812333083,-3.14,3.14,3.14
435,0.4526765867505278,0.416521497130419,0.17639092121202815,6.298933658303381,1.7923179303559773,2.0769644722884624,6.164672183961927,1.0,3.14,-0.5027114625066746,-0.002834143812333083,-3.14,3.14,3.14
436,0.4526765867505278,0.416521497130419,0.17639092121202815,6.298933658303381,1.7923179303559773,2.0769644722884624,6.164672183961927,1.0,3.14,-0.5027114625066746,-0.002834143812333083,-3.14,3.14,3.14
437,0.4526765867505278,0.416521497130419,0.17639092121202815,6.298933658303381,1.7923179303559773,2.0769644722884624,6.164672183961927,1.0,3.14,-0.5027114625066746,-0.002834143812333083,-3.14,3.14,3.14
438,0.4526765867505278,0.416521497130419,0.17639092121202815,6.298933658303381,1.7923179303559773,2.0769644722884624,6.164672183961927,1.0,3.14,-0.5027114625066746,-0.002834143812333083,-3.14,3.14,3.14
439,0.4526765867505278,0.416521497130419,0.17639092121202815,6.298933658303381,1.7923179303559773,2.0769644722884624,6.164672183961927,1.0,3.14,-0.5027114625066746,-0.002834143812333083,-3.14,3.14,3.14
440,0.4526765867505278,0.416521497130419,0.17639092121202815,6.298933658303381,1.7923179303559773,2.0769644722884624,6.164672183961927,1.0,3.14,-0.5027114625066746,-0.002834143812333083,-3.14,3.14,3.14
441,0.4526765867505278,0.416521497130419,0.17639092121202815,6.298933658303381,1.7923179303559773,2.0769644722884624,6.164672183961927,1.0,3.14,-0.5027114625066746,-0.002834143812333083,-3.14,3.14,3.14
442,0.4526765867505278,0.416521497130419,0.17639092121202815,6.298933658303381,1.7923179303559773,2.0769644722884624,6.164672183961927,1.0,3.14,-0.5027114625066746,-0.002834143812333083,-3.14,3.14,3.14
443,0.4526765867505278,0.416521497130419,0.17639092121202815,6.298933658303381,1.7923179303559773,2.0769644722884624,6.164672183961927,1.0,3.14,-0.5027114625066746,-0.002834143812333083,-3.14,3.14,3.14
444,0.4526765867505278,0.416521497130419,0.17639092121202815,6.298933658303381,1.7923179303559773,2.0769644722884624,6.164672183961927,1.0,3.14,-0.5027114625066746,-0.002834143812333083,-3.14,3.14,3.14
445,0.4526765867505278,0.416521497130419,0.17639092121202815,6.298933658303381,1.7923179303559773,2.0769644722884624,6.164672183961927,1.0,3.14,-0.5027114625066746,-0.002834143812333083,-3.14,3.14,3.14
446,0.4526765867505278,0.416521497130419,0.17639092121202815,6.298933658303381,1.7923179303559773,2.0769644722884624,6.164672183961927,1.0,3.14,-0.5027114625066746,-0.002834143812333083,-3.14,3.14,3.14
447,0.4526765867505278,0.416521497130419,0.17639092121202815,6.298933658303381,1.7923179303559773,2.0769644722884624,6.164672183961927,1.0,3.14,-0.5027114625066746,-0.002834143812333083,-3.14,3.14,3.14
448,0.4526765867505278,0.416521497130419,0.17639092121202815,6.298933658303381,1.7923179303559773,2.0769644722884624,6.164672183961927,1.0,3.14,-0.5027114625066746,-0.002834143812333083,-3.14,3.14,3.14
449,0.4526765867505278,0.416521497130419,0.17639092121202815,6.298933658303381,1.7923179303559773,2.0769644722884624,6.164672183961927,1.0,3.14,-0.5027114625066746,-0.002834143812333083,-3.14,3.14,3.14
450,0.4526765867505278,0.416521497130419,0.17639092121202815,6.298933658303381,1.7923179303559773,2.0769644722884624,6.164672183961927,1.0,3.14,-0.5027114625066746,-0.002834143812333083,-3.14,3.14,3.14
451,0.4526765867505278,0.416521497130419,0.17639092121202815,6.298933658303381,1.7923179303559773,2.0769644722884624,6.164672183961927,1.0,3.14,-0.5027114625066746,-0.002834143812333083,-3.14,3.14,3.14
452,0.4526765867505278,0.416521497130419,0.17639092121202815,6.298933658303381,1.7923179303559773,2.0769644722884624,6.164672183961927,1.0,3.14,-0.5027114625066746,-0.002834143812333083,-3.14,3.14,3.14
453,0.4526765867505278,0.416521497130419,0.17639092121202815,6.298933658303381,1.7923179303559773,2.0769644722884624,6.164672183961927,1.0,3.14,-0.5027114625066746,-0.002834143812333083,-3.14,3.14,3.14
454,0.4526765867505278,0.416521497130419,0.17639092121202815,6.298933658303381,1.7923179303559773,2.0769644722884624,6.164672183961927,1.0,3.14,-0.5027114625066746,-0.002834143812333083,-3.14,3.14,3.14
455,0.4526765867505278,0.416521497130419,0.17639092121202815,6.298933658303381,1.7923179303559773,2.0769644722884624,6.164672183961927,1.0,3.14,-0.5027114625066746,-0.002834143812333083,-3.14,3.14,3.14
456,0.4526765867505278,0.416521497130419,0.17639092121202815,6.298933658303381,1.7923179303559773,2.0769644722884624,6.164672183961927,1.0,3.14,-0.5027114625066746,-0.002834143812333083,-3.14,3.14,3.14
457,0.4526765867505278,0.416521497130419,0.17639092121202815,6.298933658303381,1.7923179303559773,2.0769644722884624,6.164672183961927,1.0,3.14,-0.5027114625066746,-0.002834143812333083,-3.14,3.14,3.14
458,0.4526765867505278,0.416521497130419,0.17639092121202815,6.298933658303381,1.7923179303559773,2.0769644722884624,6.164672183961927,1.0,3.14,-0.5027114625066746,-0.002834143812333083,-3.14,3.14,3.14
459,0.4526765867505278,0.416521497130419,0.17639092121202815,6.298933658303381,1.7923179303559773,2.0769644722884624,6.164672183961927,1.0,3.14,-0.5027114625066746,-0.002834143812333083,-3.14,3.14,3.14
460,0.4526765867505278,0.416521497130419,0.17639092121202815,6.298933658303381,1.7923179303559773,2.0769644722884624,6.164672183961927,1.0,3.14,-0.5027114625066746,-0.002834143812333083,-3.14,3.14,3.14
461,0.4526765867505278,0.416521497130419,0.17639092121202815,6.298933658303381,1.7923179303559773,2.0769644722884624,6.164672183961927,1.0,3.14,-0.5027114625066746,-0.002834143812333083,-3.14,3.14,3.14
462,0.4526765867505278,0.416521497130419,0.17639092121202815,6.298933658303381,1.7923179303559773,2.0769644722884624,6.164672183961927,1.0,3.14,-0.5027114625066746,-0.002834143812333083,-3.14,3.14,3.14
463,0.4526765867505278,0.416521497130419,0.17639092121202815,6.298933658303381,1.7923179303559773,2.0769644722884624,6.164672183961927,1.0,3.14,-0.5027114625066746,-0.002834143812333083,-3.14,3.14,3.14
464,0.4526765867505278,0.416521497130419,0.17639092121202815,6.298933658303381,1.7923179303559773,2.0769644722884624,6.164672183961927,1.0,3.14,-0.5027114625066746,-0.002834143812333083,-3.14,3.14,3.14
465,0.4526765867505278,0.416521497130419,0.17639092121202815,6.298933658303381,1.7923179303559773,2.0769644722884624,6.164672183961927,1.0,3.14,-0.5027114625066746,-0.002834143812333083,-3.14,3.14,3.14
466,0.4526765867505278,0.416521497130419,0.17639092121202815,6.298933658303381,1.7923179303559773,2.0769644722884624,6.164672183961927,1.0,3.14,-0.5027114625066746,-0.002834143812333083,-3.14,3.14,3.14
467,0.4526765867505278,0.416521497130419,0.17639092121202815,6.298933658303381,1.7923179303559773,2.0769644722884624,6.164672183961927,1.0,3.14,-0.5027114625066746,-0.002834143812333083,-3.14,3.14,3.14
468,0.4526765867505278,0.416521497130419,0.17639092121202815,6.298933658303381,1.7923179303559773,2.0769644722884624,6.164672183961927,1.0,3.14,-0.5027114625066746,-0.002834143812333083,-3.14,3.14,3.14
469,0.4526765867505278,0.416521497130419,0.17639092121202815,6.298933658303381,1.7923179303559773,2.0769644722884624,6.164672183961927,1.0,3.14,-0.5027114625066746,-0.002834143812333083,-3.14,3.14,3.14
470,0.4526765867505278,0.416521497130419,0.17639092121202815,6.298933658303381,1.7923179303559773,2.0769644722884624,6.164672183961927,1.0,3.14,-0.5027114625066746,-0.002834143812333083,-3.14,3.14,3.14
471,0.4526765867505278,0.416521497130419,0.17639092121202815,6.298933658303381,1.7923179303559773,2.0769644722884624,6.164672183961927,1.0,3.14,-0.5027114625066746,-0.002834143812333083,-3.14,3.14,3.14
472,0.4526765867505278,0.416521497130419,0.17639092121202815,6.298933658303381,1.7923179303559773,2.0769644722884624,6.164672183961927,1.0,3.14,-0.5027114625066746,-0.002834143812333083,-3.14,3.14,3.14
473,0.4526765867505278,0.416521497130419,0.17639092121202815,6.298933658303381,1.7923179303559773,2.0769644722884624,6.164672183961927,1.0,3.14,-0.5027114625066746,-0.002834143812333083,-3.14,3.14,3.14
474,0.4526765867505278,0.416521497130419,0.17639092121202815,6.298933658303381,1.7923179303559773,2.0769644722884624,6.164672183961927,1.0,3.14,-0.5027114625066746,-0.002834143812333083,-3.14,3.14,3.14
475,0.4526765867505278,0.416521497130419,0.17639092121202815,6.298933658303381,1.7923179303559773,2.0769644722884624,6.164672183961927,1.0,3.14,-0.5027114625066746,-0.002834143812333083,-3.14,3.14,3.14
476,0.4526765867505278,0.416521497130419,0.17639092121202815,6.298933658303381,1.7923179303559773,2.0769644722884624,6.164672183961927,1.0,3.14,-0.5027114625066746,-0.002834143812333083,-3.14,3.14,3.14
477,0.4526765867505278,0.416521497130419,0.17639092121202815,6.298933658303381,1.7923179303559773,2.0769644722884624,6.164672183961927,1.0,3.14,-0.5027114625066746,-0.002834143812333083,-3.14,3.14,3.14
478,0.4526765867505278,0.416521497130419,0.17639092121202815,6.298933658303381,1.7923179303559773,2.0769644722884624,6.164672183961927,1.0,3.14,-0.5027114625066746,-0.002834143812333083,-3.14,3.14,3.14
479,0.4526765867505278,0.416521497130419,0.17639092121202815,6.298933658303381,1.7923179303559773,2.0769644722884624,6.164672183961927,1.0,3.14,-0.5027114625066746,-0.002834143812333083,-3.14,3.14,3.14
480,0.4526765867505278,0.416521497130419,0.17639092121202815,6.298933658303381,1.7923179303559773,2.0769644722884624,6.164672183961927,1.0,3.14,-0.5027114625066746,-0.002834143812333083,-3.14,3.14,3.14
481,0.4526765867505278,0.416521497130419,0.17639092121202815,6.298933658303381,1.7923179303559773,2.0769644722884624,6.164672183961927,1.0,3.14,-0.5027114625066746,-0.002834143812333083,-3.14,3.14,3.14
482,0.4526765867505278,0.416521497130419,0.17639092121202815,6.298933658303381,1.7923179303559773,2.0769644722884624,6.164672183961927,1.0,3.14,-0.5027114625066746,-0.002834143812333083,-3.14,3.14,3.14
483,0.4526765867505278,0.416521497130419,0.17639092121202815,6.298933658303381,1.7923179303559773,2.0769644722884624,6.164672183961927,1.0,3.14,-0.5027114625066746,-0.002834143812333083,-3.14,3.14,3.14
484,0.4526765867505278,0.416521497130419,0.17639092121202815,6.298933658303381,1.7923179303559773,2.0769644722884624,6.164672183961927,1.0,3.14,-0.5027114625066746,-0.002834143812333083,-3.14,3.14,3.14
485,0.4526765867505278,0.416521497130419,0.17639092121202815,6.298933658303381,1.7923179303559773,2.0769644722884624,6.164672183961927,1.0,3.14,-0.5027114625066746,-0.002834143812333083,-3.14,3.14,3.14
486,0.4526765867505278,0.416521497130419,0.17639092121202815,6.298933658303381,1.7923179303559773,2.0769644722884624,6.164672183961927,1.0,3.14,-0.5027114625066746,-0.002834143812333083,-3.14,3.14,3.14
487,0.4526765867505278,0.416521497130419,0.17639092121202815,6.298933658303381,1.7923179303559773,2.0769644722884624,6.164672183961927,1.0,3.14,-0.5027114625066746,-0.002834143812333083,-3.14,3.14,3.14
488,0.4526765867505278,0.416521497130419,0.17639092121202815,6.298933658303381,1.7923179303559773,2.0769644722884624,6.164672183961927,1.0,3.14,-0.5027114625066746,-0.002834143812333083,-3.14,3.14,3.14
489,0.4526765867505278,0.416521497130419,0.17639092121202815,6.298933658303381,1.7923179303559773,2.0769644722884624,6.164672183961927,1.0,3.14,-0.5027114625066746,-0.002834143812333083,-3.14,3.14,3.14
490,0.4526765867505278,0.416521497130419,0.17639092121202815,6.298933658303381,1.7923179303559773,2.0769644722884624,6.164672183961927,1.0,3.14,-0.5027114625066746,-0.002834143812333083,-3.14,3.14,3.14
491,0.4526765867505278,0.416521497130419,0.17639092121202815,6.298933658303381,1.7923179303559773,2.0769644722884624,6.164672183961927,1.0,3.14,-0.5027114625066746,-0.002834143812333083,-3.14,3.14,3.14
