jkpark150901/flame_robotics_drt/experiment/inspection_ik/session_20260722_142108/fallback/inspection_ik_20260722_142142_rb20_1900es_normalized_fallback.csv
iteration,err_norm,position_error,orientation_error,tcp_x,tcp_y,tcp_z,q0_rt_joint_linear_track,q1_rt_joint_carriage,q2_rt_base,q3_rt_shoulder,q4_rt_elbow,q5_rt_wrist1,q6_rt_wrist2,q7_rt_wrist3
0,7.119409522017559,4.594096254446721,2.9730211677403293,0.267,-3.2807478955731993e-13,2.541,0.0,0.0,0.0,0.0,0.0,0.0,0.0,0.0
1,6.492759718532717,3.9913913385539086,2.973203586306207,0.45040934236941177,1.1635538403632697,2.164825938942983,0.12963377059163791,0.07472359949279503,-0.056840186930549326,0.6598774250610837,0.007858275680870285,-0.10620208863504005,-0.6441608736993432,-0.10620208863504005
2,4.482860352528506,2.919827218853005,3.015220785363639,2.3919161616113898,-0.06901362866111799,1.6907002593223255,1.1907194927217093,1.0,0.7882400870998704,-0.8199432418856858,-0.2790422022563025,1.3559099582341647,1.216323416160668,-2.25029123265375
3,3.481549756567176,2.261059486977754,2.44689396034443,2.715722207442058,0.5332374744400815,2.366252842197175,2.0251604542853716,0.9168953206897204,0.8913949612638274,-0.09444110070165845,-0.47471838046124515,1.5580753806256078,0.4559196024052915,-3.14
4,4.342487203134412,2.148606094861477,2.9534322039187266,2.780921174583572,0.6383959727099944,2.4044421435134,3.2356667149298097,0.45713922886351194,1.3993892453505778,0.42470867130909995,-0.0610154578358853,3.14,0.3900122253413467,-3.14
5,3.701316714480326,3.5786378179384757,0.6796801724447229,5.164381661053204,-0.598718109715849,-0.1677418967881597,6.176640922198067,0.44612770718046657,2.2547538498108586,2.0016249420559005,0.002556947374989474,1.044448368814535,1.4044484167274351,-1.7863961526405558
6,2.2903818224196684,2.25214929104021,0.3492192570618805,5.0891852333548195,0.7720153347780208,0.3838834780369776,6.571447326180534,0.5757354653684557,1.4541453340250232,1.6463304902467044,0.040669975815113314,0.620196423773804,2.0264458047115026,-1.724239721727006
7,1.5510590194633629,1.5315247960847511,0.22464586525908112,4.845191776046545,1.2304235786520235,0.8871651478948196,6.190952726544794,0.6086415094832286,1.1995101702646296,1.377538904761085,-0.005048796172448709,0.5311008369540237,2.3155920216045427,-1.760483640568265
8,1.063201799172002,1.0514826535236026,0.1509968476111356,4.672862715915371,1.4917865344622376,1.2514204351673865,5.771162477399473,0.6454723827579653,1.0130926097622601,1.1757509649300923,-0.040619894022101616,0.5091111744398836,2.536615455943289,-1.8353233706444245
9,0.733225370468152,0.7255346272293448,0.10393431787389067,4.5541581032903755,1.6576397022090528,1.5071614926856396,5.3790468387865635,0.6916485462231325,0.8440825991241414,1.0231237718665505,-0.06923447898304942,0.5081746118203124,2.717858583647046,-1.930973118264307
10,0.5075157391116913,0.5021773660653793,0.07281200909489444,4.472227354284481,1.770543497487715,1.6840033074296448,5.035977240923765,0.7527813139853594,0.6831531344805868,0.9121837805124503,-0.10125122212869761,0.5093256453828126,2.8717110036913125,-2.04302379260267
11,0.3505618069495446,0.3467678583946155,0.051256329940018885,4.416350997904891,1.854009842195946,1.804864364123851,4.759742382453929,0.8351943939480916,0.5403279338624863,0.8368907356050547,-0.14279039393477738,0.5087224068787242,3.0008263627586036,-2.1556722873096335
12,0.23889362019613958,0.23618464566758168,0.035822343845878304,4.380702524238985,1.9204111385496228,1.8869715274984882,4.568078336758889,0.9341239878695982,0.4347009013603935,0.7814549860767288,-0.1755208595960126,0.5178376471229639,3.095201597809867,-2.236143037784292
13,0.17833473531776012,0.17743423048113227,0.017891484239849872,4.359244976047484,1.9455593860045732,1.9420960660343556,4.452267321568023,1.0,0.36813455725388355,0.7315451728529152,-0.17893202941507724,0.5385028500183838,3.14,-2.2756825837697128
14,0.18824889428505479,0.18573413264706173,0.03062481625686843,4.345003200941973,1.9122301771515078,1.9778994965183276,4.381333369106878,1.0,0.3245378535717165,0.6900125033928752,-0.16798418130784315,0.558643726564156,3.14,-2.2963109683759
15,0.20915733766747308,0.20212724671887783,0.053702312382069045,4.33719490374919,1.8860724242656988,2.002484380034656,4.335134453489791,1.0,0.29352016345791937,0.6584659139734673,-0.15576105588894804,0.5730438606823496,3.14,-2.311230370628194
16,0.22879885194312866,0.21811490958763244,0.06901207887197355,4.332936085038811,1.8662663461475497,2.0193739809127957,4.305771710293692,1.0,0.27272399233163225,0.6349908416348966,-0.14443028102943628,0.5826826218687563,3.14,-2.3214025924001955
17,0.2442836887495129,0.23118019251607058,0.07882951130692031,4.330590449973731,1.8516761876447327,2.030982757409493,4.287287241134438,1.0,0.2592654609090031,0.6178552110498365,-0.13498831846619863,0.5888612928072225,3.14,-2.328119758166349
18,0.25572071714794903,0.24110266217030304,0.08510720537025321,4.3292724257440485,1.8411398393910188,2.038963748195864,4.275654168508582,1.0,0.250721473935187,0.6055421430255881,-0.12761158244241042,0.5927041015497233,3.14,-2.332501911460821
19,0.2639152014080711,0.24836281627552184,0.08913663133431374,4.328512997336309,1.8336371074520146,2.044450618186709,4.2683032702960935,1.0,0.2453509845171851,0.5967998634580186,-0.12207630759757634,0.5950303042767681,3.14,-2.335366694236667
20,0.2696915335697415,0.25356319929985305,0.09173662659797263,4.328063771043015,1.8283468898055437,2.0482222437833295,4.263633793913963,1.0,0.24199314282251233,0.5906473819693407,-0.11802910981336641,0.5963907877338283,3.14,-2.3372645723143743
21,0.2737244998855577,0.25724003273355966,0.09342237081837483,4.32779132086302,1.8246421987392647,2.0508143076484187,4.260653699260214,1.0,0.23990180014488893,0.5863449100508783,-0.11511968556341287,0.5971416296478921,3.14,-2.3385516921840743
22,0.27652352856969165,0.25981828957613273,0.09451909854024355,4.327622371098777,1.8220600212893503,2.052595359337479,4.258746047864123,1.0,0.23860566397769523,0.5833496183978298,-0.11305138509265512,0.5975086390723465,3.14,-2.339454091305088
23,0.2784586826171632,0.2616166752270133,0.09523361761237689,4.3275156273954964,1.8202658725581249,2.053818941543229,4.257524444349311,1.0,0.2378092548464717,0.5812707791189927,-0.11159166236733717,0.5976338196064962,3.14,-2.3401140203993185
24,0.27979316552501843,0.2628669761850845,0.09569849868051526,4.327447189441306,1.8190216650562063,2.054659432894029,4.2567449068058965,1.0,0.23732770068975373,0.5798308974423745,-0.11056603466198646,0.597606241287722,3.14,-2.340620763770663
25,0.280711834377731,0.2637346626383395,0.0959993844873437,4.327402861918008,1.8181596324239835,2.055236728419621,4.256252131250213,1.0,0.23704523033301134,0.5788347366669648,-0.10984705343458664,0.5974818067920897,3.14,-2.3410303931356466
26,0.28134349860970614,0.2643364701508945,0.09619198891261496,4.3273740074242495,1.817562385315028,2.0556332381534053,4.25594651223191,1.0,0.23688916162547582,0.5781458346590614,-0.10934322176401025,0.5972956879203962,3.14,-2.341378207127789
27,0.28177745483119554,0.26475410965943474,0.0963127788539342,4.327355252892137,1.8171481877290856,2.0559055917339157,4.255763723527207,1.0,0.2368137057575419,0.5776692519768957,-0.10898960739451212,0.597070091071386,3.14,-2.341686504526199
28,0.282075398085537,0.26504447182519736,0.09638575137919164,4.327343188577954,1.8168603278748119,2.056092694271209,4.255661959478964,1.0,0.2367899005271399,0.5773391557655834,-0.10874049545067827,0.5968190947271531,3.14,-2.341969429853793
29,0.28227985657498733,0.26524701969868475,0.09642677187912832,4.327335611822296,1.8166595567006092,2.05622126849667,4.255613893370413,1.0,0.23679934734692532,0.5771100055448525,-0.10856388199379532,0.5965516647100797,3.14,-2.3422359955693195
30,0.28242010096489606,0.26538905539129104,0.09644637292094392,4.327331077211915,1.8165187616027612,2.0563096660965727,4.255601568143064,1.0,0.23683030533634272,0.5769503538561789,-0.10843745384160715,0.5962735378919449,3.14,-2.3424919712069063
31,0.28251625590730584,0.26548943157749944,0.09645157241443264,4.327328623172362,1.8164192399716583,2.056370487911154,4.255613126379163,1.0,0.23687524743046315,0.5768385138386914,-0.10834570218717643,0.5959884028525935,3.14,-2.342741068092069
32,0.2825821477243631,0.2655611480721029,0.09644706177282848,4.327327602430708,1.8163481044087464,2.056412384763132,4.255640703408301,1.0,0.23692932545617768,0.5767595450263856,-0.10827787325555495,0.595698642772011,3.14,-2.342985685181958
33,0.28262727073946237,0.26561315933874513,0.09643598642251285,4.32732757491738,1.816296482067903,2.0564412948514383,4.255679061456809,1.0,0.23698940212194397,0.5767031629402514,-0.10822652444622112,0.5954058048824563,3.14,-2.343227380622331
34,0.28265814223288066,0.2656516283035415,0.09642046088357255,4.327328238944481,1.816258268169175,2.0564612938179123,4.2557246991544,1.0,0.2370534378818824,0.5766622926976126,-0.1081865126615507,0.5951108984817485,3.14,-2.3434671712462243
35,0.28267923479561813,0.26568079389614724,0.09640191007875966,4.327329386285346,1.8162292647172495,2.0564751786174575,4.255775267890082,1.0,0.2371201008296112,0.57663206994448,-0.10815428833164437,0.5948145850122303,3.14,-2.343705723692864
36,0.28269361726470565,0.2657035702117544,0.09638129632822572,4.327330872439998,1.816206586213825,2.0564848684809327,4.255829187401887,1.0,0.2371885173523658,0.5766091516680706,-0.10812740428277795,0.5945172998847367,3.14,-2.343943476955676
37,0.28270339502884134,0.2657219597467727,0.09635927082035649,4.327332596706628,1.8161882500400948,2.0564916802250592,4.2558853914330435,1.0,0.23725811201278735,0.5765912412577554,-0.10810417489229183,0.594219330939494,3.14,-2.344180721345257
38,0.28271001236360743,0.2657373381022198,0.09633627499281697,4.327334488680325,1.816172894365939,2.056496517257617,4.255943158733495,1.0,0.2373285042473839,0.5765767614768904,-0.10808344000061468,0.5939208692263538,3.14,-2.344417649616711
39,0.28271445996002054,0.26575064997198183,0.09631260857577999,4.327336499021936,1.8161595840165647,2.0564999993144966,4.256002000329858,1.0,0.23739944141025904,0.5765646294311327,-0.10806440164426938,0.5936220420291628,3.14,-2.3446543902334533
40,0.2827174173419667,0.2657625439719573,0.09628847537549069,4.327338593098184,1.8161476769463156,2.0565025515021196,4.256061584058827,1.0,0.23747075517503569,0.5765541018074872,-0.10804651129901856,0.593322934444694,3.14,-2.3448910291109994
41,0.28271935058399006,0.2657734653462007,0.09626401415134803,4.327340746572771,1.816136732441463,2.0565044654023925,4.256121683880473,1.0,0.23754233301871558,0.5765446684906144,-0.10802939209519645,0.5930236035477182,3.14,-2.3451276238953924
42,0.28272057935060735,0.26578371968250636,0.09623931948364495,4.327342942334936,1.8161264480358235,2.0565059410009954,4.256182145733255,1.0,0.23761409948896045,0.5765359794634559,-0.10801278521087243,0.5927240877304693,3.14,-2.3453642133805186
43,0.2827213228843987,0.26579351668751844,0.09621445590368598,4.327345168351684,1.8161166161726665,2.056507115454264,4.256242864470351,1.0,0.23768600384684718,0.5765277945960291,-0.10799651295901734,0.5924244128863023,3.14,-2.3456008237451815
44,0.28272173155110125,0.26580300025295617,0.09618946747828953,4.327347416161694,1.8161070944404603,2.056508082824245,4.256303768243383,1.0,0.23775801188288043,0.5765199491663353,-0.10798045338874389,0.5921245965200932,3.14,-2.3458374727001203
45,0.2827219084765717,0.26581226910090167,0.09616438432116912,4.327349679817076,1.8160977851359608,2.056508907616488,4.256364807905927,1.0,0.2378301004765782,0.5765123301904916,-0.10796452282043079,0.5918246504905899,3.14,-2.3460741722554515
46,0.2827219243871507,0.2658213909570681,0.09613922702277271,4.3273519551388695,1.8160886212346063,2.0565096340659594,4.25642594980951,1.0,0.2379022539672337,0.5765048601771545,-0.10794866384325216,0.5915245828462855,3.14,-2.3463109305737206
47,0.28272182778811744,0.26583041227919746,0.09611400966786442,4.327354239192828,1.8160795567611059,2.0565102925060965,4.256487170897732,1.0,0.2379744617250344,0.5764974859797682,-0.10793283707077364,0.5912243990583009,3.14,-2.346547753214541
48,0.2827216519445772,0.2658393649335065,0.09608874189334925,4.327356529920217,1.8160705601811664,2.0565109037369895,4.256548455360469,1.0,0.23804671652068085,0.5764901711483007,-0.10791701548041753,0.5909241028506885,3.14,-2.3467846439729403
49,0.28272141966924486,0.26584827077604045,0.09606343029303092,4.327358825877772,1.8160616098670785,2.056511482021135,4.2566097923491295,1.0,0.23811901342801775,0.5764828906827039,-0.10790118052847347,0.5906236967610545,3.14,-2.3470216054454824
50,0.2827211466060814,0.26585714479603356,0.09603807937744636,4.3273611260546065,1.816052690986666,2.0565120371378773,4.256671174414731,1.0,0.23819134908360057,0.5764756274343712,-0.10788531948460138,0.5903231825199671,3.14,-2.347258639413436
51,0.28272084348234,0.26586599727244986,0.09601269223015325,4.327363429743352,1.8160437933689844,2.056512575792293,4.256732596439093,1.0,0.23826372118598774,0.5764683696382059,-0.10786942360355371,0.5900225613082557,3.14,-2.3474957471026423
52,0.2827205176530938,0.26587483525337663,0.09598727095681109,4.327365736449528,1.816034910040229,2.056513102581311,4.256794054902872,1.0,0.23833612815647448,0.5764611092202461,-0.10785348687146562,0.5897218339318178,3.14,-2.347732929360079
53,0.28272017416054573,0.2658836635708465,0.09596181699267745,4.32736804582786,1.8160260362194445,2.056513620656231,4.256855547383924,1.0,0.2384085689088031,0.576453840637201,-0.10783750514631972,0.5894210009405746,3.14,-2.3479701867740133
54,0.282719816460546,0.2658924855369278,0.09593633131322914,4.327370357637527,1.8160171686296773,2.0565141321770333,4.256917072213314,1.0,0.23848104269260464,0.576446560080779,-0.10782147556876402,0.5891200627095324,3.14,-2.348207519755885
55,0.28271944692088125,0.26590130342118523,0.09591081457853892,4.327372671710802,1.8160083050255005,2.0565146386239013,4.2569786282393185,1.0,0.23855354898681566,0.576439264932159,-0.10780539615830637,0.5888190194940904,3.14,-2.3484449285961717
56,0.2827190671630386,0.26591011877815984,0.09588526723222732,4.327374987931043,1.8159994438689608,2.0565151410108538,4.257040214665442,1.0,0.2386260874270297,0.5764319533879774,-0.10778926553659364,0.5885178714678169,3.14,-2.348682413502549
57,0.2827186782965996,0.2659189326719738,0.09585968956937252,4.3273773062172864,1.8159905841073327,2.056515640032227,4.2571018309392015,1.0,0.23869865775592758,0.5764246242039162,-0.10777308273779787,0.5882166187482744,3.14,-2.3489199746259737
58,0.282718281080021,0.2659277458303871,0.09583408178307952,4.327379626513459,1.8159817250206833,2.056516136163129,4.2571634766757445,1.0,0.238771259789424,0.5764172765189165,-0.10775684707870316,0.5879152614146894,3.14,-2.3491576120785345
59,0.2827178760309082,0.2659365587504512,0.09580844399643466,4.327381948780858,1.8159728661173338,2.0565166297283266,4.25722515160538,1.0,0.23884389339352605,0.5764099097346667,-0.10774055806969733,0.5876137995200504,3.14,-2.349395325945669
60,0.282717463501653,0.2659453717709756,0.09578277628444626,4.32738427299286,1.8159640070621603,2.0565171209494792,4.257286855537524,1.0,0.23891655846850748,0.5764025234329863,-0.10772421535379477,0.5873122330993948,3.14,-2.3496331162945348
61,0.2827170437313164,0.26595418512222785,0.09575707868911329,4.3273865991312706,1.815955147627421,2.0565176099775324,4.257348588335933,1.0,0.23898925493807585,0.576395117319188,-0.10770781866486338,0.5870105621754897,3.14,-2.3498709831797457
62,0.28271661688121824,0.2659629989600232,0.09573135122976051,4.3273889271837485,1.8159462876590289,2.056518096914937,4.257410349901672,1.0,0.23906198274195434,0.5763876911832471,-0.10769136779900536,0.5867087867627272,3.14,-2.3501089266473065
63,0.28271618305935076,0.2659718133891042,0.09570559391014413,4.327391257142026,1.8159374270534219,2.0565185818308795,4.257472140161414,1.0,0.2391347418308024,0.5763802448731833,-0.10767486259495522,0.586406906869795,3.14,-2.350346946737308
64,0.2827157423371206,0.2659806284791743,0.09567980672333042,4.327393589000657,1.8159285657417004,2.056519064771732,4.257533959059397,1.0,0.23920753216273175,0.5763727782768098,-0.10765830292064832,0.5861049225015109,3.14,-2.3505850434857813
65,0.2827152947608406,0.26598944427589966,0.09565398965502911,4.327395922756162,1.8159197036787433,2.0565195457682206,4.257595806551896,1.0,0.23928035370091988,0.5763652913092221,-0.107641688664022,0.5858028336600801,3.14,-2.3508232169259653
66,0.2827148403596074,0.2659982608084507,0.09562814268592303,4.327398258406425,1.8159108408357474,2.0565200248403315,4.257657682603422,1.0,0.23935320641197383,0.5763577839042195,-0.10762501972671275,0.585500640345959,3.14,-2.3510614670891785
67,0.2827143791507113,0.26600707809467916,0.09560226579322899,4.327400595950264,1.815901977195106,2.056520502000694,4.2577195871841065,1.0,0.23942609026480485,0.5763502560084214,-0.10760829601973614,0.5851983425584488,3.14,-2.3512997940054197
68,0.2827139111433414,0.2660158961446645,0.09557635895179131,4.327402935387159,1.8158931127469007,2.0565209772568784,4.257781520267909,1.0,0.23949900522986123,0.5763427075772388,-0.10759151746053272,0.5848959402961026,3.14,-2.3515381977037757
69,0.2827134363411344,0.2660247149631528,0.0955504221348233,4.32740527671704,1.815884247486489,2.056521450612995,4.257843481831382,1.0,0.23957195127859607,0.5763351385721042,-0.10757468397093728,0.5845934335570054,3.14,-2.351776678212707
70,0.2827129547439154,0.26603353455122275,0.09552445531443109,4.327407619940144,1.815875381412856,2.056521922070773,4.257905471852816,1.0,0.23964492838310697,0.576327548958579,-0.1075577954757922,0.5842908223389662,3.14,-2.352015235560238
71,0.2827124663489012,0.2660423549074336,0.09549845846195436,4.327409965056923,1.8158665145274797,2.056522391630309,4.257967490311666,1.0,0.23971793651588647,0.5763199387050534,-0.10754085190199762,0.5839881066396502,3.14,-2.3522538697740925
72,0.2827119711515181,0.2660511760286111,0.09547243154820746,4.327412312067981,1.8158576468335523,2.0565228592905798,4.258029537188141,1.0,0.23979097564964916,0.5763123077818528,-0.1075238531778567,0.5836852864566701,3.14,-2.3524925808817834
73,0.28271146914596645,0.2660599979103848,0.09544637454366268,4.327414660974023,1.8158487783354498,2.0565233250497927,4.258091612462934,1.0,0.23986404575721637,0.5763046561606289,-0.10750679923263154,0.5833823617876482,3.14,-2.3527313689106766
74,0.28271096032560894,0.2660688205475598,0.09542028741853824,4.327417011775819,1.815839909038364,2.056523788905625,4.25815371611703,1.0,0.23993714681143463,0.5762969838139396,-0.10748968999623659,0.5830793326302597,3.14,-2.352970233888033
75,0.2827104446832363,0.26607764393437033,0.09539417014290971,4.32741936447419,1.8158310389480512,2.056524250855393,4.2582158481315755,1.0,0.24001027878511905,0.5762892907149603,-0.10747252539902862,0.5827761989822626,3.14,-2.3532091758410387
76,0.28270992221124785,0.26608646806465286,0.09536802268672612,4.327421719069986,1.8158221680706619,2.05652471089616,4.258278008487789,1.0,0.24008344165101647,0.5762815768372884,-0.10745530537166387,0.5824729608415181,3.14,-2.3534481947968255
77,0.2827093929017779,0.26609529293196654,0.09534184501988661,4.327424075564078,1.815813296412621,2.0565251690248214,4.258340197166898,1.0,0.24015663538177745,0.5762738421548075,-0.10743802984499844,0.582169618206005,3.14,-2.3536872907824837
78,0.2827088567467801,0.26610411852967414,0.09531563711223094,4.327426433957351,1.815804423980548,2.0565256252381485,4.258402414150101,1.0,0.24022985994994067,0.576266086641596,-0.10742069875002441,0.5818661710738289,3.14,-2.3539264638250725
79,0.2827083137380893,0.2661129448509992,0.09528939893358598,4.3274287942506975,1.8157955507812003,2.056526079532833,4.2584646594185305,1.0,0.2403031153279174,0.576258310271861,-0.10740331201782002,0.5815626194432302,3.14,-2.3541657139516268
80,0.28270776386745833,0.266121771889064,0.09526313045375866,4.327431156445013,1.8157866768214357,2.0565265319055097,4.25852693295324,1.0,0.24037640148798423,0.5762505130198968,-0.10738586957952052,0.5812589633125882,3.14,-2.3544050411891604
81,0.28270720712659037,0.26613059963691704,0.09523683164255442,4.327433520541201,1.8157778021081854,2.056526982352773,4.258589234735186,1.0,0.24044971840227647,0.576242694860054,-0.10736837136629551,0.5809552026804252,3.14,-2.3546444455646705
82,0.28270664350715063,0.26613942808754804,0.09521050246977017,4.327435886540161,1.8157689266484391,2.0565274308711894,4.258651564745218,1.0,0.2405230660427847,0.5762348557667203,-0.10735081730933572,0.5806513375454082,3.14,-2.3548839271051385
83,0.28270607300078887,0.2661482572339054,0.0951841429052199,4.32743825444279,1.8157600504492277,2.0565278774573037,4.258713922964075,1.0,0.2405964443813512,0.5762269957143058,-0.1073332073398424,0.5803473679063512,3.14,-2.355123485837532
84,0.28270549559914093,0.2661570870689002,0.0951577529187205,4.327440624249991,1.815751173517619,2.0565283221076487,4.2587763093723785,1.0,0.24066985338966643,0.5762191146772327,-0.10731554138902002,0.580043293762217,3.14,-2.3553631217888054
85,0.2827049112938397,0.26616591758541525,0.0951313324800988,4.3274429959626595,1.8157422958607095,2.056528764818746,4.258838723950627,1.0,0.24074329303926933,0.5762112126299296,-0.10729781938807287,0.5797391151121175,3.14,-2.3556028349859015
86,0.2827043200765155,0.2661747487763063,0.09510488155919605,4.32744536958169,1.8157334174856223,2.0565292055871085,4.258901166679199,1.0,0.2408167633015453,0.5762032895468273,-0.10728004126820147,0.5794348319553151,3.14,-2.3558426254557507
87,0.28270372193880317,0.26618358063440795,0.09507840012586088,4.3274477451079685,1.8157245383995024,2.0565296444092422,4.258963637538344,1.0,0.2408902641477253,0.5761953454023555,-0.10726220696060114,0.5791304442912231,3.14,-2.3560824932252715
88,0.2827031168723405,0.26619241315253256,0.09505188814995393,4.327450122542394,1.8157156586095164,2.0565300812816516,4.259026136508191,1.0,0.24096379554888409,0.5761873801709398,-0.10724431639646019,0.5788259521194068,3.14,-2.356322438321371
89,0.2827025048687719,0.2662012463234734,0.09502534560136403,4.327452501885845,1.8157067781228506,2.056530516200834,4.259088663568735,1.0,0.24103735747594185,0.5761793938270021,-0.10722636950695946,0.5785213554395834,3.14,-2.3565624607709443
90,0.28270188591974843,0.26621008014000413,0.09499877244997552,4.327454883139205,1.815697896946711,2.0565309491632844,4.259151218699849,1.0,0.24111094989966167,0.576171386344959,-0.10720836622327272,0.5782166542516229,3.14,-2.3568025606008756
91,0.282701260016929,0.2662189145948811,0.09497216866570318,4.327457266303358,1.8156890150883205,2.056531380165495,4.259213801881273,1.0,0.24118457279064953,0.5761633576992206,-0.10719030647656524,0.5779118485555488,3.14,-2.3570427378380376
92,0.28270062715198174,0.26622774968084306,0.09494553421846874,4.3274596513791765,1.8156801325549203,2.056531809203954,4.259276413092621,1.0,0.2412582261193546,0.5761553078641904,-0.1071721901979945,0.5776069383515376,3.14,-2.357282992509291
93,0.28269998731658114,0.26623658539061046,0.09491886907821494,4.327462038367537,1.81567124935377,2.0565322362751504,4.2593390523133765,1.0,0.2413319098560673,0.5761472368142659,-0.10715401731871031,0.5773019236399208,3.14,-2.3575233246414853
94,0.28269934050241263,0.26624542171688587,0.09489217321488891,4.327464427269307,1.8156623654921467,2.0565326613755666,4.2594017195228915,1.0,0.24140562397092138,0.5761391445238379,-0.10713578776985498,0.5769968044211833,3.14,-2.3577637342614577
95,0.2826986867011707,0.26625425865235725,0.09486544659847274,4.327466818085356,1.8156534809773428,2.056533084501685,4.259464414700388,1.0,0.24147936843389017,0.5761310309672893,-0.10711750148256304,0.576691580695966,3.14,-2.3580042213960346
96,0.28269802590455734,0.2662630961896923,0.09483868919895042,4.327469210816543,1.815644595816671,2.0565335056499863,4.259527137824958,1.0,0.24155314321478943,0.5761228961189977,-0.10709915838796222,0.5763862524650645,3.14,-2.3582447860720297
97,0.2826973581042856,0.26627193432154245,0.09481190098632898,4.327471605463731,1.81563571001746,2.0565339248169474,4.2595898888755634,1.0,0.2416269482832751,0.5761147399533335,-0.1070807584171744,0.57608081972943,3.14,-2.358485428316245
98,0.2826966832920784,0.26628077304054404,0.09478508193063137,4.327474002027778,1.8156268235870543,2.056534341999045,4.259652667831033,1.0,0.24170078360884356,0.5761065624446602,-0.10706230150131398,0.5757752824901704,3.14,-2.358726148155471
99,0.28269600145966733,0.26628961233931436,0.0947582320018963,4.3274764005095365,1.8156179365328171,2.0565347571927517,4.259715474670063,1.0,0.24177464916083125,0.5760983635673348,-0.10704378757148947,0.5754696407485497,3.14,-2.3589669456164852
100,0.2826953125987953,0.26629845221045495,0.09473135117018532,4.327478800909857,1.815609048862128,2.0565351703945405,4.259778309371219,1.0,0.2418485449084137,0.5760901432957076,-0.1070252165588035,0.575163894505989,3.14,-2.3592078207260543
101,0.2826946167012129,0.2663072926465481,0.09470443940556858,4.327481203229587,1.8156001605823853,2.05653558160088,4.259841171912934,1.0,0.2419224708206069,0.5760819016041239,-0.10700658839435474,0.5748580437640667,3.14,-2.3594487735109313
102,0.282693913758683,0.2663161336401622,0.09467749667814122,4.327483607469564,1.815591271701002,2.056535990808239,4.259904062273507,1.0,0.2419964268662646,0.5760736384669208,-0.10698790300923536,0.5745520885245189,3.14,-2.359689803997858
103,0.282693203762977,0.2663249751838458,0.09465052295801628,4.327486013630636,1.815582382225411,2.0565363980130815,4.259966980431105,1.0,0.2420704130140798,0.5760653538584308,-0.10696916033453356,0.5742460287892399,3.14,-2.3599309122135628
104,0.28269248670587815,0.2663338172701329,0.09462351821532927,4.327488421713633,1.8155734921630593,2.0565368032118725,4.26002992636376,1.0,0.24214442923258336,0.5760570477529797,-0.1069503603013332,0.5739398645602826,3.14,-2.3601720981847625
105,0.28269176257917905,0.26634265989153827,0.09459648242022173,4.3274908317193885,1.815564601521414,2.056537206401074,4.260092900049373,1.0,0.24221847549014425,0.5760487201248874,-0.10693150284071459,0.5736335958398585,3.14,-2.36041336193816
106,0.28269103137468216,0.26635150304056116,0.09456941554286927,4.327493243648736,1.8155557103079574,2.056537607577146,4.26015590146571,1.0,0.24229255175496858,0.576040370948468,-0.10691258788375427,0.5733272226303391,3.14,-2.3606547035004475
107,0.2826902930842011,0.26636034670968206,0.09454231755345335,4.3274956575024985,1.8155468185301908,2.056538006736546,4.2602189305904,1.0,0.2423666579951005,0.5760320001980305,-0.10689361536152546,0.5730207449342549,3.14,-2.360896122898302
108,0.2826895476995605,0.26636919089136624,0.09451518842218,4.327498073281499,1.8155379261956313,2.056538403875731,4.260281987400941,1.0,0.24244079417842007,0.5760236078478778,-0.10687458520509942,0.5727141627542971,3.14,-2.36113762015839
109,0.2826887952125949,0.26637803557806067,0.09448802811928445,4.327500490986555,1.8155290333118137,2.0565387989911548,4.260345071874694,1.0,0.24251496027264452,0.5760151938723072,-0.1068554973455442,0.5724074760933171,3.14,-2.3613791953073626
110,0.28268803561515043,0.2663868807621957,0.09446083661500991,4.327502910618482,1.8155201398862901,2.0565391920792693,4.260408183988883,1.0,0.24258915624532734,0.576006758245612,-0.10683635171392715,0.5721006849543272,3.14,-2.3616208483718593
111,0.28268726889908363,0.2663957264361843,0.09443361387962161,4.32750533217809,1.81551124592663,2.0565395831365265,4.260471323720599,1.0,0.24266338206385693,0.5759983009420787,-0.1068171482413126,0.5717937893405015,3.14,-2.3618625793785064
112,0.2826864950562619,0.2664045725924222,0.09440635988341141,4.327507755666189,1.8155023514404203,2.056539972159374,4.260534491046797,1.0,0.24273763769545761,0.5759898219359898,-0.106797886858765,0.5714867892551755,3.14,-2.362104388353917
113,0.28268571407856474,0.2664134192232893,0.09437907459668599,4.327510181083586,1.8154934564352636,2.0565403591442597,4.260597685944294,1.0,0.24281192310718872,0.575981321201622,-0.106778567497347,0.571179684701847,3.14,-2.36234627532469
114,0.2826849259578814,0.2664222663211466,0.09435175798977619,4.327512608431075,1.8154845609187822,2.056540744087629,4.260660908389771,1.0,0.24288623826594483,0.5759727987132479,-0.10675919008812121,0.5708724756841761,3.14,-2.362588240317412
115,0.2826841306861122,0.26643111387833796,0.09432441003303225,4.327515037709456,1.815475664898615,2.0565411269859246,4.260724158359773,1.0,0.24296058313845426,0.5759642544451352,-0.10673975456215058,0.5705651622059861,3.14,-2.3628302833586545
116,0.2826833282551706,0.2664399618871913,0.09429703069682843,4.327517468919526,1.8154667683824173,2.0565415078355898,4.260787435830707,1.0,0.24303495769127956,0.575955688371547,-0.10672026085049796,0.5702577442712635,3.14,-2.363072404474977
117,0.2826825186569796,0.2664488103400164,0.09426961995155823,4.327519902062068,1.8154578713778629,2.0565418866330627,4.260850740778842,1.0,0.24310936189081753,0.5759471004667427,-0.10670070888422761,0.5699502218841588,3.14,-2.363314603692924
118,0.2826817018834762,0.2664576592291075,0.09424217776764378,4.327522337137873,1.8154489738926407,2.0565422633747836,4.26091407318031,1.0,0.24318379570329754,0.5759384907049759,-0.10668109859440443,0.5696425950489864,3.14,-2.363556881039027
119,0.2826808779266059,0.26646650854673865,0.09421470411551448,4.327524774147721,1.8154400759344607,2.0565426380571883,4.260977433011104,1.0,0.24325825909478277,0.5759298590604977,-0.10666142991209554,0.5693348637702252,3.14,-2.363799236539803
120,0.282680046778328,0.2664753582851691,0.09418719896563772,4.327527213092389,1.8154311775110472,2.0565430106767115,4.261040820247078,1.0,0.24333275203116853,0.575921205507554,-0.10664170276836935,0.5690270280525194,3.14,-2.3640416702217557
121,0.28267920843061173,0.266484208436639,0.09415966228849747,4.327529653972656,1.8154222786301442,2.056543381229786,4.26110423486395,1.0,0.24340727447818292,0.5759125300203881,-0.10662191709429765,0.568719087900678,3.14,-2.3642841821113736
122,0.2826783628754416,0.26649305899337433,0.09413209405460367,4.327532096789288,1.8154133792995097,2.0565437497128456,4.261167676837295,1.0,0.24348182640138513,0.5759038325732373,-0.10660207282095352,0.5684110433196766,3.14,-2.364526772235132
123,0.2826775101048108,0.26650190994757994,0.09410449423448043,4.327534541543056,1.8154044795269233,2.0565441161223177,4.261231146142552,1.0,0.24355640776616722,0.5758951131403379,-0.10658216987941521,0.5681028943146561,3.14,-2.364769440619491
124,0.28267665011072574,0.2665107612914462,0.0940768627986895,4.32753698823472,1.815395579320179,2.0565444804546322,4.261294642755017,1.0,0.24363101853775132,0.5758863716959203,-0.10656220820076245,0.5677946408909247,3.14,-2.365012187290897
125,0.2826757828852057,0.266519613017145,0.094049199717809,4.32753943686504,1.8153866786870896,2.056544842706216,4.261358166649847,1.0,0.24370565868119165,0.5758776082142132,-0.10654218771608076,0.5674862830539569,3.14,-2.3652550122757816
126,0.28267490842028037,0.2665284651168311,0.09402150496243572,4.3275418874347755,1.815377777635485,2.0565452028734943,4.261421717802062,1.0,0.24378032816137227,0.5758688226694417,-0.10652210835645952,0.567177820809395,3.14,-2.3654979156005616
127,0.2826740267079935,0.26653731758264126,0.09399377850320151,4.327544339944674,1.8153688761732132,2.056545560952889,4.261485296186535,1.0,0.24385502694300837,0.5758600150358276,-0.10650197005299294,0.566869254163049,3.14,-2.365740897291639
128,0.2826731377404018,0.26654617040669776,0.09396602031075915,4.327546794395481,1.8153599743081374,2.0565459169408244,4.261548901778003,1.0,0.24392975499064368,0.575851185287589,-0.1064817727367798,0.5665605831208972,3.14,-2.3659839573754016
129,0.28267224150957293,0.2665550235811016,0.0939382303557775,4.327549250787947,1.8153510720481416,2.0565462708337203,4.26161253455106,1.0,0.2440045122686525,0.5758423333989426,-0.10646151633892599,0.5662518076890861,3.14,-2.3662270958782217
130,0.2826713380075875,0.2665638770979395,0.0939104086089675,4.327551709122807,1.8153421694011247,2.056546622627996,4.261676194480157,1.0,0.24407929874123843,0.5758334593441014,-0.10644120079054233,0.5659429278739315,3.14,-2.366470312826457
131,0.28267042722653946,0.26657273094927886,0.09388255504105125,4.327554169400801,1.8153332663750046,2.0565469723200676,4.261739881539606,1.0,0.2441541143724336,0.5758245630972763,-0.10642082602274695,0.5656339436819185,3.14,-2.366713608246449
132,0.2826695091585352,0.2665815851271708,0.09385466962278098,4.327556631622658,1.815324362977716,2.056547319906353,4.261803595703573,1.0,0.24422895912609902,0.5758156446326753,-0.10640039196666437,0.565324855119702,3.14,-2.3669569821645258
133,0.28266858379569376,0.2665904396236487,0.09382675232493899,4.3275590957891055,1.8153154592172116,2.0565476653832655,4.261867336946085,1.0,0.24430383296592353,0.5758067039245048,-0.1063798985534267,0.565015662194107,3.14,-2.367200434606999
134,0.28266765113014763,0.2665992944307287,0.09379880311833039,4.327561561900872,1.815306555101461,2.0565480087472197,4.261931105241023,1.0,0.24437873585542394,0.575797740946968,-0.10635934571417373,0.5647063649121294,3.14,-2.3674439656001645
135,0.282666711154043,0.26660814954040907,0.09377082197378553,4.327564029958673,1.8152976506384526,2.0565483499946255,4.261994900562126,1.0,0.24445366775794505,0.5757887556742673,-0.10633873338005387,0.5643969632809357,3.14,-2.367687575170303
136,0.28266576385953884,0.26661700494467266,0.0937428088621622,4.327566499963225,1.8152887458361897,2.056548689121895,4.262058722882989,1.0,0.24452862863665786,0.5757797480806018,-0.1063180614822233,0.5640874573078642,3.14,-2.3679312633436806
137,0.2826648092388062,0.2666258606354817,0.09371476375434565,4.32756897191524,1.8152798407026967,2.0565490261254356,4.262122572177065,1.0,0.2446036184545617,0.5757707181401708,-0.10629732995184869,0.5637778470004245,3.14,-2.368175030146546
138,0.2826638472840314,0.2666347166047834,0.09368668662125323,4.327571445815428,1.815270935246013,2.056549361001656,4.26218644841766,1.0,0.244678637174481,0.57576166582717,-0.10627653872010501,0.563468132366299,3.14,-2.3684188756051334
139,0.2826628779874128,0.2666435728445064,0.09365857743382251,4.3275739216644915,1.815262029474197,2.056549693746961,4.262250351577938,1.0,0.2447536847590674,0.5757525911157952,-0.10625568771817767,0.563158313413342,3.14,-2.3686627997456595
140,0.2826619013411639,0.26665242934656275,0.0936304361630183,4.327576399463129,1.8152531233953237,2.056550024357757,4.262314281630916,1.0,0.2448287611707973,0.5757434939802394,-0.10623477687726175,0.5628483901495817,3.14,-2.368906802594327
141,0.2826609173375105,0.2666612861028468,0.09360226277984209,4.327578879212041,1.815244217017486,2.056550352830446,4.262378238549467,1.0,0.24490386637197348,0.5757343743946953,-0.10621380612856422,0.562538362583219,3.14,-2.369150884177321
142,0.2826599259686924,0.2666701431052349,0.09357405725531538,4.3275813609119105,1.815235310348795,2.056550679161431,4.262442222306318,1.0,0.2449790003247236,0.5757252323333545,-0.1061927754033023,0.5622282307226288,3.14,-2.3693950445208105
143,0.28265892722696456,0.2666790003455866,0.09354581956050105,4.327583844563433,1.8152264033973786,2.0565510033471135,4.262506232874053,1.0,0.24505416299100022,0.5757160677704078,-0.1061716846327061,0.5619179945763605,3.14,-2.369639283650949
144,0.2826579211045938,0.2666878578157429,0.09351754966646283,4.3275863301672866,1.8152174961713838,2.056551325383892,4.262570270225105,1.0,0.24512935433258046,0.5757068806800452,-0.10615053374801676,0.5616076541531376,3.14,-2.369883601593872
145,0.2826569075938623,0.2666967155075286,0.09348924754433183,4.327588817724154,1.8152085886789735,2.0565516452681645,4.262634334331763,1.0,0.2452045743110653,0.5756976710364559,-0.1061293226804883,0.5612972094618591,3.14,-2.3701279983756995
146,0.28265588668706854,0.26670557341275175,0.09346091316523991,4.327591307234703,1.815199680928328,2.056551962996331,4.26269842516617,1.0,0.24527982288787925,0.5756884388138277,-0.10610805136138711,0.5609866605115995,3.14,-2.3703724740225356
147,0.2826548583765201,0.26671443152319985,0.09343254650036247,4.3275937986996125,1.8151907729276477,2.0565522785647836,4.262762542700322,1.0,0.24535510002427138,0.5756791839863507,-0.10608671972199495,0.5606760073116085,3.14,-2.3706170285604657
148,0.28265382265454325,0.26672328983064536,0.09340414752089214,4.327596292119545,1.815181864685149,2.05655259196992,4.262826686906068,1.0,0.24543040568131272,0.5756699065282121,-0.1060653276936055,0.5603652498713128,3.14,-2.37086166201556
149,0.2826527795134766,0.26673214832684206,0.09337571619807215,4.327598787495159,1.8151729562090666,2.0565529032081313,4.262890857755105,1.0,0.2455057398198981,0.575660606413601,-0.10604387520752764,0.560054388200315,3.14,-2.37110637441387
150,0.28265172894567503,0.2667410070035274,0.0933472525031605,4.327601284827118,1.8151640475076518,2.0565532122758112,4.262955055218988,1.0,0.24558110240074393,0.575651283616705,-0.10602236219508503,0.5597434223083952,3.14,-2.371351165781432
151,0.28265067094350776,0.2667498658524209,0.09331875640744894,4.327603784116072,1.8151551385891742,2.056553519169352,4.263019279269121,1.0,0.24565649338438886,0.5756419381117127,-0.1060007885876161,0.5594323522055114,3.14,-2.371596036144264
152,0.28264960549935686,0.26675872486522356,0.09329022788226059,4.3276062853626724,1.8151462294619218,2.0565538238851415,4.263083529876758,1.0,0.24573191273119424,0.5756325698728139,-0.1059791543164758,0.5591211779017982,3.14,-2.371840985528366
153,0.28264853260562106,0.2667675840336198,0.09326166689895703,4.327608788567559,1.8151373201341998,2.05655412641957,4.263147807013007,1.0,0.2458073604013417,0.5756231788741972,-0.10595745931303419,0.5588098994075695,3.14,-2.3720860139597226
154,0.2826474522547143,0.26677644334927647,0.09323307342891912,4.327611293731376,1.8151284106143306,2.0565544267690257,4.2632121106488245,1.0,0.24588283635483485,0.5756137650900536,-0.1059357035086791,0.5584985167333176,3.14,-2.372331121464299
155,0.28264636443906377,0.2667853028038418,0.09320444744356612,4.32761380085476,1.8151195009106558,2.0565547249298937,4.2632764407550185,1.0,0.24595834055149768,0.575604328494574,-0.10591388683481438,0.5581870298897137,3.14,-2.372576308068043
156,0.2826452691511138,0.26679416238894776,0.09317578891435792,4.327616309938338,1.8151105910315333,2.056555020898563,4.263340797302247,1.0,0.24603387295097462,0.5755948690619502,-0.10589200922286195,0.5578754388876086,3.14,-2.372821573796886
157,0.2826441663833234,0.26680302209620865,0.09314709781277597,4.327618820982742,1.8151016809853389,2.056555314671415,4.263405180261018,1.0,0.24610943351273107,0.5755853867663767,-0.10587007060426244,0.5575637437380326,3.14,-2.3730669186767397
158,0.2826430561281662,0.26681188191722016,0.09311837411033279,4.327621333988589,1.8150927707804672,2.0565556062448356,4.263469589601689,1.0,0.2461850221960505,0.5755758815820466,-0.10584807091047307,0.5572519444521971,3.14,-2.3733123427334992
159,0.28264193837813245,0.2668207418435615,0.09308961777858617,4.327623848956505,1.8150838604253292,2.056555895615207,4.263534025294468,1.0,0.24626063896003725,0.5755663534831569,-0.10582601007297152,0.5569400410414933,3.14,-2.373557845993041
160,0.28264081312572625,0.26682960186679333,0.09306082878912009,4.327626365887098,1.8150749499283552,2.0565561827789103,4.263598487309408,1.0,0.24633628376361472,0.5755568024439051,-0.1058038880232545,0.5566280335174938,3.14,-2.373803428481223
161,0.2826396803634703,0.26683846197846,0.09303200711354702,4.327628884780979,1.8150660392979914,2.056556467732327,4.263662975616414,1.0,0.24641195656552467,0.5755472284384906,-0.10578170469283814,0.5563159218919526,3.14,-2.3740490902238855
162,0.28263854008389866,0.2668473221700853,0.09300315272352222,4.32763140563875,1.815057128542705,2.056556750471837,4.263727490185239,1.0,0.2464876573243272,0.5755376314411147,-0.105759460013259,0.5560037061768057,3.14,-2.37429483124685
163,0.2826373922795667,0.26685618243318016,0.09297426559073416,4.3276339284610135,1.8150482176709766,2.0565570309938193,4.263792030985484,1.0,0.2465633859984009,0.5755280114259808,-0.10573715391607501,0.5556913863841715,3.14,-2.374540651575919
164,0.2826362369430413,0.26686504275923345,0.09294534568689962,4.327636453248366,1.8150393066913082,2.056557309294652,4.263856597986597,1.0,0.24663914254594246,0.5755183683672949,-0.10571478633286524,0.5553789625263507,3.14,-2.3747865512368778
165,0.2826350740669075,0.26687390313971887,0.09291639298377807,4.327638980001396,1.815030395612218,2.056557585370712,4.263921191157872,1.0,0.2467149269249652,0.5755087022392642,-0.10569235719522918,0.5550664346158273,3.14,-2.375032530255491
166,0.28263390364376634,0.2668827635660919,0.09288740745315484,4.327641508720693,1.815021484442242,2.0565578592183758,4.263985810468453,1.0,0.24679073909330038,0.5754990130161,-0.10566986643479043,0.5547538026652686,3.14,-2.3752785886575056
167,0.28263272566623454,0.26689162402979055,0.09285838906686499,4.327644039406835,1.8150125731899345,2.056558130834019,4.264050455887329,1.0,0.24686657900859593,0.5754893006720152,-0.1056473139831939,0.5544410666875261,3.14,-2.3755247264686497
168,0.2826315401269462,0.26690048452223447,0.09282933779677179,4.327646572060402,1.8150036618638676,2.0565584002140165,4.264115127383335,1.0,0.24694244662831588,0.5754795651812258,-0.10562469977210841,0.5541282266956354,3.14,-2.375770943714631
169,0.2826303470185502,0.26690934503482633,0.09280025361476898,4.327649106681966,1.8149947504726311,2.056558667354743,4.264179824925154,1.0,0.24701834190974084,0.5754698065179508,-0.10560202373322584,0.5538152827028169,3.14,-2.3760172404211395
170,0.2826291463337138,0.2669182055589501,0.09277113649278801,4.327651643272092,1.8149858390248337,2.05655893225257,4.264244548481314,1.0,0.24709426480996766,0.5754600246564133,-0.10557928579826327,0.5535022347224755,3.14,-2.376263616613845
171,0.282627938065119,0.2669270660859731,0.09274198640280984,4.327654181831348,1.8149769275291003,2.05655919490387,4.264309298020188,1.0,0.24717021528590793,0.5754502195708389,-0.10555648589896144,0.5531890827682022,3.14,-2.376510072318398
172,0.2826267222054676,0.26693592660724563,0.09271280331683629,4.327656722360287,1.814968015994074,2.0565594553050155,4.264374073509993,1.0,0.24724619329428882,0.5754403912354558,-0.10553362396708597,0.5528758268537739,3.14,-2.3767566075604294
173,0.28262549874747606,0.26694478711409925,0.09268358720692349,4.327659264859466,1.8149591044284161,2.0565597134523776,4.2644388749187945,1.0,0.24732219879165213,0.575430539624497,-0.10551069993442909,0.5525624669931535,3.14,-2.37700322236555
174,0.28262426768387744,0.26695364759784773,0.09265433804513863,4.3276618093294354,1.814950192840806,2.056559969342326,4.2645037022145,1.0,0.24739823173435432,0.5754206647121989,-0.10548771373280794,0.5522490032004909,3.14,-2.3772499167593524
175,0.2826230290074239,0.2669625080497877,0.09262505580361999,4.327664355770736,1.8149412812399408,2.056560222971231,4.264568555364862,1.0,0.2474742920785668,0.5754107664728021,-0.10546466529406717,0.5519354354901225,3.14,-2.377496690767407
176,0.28262178271088284,0.26697136846119773,0.09259574045451681,4.327666904183908,1.8149323696345354,2.0565604743354604,4.264633434337477,1.0,0.24755037978027405,0.5754008448805515,-0.10544155455007802,0.5516217638765728,3.14,-2.377743544415266
177,0.28262052878703947,0.26698022882333844,0.09256639197003254,4.327669454569489,1.8149234580333231,2.0565607234313834,4.264698339099785,1.0,0.24762649479527457,0.5753908999096962,-0.10541838143273975,0.5513079883745537,3.14,-2.37799047772846
178,0.28261926722869696,0.26698908912745295,0.09253701032240073,4.327672006928004,1.814914546445055,2.056560970255367,4.264763269619069,1.0,0.24770263707917986,0.575380931534489,-0.10539514587397894,0.5509941089989657,3.14,-2.3782374907325
179,0.28261799802867665,0.2669979493647685,0.09250759548390185,4.32767456125998,1.8149056348784978,2.056561214803779,4.2648282258624555,1.0,0.2477788065874142,0.5753709397291877,-0.10537184780575089,0.5506801257648981,3.14,-2.378484583452877
180,0.28261672117981657,0.26700680952649214,0.09247814742685118,4.327677117565939,1.8148967233424391,2.0565614570729864,4.264893207796915,1.0,0.24785500327521512,0.5753609244680555,-0.1053484871600403,0.5503660386876289,3.14,-2.378731755915061
181,0.28261543667497063,0.2670156696038129,0.09244866612360368,4.327679675846393,1.8148878118456846,2.0565616970593537,4.264958215389258,1.0,0.24793122709763257,0.5753508857253603,-0.10532506386886155,0.5500518477826256,3.14,-2.3789790081445013
182,0.28261414450701466,0.26702452958790474,0.09241915154654902,4.327682236101854,1.8148789003970551,2.056561934759247,4.2650232486061395,1.0,0.24800747800952785,0.5753408234753747,-0.10530157786425888,0.5497375530655457,3.14,-2.3792263401666265
183,0.2826128446688392,0.26703338946992167,0.09238960366813088,4.327684798332827,1.8148699890053916,2.056562170169031,4.2650883074140555,1.0,0.2480837559655742,0.575330737692377,-0.10527802907830662,0.5494231545522371,3.14,-2.3794737520068443
184,0.2826115371533538,0.2670422492410009,0.09236002246082282,4.3276873625398125,1.8148610776795524,2.0565624032850716,4.265153391779343,1.0,0.24816006092025616,0.5753206283506499,-0.10525441744311029,0.5491086522587384,3.14,-2.3797212436905415
185,0.2826102219534857,0.2670511088922614,0.09233040789713787,4.327689928723302,1.8148521664284138,2.0565626341037313,4.265218501668181,1.0,0.2482363928278697,0.5753104954244835,-0.10523074289080768,0.5487940462012789,3.14,-2.379968815243084
186,0.28260889906218195,0.26705996841480506,0.09230075994964296,4.327692496883794,1.8148432552608695,2.0565628626213734,4.265283637046591,1.0,0.24831275164252087,0.5753003388881727,-0.10520700535356807,0.5484793363962797,3.14,-2.3802164666898156
187,0.2826075684724065,0.267068827799716,0.09227107859093234,4.327695067021771,1.8148343441858314,2.056563088834363,4.2653487978804305,1.0,0.24838913731812667,0.5752901587160174,-0.10518320476359264,0.5481645228603537,3.14,-2.38046419805606
188,0.28260623017714115,0.2670776870380593,0.09224136379365175,4.327697639137707,1.8148254332122307,2.056563312739061,4.265413984135401,1.0,0.24846554980841465,0.5752799548823259,-0.10515934105311744,0.5478496056103056,3.14,-2.3807120093671177
189,0.28260488416938845,0.26708654612088417,0.09221161553048621,4.3277002132320845,1.814816522349014,2.0565635343318305,4.265479195777045,1.0,0.24854198906692065,0.5752697273614106,-0.10513541415441055,0.5475345846631338,3.14,-2.3809599006482696
190,0.2826035304421682,0.2670954050392209,0.09218183377415284,4.327702789305372,1.814807611605148,2.056563753609033,4.265544432770743,1.0,0.24861845504699218,0.575259476127592,-0.10511142399977526,0.5472194600360284,3.14,-2.3812078719247727
191,0.2826021689885177,0.2671042637840817,0.09215201849743215,4.327705367358035,1.8147987009896167,2.0565639705670304,4.265609695081714,1.0,0.24869494770178374,0.5752492011551958,-0.10508737052154833,0.5469042317463741,3.14,-2.381455923221864
192,0.2826007998014982,0.26711312234646384,0.09212216967313183,4.327707947390531,1.81478979051142,2.056564185202185,4.265674982675018,1.0,0.24877146698425961,0.575238902418555,-0.10506325365210217,0.5465888998117492,3.14,-2.381704054564758
193,0.28259942287418255,0.26712198071734217,0.09209228727410843,4.327710529403317,1.8147808801795804,2.0565643975108574,4.265740295515554,1.0,0.24884801284719318,0.5752285798920103,-0.10503907332384574,0.5462734642499257,3.14,-2.3819522659786463
194,0.2825980381996685,0.2671308388876775,0.09206237127326251,4.327713113396845,1.814771970003134,2.056564607489408,4.265805633568059,1.0,0.2489245852431656,0.5752182335499088,-0.10501482946922305,0.5459579250788706,3.14,-2.3822005574886984
195,0.2825966457710693,0.2671396968484108,0.09203242164353864,4.327715699371557,1.8147630599911375,2.0565648151341978,4.265870996797107,1.0,0.24900118412456604,0.5752078633666051,-0.1049905220207154,0.5456422823167459,3.14,-2.3824489291200623
196,0.28259524558152055,0.26714855459046666,0.09200243835792048,4.327718287327889,1.8147541501526643,2.056565020441586,4.265936385167111,1.0,0.24907780944359115,0.5751974693164617,-0.10496615091084088,0.545326535981909,3.14,-2.382697380897863
197,0.28259383762417517,0.26715741210475147,0.09197242138944528,4.327720877266284,1.8147452404968056,2.0565652234079344,4.266001798642323,1.0,0.24915446115224457,0.5751870513738477,-0.10494171607215566,0.5450106860929134,3.14,-2.3829459128472026
198,0.2825924218922074,0.26716626938215443,0.09194237071119664,4.327723469187163,1.8147363310326707,2.0565654240296025,4.266067237186831,1.0,0.2492311392023377,0.5751766095131408,-0.10491721743725407,0.5446947326685083,3.14,-2.3831945249931605
199,0.2825909983788084,0.26717512641354463,0.0919122862962851,4.327726063090956,1.8147274217693887,2.05656562230295,4.266132700764561,1.0,0.24930784354548857,0.5751661437087272,-0.10489265493876992,0.5443786757276399,3.14,-2.383443217360794
200,0.28258956707719185,0.26718398318977604,0.0918821681178868,4.327728658978078,1.8147185127161043,2.0565658182243354,4.266198189339274,1.0,0.24938457413312135,0.5751556539350005,-0.10486802850937538,0.5440625152894512,3.14,-2.3836919899751363
201,0.2825881279805895,0.2671928397016842,0.09185201614921688,4.32773125684894,1.8147096038819808,2.0565660117901214,4.26626370287457,1.0,0.24946133091646597,0.575145140166362,-0.10484333808178296,0.5437462513732827,3.14,-2.383940842861198
202,0.28258668108225277,0.2672016959400854,0.09182183036353671,4.327733856703959,1.8147006952762008,2.056566202996664,4.266329241333884,1.0,0.24953811384655908,0.575134602377224,-0.104818583588746,0.5434298839986725,3.14,-2.3841897760439665
203,0.2825852263754554,0.26721055189578036,0.091791610734149,4.3277364585435265,1.814691786907963,2.0565663918403247,4.266394804680486,1.0,0.2496149228742423,0.5751240405420048,-0.10479376496305787,0.5431134131853571,3.14,-2.3844387895484056
204,0.28258376385349,0.2672194075595512,0.09176135723441231,4.327739062368047,1.8146828787864848,2.056566578317463,4.266460392877484,1.0,0.2496917579501626,0.5751134546351333,-0.10476888213755485,0.5427968389532714,3.14,-2.384687883399456
205,0.2825822935096677,0.26722826292216095,0.09173106983772898,4.327741668177909,1.8146739709210027,2.0565667624244375,4.266526005887818,1.0,0.24976861902477127,0.5751028446310467,-0.10474393504511324,0.5424801613225495,3.14,-2.3849370576220337
206,0.2825808153373227,0.2672371179743565,0.09170074851754743,4.327744275973502,1.8146650633207697,2.0565669441576073,4.266591643674268,1.0,0.2498455060483254,0.5750922105041923,-0.10471892361865409,0.5421633803135244,3.14,-2.3851863122410317
207,0.28257932932980845,0.26724597270686695,0.09167039324736465,4.327746885755206,1.814656155995057,2.056567123513332,4.266657306199444,1.0,0.2499224189708852,0.5750815522290258,-0.10469384779114027,0.5418464959467293,3.14,-2.3854356472813194
208,0.2825778354804988,0.26725482711040255,0.09164000400073098,4.327749497523396,1.8146472489531544,2.0565673004879725,4.266722993425792,1.0,0.2499993577423155,0.5750708697800125,-0.10466870749557813,0.5415295082428973,3.14,-2.3856850627677413
209,0.2825763337827888,0.2672636811756564,0.09160958075123317,4.327752111278441,1.8146383422043697,2.056567475077886,4.266788705315594,1.0,0.2500763223122848,0.575060163131629,-0.10464350266501915,0.5412124172229621,3.14,-2.3859345587251184
210,0.2825748242300939,0.26727253489330405,0.09157912347251851,4.327754727020711,1.814629435758028,2.056567647279435,4.266854441830966,1.0,0.2501533126302648,0.5750494322583602,-0.104618233232559,0.5408952229080584,3.14,-2.386184135178247
211,0.28257330681585,0.26728138825400155,0.09154863213827798,4.3277573447505615,1.814620529623474,2.0565678170889763,4.266920202933853,1.0,0.2502303286455312,0.5750386771347027,-0.10459289913133893,0.5405779253195215,3.14,-2.3864337921518985
212,0.28257178153351614,0.26729024124839096,0.09151810672225336,4.327759964468346,1.8146116238100674,2.0565679845028724,4.266985988586037,1.0,0.25030737030716105,0.5750278977351615,-0.1045675002945456,0.5402605244788896,3.14,-2.3866835296708206
213,0.2825702483765701,0.26729909386709266,0.09148754719823979,4.327762586174414,1.814602718327189,2.0565681495174815,4.267051798749134,1.0,0.2503844375640351,0.5750170940342542,-0.10454203665541248,0.539943020407902,3.14,-2.386933347759736
214,0.2825687073385119,0.2673079461007118,0.09145695354007105,4.327765209869107,1.8145938131842352,2.0565683121291647,4.26711763338459,1.0,0.2504615303648357,0.5750062660065076,-0.10451650814722016,0.5396254131285009,3.14,-2.3871832464433425
215,0.2825671584128631,0.2673167979398335,0.09142632572164637,4.327767835552763,1.814584908390623,2.056568472334283,4.267183492453686,1.0,0.2505386486580479,0.5749954136264606,-0.10449091470329645,0.5393077026628311,3.14,-2.3874332257463124
216,0.2825656015931651,0.2673256493750271,0.09139566371690606,4.327770463225716,1.814576003955785,2.0565686301291963,4.267249375917534,1.0,0.25061579239195786,0.5749845368686625,-0.1044652562570173,0.5389898890332409,3.14,-2.387683285693294
217,0.2825640368729832,0.2673345003968432,0.09136496749984611,4.327773092888288,1.8145670998891732,2.0565687855102652,4.267315283737077,1.0,0.25069296151465315,0.5749736357076741,-0.10443953274180752,0.5386719722622818,3.14,-2.387933426308909
218,0.2825624642459044,0.26734335099581563,0.09133423704451085,4.3277757245408015,1.8145581962002562,2.0565689384738524,4.267381215873092,1.0,0.25077015597402236,0.5749627101180671,-0.10441374409114056,0.53835395237271,3.14,-2.3881836476177547
219,0.2825608837055348,0.2673522011624591,0.09130347232499542,4.32777835818357,1.814549292898522,2.056569089016319,4.267447172286186,1.0,0.25084737571775506,0.5749517600744254,-0.10438789023853988,0.5380358293874855,3.14,-2.3884339496444023
220,0.2825592952455049,0.2673610508872712,0.09127267331545788,4.327780993816906,1.8145403899934764,2.0565692371340267,4.267513152936797,1.0,0.25092462069334176,0.5749407855513453,-0.10436197111757978,0.5377176033297731,3.14,-2.3886843324133973
221,0.28255769885946486,0.2673699001607312,0.09124183999009002,4.3277836314411084,1.8145314874946432,2.0565693828233376,4.2675791577851925,1.0,0.2510018908480724,0.5749297865234341,-0.10433598666188475,0.5373992742229431,3.14,-2.3889347959492597
222,0.2825560945410902,0.26737874897330227,0.09121097232315628,4.327786271056478,1.8145225854115627,2.056569526080615,4.267645186791473,1.0,0.2510791861290374,0.5749187629653117,-0.10430993680513105,0.5370808420905712,3.14,-2.3891853402764838
223,0.28255448228407604,0.26738759731542827,0.0911800702889597,4.327788912663306,1.814513683753795,2.0565696669022215,4.2677112399155686,1.0,0.2511565064831268,0.574907714851611,-0.10428382148104706,0.5367623069564388,3.14,-2.389435965419537
224,0.2825528620821403,0.26739644517753475,0.09114913386186137,4.327791556261877,1.8145047825309182,2.056569805284521,4.267777317117238,1.0,0.25123385185702996,0.5748966421569766,-0.1042576406234138,0.5364436688445339,3.14,-2.389686671402861
225,0.28255123392902476,0.2674052925500321,0.09111816301627791,4.327794201852473,1.8144958817525263,2.056569941223878,4.267843418356072,1.0,0.251311222197235,0.574885544856066,-0.10423139416606507,0.5361249277790511,3.14,-2.3899374582508712
226,0.2825495978184913,0.26741413942330955,0.09108715772668165,4.327796849435371,1.8144869814282345,2.0565700747166558,4.267909543591489,1.0,0.2513886174500296,0.5748744229235508,-0.1042050820428886,0.535806083784392,3.14,-2.3901883259879564
227,0.28254795374432634,0.2674229857877415,0.09105611796759311,4.327799499010835,1.814478081567673,2.0565702057592206,4.267975692782735,1.0,0.2514660375614995,0.5748632763341144,-0.10417870418782618,0.5354871368851658,3.14,-2.3904392746384784
228,0.2825463017003386,0.26743183163368295,0.0910250437135982,4.327802150579131,1.814469182180492,2.0565703343479376,4.268041865888889,1.0,0.25154348247752883,0.5748521050624545,-0.10415226053487558,0.5351680871061892,3.14,-2.3906903042267724
229,0.2825446416803598,0.26744067695147206,0.09099393493932376,4.327804804140513,1.814460283276358,2.0565704604791724,4.268108062868855,1.0,0.25162095214379976,0.574840909083282,-0.10412575101808876,0.5348489344724876,3.14,-2.3909414147771466
230,0.2825429736782436,0.26744952173142844,0.09096279161946444,4.327807459695236,1.8144513848649573,2.056570584149292,4.2681742836813665,1.0,0.2516984465057919,0.5748296883713214,-0.10409917557157407,0.5345296790092949,3.14,-2.3911926063138824
231,0.2825412976878689,0.2674583659638549,0.09093161372876316,4.327810117243544,1.8144424869559923,2.056570705354663,4.268240528284987,1.0,0.25177596550878256,0.5748184429013113,-0.10407253412949684,0.5342103207420538,3.14,-2.3914438788612338
232,0.28253961370313685,0.2674672096390363,0.09090040124202327,4.327812776785675,1.8144335895591843,2.056570824091656,4.268306796638104,1.0,0.2518535090978462,0.5748071726480046,-0.10404582662607938,0.5338908596964163,3.14,-2.3916952324434275
233,0.2825379217179686,0.2674760527472376,0.09086915413410372,4.327815438321867,1.8144246926842742,2.056570940356637,4.268373088698937,1.0,0.2519310772178544,0.5747958775861691,-0.10401905299560203,0.5335712958982441,3.14,-2.391946667084663
234,0.28253622172631454,0.2674848952787094,0.09083787237991663,4.327818101852343,1.814415796341018,2.0565710541459756,4.268439404425528,1.0,0.25200866981347525,0.5747845576905861,-0.10399221317240293,0.5332516293736093,3.14,-2.392198182809111
235,0.2825345137221441,0.2674937372236824,0.09080655595444191,4.327820767377326,1.8144069005391912,2.0565711654560426,4.268505743775748,1.0,0.2520862868291729,0.574773212936052,-0.1039653070908796,0.5329318601487941,3.14,-2.3924497796409154
236,0.28253279769945294,0.267502578572371,0.09077520483270282,4.327823434897033,1.8143980052885866,2.0565712742832085,4.268572106707296,1.0,0.25216392820920785,0.5747618432973784,-0.10393833468548921,0.5326119882502921,3.14,-2.392701457604192
237,0.282531073652259,0.26751141931496986,0.09074381898978802,4.3278261044116695,1.8143891105990164,2.056571380623845,4.268638493177696,1.0,0.2522415938976365,0.574750448749392,-0.10391129589074906,0.5322920137048076,3.14,-2.3929532167230287
238,0.28252934157460524,0.2675202594416584,0.09071239840084912,4.327828775921442,1.8143802164803087,2.056571484474324,4.2687049031442985,1.0,0.25231928383831054,0.5747390292669347,-0.10388419064123705,0.5319719365392568,3.14,-2.3932050570214844
239,0.28252760146055833,0.26752909894259747,0.09068094304109083,4.32783144942655,1.81437132294231,2.0565715858310187,4.26877133656428,1.0,0.25239699797487725,0.5747275848248639,-0.1038570188715924,0.5316517567807677,3.14,-2.39345697852359
240,0.2825258533042073,0.2675379378079287,0.09064945288577353,4.327834124927182,1.8143624299948864,2.056571684690303,4.268837793394641,1.0,0.2524747362507788,0.5747161153980527,-0.10382978051651616,0.5313314744566809,3.14,-2.393708981253349
241,0.28252409709966764,0.2675467760277772,0.09061792791022051,4.327836802423522,1.8143535376479212,2.056571781048553,4.268904273592209,1.0,0.2525524986092522,0.5747046209613906,-0.10380247551077204,0.5310110895945496,3.14,-2.393961065234734
242,0.2825223328410781,0.26755561359225133,0.0905863680898181,4.327839481915753,1.814344645911314,2.056571874902142,4.268970777113639,1.0,0.25263028499332907,0.5746931014897831,-0.10377510378918733,0.5306906022221399,3.14,-2.3942132304916903
243,0.2825205605226018,0.26756445049143995,0.09055477340000571,4.327842163404043,1.8143357547949845,2.056571966247449,4.269037303915405,1.0,0.25270809534583494,0.5746815569581517,-0.10374766528665251,0.5303700123674318,3.14,-2.3944654770481337
244,0.28251878013842696,0.2675732867154155,0.09052314381628829,4.3278448468885635,1.8143268643088692,2.056572055080851,4.269103853953811,1.0,0.25278592960938934,0.5746699873414346,-0.10372015993812214,0.5300493200586189,3.14,-2.394717804927952
245,0.28251699168276606,0.2675821222542324,0.09049147931423127,4.327847532369472,1.8143179744629228,2.0565721413987252,4.2691704271849815,1.0,0.2528637877264061,0.5746583926145871,-0.1036925876786161,0.529728525324109,3.14,-2.3949702141550016
246,0.2825151951498563,0.26759095709792735,0.09045977986946067,4.327850219846927,1.8143090852671175,2.0565722251974528,4.269237023564868,1.0,0.2529416696390917,0.5746467727525808,-0.10366494844321983,0.5294076281925245,3.14,-2.395222704753111
247,0.2825133905339593,0.26759979123651884,0.09042804545765822,4.327852909321072,1.8143001967314447,2.056572306473413,4.269303643049244,1.0,0.253019575289447,0.5746351277304056,-0.10363724216708521,0.5290866286927028,3.14,-2.3954752767460787
248,0.2825115778293634,0.2676086246600095,0.09039627605457842,4.327855600792053,1.8142913088659114,2.056572385222989,4.269370285593706,1.0,0.25309750461926445,0.574623457523067,-0.10360946878543,0.5287655268536968,3.14,-2.395727930157674
249,0.2825097570303798,0.26761745735838194,0.09036447163602909,4.327858294260002,1.814282421680545,2.0565724614425624,4.2694369511536765,1.0,0.25317545757013016,0.57461176210559,-0.10358162823354007,0.5284443227047747,3.14,-2.3959806650116353
250,0.2825079281313464,0.26762628932160293,0.09033263217788355,4.327860989725053,1.8142735351853891,2.0565725351285185,4.269503639684398,1.0,0.2532534340834222,0.5746000414530158,-0.10355372044676885,0.5281230162754211,3.14,-2.396233481331672
251,0.2825060911266259,0.2676351205396208,0.09030075765607573,4.327863687187322,1.8142646493905061,2.05657260627724,4.269570351140936,1.0,0.25333143410031184,0.5745882955404051,-0.10352574536053852,0.5278016075953366,3.14,-2.396486379141462
252,0.2825042460106063,0.2676439510023664,0.09026884804660763,4.327866386646932,1.8142557643059756,2.0565726748851145,4.269637085478181,1.0,0.2534094575617607,0.5745765243428356,-0.10349770291034067,0.5274800966944392,3.14,-2.396739358464655
253,0.2825023927777014,0.2676527806997526,0.09023690332553698,4.327869088103991,1.8142468799418958,2.0565727409485293,4.269703842650845,1.0,0.25348750440852325,0.5745647278354039,-0.10346959303173626,0.5271584836028635,3.14,-2.396992419324868
254,0.28250053142235065,0.2676616096216756,0.09020492346899446,4.327871791558604,1.8142379963083821,2.0565728044638725,4.269770622613459,1.0,0.25356557458114504,0.574552905993225,-0.10344141566035657,0.5268367683509622,3.14,-2.3972455617456885
255,0.2824986619390189,0.26767043775801314,0.09017290845316905,4.327874497010868,1.8142291134155681,2.056572865427534,4.269837425320379,1.0,0.25364366801996313,0.5745410587914328,-0.10341317073190467,0.5265149509693051,3.14,-2.3974987857506727
256,0.28249678432219766,0.2676792650986261,0.09014085825431782,4.327877204460872,1.8142202312736049,2.0565729238359056,4.269904250725781,1.0,0.25372178466510553,0.5745291862051807,-0.10338485818215468,0.5261930314886809,3.14,-2.3977520913633463
257,0.2824948985664021,0.26768809163335555,0.09010877284876104,4.3278799139087045,1.8142113498926633,2.056572979685378,4.269971098783664,1.0,0.2537999244564907,0.5745172882096412,-0.1033564779469534,0.5258710099400967,3.14,-2.398005478607204
258,0.28249300466617705,0.267696917352028,0.09007665221287973,4.327882625354441,1.8142024692829293,2.0565730329723464,4.270037969447846,1.0,0.2538780873338278,0.5745053647800057,-0.1033280299622202,0.5255488863547784,3.14,-2.3982589475057083
259,0.28249110261609184,0.26770574224445215,0.09004449632312805,4.327885338798158,1.8141935894546066,2.056573083693205,4.270104862671967,1.0,0.2539562732366162,0.5744934158914856,-0.10329951416394793,0.5252266607641715,3.14,-2.398512498082291
260,0.28248919241074066,0.26771456630041607,0.09001230515602343,4.327888054239914,1.8141847104179203,2.0565731318443503,4.270171778409485,1.0,0.2540344821041455,0.5744814415193121,-0.10327093048820381,0.524904333199941,3.14,-2.398766130360353
261,0.2824872740447467,0.2677233895096936,0.08998007868814906,4.32789077167977,1.8141758321831094,2.0565731774221803,4.270238716613681,1.0,0.2541127138754948,0.5744694416387371,-0.10324227887113004,0.524581903693972,3.14,-2.3990198443632615
262,0.28248534751275844,0.26773221186203944,0.08994781689615393,4.327893491117782,1.8141669547604327,2.056573220423094,4.2703056772376575,1.0,0.2541909684895326,0.5744574162250321,-0.10321355924894393,0.52425937227837,3.14,-2.3992736401143535
263,0.282483412809451,0.2677410333471913,0.08991551975675777,4.32789621255399,1.814158078160166,2.0565732608434923,4.270372660234332,1.0,0.2542692458849172,0.5744453652534891,-0.10318477155793843,0.5239367389854616,3.14,-2.3995275176369337
264,0.28248146992952594,0.2677498539548681,0.08988318724674373,4.327898935988441,1.8141492023926045,2.056573298679777,4.270439665556445,1.0,0.2543475460000954,0.574433288699421,-0.10315591573448399,0.5236140038477939,3.14,-2.399781476954274
265,0.28247951886771344,0.2677586736747746,0.08985081934296327,4.327901661421159,1.8141403274680574,2.056573333928353,4.270506693156554,1.0,0.2544258687733032,0.5744211865381614,-0.10312699171502719,0.523291166898136,3.14,-2.4000355180896142
266,0.2824775596187676,0.2677674924965929,0.08981841602234118,4.327904388852174,1.8141314533968573,2.0565733665856247,4.270573742987038,1.0,0.2545042141425655,0.5744090587450664,-0.10309799943609431,0.5229682281694784,3.14,-2.400289641066162
267,0.28247559217747104,0.2677763104099913,0.08978597726186327,4.327907118281505,1.8141225801893504,2.056573396647998,4.270640815000094,1.0,0.2545825820456957,0.5743969052955128,-0.10306893883428951,0.5226451876950339,3.14,-2.400543845907091
268,0.28247361653863584,0.2677851274046205,0.08975350303858871,4.327909849709163,1.8141137078559009,2.0565734241118827,4.2707079091477365,1.0,0.25466097242029456,0.5743847261648979,-0.10303980984629509,0.522322045508238,3.14,-2.400798132635544
269,0.2824716326970982,0.26779394347011204,0.08972099332964517,4.327912583135157,1.8141048364068926,2.0565734489736873,4.270775025381799,1.0,0.2547393852037514,0.5743725213286421,-0.1030106124088747,0.5219988016427489,3.14,-2.401052501274629
270,0.2824696406477241,0.26780275859608177,0.08968844811222881,4.327915318559481,1.8140959658527251,2.0565734712298256,4.270842163653933,1.0,0.2548178203332425,0.5743602907621868,-0.10298134645887083,0.5216754561324484,3.14,-2.4013069518474217
271,0.2824676403854051,0.2678115727721264,0.08965586736361428,4.327918055982131,1.8140870962038176,2.0565734908767106,4.270909323915609,1.0,0.25489627774573276,0.5743480344409966,-0.10295201193320871,0.5213520090114414,3.14,-2.4015614843769644
272,0.28246563190506147,0.2678203859878261,0.08962325106112494,4.327920795403095,1.8140782274706058,2.056573507910755,4.270976506118114,1.0,0.2549747573779742,0.5743357523405592,-0.10292260876889515,0.5210284603140569,3.14,-2.4018160988862656
273,0.2824636152016408,0.26782919823274354,0.08959059918218504,4.3279235368223485,1.8140693596635433,2.0565735223283776,4.271043710212551,1.0,0.2550532591665046,0.5743234444363827,-0.10289313690301806,0.5207048100748485,3.14,-2.4020707953983003
274,0.28246159027012013,0.2678380094964244,0.08955791170426018,4.327926280239861,1.8140604927931012,2.056573534125998,4.271110936149841,1.0,0.2551317830476497,0.5743111107039998,-0.10286359627274935,0.5203810583285942,3.14,-2.40232557393601
275,0.28245955710550213,0.2678468197683955,0.08952518860490948,4.327929025655602,1.8140516268697693,2.0565735433000345,4.271178183880726,1.0,0.25521032895752227,0.5742987511189666,-0.10283398681534539,0.5200572051102965,3.14,-2.4025804345223016
276,0.2824575157028193,0.26785562903816795,0.08949242986175333,4.327931773069531,1.8140427619040538,2.05657354984691,4.271245453355759,1.0,0.2552888968320204,0.5742863656568618,-0.10280430846814557,0.519733250455184,3.14,-2.402835377180048
277,0.28245546605713134,0.26786443729523435,0.0894596354524859,4.327934522481596,1.8140338979064794,2.0565735537630494,4.271312744525312,1.0,0.25536748660682895,0.5742739542932874,-0.10277456116857461,0.5194091943987107,3.14,-2.403090401932088
278,0.28245340816352715,0.26787324452907074,0.08942680535487263,4.327937273891742,1.8140250348875877,2.056573555044878,4.271380057339572,1.0,0.25544609821741876,0.5742615170038703,-0.10274474485414353,0.5190850369765565,3.14,-2.4033455088012254
279,0.28245134201712335,0.2678820507291347,0.08939393954675776,4.327940027299908,1.8140161728579391,2.056573553688824,4.271447391748544,1.0,0.2555247315990464,0.5742490537642606,-0.10271485946244921,0.5187607782246276,3.14,-2.40360069781023
280,0.28244926761306544,0.2678908558848675,0.08936103800605692,4.327942782706025,1.8140073118281106,2.0565735496913162,4.271514747702048,1.0,0.25560338668675386,0.574236564550133,-0.10268490493117549,0.5184364181790572,3.14,-2.403855968981836
281,0.28244718494652854,0.26789965998569276,0.08932810071075224,4.327945540110014,1.813998451808697,2.056573543048789,4.271582125149718,1.0,0.25568206341536825,0.5742240493371864,-0.10265488119809356,0.5181119568762054,3.14,-2.404111322338744
282,0.28244509401271356,0.2679084630210161,0.0892951276389072,4.327948299511794,1.8139895928103114,2.056573533757673,4.271649524041006,1.0,0.25576076171950296,0.5742115081011452,-0.10262478820106415,0.5177873943526594,3.14,-2.4043667579036176
283,0.2824429948068539,0.26791726498022694,0.0892621187686594,4.3279510609112775,1.8139807348435835,2.0565735218144066,4.271716944325178,1.0,0.25583948153355474,0.5741989408177574,-0.1025946258780352,0.5174627306452346,3.14,-2.404622275699086
284,0.28244088732421074,0.2679260658526967,0.08922907407821543,4.327953824308363,1.8139718779191611,2.056573507215426,4.271784385951313,1.0,0.25591822279170673,0.5741863474627975,-0.1025643941670456,0.517137965790974,3.14,-2.404877875747743
285,0.2824387715600734,0.2679348656277801,0.08919599354586602,4.327956589702949,1.8139630220477092,2.056573489957173,4.271851848868308,1.0,0.25599698542792526,0.5741737280120645,-0.1025340930062238,0.5168130998271494,3.14,-2.405133558072147
286,0.2824366475097604,0.2679436642948129,0.08916287714996605,4.327959357094922,1.813954167239912,2.0565734700360876,4.271919333024872,1.0,0.2560757693759617,0.5741610824413833,-0.10250372233378935,0.516488132791261,3.14,-2.405389322694819
287,0.2824345151686212,0.26795246184311583,0.08912972486895716,4.327962126484168,1.8139453135064687,2.056573447448616,4.27198683836953,1.0,0.2561545745693515,0.5741484107266049,-0.10247328208805336,0.5161630647210385,3.14,-2.4056451696382455
288,0.2824323745320326,0.26796125826199063,0.08909653668135517,4.327964897870557,1.8139364608580981,2.056573422191203,4.272054364850619,1.0,0.2562334009414142,0.5741357128436062,-0.10244277220741972,0.5158378956544403,3.14,-2.4059010989248764
289,0.28243022559540465,0.26797005354072373,0.08906331256574529,4.327967671253959,1.8139276093055345,2.0565733942602993,4.27212191241629,1.0,0.2563122484252524,0.5741229887682897,-0.10241219263038409,0.5155126256296553,3.14,-2.4061571105771256
290,0.2824280683541731,0.26797884766858254,0.08903005250079708,4.3279704466342315,1.8139187588595316,2.0565733636523538,4.272189481014511,1.0,0.2563911169537531,0.5741102384765856,-0.10238154329553684,0.515187254685102,3.14,-2.4064132046173694
291,0.2824259028038056,0.2679876406348183,0.08899675646525454,4.327973224011234,1.8139099095308593,2.056573330363822,4.272257070593061,1.0,0.25647000645958623,0.5740974619444503,-0.10235082414156244,0.5148617828594293,3.14,-2.4066693810679483
292,0.2824237289397968,0.2679964324286631,0.08896342443793864,4.327976003384806,1.813901061330307,2.056573294391156,4.272324681099531,1.0,0.2565489168752053,0.5740846591478674,-0.10232003510723962,0.514536210191517,3.14,-2.406925639951165
293,0.28242154675767644,0.2680052230393349,0.08893005639775495,4.327978784754789,1.8138922142686789,2.056573255730817,4.272392312481325,1.0,0.25662784813284645,0.5740718300628472,-0.10228917613144323,0.5142105367204759,3.14,-2.4071819812892867
294,0.2824193562530007,0.2680140124560324,0.08889665232367107,4.327981568121016,1.813883368356798,2.056573214379264,4.272459964685663,1.0,0.2567068001645288,0.5740589746654282,-0.10225824715314445,0.5138847624856482,3.14,-2.4074384051045423
295,0.2824171574213565,0.2680228006679377,0.08886321219476184,4.327984353483307,1.8138745236055052,2.0565731703329586,4.272527637659575,1.0,0.25678577290205423,0.5740460929316762,-0.10222724811141129,0.5135588875266077,3.14,-2.407694911419123
296,0.2824149502583616,0.26803158766421564,0.08882973599014679,4.327987140841486,1.8138656800256578,2.056573123588367,4.272595331349904,1.0,0.25686476627700694,0.5740331848376851,-0.10219617894540989,0.5132329118831604,3.14,-2.407951500255183
297,0.2824127347596645,0.2680403734340145,0.08879622368905779,4.327989930195353,1.813856837628131,2.056573074141956,4.272663045703303,1.0,0.2569437802207533,0.5740202503595762,-0.10216503959440323,0.5129068355953447,3.14,-2.408208171634838
298,0.2824105109209437,0.2680491579664645,0.08876267527078152,4.327992721544723,1.8138479964238174,2.0565730219901956,4.272730780666242,1.0,0.25702281466444177,0.5740072894735004,-0.10213382999775504,0.5125806587034314,3.14,-2.408464925580167
299,0.28240827873790897,0.2680579412506802,0.08872909071469963,4.327995514889379,1.8138391564236265,2.0565729671295587,4.272798536184997,1.0,0.2571018695390031,0.5739943021556361,-0.1021025500949275,0.5122543812479246,3.14,-2.4087217621132098
300,0.28240603820630056,0.26806672327575787,0.08869547000027127,4.327998310229116,1.8138303176384856,2.0565729095565195,4.27286631220566,1.0,0.25718094477514936,0.5739812883821914,-0.10207119982548372,0.5119280032695616,3.14,-2.4089786812559684
301,0.28240378932188975,0.2680755040307768,0.0886618131070281,4.328001107563715,1.8138214800793395,2.0565728492675572,4.272934108674132,1.0,0.2572600403033742,0.5739682481294027,-0.10203977912908764,0.5116015248093134,3.14,-2.4092356830304062
302,0.2824015320804776,0.26808428350480007,0.088628120014602,4.328003906892945,1.8138126437571498,2.0565727862591507,4.273001925536126,1.0,0.25733915605395324,0.5739551813735366,-0.10200828794550472,0.5112749459083848,3.14,-2.409492767458448
303,0.28239926647789715,0.2680930616868714,0.08859439070268499,4.328006708216572,1.8138038086828974,2.0565727205277815,4.273069762737165,1.0,0.25741829195694327,0.5739420880908898,-0.10197672621460395,0.510948266608215,3.14,-2.4097499345619795
304,0.282396992510015,0.268101838566022,0.08856062515106942,4.328009511534357,1.8137949748675761,2.0565726520699377,4.273137620222585,1.0,0.25749744794218127,0.5739289682577864,-0.10194509387635593,0.5106214869504779,3.14,-2.4100071843628474
305,0.28239471017272555,0.2681106141312619,0.08852682333962299,4.328012316846048,1.8137861423222013,2.056572580882106,4.273205497937529,1.0,0.2575766239392859,0.5739158218505828,-0.10191339087083563,0.5102946069770824,3.14,-2.41026451688286
306,0.2823924194619558,0.2681193883715848,0.08849298524828626,4.328015124151391,1.8137773110578048,2.056572506960778,4.273273395826956,1.0,0.25765581987765646,0.5739026488456651,-0.10188161713822305,0.5099676267301723,3.14,-2.4105219321437845
307,0.28239012037366507,0.2681281612759695,0.08845911085710795,4.328017933450119,1.8137684810854338,2.0565724303024453,4.273341313835628,1.0,0.2577350356864726,0.5738894492194494,-0.10184977261880225,0.5096405462521271,3.14,-2.4107794301673504
308,0.2823878129038454,0.26813693283337764,0.0884252001461947,4.328020744741964,1.8137596524161528,2.0565723509036076,4.273409251908124,1.0,0.2578142712946945,0.5738762229483827,-0.1018178572529641,0.5093133655855623,3.14,-2.4110370109752464
309,0.2823854970485166,0.26814570303275076,0.08839125309575394,4.3280235580266435,1.8137508250610468,2.0565722687607617,4.273477209988827,1.0,0.2578935266310628,0.5738629700089435,-0.10178587098120523,0.5089860847733294,3.14,-2.4112946745891217
310,0.28238317280373504,0.26815447186301744,0.08835726968607382,4.328026373303871,1.813741999031214,2.056572183870411,4.2735451880219335,1.0,0.2579728016240981,0.5738496903776411,-0.10175381374412998,0.5086587038585164,3.14,-2.411552421030585
311,0.28238084016558646,0.26816323931308766,0.08832324989752077,4.328029190573352,1.8137331743377716,2.05657209622906,4.273613185951447,1.0,0.25805209620210084,0.5738363840310167,-0.10172168548245086,0.5083312228844481,3.14,-2.411810250321205
312,0.28237849913018864,0.26817200537185304,0.0882891937105547,4.328032009834786,1.8137243509918552,2.056572005833216,4.273681203721184,1.0,0.25813141029315134,0.5738230509456429,-0.10168948613698865,0.5080036418946864,3.14,-2.4120681624825098
313,0.2823761496936932,0.2681807700281916,0.088255101105719,4.328034831087861,1.8137155290046147,2.056571912679391,4.273749241274765,1.0,0.2582107438251096,0.5738096910981241,-0.10165721564867307,0.5076759609330307,3.14,-2.4123261575359867
314,0.2823737918522823,0.2681895332709615,0.08822097206364064,4.328037654332262,1.8137067083872198,2.0565718167640985,4.273817298555624,1.0,0.2582900967256151,0.5737963044650972,-0.10162487395854478,0.5073481800435181,3.14,-2.412584235503082
315,0.2823714256021724,0.2681982950890065,0.08818680656503779,4.3280404795676635,1.813697889150855,2.0565717180838554,4.2738853755070005,1.0,0.2583694689220866,0.5737828910232315,-0.10159246100775428,0.5070202992704236,3.14,-2.412842396405202
316,0.28236905093961046,0.2682070554711517,0.08815260459071234,4.328043306793733,1.813689071306724,2.056571616635181,4.273953472071944,1.0,0.2584488603417224,0.5737694507492294,-0.10155997673756402,0.5066923186582605,3.14,-2.4131006402637105
317,0.2823666678608772,0.26821581440620584,0.08811836612155259,4.328046136010129,1.8136802548660467,2.056571512414599,4.274021588193312,1.0,0.25852827091149966,0.5737559836198257,-0.10152742108934877,0.5063642382517806,3.14,-2.4133589670999305
318,0.2823642763622867,0.26822457188296245,0.08808409113853322,4.328048967216503,1.8136714398400589,2.0565714054186346,4.274089723813772,1.0,0.2586077005581743,0.5737424896117883,-0.10149479400459549,0.506036058095975,3.14,-2.413617376935143
319,0.28236187644018557,0.26823332789019666,0.08804977962272048,4.328051800412501,1.8136626262400148,2.056571295643818,4.274157878875796,1.0,0.25868714920828123,0.573728968701919,-0.10146209542490506,0.5057077782360736,3.14,-2.4138758697905875
320,0.2823594680909529,0.2682420824166674,0.08801543155526984,4.328054635597758,1.8136538140771856,2.0565711830866813,4.274226053321667,1.0,0.25876661678813395,0.573715420867053,-0.10142932529199282,0.5053793987175462,3.14,-2.414134445687462
321,0.28235705131100164,0.26825083545111733,0.08798104691742843,4.328057472771902,1.8136450033628586,2.056571067743759,4.274294247093474,1.0,0.2588461032238247,0.5737018460840595,-0.10139648354768879,0.5050509195861019,3.14,-2.4143931046469205
322,0.28235462609677686,0.2682595869822716,0.08794662569051763,4.328060311934556,1.813636194108339,2.056570949611591,4.274362460133116,1.0,0.2589256084412232,0.5736882443298414,-0.10136357013393804,0.5047223408876907,3.14,-2.4146518466900773
323,0.2823521924447593,0.2682683369988407,0.0879121678559659,4.328063153085333,1.813627386324947,2.0565708286867204,4.274430692382295,1.0,0.25900513236597855,0.5736746155813366,-0.101330584992803,0.5043936626685024,3.14,-2.4149106718380025
324,0.28234975035145854,0.26827708548951446,0.08787767339528366,4.3280659962238355,1.8136185800240239,2.05657070496569,4.2744989437825245,1.0,0.2590846749235177,0.5736609598155179,-0.10129752806646286,0.5040648849749672,3.14,-2.4151695801117232
325,0.2823472998134226,0.26828583244297005,0.08784314229006841,4.328068841349663,1.8136097752169238,2.0565705784450503,4.274567214275122,1.0,0.2591642360390458,0.5736472770093928,-0.10126439929721485,0.5037360078537566,3.14,-2.415428571532224
326,0.2823448408272316,0.2682945778478671,0.08780857452201751,4.328071688462401,1.8136009719150188,2.056570449121353,4.274635503801214,1.0,0.25924381563754495,0.573633567140003,-0.10123119862747387,0.5034070313517838,3.14,-2.415687646120447
327,0.2823423733894987,0.2683033216928477,0.08777397007290548,4.328074537561636,1.8135921701296986,2.056570316991153,4.274703812301733,1.0,0.2593234136437754,0.5736198301844269,-0.10119792599977463,0.5030779555162033,3.14,-2.41594680389729
328,0.2823398974968718,0.2683120639665391,0.08773932892461954,4.328077388646936,1.8135833698723685,2.0565701820510114,4.274772139717418,1.0,0.2594030299822756,0.5736060661197776,-0.1011645813567718,0.5027487803944111,3.14,-2.416206044883608
329,0.2823374131460302,0.2683208046575489,0.08770465105912176,4.328080241717873,1.813574571154453,2.0565700442974872,4.274840485988815,1.0,0.2594826645773614,0.5735922749232057,-0.10113116464124117,0.5024195060340454,3.14,-2.4164653691002114
330,0.28233492033369206,0.26832954375447204,0.08766993645846942,4.328083096774002,1.8135657739873905,2.056569903727148,4.274908851056275,1.0,0.2595623173531255,0.5735784565718959,-0.10109767579607873,0.5020901324829871,3.14,-2.4167247765678677
331,0.2823324190566058,0.26833828124588455,0.08763518510481508,4.328085953814867,1.813556978382638,2.0565697603365636,4.274977234859955,1.0,0.259641988233438,0.5735646110430701,-0.1010641147643028,0.5017606597893596,3.14,-2.4169842673072996
332,0.28232990931155616,0.2683470171203469,0.08760039698039913,4.328088812840019,1.8135481843516683,2.0565696141223064,4.275045637339822,1.0,0.25972167714194644,0.5735507383139875,-0.10103048148905575,0.5014310880015294,3.14,-2.417243841339186
333,0.28232739109536126,0.268355751366403,0.08756557206756764,4.3280916738489825,1.8135393919059717,2.056569465080953,4.275114058435642,1.0,0.25980138400207586,0.5735368383619436,-0.10099677591360193,0.5011014171681059,3.14,-2.41750349868416
334,0.2823248644048728,0.26836448397257956,0.08753071034874962,4.328094536841288,1.8135306010570553,2.056569313209083,4.275182498086993,1.0,0.25988110873702747,0.5735229111642712,-0.10096299798133117,0.5007716473379425,3.14,-2.417763239362812
335,0.2823223292369803,0.26837321492738847,0.08749581180646732,4.328097401816453,1.8135218118164418,2.056569158503281,4.275250956233256,1.0,0.2599608512697795,0.5735089566983408,-0.10092914763575743,0.5004417785601363,3.14,-2.4180230633956863
336,0.2823197855886053,0.2683819442193245,0.08746087642334896,4.328100268773984,1.8135130241956712,2.056569000960134,4.275319432813615,1.0,0.2600406115230871,0.5734949749415597,-0.10089522482052025,0.5001118108840283,3.14,-2.4182829708032823
337,0.2823172334567062,0.2683906718368665,0.08742590418210609,4.3281031377133825,1.8135042382062996,2.0565688405762343,4.275387927767063,1.0,0.26012038941948196,0.5734809658713738,-0.10086122947938635,0.4997817443592041,3.14,-2.418542961606054
338,0.28231467283827266,0.2683993977684754,0.08739089506554636,4.328106008634143,1.8134954538599015,2.0565686773481744,4.275456441032396,1.0,0.26020018488127267,0.5734669294652678,-0.10082716155624916,0.4994515790354935,3.14,-2.4188030358244097
339,0.2823121037303341,0.2684081220025979,0.08735584905658629,4.328108881535751,1.813486671168066,2.0565685112725554,4.275524972548216,1.0,0.26027999783054384,0.5734528657007637,-0.1007930209951302,0.4991213149629716,3.14,-2.419063193478713
340,0.28230952612995264,0.26841684452766384,0.08732076613822103,4.3281117564176785,1.8134778901423991,2.056568342345979,4.2755935222529295,1.0,0.2603598281891565,0.5734387745554224,-0.10075880774017903,0.49879095219195846,3.14,-2.4193234345892805
341,0.2823069400342254,0.2684255653320861,0.0872856462935548,4.328114633279397,1.8134691107945244,2.056568170565052,4.275662090084748,1.0,0.26043967587874844,0.5734246560068446,-0.10072452173567562,0.4984604907730196,3.14,-2.419583759176383
342,0.28230434544028554,0.26843428440426176,0.08725048950578085,4.328117512120368,1.8134603331360815,2.056567995926384,4.275730675981688,1.0,0.26051954082073314,0.5734105100326694,-0.10069016292602896,0.4981299307569664,3.14,-2.419844167260245
343,0.2823017423453022,0.26844300173257246,0.08721529575819927,4.32812039294004,1.8134515571787255,2.0565678184265894,4.275799279881568,1.0,0.2605994229363001,0.5733963366105755,-0.10065573125577877,0.4977992721948561,3.14,-2.420104658861045
344,0.2822991307464797,0.26845171730538375,0.08718006503419679,4.32812327573786,1.8134427829341284,2.0565676380622873,4.2758679017220125,1.0,0.260679322146415,0.5733821357182811,-0.10062122666959715,0.4974685151379923,3.14,-2.4203652339989143
345,0.28229651064105715,0.268460431111043,0.08714479731726221,4.328126160513259,1.8134340104139803,2.056567454830099,4.27593654144045,1.0,0.2607592383718192,0.5733679073335446,-0.10058664911228725,0.49713765963792494,3.14,-2.4206258926939372
346,0.2822938820263109,0.2684691431378839,0.08710949259098905,4.328129047265669,1.8134252396299855,2.0565672687266514,4.276005198974116,1.0,0.26083917153303077,0.5733536514341654,-0.10055199852878671,0.49680670574645064,3.14,-2.420886634966151
347,0.282291244899552,0.2684778533742225,0.08707415083906292,4.328131935994503,1.8134164705938662,2.056567079748574,4.276073874260044,1.0,0.26091912155034297,0.5733393679979827,-0.10051727486416633,0.496475653515613,3.14,-2.4211474608355457
348,0.28228859925812855,0.2684865618083598,0.08703877204526678,4.328134826699177,1.81340770331736,2.0565668878925005,4.276142567235077,1.0,0.2609990883438243,0.573325057002876,-0.1004824780636305,0.49614450299770335,3.14,-2.4214083703220637
349,0.2822859450994249,0.2684952684285812,0.08700335619349382,4.328137719379089,1.8133989378122202,2.056566693155072,4.276211277835856,1.0,0.2610790718333193,0.5733107184267655,-0.1004476080725195,0.4958132542452603,3.14,-2.4216693634456004
350,0.28228328242086037,0.2685039732231541,0.0869679032677246,4.328140614033634,1.8133901740902187,2.0565664955329286,4.2762800059988315,1.0,0.26115907193844856,0.5732963522476149,-0.10041266483630977,0.49548190731106984,3.14,-2.421930440226002
351,0.2822806112198909,0.26851267618033164,0.08693241325205024,4.328143510662197,1.8133814121631422,2.0565662950227184,4.276348751660254,1.0,0.2612390885786072,0.5732819584434272,-0.10037764830061396,0.49515046224816656,3.14,-2.4221916006830675
352,0.2822779314940108,0.26852137728835074,0.08689688613064943,4.328146409264154,1.8133726520427933,2.0565660916210917,4.276417514756177,1.0,0.2613191216729663,0.5732675369922481,-0.10034255841118221,0.494818919109833,3.14,-2.422452844836547
353,0.28227524324074815,0.2685300765354327,0.08686132188782959,4.328149309838874,1.813363893740991,2.0565658853247046,4.276486295222459,1.0,0.2613991711404722,0.573253087872165,-0.10030739511390309,0.4944872779496004,3.14,-2.4227141727061428
354,0.28227254645766914,0.2685387739097814,0.08682572050796047,4.328152212385717,1.813355137269572,2.0565656761302162,4.27655509299476,1.0,0.26147923689984653,0.5732386110613081,-0.10027215835480353,0.4941555388212487,3.14,-2.422975584311507
355,0.28226984114237696,0.2685474693995869,0.08679008197554851,4.328155116904033,1.813346382640387,2.0565654640342914,4.276623908008546,1.0,0.2615593188695863,0.5732241065378499,-0.10023684808005084,0.49382370177880686,3.14,-2.423237079672244
356,0.28226712729251097,0.26855616299302265,0.08675440627518571,4.328158023393164,1.813337629865304,2.0565652490335964,4.276692740199083,1.0,0.2616394169679637,0.5732095742800062,-0.10020146423595225,0.493491766876553,3.14,-2.423498658807909
357,0.28226440490574806,0.2685648546782456,0.08671869339156783,4.328160931852448,1.813328878956207,2.0565650311248063,4.27676158950144,1.0,0.26171953111302515,0.5731950142660346,-0.10016600676895568,0.4931597341690153,3.14,-2.423760321738007
358,0.2822616739798011,0.2685735444433973,0.08668294330949441,4.328163842281207,1.8133201299249966,2.0565648103045966,4.276830455850489,1.0,0.2617996612225934,0.5731804264742374,-0.10013047562565146,0.49282760371097106,3.14,-2.4240220684819938
359,0.28225893451242184,0.26858223227660516,0.08664715601387668,4.328166754678762,1.8133113827835876,2.0565645865696482,4.276899339180906,1.0,0.2618798072142655,0.5731658108829601,-0.10009487075277254,0.4924953755574478,3.14,-2.4242838990592754
360,0.28225618650139833,0.2685909181659789,0.08661133148971974,4.328169669044414,1.8133026375439127,2.0565643599166497,4.276968239427165,1.0,0.2619599690054137,0.5731511674705918,-0.10005919209719502,0.4921630497637233,3.14,-2.4245458134892077
361,0.2822534299445559,0.26859960209961337,0.0865754697221381,4.328172585377467,1.81329389421792,2.0565641303422906,4.27703715652355,1.0,0.26204014651318486,0.573136496215566,-0.10002343960593915,0.491830626385326,3.14,-2.4248078117910965
362,0.2822506648397582,0.2686082840655876,0.08653957069634813,4.328175503677215,1.8132851528175733,2.056563897843265,4.277106090404142,1.0,0.2621203396545009,0.5731217970963607,-0.09998761322617028,0.49149810547803474,3.14,-2.425069893984197
363,0.2822478911849041,0.2686169640519647,0.0865036343976682,4.328178423942941,1.8132764133548531,2.056563662416275,4.277175041002824,1.0,0.2622005483460587,0.5731070700914984,-0.09995171290519862,0.49116548709787944,3.14,-2.425332060087714
364,0.2822451089779328,0.2686256420467929,0.08646766081153685,4.328181346173912,1.8132676758417552,2.056563424058022,4.277244008253283,1.0,0.26228077250433024,0.5730923151795472,-0.09991573859048128,0.49083277130114095,3.14,-2.4255943101208004
365,0.2822423182168209,0.26863431803810484,0.08643164992348208,4.328184270369398,1.8132589402902908,2.0565631827652173,4.277312992089008,1.0,0.2623610120455614,0.5730775323391194,-0.09987969022962241,0.49049995814435204,3.14,-2.4258566441025597
366,0.2822395188995818,0.26864299201391745,0.08639560171914722,4.328187196528655,1.8132502067124876,2.0565629385345745,4.277381992443288,1.0,0.26244126688577313,0.573062721548873,-0.09984356777037391,0.49016704768429675,3.14,-2.4261190620520425
367,0.2822367110242673,0.2686516639622315,0.0863595161842808,4.328190124650932,1.8132414751203896,2.0565626913628114,4.277451009249217,1.0,0.2625215369407617,0.5730478827875128,-0.09980737116063651,0.4898340399780109,3.14,-2.4263815639882487
368,0.2822338945889677,0.26866033387103405,0.08632339330473417,4.328193054735465,1.8132327455260548,2.056562441246652,4.277520042439687,1.0,0.26260182212609734,0.5730330160337883,-0.09977110034845998,0.48950093508278253,3.14,-2.4266441499301257
369,0.28223106959181066,0.26866900172829405,0.08628723306647447,4.328195986781483,1.81322401794156,2.056562188182825,4.277589091947395,1.0,0.26268212235712507,0.573018121266496,-0.09973475528204394,0.4891677330561522,3.14,-2.42690681989657
370,0.28222823603096253,0.2686776675219678,0.08625103545556423,4.328198920788213,1.8132152923789944,2.0565619321680613,4.277658157704839,1.0,0.262762437548965,0.5730031984644793,-0.0996983359097399,0.4888344339559125,3.14,-2.4271695739064247
371,0.282225393904629,0.26868633123999425,0.08621480045819246,4.3282018567548635,1.8132065688504653,2.0565616731990994,4.2777272396443164,1.0,0.26284276761651115,0.5729882476066277,-0.0996618421800497,0.4885010378401092,3.14,-2.4274324119784816
372,0.28222254321105317,0.26869499287029913,0.08617852806063615,4.32820479468064,1.8131978473680934,2.0565614112726838,4.277796337697929,1.0,0.262923112474432,0.5729732686718773,-0.09962527404162815,0.488167544767041,3.14,-2.4276953341314798
373,0.28221968394851726,0.2687036524007908,0.08614221824930167,4.328207734564737,1.8131891279440173,2.056561146385561,4.277865451797576,1.0,0.26300347203717134,0.5729582616392125,-0.09958863144328278,0.48783395479525965,3.14,-2.4279583403841043
374,0.2822168161153403,0.26871230981936206,0.08610587101068366,4.328210676406338,1.8131804105903913,2.056560878534483,4.277934581874962,1.0,0.26308384621894754,0.5729432264876658,-0.0995519143339761,0.4875002679835701,3.14,-2.4282214307549883
375,0.2822139397098843,0.2687209651138942,0.08606948633140399,4.328213620204624,1.8131716953193815,2.0565606077162095,4.278003727861591,1.0,0.2631642349337529,0.5729281631963165,-0.0995151226628242,0.4871664843910312,3.14,-2.428484605262711
376,0.2822110547305461,0.26872961827224895,0.08603306419819118,4.328216565958763,1.813162982143174,2.056560333927502,4.27807288968877,1.0,0.26324463809535487,0.5729130717442926,-0.09947825637909863,0.48683260407695544,3.14,-2.428747863925799
377,0.28220816117576164,0.2687382692822744,0.08599660459787804,4.32821951366791,1.8131542710739692,2.0565600571651275,4.278142067287602,1.0,0.2633250556172948,0.5728979521107704,-0.09944131543222726,0.4864986271009096,3.14,-2.429011206762724
378,0.28220525904400984,0.2687469181318046,0.08596010751741477,4.328222463331219,1.8131455621239811,2.0565597774258597,4.278211260588997,1.0,0.2634054874128888,0.5728828042749751,-0.09940429977179494,0.4861645535227143,3.14,-2.429274633791904
379,0.2822023483338051,0.2687555648086577,0.08592357294385622,4.328225414947829,1.8131368553054408,2.056559494706478,4.278280469523662,1.0,0.26348593339522725,0.5728676282161796,-0.09936720934754373,0.4858303834024452,3.14,-2.4295381450317035
380,0.2821994290437034,0.26876420930063705,0.08588700086437492,4.328228368516876,1.8131281506305938,2.0565592090037654,4.278349694022109,1.0,0.2635663934771761,0.5728524239137086,-0.0993300441093751,0.4854961168004318,3.14,-2.4298017405004324
381,0.28219650117229617,0.26877285159552916,0.08585039126625882,4.328231324037478,1.8131194481117034,2.056558920314508,4.2784189340146455,1.0,0.26364686757137507,0.5728371913469347,-0.09929280400734876,0.4851617537772588,3.14,-2.430065420216345
382,0.2821935647182206,0.26878149168110943,0.08581374413690097,4.328234281508754,1.813110747761044,2.0565586286355027,4.278488189431385,1.0,0.2637273555902382,0.5728219304952799,-0.09925548899168471,0.48482729439376615,3.14,-2.430329184197642
383,0.2821906196801482,0.26879012954513415,0.08577705946380239,4.328237240929806,1.8131020495909094,2.0565583339635474,4.278557460202238,1.0,0.26380785744595464,0.5728066413382171,-0.0992180990127637,0.48449273871104886,3.14,-2.4305930324624683
384,0.28218766605679146,0.2687987651753473,0.08574033723459294,4.328240202299735,1.8130933536136062,2.0565580362954465,4.278626746256919,1.0,0.2638883730504877,0.5727913238552694,-0.09918063402112744,0.48415808679045746,3.14,-2.430856965028914
385,0.28218470384690475,0.26880739855947716,0.08570357743700818,4.328243165617624,1.8130846598414572,2.056557735628011,4.27869604752494,1.0,0.26396890231557557,0.5727759780260103,-0.09914309396748054,0.48382333869359784,3.14,-2.431120981915013
386,0.2821817330492786,0.2688160296852367,0.08566678005889998,4.32824613088255,1.8130759682868005,2.056557431958054,4.278765363935614,1.0,0.2640494451527314,0.5727606038300651,-0.09910547880269048,0.48348849448233183,3.14,-2.4313850831387436
387,0.28217875366274686,0.2688246585403251,0.08562994508822884,4.328249098093585,1.8130672789619886,2.056557125282399,4.278834695418057,1.0,0.26413000147324167,0.5727452012471087,-0.09906778847778812,0.48315355421877765,3.14,-2.431649268718029
388,0.28217576568618197,0.26883328511242643,0.08559307251307197,4.328252067249787,1.8130585918793893,2.0565568155978684,4.278904041901185,1.0,0.2642105711881692,0.5727297702568689,-0.09903002294396943,0.482818517965309,3.14,-2.4319135386707345
389,0.2821727691184967,0.2688419093892095,0.08555616232163377,4.32825503835021,1.8130499070513861,2.056556502901297,4.278973403313712,1.0,0.2642911542083501,0.5727143108391238,-0.09899218215259487,0.4824833857845567,3.14,-2.4321778930146705
390,0.2821697639586448,0.26885053135832954,0.08551921450221493,4.328258011393888,1.8130412244903764,2.056556187189522,4.279042779584153,1.0,0.2643717504443957,0.5726988229737041,-0.09895426605519113,0.4821481577394078,3.14,-2.4324423317675903
391,0.2821667502056182,0.2688591510074255,0.085482229043249,4.32826098637986,1.8130325442087742,2.056555868459385,4.279112170640827,1.0,0.2644523598066926,0.5726833066404939,-0.0989162746034525,0.48181283389300583,3.14,-2.4327068549471895
392,0.28216372785845134,0.2688677683241226,0.08544520593327133,4.328263963307146,1.8130238662190077,2.0565555467077354,4.27918157641185,1.0,0.2645329822054013,0.5726677618194282,-0.09887820774923996,0.48147741430875185,3.14,-2.432971462571108
393,0.2821606969162189,0.26887638329603253,0.08540814516095314,4.328266942174761,1.8130151905335188,2.056555221931427,4.27925099682514,1.0,0.26461361755045776,0.5726521884904956,-0.09884006544458326,0.4811418990503035,3.14,-2.4332361546569268
394,0.28215765737803483,0.2688849959107498,0.08537104671506271,4.328269922981707,1.813006517164767,2.0565548941273186,4.279320431808413,1.0,0.26469426575157273,0.5726365866337378,-0.09880184764168135,0.48080628818157595,3.14,-2.4335009312221705
395,0.2821546092430556,0.2688936061558571,0.08533391058450195,4.3282729057269815,1.8129978461252239,2.056554563292278,4.279389881289189,1.0,0.2647749267182315,0.5726209562292498,-0.09876355429290293,0.48047058176674173,3.14,-2.433765792284305
396,0.2821515525104785,0.26890221401892195,0.08529673675827544,4.3282758904095715,1.8129891774273768,2.0565542294231745,4.279459345194786,1.0,0.2648556003596946,0.5726052972571797,-0.09872518535078682,0.4801347798702311,3.14,-2.434030737860739
397,0.28214848717953894,0.26891081948749584,0.08525952522552444,4.328278877028451,1.8129805110837292,2.056553892516887,4.2795288234523206,1.0,0.2649362865849972,0.5725896096977299,-0.09868674076804371,0.47979888255673225,3.14,-2.4342957679688224
398,0.28214541324951603,0.2689194225491171,0.08522227597549327,4.328281865582588,1.8129718471067982,2.0565535525702963,4.279598315988714,1.0,0.26501698530295087,0.5725738935311585,-0.09864822049755752,0.4794628898911906,3.14,-2.4345608826258456
399,0.28214233071972983,0.26892802319131065,0.08518498899755031,4.328284856070945,1.8129631855091146,2.0565532095802936,4.279667822730684,1.0,0.26509769642214004,0.5725581487377749,-0.09860962449238274,0.479126801938811,3.14,-2.4348260818490424
400,0.28213923958953946,0.2689366214015844,0.08514766428119352,4.32828784849246,1.8129545263032267,2.056552863543772,4.279737343604749,1.0,0.2651784198509265,0.5725423752979463,-0.09857095270574968,0.4787906187650553,3.14,-2.4350913656555853
401,0.2821361398583478,0.2689452171674349,0.08511030181602451,4.32829084284608,1.8129458695016945,2.056552514457632,4.27980687853723,1.0,0.26525915549744566,0.5725265731920933,-0.0985322050910626,0.47845434043564466,3.14,-2.4353567340625895
402,0.2821330315255989,0.26895381047634365,0.08507290159177484,4.328293839130732,1.812937215117093,2.0565521623187815,4.279876427454246,1.0,0.26533990326960877,0.5725107424006916,-0.0984933816019001,0.4781179670165588,3.14,-2.4356221870871098
403,0.2821299145907764,0.26896240131577676,0.08503546359829582,4.328296837345339,1.8129285631620136,2.0565518071241327,4.279945990281718,1.0,0.26542066307510276,0.5724948829042735,-0.09845448219201818,0.47778149857403573,3.14,-2.435887724746141
404,0.2821267890534063,0.2689709896731874,0.08499798782555353,4.328299837488809,1.8129199136490604,2.0565514488706045,4.280015566945364,1.0,0.2655014348213896,0.5724789946834266,-0.09841550681534862,0.4774449351745728,3.14,-2.4361533470566186
405,0.282123654913057,0.2689795755360131,0.08496047426365508,4.3283028395600445,1.8129112665908538,2.0565510875551216,4.280085157370707,1.0,0.2655822184157075,0.5724630777187953,-0.0983764554260015,0.4771082768849262,3.14,-2.436419054035417
406,0.28212051216933764,0.2689881588916792,0.0849229229027967,4.328305843557941,1.8129026220000266,2.0565507231746154,4.280154761483067,1.0,0.26566301376506896,0.5724471319910794,-0.09833732797826494,0.47677152377211174,3.14,-2.4366848456993515
407,0.28211736082189937,0.2689967397275965,0.08488533373333441,4.328308849481377,1.8128939798892267,2.0565503557260216,4.280224379207564,1.0,0.2657438207762632,0.572431157481036,-0.09829812442660563,0.4764346759034042,3.14,-2.4369507220651756
408,0.2821142008704372,0.2690053180311615,0.08484770674571376,4.328311857329222,1.8128853402711167,2.0565499852062854,4.280294010469117,1.0,0.2658246393558547,0.5724151541694789,-0.0982588447256709,0.47609773334633826,3.14,-2.437216683149582
409,0.2821110323146844,0.26901389378975615,0.08481004193053014,4.328314867100344,1.8128767031583737,2.0565496116123554,4.28036365519245,1.0,0.26590546941018367,0.5723991220372793,-0.09821948883028875,0.47576069616870825,3.14,-2.4374827289692034
