jkpark150901/flame_robotics_drt/experiment/inspection_ik/session_20260722_142108/fallback/inspection_ik_20260722_142201_rb20_1900es_normalized_fallback.csv
iteration,err_norm,position_error,orientation_error,tcp_x,tcp_y,tcp_z,q0_rt_joint_linear_track,q1_rt_joint_carriage,q2_rt_base,q3_rt_shoulder,q4_rt_elbow,q5_rt_wrist1,q6_rt_wrist2,q7_rt_wrist3
0,2.3899078833255416,0.9191737989857954,2.1182169775339905,6.298933658303381,1.7923179303559773,2.0769644722884624,6.164672183961927,1.0,3.14,-0.5027114625066746,-0.0028341438123331564,-3.14,3.14,3.14
1,2.0758391737095874,0.7738609422343565,1.8744115348001045,6.278236913668195,1.9451959211617162,1.9664877089488177,6.143731957439269,1.0,3.14,-0.5072625363480096,-0.24342692266738103,-3.14,3.14,3.14
2,1.7912131290876556,0.5897396339984139,1.6665538622711693,6.25681139798416,2.1466216262234363,1.7844212533096955,6.121986630749567,1.0,3.14,-0.639705966578034,-0.3193673662918807,-3.1352153061519874,3.14,3.134954563394798
3,1.5026186765497636,0.4503808520935012,1.4226090943478462,6.241124130803001,2.2879234972890314,1.5774307868419344,6.106075644623571,1.0,3.14,-0.7191107664960689,-0.4848976115128384,-3.128809739484837,3.14,3.1284547923318993
4,1.249861491453175,0.35357014035008494,1.1941830021124353,6.229670757641889,2.3125366351885916,1.3962776810979085,6.094531382223822,0.9665962747572332,3.14,-0.7417077420404325,-0.6922940159099378,-3.1215078891961303,3.14,3.12111771478101
5,1.0632891071650095,0.2943261575609415,1.0197726796209834,6.222618173086957,2.2743630117410247,1.2740906241414676,6.087489007111369,0.9338343707088308,3.14,-0.7237148623571511,-0.8866656058167945,-3.113824057066863,3.14,3.1133932307574024
6,0.94055839822523,0.2636644530003704,0.9019762789670086,6.218613402354089,2.220443424858996,1.2044607681300028,6.083538257308644,0.9128675233541506,3.14,-0.6881729469796222,-1.0421276594554016,-3.106389189450496,3.14,3.1058999463321184
7,0.8651546373665298,0.24921255598686257,0.8280860503654128,6.216130605608448,2.1713726643594966,1.1698427654129635,6.081118232131144,0.9023494869438595,3.14,-0.6488650299171236,-1.1573414919414098,-3.0997655074114734,3.14,3.0992034691613224
8,0.8206793278560641,0.24199831263190963,0.7840002239975014,6.2141790916439446,2.1330387023948467,1.1556470339391303,6.079223888234605,0.8991986746550444,3.14,-0.6120126928746459,-1.2399860693269535,-3.094275974982442,3.14,3.0936321419108452
9,0.7950160140387784,0.23746451231249097,0.7586285605808138,6.212309658419398,2.1053638111732282,1.1523304581027127,6.077402153797555,0.9009155852040013,3.14,-0.5798760549924528,-1.298810765311076,-3.0899828194221977,3.14,3.0892522718991633
10,0.7802413585424263,0.23379211859046495,0.7443366477006853,6.210403888447175,2.0864056080865994,1.1542442399519797,6.0755349379830665,0.9057476860432723,3.14,-0.5528059069378249,-1.3411248669885887,-3.086769245630579,3.14,3.0859495237758625
11,0.7714909754209537,0.2304148557165962,0.7362421545193771,6.208483944683762,2.0739701030170474,1.1582493617274647,6.073646053272329,0.9125110561327272,3.14,-0.5302975108401817,-1.3723948020645456,-3.084438229061916,3.14,3.083528162760617
12,0.765897859904788,0.22723364119163555,0.7313826320219466,6.2066043466534,2.0661566599041845,1.1627103778470234,6.071791833658374,0.92041735426989,3.14,-0.5115409921926023,-1.396480517426933,-3.0827822179137505,3.14,3.081781244277936
13,0.7618336467728611,0.2242794253646792,0.7280458022628404,6.2048082326515654,2.061484377646488,1.1668542431085591,6.070016988237036,0.9289482275863961,3.14,-0.4957008908887861,-1.416002643794375,-3.0816185375795526,3.14,3.080526350110155
14,0.7584151859294173,0.2215900672771476,0.7252973398366299,6.20311757449147,2.0588669761944747,1.1703822705861935,6.068344715568918,0.9377687017529827,3.14,-0.4820428947197148,-1.432682034600194,-3.0808012701766803,3.14,3.079617654155351
15,0.7551958779794017,0.21917709823210993,0.7226684731239855,6.201536606953803,2.0575416784631235,1.1732418001076572,6.066780151631359,0.9466676152274116,3.14,-0.46997616298523054,-1.447612110407718,-3.0802207989748016,3.14,3.0789455606865093
16,0.7519764122381184,0.21702589631195573,0.71995710756011,6.20005830988405,2.0569926473924918,1.1754953160539394,6.065316909394361,0.9555164286329174,3.14,-0.4590525113994652,-1.4614632547812159,-3.079798305917619,3.14,3.078431245886867
17,0.7486907320001142,0.2151052984789206,0.7171050832733509,6.198670081386643,2.0568836053083204,1.1772481535184864,6.063942815325145,0.9642407223650002,3.14,-0.44894664678238144,-1.474629828025962,-3.0794790563679495,3.14,3.0780199620286885
18,0.745338930424717,0.21337733234381026,0.7141249214365701,6.1973576541109905,2.0570037530453495,1.1786109464608157,6.062643881928694,0.9728006290566797,3.14,-0.439430751034612,-1.4873323183109994,-3.0792261802269114,3.14,3.077674826525896
19,0.7419491572256574,0.21180418553843797,0.7110579801023496,6.19610740187648,2.057226815560197,1.1796822110768481,6.061406659609591,0.981177617331471,3.14,-0.43035004862598564,-1.4996860320541354,-3.07901554825001,3.14,3.0773717009976522
20,0.7385571780073641,0.21035218602685732,0.7079520335468646,6.194907472996464,2.057481387550177,1.180542141322293,6.060219404154197,0.9893657722154616,3.14,-0.42160213890748655,-1.511745739426558,-3.078831823591763,3.14,3.077095243311744
21,0.7351963933232646,0.2089934771112057,0.7048504626841511,6.1937481726783465,2.0577302867859624,1.181252233188059,6.059072483719803,0.997366210334239,3.14,-0.41312080069431756,-1.5235336244001159,-3.078665555622981,3.14,3.0768360009969014
22,0.7320882946261398,0.2083679632889202,0.701788065365162,6.1926219166824295,2.0527730756496285,1.1818575775370943,6.057958349481116,1.0,3.14,-0.40486397014991476,-1.5350560336748222,-3.078511117149903,3.14,3.076588347765231
23,0.7302043790394029,0.2080650804803378,0.6999031018822229,6.191628280172592,2.0465113300322675,1.1828574694537641,6.056974712892484,1.0,3.14,-0.3978560388382116,-1.544085931798949,-3.0783798642751954,3.14,3.0763632218977754
24,0.7294834683408383,0.20767378464108094,0.6992588422892091,6.190809667218908,2.0419069225476614,1.184199738657647,6.056163452361855,1.0,3.14,-0.3924562905743442,-1.5501926965541548,-3.078286989910393,3.14,3.0761757849616314
25,0.729409263269679,0.20725349215602454,0.6992992690103343,6.1901503093512185,2.038597545837041,1.18558057143012,6.055509375785698,1.0,3.14,-0.3884048280370802,-1.5542210931667138,-3.0782357081086555,3.14,3.076029453551217
26,0.729661170397358,0.2068459642062668,0.6996773527069924,6.189631501031534,2.036270165048664,1.1868437574902782,6.054994277333302,1.0,3.14,-0.38543578258341865,-1.5568038769748191,-3.0782204500137538,3.14,3.075918793881902
27,0.7300481299706832,0.20647726698080618,0.7001858446251755,6.18923307894615,2.034668774998672,1.1879224935218309,6.054598403153133,1.0,3.14,-0.3833070995784577,-1.5584033224937823,-3.078232822690942,3.14,3.0758355044545476
28,0.7304624477668591,0.20616096349924357,0.7007082296082598,6.188934989022633,2.0335920427325735,1.18880144218579,6.054302021538368,1.0,3.14,-0.3818130974038409,-1.5593496446069177,-3.0782645422572443,3.14,3.075771364475008
29,0.7308484539135075,0.20590149678015687,0.7011850035003532,6.188718492894433,2.03288640656996,1.189492651298986,6.054086640129256,1.0,3.14,-0.38078706115725175,-1.5598736891997933,-3.078308658873527,3.14,3.075719468480532
30,0.7311817497712285,0.20569724375962742,0.7015910922569025,6.188566911868373,2.0324377214762825,1.1900207652995642,6.0539357631195685,1.0,3.14,-0.3800985813830389,-1.5601333460356668,-3.0783598813777573,3.14,3.075674557050442
31,0.7314558062984876,0.20554300073801476,0.7019211241612564,6.188465963840745,2.0321630721527337,1.1904143429109804,6.053835241233325,1.0,3.14,-0.3796485431580843,-1.5602341208479136,-3.078414472313585,3.14,3.075632915726112
32,0.7316735487847463,0.2054318395852986,0.7021801017080507,6.188403800042971,2.032003517004914,1.1907010948432684,6.053773320083442,1.0,3.14,-0.37936345610511446,-1.5602447027538067,-3.0784699737835233,3.14,3.0755921034172724
33,0.7318422511355392,0.20535638239946358,0.7023777027669018,6.188370848809643,2.0319180378614132,1.1909055639948705,6.053740493639531,1.0,3.14,-0.37919003341958896,-1.5602084584663842,-3.078524898955785,3.14,3.075550645633448
34,0.7319705779187741,0.20530959653106062,0.7025249642497003,6.188359553813692,2.031878706107946,1.1910482666330984,6.053729250219611,1.0,3.14,-0.37909044543682235,-1.5601517315115867,-3.078578452042168,3.14,3.0755077556614405
35,0.7320669849089038,0.20528522752293185,0.7026324882071355,6.188364070031783,2.0318669458707164,1.1911456564902896,6.05373377445409,1.0,3.14,-0.37903839034179254,-1.5600897075409674,-3.0786303001606132,3.14,3.075463107284219
36,0.7321389520479783,0.2052779796948376,0.7027095888627078,6.188379958924793,2.0318707231351554,1.1912105085200597,6.053749646978768,1.0,3.14,-0.3790159698379396,-1.5600304713169308,-3.0786804003015957,3.14,3.0754166623711776
37,0.7321927052627389,0.20528353499344892,0.7027639959057813,6.1884039072252275,2.0318824815303276,1.1912524769617179,6.05377356653545,1.0,3.14,-0.37901128206864054,-1.559977750306398,-3.078728875362973,3.14,3.0753685473740613
38,0.7322332080593663,0.20529847857046818,0.7028018659353934,6.18843348145815,2.031897659682719,1.1912786863077942,6.053803106871624,1.0,3.14,-0.3790166154908192,-1.5599327247742476,-3.0787759299297477,3.14,3.075318969450451
39,0.7322642872824794,0.2053201790338252,0.7028279469666536,6.188466922166139,2.031913648850528,1.191294280340211,6.053836512636706,1.0,3.14,-0.3790271249655823,-1.5598951885284948,-3.0788217962342754,3.14,3.075268162681233
40,0.7322888123341086,0.20534665452133877,0.7028458029658824,6.188502976812818,2.031929075739153,1.1913028955223572,6.053872533434478,1.0,3.14,-0.37903988212854534,-1.5598642679638626,-3.0788667018752074,3.14,3.0752163559821546
41,0.7323088824656423,0.20537644313195602,0.702858045780029,6.188540767606498,2.03194332012539,1.1913070492044082,6.05391029241856,1.0,3.14,-0.3790532083890578,-1.5598388478401648,-3.078910852490219,3.14,3.0751637559204115
42,0.7323259988419981,0.2054084874232834,0.7028665473526802,6.188579689275033,2.0319561984127974,1.191308446283182,6.05394918457282,1.0,3.14,-0.37906621628403225,-1.559817807629139,-3.0789544242027924,3.14,3.0751105392684006
43,0.7323412113890668,0.20544203691171997,0.7028726206385038,6.188619331571841,2.03196776194676,1.1913082142653857,6.053988799538923,1.0,3.14,-0.379078501079936,-1.5598001394646384,-3.0789975620860623,3.14,3.0750568515466354
44,0.7323552380534286,0.20547656901088404,0.7028771665730187,6.188659421596579,2.0319781729391604,1.1913070788805775,6.0540288641342315,1.0,3.14,-0.37908993845158206,-1.559784995149379,-3.079040382036283,3.14,3.075002808955252
45,0.7323685581248609,0.205511726927478,0.7028807892034994,6.188699781597595,2.0319876316140477,1.1913054922892512,6.05406920026955,1.0,3.14,-0.3791005554820037,-1.559771693083916,-3.0790829743263104,3.14,3.0749485019697604
46,0.7323814830997553,0.20554727215622198,0.7028838832532063,6.188740298609759,2.031996336229256,1.19130372467885,6.054109694649779,1.0,3.14,-0.37911045123410403,-1.559759704572022,-3.079125407749948,3.14,3.0748939995159064
47,0.7323942091154553,0.20558304897618504,0.7028866990444622,6.18878090296458,2.0320044635005785,1.1913019283317188,6.054150277314357,1.0,3.14,-0.3791197500393197,-1.5597486312880366,-3.079167733716308,3.14,3.074839353085873
48,0.7324068548472582,0.20561895847147313,0.7028893895350737,6.18882155333178,2.032012161147631,1.191300181480874,6.054190906689941,1.0,3.14,-0.37912857579252707,-1.5597381806704105,-3.0792099899544096,3.14,3.0747846004583486
49,0.732419488292603,0.20565493989677644,0.7028920436560162,6.1888622264866795,2.0320195472101554,1.191298517648511,6.054231559358235,1.0,3.14,-0.3791370392927506,-1.559728142815491,-3.0792522036812033,3.14,3.074729768877409
50,0.7324321452840532,0.20569095756970093,0.7028947094308722,6.188902910439717,2.0320267127861027,1.1912969447775017,6.054272223180597,1.0,3.14,-0.37914523334486167,-1.5597183704931263,-3.0792943942030013,3.14,3.0746748776614736
51,0.732444841991672,0.20572699183124138,0.7028974096512931,6.188943599917554,2.0320337261800225,1.19129545733913,6.054312892772121,1.0,3.14,-0.37915323220616476,-1.5597087627688035,-3.0793365749853163,3.14,3.07461994027831
52,0.7324575831550021,0.205763032940122,0.702900152248601,6.1889842934604795,2.0320406373200455,1.1912940437157395,6.054353566591673,1.0,3.14,-0.3791610932388332,-1.5596992521023487,-3.079378755257526,3.14,3.074564965953195
53,0.7324703673476953,0.20579907704142106,0.7029029369678554,6.189024991610192,2.032047481850396,1.1912926904829033,6.054394245122896,1.0,3.14,-0.3791688594818895,-1.5596897945011035,-3.0794209412293614,3.14,3.074509960887738
54,0.7324831902269293,0.20583512357287742,0.7029057595211452,6.18906569581825,2.0320542846393437,1.1912913847149067,6.0544349297769,1.0,3.14,-0.37917656241124287,-1.5596803622037554,-3.0794631369948093,3.14,3.0744549291653227
55,0.7324960464476944,0.2058711736473528,0.702908614063029,6.189106407819985,2.0320610626342526,1.191290115073733,6.0544756222614735,1.0,3.14,-0.3791842245064258,-1.559670938374296,-3.0795053451913694,3.14,3.0743998734113562
56,0.732508930716968,0.20590722908330272,0.7029114945788214,6.18914712930072,2.03206782709747,1.191288872183408,6.054516324243666,1.0,3.14,-0.3791918614553826,-1.5596615133407166,-3.079547567472408,3.14,3.0743447952662533
57,0.7325218383122044,0.20594329185480284,0.7029143955906334,6.189187861739443,2.0320745853038256,1.1912876486119333,6.054557037190674,1.0,3.14,-0.37919948395135816,-1.5596520819883224,-3.079589804839709,3.14,3.0742896957183774
58,0.7325347652803362,0.2059793638051313,0.7029173124522332,6.189228606355245,2.032081341795505,1.1912864386608606,6.05459776231423,1.0,3.14,-0.3792070991014276,-1.5596426419950338,-3.0796320578734693,3.14,3.0742345753342692
59,0.7325477084575853,0.2060154465198083,0.702920241409559,6.1892693641093715,2.0320880992875483,1.1912852380814334,6.0546385005711905,1.0,3.14,-0.3792147114965922,-1.5596331926667237,-3.079674326888425,3.14,3.074179434414909
60,0.7325606653981744,0.20605154129128758,0.702923179538726,6.189310135734053,2.0320948593063592,1.1912840437837589,6.054679252691327,1.0,3.14,-0.3792223240032427,-1.5596237341906196,-3.0797166120377186,3.14,3.074124273099655
61,0.7325736342651062,0.2060876491324134,0.7029261246296437,6.189350921771268,2.0321016226296926,1.1912828535726516,6.054720019215363,1.0,3.14,-0.37922993833448493,-1.5596142671733357,-3.0797589133804473,3.14,3.0740690914338322
62,0.732586613713302,0.2061237708124175,0.7029290750546495,6.189391722612136,2.0321083895826133,1.1912816659240406,6.0547608005339,1.0,3.14,-0.3792375554531256,-1.5596047923679313,-3.079801230924448,3.14,3.074013889411528
63,0.7325996027809669,0.20615990690025165,0.7029320296432363,6.189432538532408,2.0321151602313545,1.1912804798046226,6.05480159692259,1.0,3.14,-0.37924517584941997,-1.5595953105230376,-3.079843564652523,3.14,3.0739586670018233
64,0.7326126007961973,0.20619605780697686,0.7029349875727369,6.189473369722238,2.0321219345064354,1.1912792945316255,6.054842408571698,1.0,3.14,-0.37925279972792775,-1.559585822308205,-3.0798859145378423,3.14,3.073903424164193
65,0.7326256073007649,0.206232223823224,0.7029379482781775,6.189514216309939,2.032128712277919,1.1912781096669618,6.054883235609753,1.0,3.14,-0.37926042712991714,-1.5595763282848418,-3.079928280552453,3.14,3.07384816085701
66,0.732638621990274,0.2062684051503297,0.7029409113809572,6.1895550783802875,2.032135493399108,1.1912769249393962,6.054924078121772,1.0,3.14,-0.3792680580111016,-1.5595668289028257,-3.0799706626715286,3.14,3.0737928770417873
67,0.732651644668603,0.20630460192506425,0.7029438766342132,6.189595955988175,2.032142277730047,1.1912757401886522,6.054964936162868,1.0,3.14,-0.37927569228915375,-1.5595573245102405,-3.0800130608751006,3.14,3.073737572684908
68,0.7326646752141281,0.20634081423860545,0.7029468438821077,6.189636849168505,2.032149065148546,1.1912745553261916,6.055005809768148,1.0,3.14,-0.3792833298712875,-1.5595478153686497,-3.0800554751483755,3.14,3.0736822477579353
69,0.7326777135552803,0.20637704215071426,0.7029498130302227,6.189677757943236,2.0321558555538615,1.1912733703083171,6.055046698959727,1.0,3.14,-0.37929097066908174,-1.5595383016695616,-3.0800979054813347,3.14,3.07362690223721
70,0.7326907596532424,0.2064132857000074,0.7029527840245229,6.189718682326197,2.032162648866342,1.1912721851181785,6.055087603751569,1.0,3.14,-0.37929861460542813,-1.5595287835497982,-3.080140351868024,3.14,3.0735715361031373
71,0.7327038134899894,0.206449544911287,0.7029557568367382,6.189759622326381,2.032169445025093,1.1912709997540525,6.055128524152758,1.0,3.14,-0.37930626161683945,-1.5595192611047488,-3.0801828143057715,3.14,3.0735161493394036
72,0.7327168750601987,0.20648581980058303,0.7029587314544522,6.189800577950047,2.032176243984905,1.1912698142219553,6.05516946016963,1.0,3.14,-0.3793139116532118,-1.5595097343992073,-3.080225292794452,3.14,3.0734607419322386
73,0.732729944365927,0.20652211037859666,0.7029617078745334,6.189841549202087,2.0321830457131096,1.191268628531168,6.055210411807127,1.0,3.14,-0.3793215646763378,-1.5595002034759022,-3.0802677873358544,3.14,3.073405313869782
74,0.7327430214132035,0.206558416652951,0.7029646860989206,6.189882536086838,2.0321898501867435,1.1912674426916743,6.055251379069619,1.0,3.14,-0.37932922065795277,-1.5594906683619991,-3.080310297933167,3.14,3.073349865141567
75,0.7327561062099273,0.2065947386296284,0.7029676661320007,6.18992353860854,2.0321966573901338,1.191266256712807,6.055292361961375,1.0,3.14,-0.3793368795777452,-1.5594811290739337,-3.0803528245905745,3.14,3.0732943957381202
76,0.7327691987646314,0.20663107631386934,0.7029706479790536,6.189964556771596,2.0322034673129585,1.1912650706026437,6.055333360486809,1.0,3.14,-0.3793445414215536,-1.559471585620913,-3.0803953673129545,3.14,3.0732389056506544
77,0.7327822990858021,0.20666742971068403,0.7029736316453871,6.190005590580665,2.0322102799487283,1.191263884367833,6.055374374650593,1.0,3.14,-0.3793522061798392,-1.5594620380073998,-3.0804379261056534,3.14,3.073183394870847
78,0.7327954071815462,0.20670379882514114,0.7029766171359025,6.1900466400407,2.0322170952936416,1.191262698013653,6.0554154044576824,1.0,3.14,-0.3793598738464545,-1.559452486234835,-3.0804805009743275,3.14,3.073127863390678
79,0.7328085230594624,0.2067401836624999,0.7029796044549204,6.1900877051569285,2.0322239133457396,1.1912615115441798,6.055456449913307,1.0,3.14,-0.3793675444176822,-1.5594429303028017,-3.0805230919248308,3.14,3.0730723112023215
80,0.7328216467266325,0.20677658422826103,0.7029825936061519,6.190128785934817,2.0322307341042958,1.1912603249624987,6.055497511022934,1.0,3.14,-0.3793752178915088,-1.5594333702097978,-3.0805656989631394,3.14,3.0730167382980667
81,0.7328347781896714,0.20681300052816964,0.7029855845927507,6.190169882380035,2.0322375575693847,1.1912591382709037,6.05553858779223,1.0,3.14,-0.37938289426708843,-1.5594238059537295,-3.0806083220953,3.14,3.072961144670269
82,0.7328479174547944,0.206849432568183,0.7029885774173932,6.190210994498405,2.032244383741593,1.191257951471086,6.0555796802270185,1.0,3.14,-0.37939057354435785,-1.5594142375322158,-3.0806509613273994,3.14,3.0729055303113175
83,0.7328610645279,0.20688588035444852,0.7029915720823668,6.19025212229588,2.032251212621815,1.191256764564281,6.055620788333246,1.0,3.14,-0.37939825572376334,-1.5594046649427729,-3.0806936166655428,3.14,3.072849895213615
84,0.7328742194146352,0.20692234389325498,0.702994568589655,6.190293265778498,2.032258044211121,1.1912555775513949,6.05566191211695,1.0,3.14,-0.3794059408060735,-1.5593950881829142,-3.0807362881158435,3.14,3.0727942393695664
85,0.7328873821204624,0.2069588231910118,0.7029975669410118,6.190334424952371,2.0322648785106776,1.1912543904330972,6.055703051584238,1.0,3.14,-0.3794136287922529,-1.5593855072502005,-3.0807789756844155,3.14,3.072738562771572
86,0.7329005526507069,0.206995318254215,0.7030005671380203,6.190375599823659,2.0322717155216954,1.1912532032098946,6.055744206741267,1.0,3.14,-0.37942131968337955,-1.5593759221422585,-3.080821679377371,3.14,3.072682865412025
87,0.7329137310105971,0.207031829089426,0.7030035691821419,6.190416790398557,2.0322785552454015,1.19125201588218,6.05578537759423,1.0,3.14,-0.37942901348059244,-1.559366332856786,-3.0808643992008196,3.14,3.0726271472833098
88,0.7329269172052914,0.2070683557032546,0.7030065730747497,6.190457996683287,2.0322853976830157,1.1912508284502732,6.055826564149344,1.0,3.14,-0.37943671018505776,-1.5593567393915457,-3.0809071351608663,3.14,3.072571408377802
89,0.7329401112399044,0.2071048981023448,0.7030095788171591,6.190499218684089,2.032292242835754,1.191249640914445,6.055867766412846,1.0,3.14,-0.37944440979795213,-1.5593471417443538,-3.080949887263615,3.14,3.0725156486878697
90,0.7329533131195215,0.2071414562933662,0.7030125864106446,6.190540456407213,2.0322990907048144,1.191248453274937,6.055908984390986,1.0,3.14,-0.37945211232045006,-1.559337539913072,-3.080992655515167,3.14,3.0724598682058732
91,0.73296652284921,0.20717803028300827,0.7030155958564547,6.190581709858924,2.0323059412913866,1.1912472655319712,6.055950218090022,1.0,3.14,-0.3794598177537212,-1.559327933895595,-3.081035439921623,3.14,3.072404066924167
92,0.732979740434026,0.2072146200779676,0.703018607155822,6.1906229790454885,2.0323127945966473,1.191246077685762,6.055991467516218,1.0,3.14,-0.3794675260989264,-1.5593183236898436,-3.081078240489083,3.14,3.072348244835099
93,0.7329929658790215,0.20725122568495516,0.7030216203099694,6.19066426397318,2.0323196506217625,1.1912448897365158,6.056032732675846,1.0,3.14,-0.3794752373572191,-1.5593087092937579,-3.0811210572236485,3.14,3.072292401931014
94,0.7330061991892473,0.2072878471106869,0.7030246353201144,6.190705564648278,2.0323265093678926,1.1912437016844393,6.056074013575181,1.0,3.14,-0.3794829515297455,-1.5592990907052906,-3.0811638901314207,3.14,3.0722365382042494
95,0.7330194403697532,0.2073244843618831,0.7030276521874713,6.190746881077062,2.032333370836192,1.1912425135297373,6.0561153102205,1.0,3.14,-0.37949066861764635,-1.5592894679224039,-3.081206739218503,3.14,3.0721806536471417
96,0.7330326894255946,0.20736113744527176,0.7030306709132539,6.19078821326582,2.0323402350278097,1.1912413252726157,6.0561566226180865,1.0,3.14,-0.37949838862205754,-1.559279840943065,-3.0812496044910005,3.14,3.0721247482520213
97,0.7330459463618259,0.20739780636757665,0.7030336914986774,6.190829561220833,2.032347101943893,1.1912401369132817,6.056197950774223,1.0,3.14,-0.3795061115441116,-1.5592702097652458,-3.0812924859550197,3.14,3.0720688220112167
98,0.7330592111835083,0.20743449113553605,0.7030367139449556,6.1908709249484,2.0323539715855867,1.1912389484519432,6.056239294695199,1.0,3.14,-0.37951383738493866,-1.559260574386919,-3.0813353836166697,3.14,3.0720128749170517
99,0.7330724838957053,0.20747119175588127,0.7030397382533046,6.190912304454809,2.0323608439540353,1.1912377598888093,6.056280654387304,1.0,3.14,-0.3795215661456672,-1.5592509348060588,-3.081378297482062,3.14,3.0719569069618475
100,0.7330857645034848,0.20750790823535356,0.7030427644249424,6.19095369974636,2.032367719050383,1.19123657122409,6.056322029856831,1.0,3.14,-0.3795292978274245,-1.559241291020639,-3.0814212275573096,3.14,3.071900918137923
101,0.7330990530119168,0.20754464058069189,0.7030457924610861,6.190995110829349,2.03237459687577,1.1912353824579966,6.056363421110078,1.0,3.14,-0.37953703243133713,-1.5592316430286337,-3.081464173848529,3.14,3.0718449084375923
102,0.7331123494260778,0.20758138879864088,0.7030488223629571,6.1910365377100804,2.0323814774313416,1.1912341935907411,6.056404828153342,1.0,3.14,-0.3795447699585315,-1.5592219908280152,-3.0815071363618376,3.14,3.0717888778531677
103,0.7331256537510453,0.20761815289594748,0.7030518541317751,6.191077980394859,2.0323883607182416,1.1912330046225357,6.056446250992926,1.0,3.14,-0.3795525104101345,-1.559212334416755,-3.081550115103357,3.14,3.071732826376958
104,0.7331389659919031,0.2076549328793624,0.7030548877687613,6.191119438889992,2.032395246737612,1.191231815553594,6.056487689635137,1.0,3.14,-0.3795602537872723,-1.5592026737928248,-3.08159311007921,3.14,3.071676754001269
105,0.7331522861537362,0.20769172875563874,0.7030579232751404,6.191160913201793,2.032402135490598,1.1912306263841284,6.056529144086281,1.0,3.14,-0.3795680000910722,-1.5591930089541937,-3.0816361212955226,3.14,3.0716206607184042
106,0.7331656142416364,0.207728540531534,0.7030609606521357,6.191202403336577,2.0324090269783426,1.1912294371143544,6.056570614352671,1.0,3.14,-0.37957574932266075,-1.5591833398988302,-3.0816791487584227,3.14,3.071564546520663
107,0.7331789502606949,0.20776536821380226,0.7030639999009718,6.191243909300656,2.0324159212019937,1.191228247744485,6.056612100440619,1.0,3.14,-0.37958350148316644,-1.5591736666247007,-3.0817221924740408,3.14,3.0715084114003424
108,0.7331922942160098,0.2078022118092107,0.7030670410228742,6.191285431100356,2.032422818162695,1.1912270582747355,6.056653602356444,1.0,3.14,-0.37959125657371706,-1.5591639891297722,-3.0817652524485104,3.14,3.0714522553497363
109,0.7332056461126817,0.20783907132452284,0.7030700840190703,6.191326968741999,2.0324297178615938,1.191225868705321,6.056695120106465,1.0,3.14,-0.3795990145954412,-1.5591543074120089,-3.081808328687967,3.14,3.071396078361136
110,0.7332190059558138,0.2078759467665049,0.7030731288907873,6.191368522231908,2.0324366202998356,1.1912246790364562,6.056736653697006,1.0,3.14,-0.37960677554946815,-1.5591446214693747,-3.081851421198549,3.14,3.0713398804268284
111,0.7332323737505135,0.2079128381419298,0.7030761756392535,6.191410091576416,2.0324435254785698,1.1912234892683564,6.056778203134393,1.0,3.14,-0.3796145394369278,-1.559134931299832,-3.0818945299863962,3.14,3.0712836615390993
112,0.7332457495018933,0.20794974545757292,0.7030792242656982,6.191451676781856,2.032450433398943,1.191222299401238,6.056819768424958,1.0,3.14,-0.37962230625894966,-1.559125236901342,-3.081937655057652,3.14,3.07122742169023
113,0.7332591332150669,0.20798666872021146,0.7030822747713517,6.191493277854564,2.032457344062103,1.191221109435317,6.056861349575032,1.0,3.14,-0.3796300760166648,-1.5591155382718647,-3.0819807964184625,3.14,3.0711711608725003
114,0.7332725248951527,0.2080236079366235,0.7030853271574452,6.191534894800875,2.0324642574692002,1.1912199193708093,6.056902946590949,1.0,3.14,-0.37963784871120415,-1.5591058354093585,-3.0820239540749754,3.14,3.071114879078185
115,0.7332859245472725,0.2080605631135952,0.7030883814252109,6.191576527627135,2.032471173621385,1.1912187292079321,6.056944559479049,1.0,3.14,-0.3796456243436997,-1.559096128311781,-3.082067128033341,3.14,3.0710585762995577
116,0.733299332176551,0.2080975342579118,0.7030914375758807,6.191618176339687,2.0324780925198054,1.1912175389469013,6.056986188245675,1.0,3.14,-0.37965340291528327,-1.5590864169770895,-3.082110318299713,3.14,3.071002252528888
117,0.7333127477881172,0.2081345213763637,0.7030944956106887,6.1916598409448795,2.0324850141656143,1.1912163485879348,6.057027832897171,1.0,3.14,-0.3796611844270877,-1.5590767014032385,-3.0821535248802463,3.14,3.0709459077584427
118,0.7333261713871039,0.2081715244757433,0.7030975555308692,6.191701521449064,2.0324919385599625,1.1912151581312502,6.057069493439885,1.0,3.14,-0.37966896888024604,-1.5590669815881824,-3.0821967477810994,3.14,3.0708895419804856
119,0.7333396029786454,0.20820854356284502,0.7031006173376572,6.191743217858591,2.0324988657040013,1.1912139675770643,6.057111169880168,1.0,3.14,-0.37967675627589215,-1.559057257529874,-3.0822399870084327,3.14,3.0708331551872776
120,0.7333530425678826,0.20824557864447274,0.7031036810322895,6.191784930179826,2.032505795598884,1.1912127769255956,6.057152862224374,1.0,3.14,-0.37968454661515977,-1.5590475292262653,-3.0822832425684092,3.14,3.0707767473710765
121,0.7333664901599576,0.20828262972742467,0.7031067466160026,6.191826658419123,2.0325127282457633,1.1912115861770616,6.0571945704788615,1.0,3.14,-0.37969233989918405,-1.559037796675307,-3.0823265144671943,3.14,3.070720318524137
122,0.7333799457600155,0.20831969681850618,0.7031098140900343,6.191868402582846,2.032519663645793,1.1912103953316808,6.057236294649989,1.0,3.14,-0.37970013612909986,-1.5590280598749486,-3.0823698027109563,3.14,3.0706638686387104
123,0.7333934093732086,0.20835677992452722,0.7031128834556228,6.191910162677363,2.032526601800127,1.1912092043896725,6.057278034744122,1.0,3.14,-0.3797079353060428,-1.5590183188231383,-3.082413107305866,3.14,3.0706073977070463
124,0.7334068810046891,0.20839387905229878,0.7031159547140085,6.191951938709044,2.0325335427099196,1.191208013351255,6.057319790767627,1.0,3.14,-0.3797157374311491,-1.559008573517823,-3.0824564282580953,3.14,3.07055090572139
125,0.7334203606596146,0.2084309942086347,0.7031190278664323,6.191993730684262,2.032540486376328,1.1912068222166483,6.057361562726872,1.0,3.14,-0.37972354250555557,-1.5589988239569479,-3.082499765573821,3.14,3.0704943926739836
126,0.7334338483431451,0.20846812540035348,0.7031221029141341,6.1920355386093915,2.0325474328005066,1.1912056309860717,6.057403350628231,1.0,3.14,-0.37973135053039914,-1.558989070138459,-3.082543119259221,3.14,3.0704378585570677
127,0.7334473440604447,0.2085052726342745,0.7031251798583563,6.192077362490811,2.0325543819836116,1.1912044396597437,6.05744515447808,1.0,3.14,-0.379739161506818,-1.5589793120602993,-3.0825864893204753,3.14,3.070381303362878
128,0.7334608478166812,0.2085424359172242,0.7031282587003426,6.192119202334906,2.032561333926802,1.191203248237886,6.0574869742827975,1.0,3.14,-0.3797469754359499,-1.5589695497204108,-3.082629875763767,3.14,3.070324727083649
129,0.7334743596170256,0.20857961525602714,0.703131339441336,6.192161058148058,2.0325682886312335,1.1912020567207178,6.057528810048765,1.0,3.14,-0.3797547923189336,-1.5589597831167352,-3.082673278595282,3.14,3.070268129711611
130,0.7334878794666526,0.20861681065751597,0.7031344220825817,6.192202929936659,2.0325752460980646,1.1912008651084596,6.0575706617823695,1.0,3.14,-0.37976261215690826,-1.5589500122472124,-3.082716697821209,3.14,3.0702115112389907
131,0.733501407370741,0.2086540221285213,0.7031375066253247,6.192244817707097,2.0325822063284544,1.1911996734013326,6.057612529489998,1.0,3.14,-0.3797704349510135,-1.5589402371097814,-3.0827601334477372,3.14,3.0701548716580134
132,0.733514943334472,0.2086912496758814,0.7031405930708122,6.192286721465769,2.0325891693235625,1.1911984815995575,6.057654413178043,1.0,3.14,-0.3797782607023899,-1.5589304577023795,-3.0828035854810607,3.14,3.0700982109609
133,0.733528487363032,0.20872849330643725,0.70314368142029,6.192328641219074,2.0325961350845487,1.1911972897033558,6.057696312852899,1.0,3.14,-0.37978608941217795,-1.5589206740229433,-3.082847053927375,3.14,3.070041529139869
134,0.7335420394616097,0.20876575302702685,0.7031467716750077,6.192370576973408,2.032603103612573,1.1911960977129494,6.057738228520963,1.0,3.14,-0.3797939210815186,-1.5589108860694079,-3.082890538792878,3.14,3.069984826187136
135,0.7335555996353968,0.20880302884449994,0.703149863836214,6.192412528735179,2.0326100749087965,1.19119490562856,6.057780160188636,1.0,3.14,-0.37980175571155356,-1.5589010938397077,-3.0829340400837713,3.14,3.069928102094913
136,0.7335691678895908,0.20884032076570472,0.7031529579051579,6.192454496510794,2.0326170489743816,1.1911937134504091,6.0578221078623224,1.0,3.14,-0.3798095933034257,-1.5588912973317754,-3.082977557806257,3.14,3.0698713568554092
137,0.7335827442293898,0.20887762879749153,0.7031560538830907,6.1924964803066604,2.032624025810489,1.19119252117872,6.057864071548429,1.0,3.14,-0.3798174338582771,-1.5588814965435427,-3.083021091966541,3.14,3.0698145904608314
138,0.7335963286599995,0.20891495294671975,0.7031591517712638,6.192538480129197,2.032631005418283,1.1911913288137144,6.057906051253367,1.0,3.14,-0.3798252773772513,-1.5588716914729404,-3.083064642570832,3.14,3.069757802903382
139,0.7336099211866246,0.2089522932202425,0.7031622515709296,6.192580495984814,2.032637987798926,1.1911901363556157,6.057948046983548,1.0,3.14,-0.3798331238614918,-1.5588618821178974,-3.0831082096253404,3.14,3.0697009941752618
140,0.7336235218144765,0.20898964962492356,0.703165353283342,6.192622527879934,2.0326449729535825,1.1911889438046477,6.05799005874539,1.0,3.14,-0.37984097331214295,-1.558852068476342,-3.0831517931362793,3.14,3.0696441642686674
141,0.7336371305487696,0.2090270221676293,0.7031684569097539,6.192664575820981,2.032651960883416,1.191187751161033,6.058032086545313,1.0,3.14,-0.3798488257303495,-1.5588422505462016,-3.083195393109865,3.14,3.0695873131757927
142,0.7336507473947211,0.2090644108552262,0.703171562451421,6.19270663981438,2.0326589515895934,1.1911865584249952,6.0580741303897385,1.0,3.14,-0.3798566811172572,-1.5588324283254014,-3.0832390095523157,3.14,3.069530440888829
143,0.7336643723575509,0.20910181569458308,0.7031746699095988,6.192748719866558,2.0326659450732776,1.1911853655967586,6.058116190285093,1.0,3.14,-0.37986453947401105,-1.5588226018118665,-3.083282642469852,3.14,3.0694735473999635
144,0.7336780054424875,0.20913923669257914,0.7031777792855447,6.192790815983953,2.0326729413356364,1.1911841726765475,6.058158266237807,1.0,3.14,-0.3798724008017575,-1.5588127710035198,-3.0833262918686977,3.14,3.069416632701382
145,0.7336916466547557,0.20917667385608527,0.7031808905805165,6.192832928172993,2.032679940377837,1.1911829796645867,6.05820035825431,1.0,3.14,-0.3798802651016436,-1.5588029358982836,-3.0833699577550786,3.14,3.0693596967852654
146,0.73370529599959,0.20921412719198762,0.7031840037957716,6.192875056440123,2.0326869422010465,1.1911817865611005,6.0582424663410395,1.0,3.14,-0.37988813237481656,-1.5587930964940788,-3.0834136401352232,3.14,3.0693027396437933
147,0.7337189534822245,0.209251596707165,0.7031871189325696,6.192917200791779,2.032693946806432,1.1911805933663149,6.058284590504433,1.0,3.14,-0.37989600262242396,-1.5587832527888257,-3.0834573390153626,3.14,3.0692457612691406
148,0.7337326191078999,0.20928908240851016,0.7031902359921712,6.192959361234413,2.032700954195162,1.1911794000804534,6.0583267307509345,1.0,3.14,-0.3799038758456144,-1.5587734047804427,-3.08350105440173,3.14,3.0691887616534803
149,0.7337462928818569,0.20932658430290504,0.7031933549758369,6.193001537774465,2.0327079643684067,1.1911782067037433,6.058368887086985,1.0,3.14,-0.37991175204553673,-1.5587635524668468,-3.0835447863005614,3.14,3.0691317407889818
150,0.7337599748093441,0.20936410239725028,0.7031964758848294,6.193043730418393,2.0327149773273345,1.1911770132364095,6.0584110595190355,1.0,3.14,-0.3799196312233401,-1.558753695845955,-3.0835885347180962,3.14,3.0690746986678112
151,0.7337736648956106,0.20940163669843603,0.7031995987204104,6.193085939172645,2.0327219930731166,1.1911758196786784,6.058453248053536,1.0,3.14,-0.3799275133801743,-1.5587438349156815,-3.0836322996605747,3.14,3.0690176352821323
152,0.7337873631459103,0.20943918721336632,0.7032027234838447,6.193128164043685,2.032729011606923,1.1911746260307765,6.058495452696942,1.0,3.14,-0.37993539851718994,-1.5587339696739404,-3.083676081134241,3.14,3.068960550624105
153,0.7338010695655012,0.20947675394894175,0.7032058501763967,6.193170405037971,2.032736032929926,1.1911734322929308,6.05853767345571,1.0,3.14,-0.37994328663553756,-1.5587241001186443,-3.0837198791453417,3.14,3.068903444685887
154,0.7338147841596435,0.20951433691206808,0.7032089787993308,6.193212662161965,2.032743057043296,1.1911722384653678,6.058579910336301,1.0,3.14,-0.3799511777363688,-1.5587142262477047,-3.083763693700125,3.14,3.068846317459632
155,0.7338285069336021,0.20955193610965475,0.7032121093539144,6.193254935422138,2.0327500839482076,1.1911710445483152,6.05862216334518,1.0,3.14,-0.3799590718208355,-1.5587043480590315,-3.0838075248048424,3.14,3.0687891689374918
156,0.7338422378926447,0.20958955154861264,0.7032152418414138,6.193297224824955,2.0327571136458316,1.1911698505419994,6.058664432488812,1.0,3.14,-0.3799669688900902,-1.5586944655505344,-3.0838513724657477,3.14,3.0687319991116135
157,0.7338559770420443,0.20962718323585916,0.7032183762630982,6.193339530376895,2.032764146137344,1.1911686564466488,6.058706717773669,1.0,3.14,-0.3799748689452856,-1.5586845787201202,-3.0838952366890977,3.14,3.068674807974143
158,0.7338697243870757,0.20966483117831122,0.7032215126202356,6.193381852084432,2.0327711814239176,1.1911674622624921,6.058749019206223,1.0,3.14,-0.3799827719875751,-1.5586746875656963,-3.083939117481151,3.14,3.068617595517221
159,0.7338834799330183,0.20970249538289132,0.7032246509140955,6.193424189954046,2.032778219506727,1.1911662679897566,6.058791336792951,1.0,3.14,-0.37999067801811276,-1.558664792085168,-3.0839830148481693,3.14,3.0685603617329873
160,0.7338972436851533,0.20974017585652016,0.7032277911459499,6.193466543992216,2.032785260386949,1.1911650736286716,6.0588336705403325,1.0,3.14,-0.3799985870380531,-1.558654892276439,-3.0840269287964164,3.14,3.068503106613577
161,0.733911015648769,0.20977787260613318,0.7032309333170687,6.193508914205435,2.0327923040657585,1.191163879179465,6.058876020454853,1.0,3.14,-0.380006499048551,-1.558644988137413,-3.0840708593321593,3.14,3.0684458301511226
162,0.7339247958291547,0.20981558563865596,0.7032340774287258,6.1935513006001885,2.032799350544332,1.1911626846423673,6.058918386542995,1.0,3.14,-0.3800144140507617,-1.5586350796659911,-3.0841148064616672,3.14,3.068388532337754
163,0.7339385842316045,0.2098533149610259,0.7032372234821938,6.19359370318297,2.032806399823847,1.1911614900176062,6.058960768811251,1.0,3.14,-0.38002233204584157,-1.5586251668600744,-3.0841587701912117,3.14,3.0683312131655978
164,0.7339523808614158,0.20989106058017948,0.7032403714787467,6.193636121960276,2.032813451905481,1.1911602953054132,6.059003167266112,1.0,3.14,-0.3800302530349469,-1.5586152497175614,-3.084202750527067,3.14,3.0682738726267766
165,0.7339661857238894,0.20992882250305678,0.7032435214196605,6.193678556938604,2.0328205067904137,1.1911591005060171,6.059045581914074,1.0,3.14,-0.380038177019235,-1.5586053282363508,-3.08424674747551,3.14,3.068216510713411
166,0.73397999882433,0.2099666007366032,0.7032466733062097,6.193721008124457,2.032827564479822,1.1911579056196482,6.059088012761635,1.0,3.14,-0.3800461039998632,-1.5585954024143398,-3.0842907610428205,3.14,3.0681591274176183
167,0.7339938201680449,0.21000439528776393,0.7032498271396721,6.193763475524338,2.0328346249748863,1.1911567106465368,6.059130459815298,1.0,3.14,-0.3800540339779896,-1.558585472249424,-3.08433479123528,3.14,3.0681017227315124
168,0.7340076497603479,0.21004220616349317,0.7032529829213254,6.19380595914476,2.032841688276787,1.1911555155869142,6.05917292308157,1.0,3.14,-0.38006196695477285,-1.5585755377394972,-3.0843788380591737,3.14,3.0680442966472046
169,0.7340214876065537,0.21008003337074013,0.7032561406524479,6.193848458992231,2.032848754386704,1.1911543204410115,6.059215402566957,1.0,3.14,-0.3800699029313718,-1.5585655988824534,-3.0844229015207882,3.14,3.067986849156802
170,0.7340353337119819,0.21011787691646483,0.7032593003343192,6.193890975073268,2.0328558233058196,1.1911531252090595,6.059257898277972,1.0,3.14,-0.38007784190894617,-1.5585556556761844,-3.0844669816264134,3.14,3.06792938025241
171,0.7340491880819543,0.21015573680762423,0.7032624619682193,6.193933507394386,2.0328628950353145,1.19115192989129,6.0593004102211285,1.0,3.14,-0.38008578388865627,-1.5585457081185812,-3.0845110783823415,3.14,3.06787188992613
172,0.7340630507217994,0.21019361305118464,0.7032656255554302,6.193976055962111,2.0328699695763714,1.1911507344879344,6.059342938402947,1.0,3.14,-0.38009372887166254,-1.5585357562075333,-3.084555191794867,3.14,3.0678143781700604
173,0.7340769216368471,0.21023150565411278,0.703268791097233,6.194018620782966,2.032877046930174,1.191149538999226,6.059385482829948,1.0,3.14,-0.3801016768591262,-1.558525799940929,-3.0845993218702876,3.14,3.0677568449762966
174,0.73409080083243,0.21026941462337415,0.7032719585949115,6.194061201863476,2.032884127097905,1.1911483434253964,6.059428043508656,1.0,3.14,-0.38010962785220886,-1.5585158393166558,-3.084643468614903,3.14,3.0676992903369316
175,0.7341046883138876,0.2103073399659471,0.703275128049749,6.194103799210176,2.032891210080749,1.191147147766678,6.059470620445599,1.0,3.14,-0.38011758185207284,-1.5585058743325997,-3.0846876320350165,3.14,3.0676417142440537
176,0.7341185840865609,0.21034528168880545,0.7032782994630313,6.1941464128296,2.0328982958798902,1.191145952023304,6.059513213647308,1.0,3.14,-0.3801255388598809,-1.558495904986645,-3.0847318121369325,3.14,3.06758411668975
177,0.7341324881557947,0.21038323979892784,0.7032814728360433,6.194189042728283,2.0329053844965146,1.1911447561955084,6.059555823120316,1.0,3.14,-0.3801334988767962,-1.5584859312766755,-3.084776008926959,3.14,3.0675264976661025
178,0.7341464005269361,0.2104212143032943,0.7032846481700716,6.1942316889127635,2.0329124759318082,1.1911435602835239,6.059598448871162,1.0,3.14,-0.3801414619039824,-1.5584759532005732,-3.084820222411406,3.14,3.067468857165192
179,0.734160321205341,0.2104592052088959,0.7032878254664038,6.194274351389591,2.032919570186957,1.1911423642875842,6.0596410909063865,1.0,3.14,-0.3801494279426038,-1.5584659707562196,-3.0848644525965865,3.14,3.0674111951790946
180,0.7341742501963626,0.2104972125227186,0.7032910047263278,6.19431703016531,2.0329266672631485,1.1911411682079238,6.0596837492325335,1.0,3.14,-0.38015739699382556,-1.5584559839414942,-3.084908699488816,3.14,3.067353511699884
181,0.7341881875053623,0.2105352362517569,0.7032941859511339,6.194359725246473,2.0329337671615706,1.1911399720447775,6.059726423856151,1.0,3.14,-0.3801653690588125,-1.5584459927542758,-3.084952963094413,3.14,3.067295806719631
182,0.7342021331377023,0.21057327640300313,0.7032973691421109,6.1944024366396295,2.0329408698834106,1.1911387757983782,6.059769114783787,1.0,3.14,-0.38017334413873083,-1.558435997192442,-3.0849972434196973,3.14,3.0672380802304033
183,0.7342160870987517,0.21061133298346021,0.70330055430055,6.194445164351341,2.0329479754298574,1.1911375794689623,6.059811822021999,1.0,3.14,-0.38018132223474654,-1.558425997253869,-3.0850415404709923,3.14,3.0671803322242646
184,0.7342300493938804,0.21064940600012727,0.7033037414277444,6.194487908388166,2.032955083802102,1.1911363830567647,6.05985454557734,1.0,3.14,-0.380189303348027,-1.5584159929364312,-3.085085854254624,3.14,3.0671225626932763
185,0.734244020028463,0.2106874954600088,0.7033069305249855,6.1945306687566655,2.032962195001333,1.1911351865620203,6.059897285456373,1.0,3.14,-0.3801972874797393,-1.558405984238003,-3.08513018477692,3.14,3.0670647716294965
186,0.7342579990078781,0.21072560137011462,0.7033101215935675,6.1945734454634085,2.0329693090287417,1.1911339899849662,6.0599400416656595,1.0,3.14,-0.38020527463105125,-1.5583959711564561,-3.085174532044212,3.14,3.06700695902498
187,0.7342719863375083,0.210763723737459,0.7033133146347852,6.194616238514967,2.032976425885519,1.1911327933258364,6.059982814211768,1.0,3.14,-0.38021326480313156,-1.5583859536896625,-3.0852188960628335,3.14,3.066949124871779
188,0.7342859820227379,0.21080186256905167,0.7033165096499334,6.1946590479179084,2.0329835455728564,1.191131596584869,6.060025603101267,1.0,3.14,-0.380221257997149,-1.5583759318354922,-3.085263276839121,3.14,3.0668912691619417
189,0.7342999860689577,0.21084001787191495,0.7033197066403086,6.194701873678814,2.0329906680919474,1.191130399762299,6.06006840834073,1.0,3.14,-0.38022925421427334,-1.5583659055918135,-3.085307674379412,3.14,3.066833391887514
190,0.7343139984815609,0.21087818965306934,0.703322905607209,6.194744715804262,2.0329977934439833,1.1911292028583649,6.060111229936735,1.0,3.14,-0.3802372534556742,-1.558355874956494,-3.085352088690049,3.14,3.0667754930405375
191,0.7343280192659447,0.2109163779195389,0.7033261065519323,6.194787574300835,2.03300492163016,1.1911280058733025,6.060154067895859,1.0,3.14,-0.3802452557225225,-1.5583458399274002,-3.085396519777375,3.14,3.0667175726130527
192,0.7343420484275095,0.2109545826783525,0.7033293094757771,6.19483044917512,2.033012052651669,1.19112680880735,6.060196922224687,1.0,3.14,-0.3802532610159891,-1.5583358005023973,-3.0854409676477372,3.14,3.0666596305970946
193,0.7343560859716594,0.2109928039365393,0.7033325143800438,6.194873340433704,2.0330191865097076,1.1911256116607447,6.060239792929804,1.0,3.14,-0.38026126933724586,-1.5583257566793487,-3.0854854323074847,3.14,3.0666016669846967
194,0.7343701319038026,0.2110310417011367,0.7033357212660326,6.1949162480831825,2.0330263232054704,1.1911244144337245,6.060282680017799,1.0,3.14,-0.3802692806874647,-1.5583157084561174,-3.085529913762969,3.14,3.066543681767889
195,0.7343841862293505,0.21106929597918034,0.7033389301350458,6.194959172130149,2.033033462740151,1.1911232171265274,6.060325583495267,1.0,3.14,-0.3802772950678181,-1.5583056558305655,-3.085574412020544,3.14,3.066485674938698
196,0.7343982489537212,0.21110756677771414,0.7033421409883861,6.195002112581207,2.0330406051149503,1.1911220197393928,6.060368503368803,1.0,3.14,-0.3802853124794795,-1.5582955988005516,-3.0856189270865673,3.14,3.066427646489147
197,0.7344123200823313,0.2111458541037786,0.7033453538273573,6.195045069442954,2.033047750331061,1.1911208222725593,6.060411439645006,1.0,3.14,-0.38029333292362216,-1.5582855373639357,-3.085663458967398,3.14,3.066369596411257
198,0.7344263996206057,0.21118415796442383,0.7033485686532632,6.1950880427219985,2.0330548983896843,1.1911196247262652,6.060454392330478,1.0,3.14,-0.3803013564014209,-1.5582754715185747,-3.0857080076693983,3.14,3.066311524697045
199,0.7344404875739711,0.21122247836670152,0.7033517854674097,6.195131032424951,2.0330620492920164,1.1911184271007509,6.0604973614318265,1.0,3.14,-0.3803093829140501,-1.5582654012623256,-3.085752573198933,3.14,3.0662534313385255
200,0.7344545839478568,0.21126081531766253,0.7033550042711032,6.195174038558419,2.0330692030392576,1.1911172293962555,6.0605403469556585,1.0,3.14,-0.3803174124626853,-1.558255326593043,-3.0857971555623696,3.14,3.066195316327709
201,0.7344686887476983,0.21129916882436742,0.7033582250656495,6.195217061129023,2.033076359632607,1.1911160316130185,6.0605833489085885,1.0,3.14,-0.3803254450485021,-1.5582452475085817,-3.085841754766078,3.14,3.0661371796566033
202,0.7344828019789338,0.21133753889387585,0.703361447852358,6.19526010014338,2.033083519073264,1.1911148337512807,6.060626367297231,1.0,3.14,-0.3803334806726768,-1.558235164006794,-3.0858863708164304,3.14,3.066079021317213
203,0.7344969236470047,0.21137592553325144,0.7033646726325371,6.195303155608112,2.033090681362431,1.1911136358112826,6.060669402128205,1.0,3.14,-0.3803415193363864,-1.558225076085531,-3.0859310037198022,3.14,3.06602084130154
204,0.7345110537573578,0.2114143287495633,0.703367899407497,6.195346227529846,2.0330978465013065,1.191112437793265,6.060712453408135,1.0,3.14,-0.3803495610408079,-1.5582149837426436,-3.085975653482571,3.14,3.065962639601582
205,0.7345251923154413,0.21145274854987878,0.7033711281785485,6.195389315915208,2.0331050144910954,1.1911112396974681,6.060755521143643,1.0,3.14,-0.3803576057871198,-1.5582048869759797,-3.0860203201111176,3.14,3.065904416209335
206,0.7345393393267101,0.21149118494127553,0.7033743589470036,6.1954324207708344,2.0331121853329988,1.1911100415241354,6.06079860534136,1.0,3.14,-0.3803656535765,-1.5581947857833875,-3.086065003611825,3.14,3.065846171116791
207,0.7345534947966195,0.2115296379308284,0.703377591714174,6.195475542103357,2.033119359028219,1.1911088432735064,6.060841706007918,1.0,3.14,-0.38037370441012786,-1.5581846801627137,-3.0861097039910788,3.14,3.0657879043159384
208,0.7345676587306301,0.21156810752561755,0.7033808264813743,6.195518679919415,2.0331265355779617,1.1911076449458238,6.0608848231499515,1.0,3.14,-0.38038175828918297,-1.5581745701118028,-3.086154421255267,3.14,3.065729615798763
209,0.7345818311342077,0.2116065937327278,0.703384063249918,6.195561834225651,2.03313371498343,1.1911064465413295,6.0609279567741,1.0,3.14,-0.380389815214845,-1.5581644556284997,-3.086199155410781,3.14,3.065671305557247
210,0.73459601201282,0.21164509655924604,0.7033873020211204,6.19560500502871,2.033140897245829,1.1911052480602664,6.060971106887006,1.0,3.14,-0.3803978751882947,-1.5581543367106463,-3.0862439064640137,3.14,3.065612973583371
211,0.7346102013719394,0.2116836160122629,0.7033905427962983,6.195648192335242,2.0331480823663646,1.1911040495028773,6.0610142734953145,1.0,3.14,-0.3804059382107131,-1.5581442133560846,-3.0862886744213616,3.14,3.0655546198691104
212,0.7346243992170415,0.21172215209887016,0.7033937855767692,6.195691396151896,2.033155270346242,1.1911028508694053,6.061057456605674,1.0,3.14,-0.3804140042832818,-1.5581340855626542,-3.0863334592892233,3.14,3.0654962444064378
213,0.7346386055536078,0.21176070482617051,0.7033970303638503,6.195734616485334,2.0331624611866688,1.1911016521600932,6.061100656224737,1.0,3.14,-0.38042207340718304,-1.5581239533281943,-3.0863782610740005,3.14,3.0654378471873236
214,0.7346528203871181,0.21179927420125605,0.7034002771588608,6.1957778533422045,2.0331696548888516,1.1911004533751852,6.061143872359158,1.0,3.14,-0.38043014558359955,-1.5581138166505426,-3.086423079782097,3.14,3.0653794282037348
215,0.7346670437230625,0.21183786023123455,0.7034035259631206,6.195821106729175,2.033176851454,1.191099254514925,6.061187105015596,1.0,3.14,-0.3804382208137147,-1.5581036755275353,-3.086467915419919,3.14,3.065320987447634
216,0.7346812755669315,0.21187646292321638,0.7034067767779506,6.1958643766529145,2.0331840508833205,1.1910980555795565,6.061230354200713,1.0,3.14,-0.3804462990987119,-1.5580935299570082,-3.0865127679938764,3.14,3.065262524910983
217,0.7346955159242189,0.21191508228430556,0.7034100296046721,6.195907663120083,2.033191253178022,1.1910968565693236,6.061273619921175,1.0,3.14,-0.38045438043977575,-1.5580833799367948,-3.086557637510381,3.14,3.0652040405857375
218,0.7347097648004259,0.2119537183216201,0.7034132844446083,6.19595096613736,2.033198458339317,1.1910956574844733,6.06131690218365,1.0,3.14,-0.38046246483809065,-1.5580732254647272,-3.0866025239758472,3.14,3.065145534463852
219,0.7347240222010525,0.21199237104227425,0.7034165412990832,6.195994285711416,2.0332056663684126,1.1910944583252492,6.06136020099481,1.0,3.14,-0.38047055229484217,-1.5580630665386372,-3.0866474273966924,3.14,3.065087006537278
220,0.7347382881316065,0.21203104045339027,0.7034198001694204,6.196037621848932,2.0332128772665214,1.1910932590918961,6.06140351636133,1.0,3.14,-0.38047864281121646,-1.5580529031563553,-3.086692347779336,3.14,3.065028456797962
221,0.7347525625975966,0.21206972656209028,0.7034230610569454,6.196080974556589,2.0332200910348552,1.1910920597846613,6.061446848289889,1.0,3.14,-0.38048673638839964,-1.5580427353157096,-3.0867372851302015,3.14,3.0649698852378493
222,0.7347668456045379,0.21210842937550115,0.7034263239629842,6.1961243438410705,2.033227307674626,1.1910908604037884,6.061490196787169,1.0,3.14,-0.380494833027579,-1.5580325630145284,-3.086782239455713,3.14,3.0649112918488806
223,0.7347811371579479,0.21214714890075467,0.7034295888888644,6.196167729709068,2.033234527187046,1.1910896609495252,6.0615335618598545,1.0,3.14,-0.3805029327299417,-1.558022386250638,-3.0868272107622983,3.14,3.064852676622994
224,0.7347954372633474,0.21218588514498246,0.7034328558359136,6.196211132167272,2.0332417495733286,1.1910884614221178,6.061576943514635,1.0,3.14,-0.38051103549667575,-1.5580122050218632,-3.086872199056388,3.14,3.064794039552125
225,0.7348097459262635,0.21222463811532302,0.7034361248054619,6.196254551222378,2.0332489748346876,1.1910872618218131,6.061620341758202,1.0,3.14,-0.3805191413289698,-1.5580020193260278,-3.0869172043444153,3.14,3.0647353806282047
226,0.7348240631522234,0.21226340781891398,0.7034393957988391,6.196297986881082,2.033256202972338,1.1910860621488588,6.06166375659725,1.0,3.14,-0.3805272502280129,-1.5579918291609538,-3.086962226632816,3.14,3.0646766998431616
227,0.7348383889467621,0.21230219426290256,0.7034426688173758,6.196341439150091,2.0332634339874947,1.1910848624035013,6.06170718803848,1.0,3.14,-0.38053536219499484,-1.557981634524463,-3.087007265928028,3.14,3.064617997188921
228,0.7348527233154161,0.2123409974544352,0.7034459438624038,6.196384908036109,2.0332706678813746,1.1910836625859884,6.061750636088593,1.0,3.14,-0.38054347723110576,-1.5579714354143752,-3.087052322236492,3.14,3.064559272657405
229,0.7348670662637252,0.21237981740065964,0.7034492209352551,6.196428393545841,2.0332779046551925,1.1910824626965684,6.061794100754294,1.0,3.14,-0.38055159533753635,-1.5579612318285097,-3.0870973955646526,3.14,3.0645005262405327
230,0.7348814177972336,0.21241865410873031,0.7034525000372647,6.196471895686002,2.0332851443101663,1.191081262735489,6.0618375820422905,1.0,3.14,-0.38055971651547793,-1.5579510237646832,-3.0871424859189553,3.14,3.0644417579302194
231,0.7348957779214917,0.21245750758580578,0.7034557811697666,6.196515414463307,2.0332923868475135,1.1910800627029992,6.061881079959297,1.0,3.14,-0.38056784076612216,-1.5579408112207123,-3.0871875933058495,3.14,3.064382967718378
232,0.7349101466420491,0.21249637783904282,0.7034590643340958,6.196558949884472,2.033299632268452,1.1910788625993476,6.061924594512026,1.0,3.14,-0.38057596809066135,-1.5579305941944115,-3.0872327177317866,3.14,3.0643241555969176
233,0.7349245239644637,0.2125352648756087,0.7034623495315891,6.196602501956223,2.0333068805742007,1.1910776624247834,6.061968125707199,1.0,3.14,-0.3805840984902885,-1.5579203726835948,-3.0872778592032213,3.14,3.0642653215577447
234,0.7349389098942956,0.21257416870266957,0.7034656367635845,6.196646070685284,2.0333141317659793,1.191076462179556,6.062011673551537,1.0,3.14,-0.38059223196619674,-1.5579101466860747,-3.0873230177266096,3.14,3.064206465592761
235,0.7349533044371079,0.21261308932739592,0.7034689260314195,6.196689656078384,2.033321385845007,1.191075261863915,6.062055238051766,1.0,3.14,-0.3806003685195801,-1.5578999161996623,-3.0873681933084116,3.14,3.0641475876938675
236,0.7349677075984682,0.21265202675696,0.7034722173364331,6.196733258142253,2.0333286428125055,1.1910740614781103,6.062098819214614,1.0,3.14,-0.38060850815163355,-1.5578896812221668,-3.08741338595509,3.14,3.06408868785296
237,0.7349821193839483,0.21269098099854086,0.7034755106799663,6.19677687688363,2.033335902669696,1.1910728610223922,6.062142417046815,1.0,3.14,-0.3806166508635517,-1.5578794417513968,-3.087458595673109,3.14,3.064029766061932
238,0.7349965397991238,0.2127299520593169,0.70347880606336,6.196820512309252,2.0333431654178002,1.1910716604970117,6.062186031555102,1.0,3.14,-0.38062479665653004,-1.55786919778516,-3.087503822468936,3.14,3.063970822312673
239,0.7350109688495736,0.21276893994647467,0.7034821034879558,6.196864164425862,2.0333504310580404,1.191070459902219,6.062229662746216,1.0,3.14,-0.3806329455317647,-1.557858949321262,-3.0875490663490415,3.14,3.06391185659707
240,0.7350254065408808,0.2128079446671995,0.703485402955097,6.196907833240205,2.03335769959164,1.1910692592382657,6.0622733106269,1.0,3.14,-0.38064109749045233,-1.5578486963575078,-3.0875943273198985,3.14,3.063852868907007
241,0.7350398528786325,0.21284696622868082,0.703488704466127,6.196951518759029,2.0333649710198216,1.1910680585054028,6.062316975203897,1.0,3.14,-0.38064925253379034,-1.5578384388917006,-3.0876396053879827,3.14,3.063793859234364
242,0.7350543078684195,0.21288600463811672,0.7034920080223912,6.19699522098909,2.033372245343811,1.1910668577038823,6.062360656483959,1.0,3.14,-0.3806574106629763,-1.5578281769216424,-3.0876849005597724,3.14,3.063734827571018
243,0.735068771515837,0.2129250599027002,0.7034953136252351,6.197038939937141,2.033379522564833,1.1910656568339562,6.062404354473837,1.0,3.14,-0.38066557187920846,-1.5578179104451344,-3.0877302128417483,3.14,3.063675773908843
244,0.7350832438264829,0.21296413202963507,0.703498621276005,6.197082675609942,2.0333868026841118,1.1910644558958774,6.062448069180287,1.0,3.14,-0.3806737361836854,-1.5578076394599758,-3.0877755422403936,3.14,3.06361669823971
245,0.7350977248059601,0.21300322102612337,0.7035019309760485,6.197126428014255,2.0333940857028745,1.191063254889897,6.062491800610069,1.0,3.14,-0.3806819035776072,-1.557797363963965,-3.087820888762195,3.14,3.0635576005554865
246,0.7351122144598751,0.21304232689937416,0.7035052427267152,6.197170197156848,2.0334013716223494,1.1910620538162697,6.062535548769946,1.0,3.14,-0.38069007406217303,-1.5577870839548988,-3.0878662524136415,3.14,3.063498480848036
247,0.735126712793838,0.21308144965659828,0.7035085565293531,6.197213983044489,2.0334086604437607,1.1910608526752469,6.062579313666684,1.0,3.14,-0.3806982476385835,-1.5577767994305736,-3.0879116332012244,3.14,3.0634393391092205
248,0.7351412198134618,0.21312058930500796,0.703511872385313,6.1972577856839495,2.0334159521683386,1.191059651467083,6.062623095307052,1.0,3.14,-0.38070642430803986,-1.5577665103887832,-3.087957031131438,3.14,3.063380175330897
249,0.7351557355243681,0.21315974585182543,0.7035151902959472,6.197301605082011,2.033423246797311,1.1910584501920325,6.062666893697824,1.0,3.14,-0.3807146040717432,-1.5577562168273207,-3.08800244621078,3.14,3.0633209895049203
250,0.7351702599321757,0.21319891930426682,0.703518510262607,6.197345441245447,2.033430544331908,1.1910572488503486,6.062710708845775,1.0,3.14,-0.380722786930896,-1.5577459187439775,-3.088047878445749,3.14,3.063261781623142
251,0.7351847930425105,0.21323810966955833,0.7035218322866467,6.1973892941810425,2.033437844773359,1.1910560474422855,6.062754540757685,1.0,3.14,-0.38073097288670066,-1.557735616136545,-3.0880933278428477,3.14,3.06320255167741
252,0.7351993348610032,0.21327731695492827,0.7035251563694187,6.197433163895584,2.0334451481228926,1.1910548459680983,6.062798389440338,1.0,3.14,-0.38073916194036017,-1.5577253090028127,-3.0881387944085814,3.14,3.063143299659569
253,0.7352138853932881,0.21331654116760976,0.7035284825122792,6.197477050395865,2.033452454381743,1.1910536444280424,6.06284225490052,1.0,3.14,-0.38074735409307875,-1.557714997340567,-3.0881842781494577,3.14,3.0630840255614604
254,0.735228444645002,0.21335578231483454,0.7035318107165844,6.197520953688675,2.0334597635511398,1.1910524428223717,6.062886137145021,1.0,3.14,-0.38075554934606065,-1.5577046811475959,-3.0882297790719866,3.14,3.0630247293749227
255,0.7352430126217864,0.21339504040384136,0.7035351409836907,6.19756487378081,2.033467075632317,1.191051241151343,6.062930036180634,1.0,3.14,-0.38076374770051025,-1.557694360421684,-3.0882752971826815,3.14,3.062965411091791
256,0.7352575893292858,0.21343431544187197,0.7035384733149567,6.197608810679072,2.0334743906265063,1.1910500394152117,6.062973952014157,1.0,3.14,-0.3807719491576331,-1.557684035160616,-3.0883208324880584,3.14,3.0629060707038973
257,0.7352721747731511,0.21347360743617197,0.7035418077117398,6.197652764390265,2.0334817085349415,1.1910488376142334,6.06301788465239,1.0,3.14,-0.3807801537186351,-1.5576737053621748,-3.0883663849946354,3.14,3.0628467082030704
258,0.7352867689590352,0.21351291639399053,0.7035451441754015,6.1976967349211955,2.033489029358856,1.1910476357486655,6.063061834102136,1.0,3.14,-0.38078836138472266,-1.5576633710241412,-3.088411954708934,3.14,3.062787323581135
259,0.735301371892595,0.2135522423225766,0.703548482707302,6.197740722278673,2.033496353099487,1.1910464338187643,6.063105800370202,1.0,3.14,-0.38079657215710283,-1.5576530321442952,-3.0884575416374775,3.14,3.0627279168299135
260,0.7353159835794919,0.21359158522918864,0.7035518233088027,6.197784726469513,2.0335036797580672,1.191045231824787,6.0631497834634,1.0,3.14,-0.380804786036983,-1.5576426887204164,-3.088503145786793,3.14,3.062668487941225
261,0.7353306040253902,0.21363094512108102,0.7035551659812663,6.19782874750053,2.033511009335835,1.1910440297669909,6.0631937833885425,1.0,3.14,-0.3808130030255714,-1.5576323407502817,-3.0885487671634095,3.14,3.0626090369068852
262,0.7353452332359605,0.2136703220055215,0.7035585107260572,6.19787278537855,2.0335183418340255,1.1910428276456335,6.063237800152448,1.0,3.14,-0.38082122312407635,-1.557621988231668,-3.088594405773859,3.14,3.0625495637187057
263,0.7353598712168734,0.21370971588977017,0.703561857544538,6.197916840110391,2.0335256772538766,1.1910416254609728,6.063281833761937,1.0,3.14,-0.38082944633370763,-1.5576116311623502,-3.0886400616246763,3.14,3.062490068368496
264,0.7353745179738073,0.2137491267811009,0.7035652064380757,6.197960911702887,2.0335330155966256,1.1910404232132668,6.063325884223834,1.0,3.14,-0.38083767265567453,-1.557601269540102,-3.0886857347223984,3.14,3.0624305508480623
265,0.7353891735124432,0.21378855468678143,0.7035685574080365,6.198005000162863,2.0335403568635115,1.191039220902775,6.063369951544965,1.0,3.14,-0.38084590209118735,-1.5575909033626951,-3.088731425073566,3.14,3.0623710111492066
266,0.7354038378384647,0.21382799961409135,0.7035719104557877,6.198049105497158,2.0335477010557734,1.1910380185297544,6.063414035732164,1.0,3.14,-0.3808541346414573,-1.5575805326279013,-3.088777132684721,3.14,3.0623114492637282
267,0.7354185109575617,0.21386746157030695,0.7035752655826976,6.198093227712607,2.0335550481746516,1.191036816094466,6.0634581367922635,1.0,3.14,-0.38086237030769554,-1.5575701573334895,-3.0888228575624095,3.14,3.0622518651834234
268,0.7354331928754256,0.2139069405627122,0.7035786227901348,6.198137366816053,2.0335623982213864,1.191035613597168,6.063502254732104,1.0,3.14,-0.380870609091114,-1.557559777477229,-3.0888685997131797,3.14,3.062192258900085
269,0.7354478835977541,0.21394643659859366,0.703581982079471,6.198181522814341,2.0335697511972177,1.1910344110381206,6.063546389558525,1.0,3.14,-0.3808788509929249,-1.5575493930568867,-3.0889143591435824,3.14,3.062132630405502
270,0.735462583130248,0.21398594968524073,0.7035853434520768,6.19822569571432,2.0335771071033886,1.1910332084175843,6.063590541278372,1.0,3.14,-0.3808870960143417,-1.557539004070228,-3.088960135860171,3.14,3.0620729796914614
271,0.7354772914786106,0.21402547982994566,0.7035887069093234,6.19826988552284,2.0335844659411406,1.1910320057358186,6.063634709898493,1.0,3.14,-0.38089534415657783,-1.5575286105150177,-3.0890059298695016,3.14,3.0620133067497455
272,0.7354920086485512,0.21406502704000527,0.7035920724525846,6.198314092246757,2.033591827711717,1.1910308029930845,6.063678895425742,1.0,3.14,-0.38090359542084745,-1.557518212389019,-3.089051741178134,3.14,3.061953611572134
273,0.7355067346457822,0.21410459132272008,0.7035954400832346,6.19835831589293,2.033599192416361,1.191029600189643,6.063723097866973,1.0,3.14,-0.38091184980836523,-1.5575078096899937,-3.0890975697926293,3.14,3.061893894150404
274,0.7355214694760196,0.21414417268539324,0.7035988098026479,6.198402556468222,2.0336065600563167,1.1910283973257554,6.063767317229044,1.0,3.14,-0.3809201073203465,-1.5574974024157027,-3.0891434157195525,3.14,3.061834154476328
275,0.7355362131449837,0.21418377113532927,0.7036021816122008,6.198446813979496,2.033613930632829,1.1910271944016828,6.063811553518819,1.0,3.14,-0.3809283679580072,-1.5574869905639048,-3.0891892789654705,3.14,3.0617743925416754
276,0.7355509656584001,0.2142233866798431,0.7036055555132699,6.1984910884336255,2.0336213041471445,1.191025991417687,6.063855806743163,1.0,3.14,-0.3809366317225636,-1.5574765741323582,-3.089235159536953,3.14,3.0617146083382134
277,0.7355657270219965,0.21426301932624633,0.7036089315072327,6.198535379837481,2.0336286806005073,1.1910247883740308,6.063900076908946,1.0,3.14,-0.3809448986152321,-1.5574661531188196,-3.089281057440573,3.14,3.0616548018577054
278,0.7355804972415044,0.21430266908185364,0.7036123095954694,6.1985796881979365,2.0336360599941647,1.1910235852709767,6.0639443640230395,1.0,3.14,-0.3809531686372309,-1.5574557275210443,-3.0893269726829056,3.14,3.061594973091911
279,0.7355952763226612,0.21434233595399027,0.7036156897793584,6.198624013521876,2.0336434423293652,1.1910223821087862,6.063988668092321,1.0,3.14,-0.38096144178977775,-1.557445297336786,-3.089372905270529,3.14,3.061535122032587
280,0.7356100642712069,0.2143820199499772,0.7036190720602815,6.198668355816179,2.033650827607355,1.1910211788877239,6.06403298912367,1.0,3.14,-0.3809697180740909,-1.5574348625637975,-3.089418855210025,3.14,3.0614752486714867
281,0.7356248610928857,0.21442172107714316,0.70362245643962,6.1987127150877335,2.0336582158293837,1.1910199756080522,6.06407732712397,1.0,3.14,-0.38097799749139005,-1.55742442319983,-3.0894648225079755,3.14,3.0614153530003603
282,0.735639666793447,0.21446143934281958,0.7036258429187563,6.19875709134343,2.0336656069967005,1.1910187722700354,6.064121682100107,1.0,3.14,-0.3809862800428946,-1.5574139792426336,-3.0895108071709676,3.14,3.0613554350109546
283,0.7356544813786408,0.2145011747543392,0.7036292314990736,6.1988014845901604,2.0336730011105555,1.1910175688739366,6.064166054058972,1.0,3.14,-0.38099456572982504,-1.5574035306899572,-3.08955680920559,3.14,3.0612954946950133
284,0.7356693048542248,0.2145409273190416,0.7036326221819573,6.198845894834823,2.0336803981721974,1.1910163654200205,6.0642104430074575,1.0,3.14,-0.3810028545534019,-1.5573930775395484,-3.089602828618435,3.14,3.0612355320442766
285,0.7356841372259593,0.21458069704427088,0.7036360149687921,6.198890322084321,2.0336877981828794,1.1910151619085518,6.064254848952463,1.0,3.14,-0.3810111465148467,-1.5573826197891527,-3.0896488654160965,3.14,3.0611755470504813
286,0.7356989784996083,0.21462048393736713,0.703639409860965,6.198934766345553,2.033695201143853,1.191013958339795,6.064299271900888,1.0,3.14,-0.3810194416153814,-1.5573721574365151,-3.089694919605172,3.14,3.061115539705361
287,0.7357138286809409,0.21466028800568285,0.7036428068598629,6.198979227625431,2.033702607056369,1.1910127547140157,6.064343711859636,1.0,3.14,-0.3810277398562281,-1.5573616904793794,-3.0897409911922615,3.14,3.061055510000646
288,0.7357286877757296,0.21470010925657082,0.7036462059668757,6.199023705930867,2.033710015921681,1.1910115510314792,6.064388168835617,1.0,3.14,-0.3810360412386102,-1.5573512189154874,-3.0897870801839677,3.14,3.060995457928063
289,0.7357435557897495,0.21473994769738128,0.7036496071833915,6.19906820126877,2.0337174277410437,1.191010347292451,6.0644326428357385,1.0,3.14,-0.3810443457637515,-1.557340742742579,-3.0898331865868958,3.14,3.060935383479337
290,0.735758432728781,0.21477980333547628,0.7036530105108019,6.199112713646062,2.0337248425157104,1.1910091434971983,6.064477133866918,1.0,3.14,-0.38105265343287564,-1.557330261958394,-3.089879310407654,3.14,3.060875286646187
291,0.7357733185986097,0.21481967617821948,0.7036564159504962,6.199157243069664,2.033732260246937,1.191007939645986,6.064521641936073,1.0,3.14,-0.381060964247208,-1.5573197765606712,-3.0899254516528534,3.14,3.0608151674203308
292,0.7357882134050234,0.21485956623297706,0.7036598235038679,6.199201789546503,2.0337396809359767,1.1910067357390817,6.064566167050127,1.0,3.14,-0.38106927820797315,-1.5573092865471474,-3.089971610329108,3.14,3.060755025793482
293,0.7358031171538149,0.21489947350711658,0.70366323317231,6.199246353083505,2.033747104584088,1.1910055317767518,6.064610709216003,1.0,3.14,-0.3810775953163974,-1.5572987919155572,-3.0900177864430334,3.14,3.060694861757351
294,0.7358180298507808,0.21493939800801343,0.7036666449572181,6.199290933687605,2.033754531192527,1.1910043277592648,6.064655268440632,1.0,3.14,-0.38108591557370686,-1.5572882926636349,-3.0900639800012493,3.14,3.0606346753036453
295,0.73583295150172,0.21497933974304032,0.7036700588599853,6.199335531365734,2.033761960762551,1.1910031236868874,6.064699844730943,1.0,3.14,-0.3810942389811288,-1.5572777887891134,-3.090110191010378,3.14,3.0605744664240686
296,0.7358478821124386,0.21501929871958103,0.7036734748820085,6.1993801461248355,2.033769393295418,1.1910019195598869,6.064744438093875,1.0,3.14,-0.38110256553989064,-1.5572672802897245,-3.0901564194770432,3.14,3.0605142351103214
297,0.7358628216887457,0.2150592749450194,0.7036768930246854,6.199424777971853,2.0337768287923867,1.1910007153785334,6.064789048536367,1.0,3.14,-0.38111089525122005,-1.5572567671631978,-3.090202665407873,3.14,3.060453981354101
298,0.7358777702364518,0.21509926842674007,0.7036803132894129,6.199469426913729,2.0337842672547164,1.190999511143093,6.064833676065361,1.0,3.14,-0.38111922811634635,-1.5572462494072625,-3.090248928809497,3.14,3.060393705147101
299,0.7358927277613756,0.21513927917213416,0.7036837356775913,6.199514092957415,2.033791708683667,1.1909983068538366,6.0648783206878045,1.0,3.14,-0.3811275641364983,-1.5572357270196457,-3.0902952096885494,3.14,3.0603334064810124
300,0.7359076942693374,0.21517930718859848,0.7036871601906199,6.199558776109867,2.0337991530805,1.1909971025110324,6.064922982410647,1.0,3.14,-0.3811359033129058,-1.5572251999980735,-3.0903415080516647,3.14,3.060273085347522
301,0.7359226697661624,0.21521935248352747,0.7036905868299008,6.199603476378038,2.0338066004464754,1.1909958981149509,6.064967661240843,1.0,3.14,-0.3811442456467991,-1.5572146683402703,-3.090387823905482,3.14,3.060212741738314
302,0.7359376542576781,0.21525941506432447,0.7036940155968348,6.199648193768891,2.033814050782856,1.19099469366586,6.065012357185347,1.0,3.14,-0.3811525911394095,-1.55720413204396,-3.0904341572566416,3.14,3.0601523756450684
303,0.7359526477497189,0.21529949493839312,0.7036974464928253,6.19969292828939,2.0338215040909042,1.1909934891640317,6.065057070251123,1.0,3.14,-0.38116093979196786,-1.5571935911068644,-3.0904805081117885,3.14,3.060091987059463
304,0.7359676502481209,0.21533959211314224,0.7037008795192762,6.199737679946502,2.033828960371882,1.1909922846097356,6.065101800445133,1.0,3.14,-0.3811692916057064,-1.5571830455267044,-3.0905268764775693,3.14,3.0600315759731718
305,0.7359826617587253,0.21537970659598446,0.7037043146775929,6.199782448747198,2.033836419627055,1.1909910800032422,6.065146547774345,1.0,3.14,-0.38117764658185804,-1.557172495301199,-3.0905732623606332,3.14,3.059971142377865
306,0.7359976822873778,0.21541983839433276,0.7037077519691806,6.199827234698453,2.0338438818576865,1.1909898753448227,6.065191312245732,1.0,3.14,-0.38118600472165604,-1.557161940428066,-3.0906196657676324,3.14,3.0599106862652103
307,0.7360127118399272,0.21545998751560783,0.703711191395447,6.1998720378072445,2.0338513470650423,1.1909886706347486,6.065236093866267,1.0,3.14,-0.38119436602633344,-1.5571513809050226,-3.0906660867052222,3.14,3.059850207626871
308,0.7360277504222265,0.215500153967233,0.7037146329577992,6.199916858080557,2.0338588152503876,1.1909874658732917,6.06528089264293,1.0,3.14,-0.381202730497125,-1.557140816729784,-3.0907125251800607,3.14,3.0597897064545085
309,0.7360427980401328,0.21554033775663123,0.7037180766576464,6.199961695525372,2.033866286414989,1.1909862610607236,6.0653257085827015,1.0,3.14,-0.3812110981352656,-1.5571302479000642,-3.0907589811988077,3.14,3.0597291827397797
310,0.7360578546995081,0.21558053889123469,0.7037215224963985,6.2000065501486805,2.0338737605601134,1.190985056197316,6.065370541692569,1.0,3.14,-0.38121946894199055,-1.5571196744135758,-3.090805454768127,3.14,3.059668636474338
311,0.736072920406219,0.21562075737847888,0.7037249704754657,6.200051421957479,2.0338812376870283,1.1909838512833426,6.065415391979521,1.0,3.14,-0.381227842918536,-1.55710909626803,-3.090851945894685,3.14,3.0596080676498345
312,0.736087995166133,0.21566099322579493,0.7037284205962606,6.200096310958757,2.0338887177970024,1.1909826463190754,6.065460259450549,1.0,3.14,-0.38123622006613833,-1.5570985134611366,-3.0908984545851506,3.14,3.059547476257916
313,0.7361030789851261,0.2157012464406267,0.7037318728601958,6.200141217159518,2.0338962008913053,1.1909814413047886,6.065505144112651,1.0,3.14,-0.3812446003860347,-1.5570879259906043,-3.0909449808461953,3.14,3.0594868622902265
314,0.7361181718690735,0.2157415170304154,0.7037353272686844,6.200186140566763,2.0339036869712053,1.1909802362407542,6.065550045972825,1.0,3.14,-0.3812529838794628,-1.5570773338541404,-3.0909915246844935,3.14,3.0594262257384064
315,0.7361332738238591,0.2157818050026119,0.7037387838231424,6.2002310811875025,2.033911176037973,1.190979031127248,6.065594965038075,1.0,3.14,-0.38126137054766074,-1.5570667370494509,-3.091038086106723,3.14,3.059365566594093
316,0.736148384855368,0.21582211036466423,0.7037422425249842,6.2002760390287435,2.033918668092879,1.1909778259645423,6.065639901315409,1.0,3.14,-0.3812697603918677,-1.5570561355742398,-3.091084665119563,3.14,3.0593048848489204
317,0.7361635049694902,0.21586243312402725,0.7037457033756271,6.200321014097501,2.033926163137196,1.1909766207529124,6.065684854811837,1.0,3.14,-0.381278153413323,-1.5570455294262107,-3.091131261729697,3.14,3.0592441804945185
318,0.7361786341721207,0.21590277328815924,0.7037491663764892,6.200366006400792,2.0339336611721945,1.1909754154926329,6.0657298255343735,1.0,3.14,-0.3812865496132664,-1.557034918603065,-3.09117787594381,3.14,3.059183453522514
319,0.7361937724691578,0.21594313086452344,0.7037526315289888,6.20041101594564,2.033941162199149,1.1909742101839798,6.065774813490036,1.0,3.14,-0.38129494899293853,-1.557024303102503,-3.091224507768591,3.14,3.059122703924532
320,0.736208919866503,0.21598350586058307,0.7037560988345453,6.200456042739068,2.0339486662193327,1.190973004827227,6.065819818685847,1.0,3.14,-0.38130335155358075,-1.5570136829222243,-3.0912711572107314,3.14,3.059061931692191
321,0.7362240763700635,0.21602389828380766,0.70375956829458,6.200501086788105,2.0339561732340177,1.1909717994226505,6.065864841128831,1.0,3.14,-0.38131175729643435,-1.5570030580599268,-3.0913178242769246,3.14,3.0590011368171095
322,0.7362392419857504,0.21606430814167016,0.7037630399105131,6.200546148099783,2.0339636832444814,1.1909705939705273,6.065909880826016,1.0,3.14,-0.3813201662227419,-1.556992428513306,-3.0913645089738675,3.14,3.0589403192909
323,0.7362544167194777,0.2161047354416468,0.7037665136837697,6.200591226681139,2.033971196251998,1.1909693884711325,6.065954937784435,1.0,3.14,-0.3813285783337464,-1.5569817942800572,-3.0914112113082597,3.14,3.058879479105174
324,0.736269600577165,0.21614518019121523,0.7037699896157718,6.20063632253921,2.0339787122578445,1.1909681829247443,6.066000012011123,1.0,3.14,-0.3813369936306909,-1.556971155357874,-3.091457931286804,3.14,3.058818616251537
325,0.7362847935647351,0.21618564239786078,0.7037734677079438,6.20068143568104,2.033986231263296,1.1909669773316376,6.06604510351312,1.0,3.14,-0.3813454121148194,-1.5569605117444492,-3.091504668916205,3.14,3.0587577307215934
326,0.7362999956881146,0.21622612206906827,0.7037769479617122,6.200726566113675,2.0339937532696304,1.1909657716920914,6.0660902122974685,1.0,3.14,-0.3813538337873764,-1.556949863437473,-3.091551424203171,3.14,3.058696822506943
327,0.7363152069532354,0.21626661921232895,0.7037804303785032,6.200771713844165,2.0340012782781267,1.1909645660063828,6.0661353383712155,1.0,3.14,-0.3813622586496073,-1.556939210434635,-3.091598197154413,3.14,3.0586358915991823
328,0.736330427366033,0.21630713383513747,0.7037839149597447,6.200816878879564,2.0340088062900623,1.190963360274789,6.066180481741412,1.0,3.14,-0.38137068670275764,-1.5569285527336236,-3.091644987776644,3.14,3.0585749379899054
329,0.7363456569324478,0.21634766594499097,0.7037874017068646,6.200862061226931,2.0340163373067175,1.1909621544975895,6.0662256424151115,1.0,3.14,-0.3813791179480736,-1.5569178903321255,-3.091691796076581,3.14,3.0585139616707018
330,0.736360895658422,0.21638821554938936,0.7037908906212931,6.200907260893324,2.0340238713293712,1.190960948675062,6.066270820399371,1.0,3.14,-0.3813875523868022,-1.5569072232278263,-3.0917386220609426,3.14,3.058452962633158
331,0.7363761435499049,0.21642878265583906,0.7037943817044613,6.200952477885809,2.0340314083593047,1.1909597428074852,6.0663160157012515,1.0,3.14,-0.38139599002019076,-1.5568965514184094,-3.0917854657364514,3.14,3.0583919408688574
332,0.7363914006128477,0.21646936727184765,0.7037978749578001,6.200997712211455,2.0340389483978005,1.1909585368951394,6.0663612283278185,1.0,3.14,-0.3814044308494875,-1.5568858749015577,-3.091832327109832,3.14,3.05833089636938
333,0.7364066668532065,0.2165099694049271,0.7038013703827413,6.201042963877333,2.0340464914461385,1.1909573309383026,6.06640645828614,1.0,3.14,-0.38141287487594083,-1.556875193674953,-3.0918792061878118,3.14,3.058269829126302
334,0.7364219422769424,0.21655058906259217,0.7038048679807194,6.201088232890517,2.034054037505602,1.1909561249372556,6.0664517055832885,1.0,3.14,-0.3814213221007997,-1.5568645077362748,-3.0919261029771214,3.14,3.0582087391311967
335,0.7364372268900194,0.21659122625236432,0.7038083677531697,6.201133519258089,2.0340615865774745,1.1909549188922783,6.06649697022634,1.0,3.14,-0.381429772525314,-1.556853817083202,-3.091973017484494,3.14,3.0581476263756335
336,0.7364525206984066,0.2166318809817647,0.7038118697015264,6.2011788229871305,2.034069138663039,1.1909537128036507,6.066542252222373,1.0,3.14,-0.38143822615073397,-1.5568431217134115,-3.092019949716666,3.14,3.0580864908511787
337,0.7364678237080767,0.21667255325832005,0.7038153738272277,6.201224144084728,2.034076693763582,1.1909525066716549,6.06658755157847,1.0,3.14,-0.3814466829783106,-1.5568324216245788,-3.0920668996803755,3.14,3.0580253325493953
338,0.7364831359250075,0.21671324308956083,0.7038188801317098,6.201269482557971,2.0340842518803863,1.1909513004965704,6.066632868301719,1.0,3.14,-0.381455143009295,-1.5568217168143788,-3.092113867382365,3.14,3.0579641514618428
339,0.7364984573551788,0.2167539504830195,0.7038223886164117,6.201314838413953,2.0340918130147387,1.1909500942786801,6.066678202399209,1.0,3.14,-0.3814636062449397,-1.556811007280484,-3.0921608528293785,3.14,3.0579029475800774
340,0.7365137880045768,0.21679467544623465,0.7038258992827725,6.201360211659773,2.0340993771679265,1.190948888018264,6.066723553878035,1.0,3.14,-0.3814720726864975,-1.5568002930205664,-3.0922078560281636,3.14,3.057841720895652
341,0.736529127879191,0.21683541798674782,0.703829412132234,6.201405602302531,2.034106944341236,1.1909476817156055,6.066768922745293,1.0,3.14,-0.38148054233522116,-1.5567895740322963,-3.0922548769854705,3.14,3.057780471400115
342,0.7365444769850157,0.21687617811210075,0.7038329271662368,6.20145101034933,2.034114514535956,1.1909464753709869,6.066814309008086,1.0,3.14,-0.38148901519236444,-1.5567788503133422,-3.092301915708052,3.14,3.057719199085013
343,0.7365598353280477,0.21691695582984447,0.7038364443862243,6.201496435807281,2.0341220877533734,1.1909452689846902,6.0668597126735175,1.0,3.14,-0.38149749125918175,-1.556768121861372,-3.0923489722026645,3.14,3.0576579039418883
344,0.73657520291429,0.2169577511475304,0.7038399637936399,6.201541878683495,2.0341296639947783,1.1909440625569987,6.066905133748698,1.0,3.14,-0.3815059705369281,-1.556757388674052,-3.092396046476066,3.14,3.0575965859622802
345,0.7365905797497493,0.21699856407271437,0.703843485389927,6.201587338985088,2.0341372432614606,1.1909428560881956,6.066950572240738,1.0,3.14,-0.3815144530268589,-1.5567466507490466,-3.0924431385350184,3.14,3.057535245137724
346,0.7366059658404356,0.21703939461295504,0.7038470091765332,6.201632816719179,2.03414482555471,1.1909416495785652,6.066996028156753,1.0,3.14,-0.38152293873023013,-1.556735908084019,-3.0924902483862855,3.14,3.057473881459752
347,0.7366213611923637,0.2170802427758135,0.7038505351549045,6.20167831189289,2.0341524108758184,1.1909404430283914,6.067041501503864,1.0,3.14,-0.3815314276482989,-1.556725160676631,-3.092537376036635,3.14,3.0574124949198933
348,0.7366367658115525,0.21712110856885822,0.7038540633264876,6.2017238245133495,2.034159999226078,1.1909392364379576,6.067086992289193,1.0,3.14,-0.38153991978232227,-1.5567144085245437,-3.0925845214928365,3.14,3.0573510855096733
349,0.7366521797040254,0.2171619919996592,0.7038575936927319,6.201769354587687,2.0341675906067804,1.1909380298075494,6.067132500519867,1.0,3.14,-0.38154841513355775,-1.5567036516254158,-3.0926316847616633,3.14,3.0572896532206135
350,0.7366676028758096,0.21720289307578944,0.7038611262550876,6.2018149021230355,2.0341751850192185,1.1909368231374509,6.067178026203018,1.0,3.14,-0.3815569137032641,-1.5566928899769057,-3.0926788658498907,3.14,3.057228198044233
351,0.7366830353329371,0.21724381180482746,0.7038646610150046,6.201860467126535,2.0341827824646863,1.190935616427948,6.067223569345779,1.0,3.14,-0.3815654154927,-1.5566821235766692,-3.0927260647642973,3.14,3.0571667199720465
352,0.736698477081443,0.21728474819435395,0.7038681979739349,6.201906049605325,2.034190382944479,1.1909344096793264,6.067269129955288,1.0,3.14,-0.3815739205031256,-1.5566713524223614,-3.0927732815116644,3.14,3.0571052189955665
353,0.7367139281273677,0.21732570225195325,0.7038717371333313,6.201951649566552,2.0341979864598905,1.1909332028918718,6.067314708038687,1.0,3.14,-0.3815824287358006,-1.5566605765116361,-3.0928205160987763,3.14,3.0570436951063007
354,0.7367293884767551,0.21736667398521411,0.703875278494647,6.201997267017363,2.034205593012217,1.1909319960658697,6.067360303603121,1.0,3.14,-0.3815909401919859,-1.5566497958421455,-3.09286776853242,3.14,3.056982148295754
355,0.7367448581356549,0.21740766340173093,0.7038788220593375,6.202042901964915,2.0342132026027557,1.1909307892016074,6.067405916655741,1.0,3.14,-0.381599454872943,-1.5566390104115404,-3.092915038819385,3.14,3.056920578555428
356,0.7367603371101181,0.21744867050909458,0.7038823678288573,6.202088554416357,2.034220815232802,1.190929582299372,6.067451547203696,1.0,3.14,-0.3816079727799337,-1.5566282202174702,-3.0929623269664646,3.14,3.0568589858768207
357,0.7367758254062031,0.21748969531490903,0.7038859158046652,6.202134224378855,2.034228430903655,1.1909283753594504,6.067497195254146,1.0,3.14,-0.38161649391422026,-1.5566174252575826,-3.0930096329804537,3.14,3.056797370251427
358,0.7367913230299706,0.21753073782677648,0.7038894659882173,6.202179911859571,2.0342360496166125,1.1909271683821299,6.067542860814249,1.0,3.14,-0.38162501827706613,-1.5566066255295246,-3.0930569568681516,3.14,3.0567357316707375
359,0.7368068299874863,0.21757179805230123,0.7038930183809735,6.20222561686567,2.0342436713729737,1.1909259613676992,6.067588543891169,1.0,3.14,-0.38163354586973486,-1.5565958210309407,-3.093104298636359,3.14,3.05667407012624
360,0.736822346284819,0.21761287599909573,0.7038965729843932,6.202271339404325,2.034251296174039,1.1909247543164456,6.067634244492075,1.0,3.14,-0.3816420766934911,-1.5565850117594753,-3.0931516582918803,3.14,3.056612385609419
361,0.7368378719280435,0.2176539716747751,0.7039001297999367,6.202317079482711,2.034258924021108,1.190923547228658,6.067679962624136,1.0,3.14,-0.38165061074959916,-1.5565741977127707,-3.0931990358415224,3.14,3.0565506781117553
362,0.7368534069232374,0.2176950850869554,0.7039036888290665,6.202362837108005,2.034266554915482,1.190922340104625,6.067725698294528,1.0,3.14,-0.3816591480393247,-1.556563378888468,-3.093246431292095,3.14,3.0564889476247266
363,0.7368689512764837,0.21773621624325967,0.7039072500732461,6.202408612287391,2.0342741888584626,1.1909211329446356,6.06777145151043,1.0,3.14,-0.3816676885639336,-1.556552555284207,-3.093293844650411,3.14,3.0564271941398062
364,0.7368845049938683,0.21777736515131257,0.703910813533937,6.202454405028053,2.034281825851352,1.1909199257489798,6.067817222279025,1.0,3.14,-0.38167623232469267,-1.5565417268976258,-3.093341275923286,3.14,3.056365417648465
365,0.7369000680814832,0.2178185318187441,0.7039143792126068,6.202500215337183,2.034289465895454,1.1909187185179473,6.067863010607498,1.0,3.14,-0.38168477932286904,-1.556530893726361,-3.0933887251175385,3.14,3.05630361814217
366,0.736915640545422,0.21785971625318457,0.7039179471107206,6.202546043221972,2.034297108992072,1.1909175112518282,6.067908816503039,1.0,3.14,-0.38169332955973057,-1.5565200557680479,-3.09343619223999,3.14,3.056241795612385
367,0.7369312223917867,0.2179009184622735,0.7039215172297448,6.202591888689619,2.0343047551425095,1.1909163039509134,6.067954639972842,1.0,3.14,-0.3817018830365455,-1.5565092130203202,-3.093483677297464,3.14,3.0561799500505695
368,0.7369468136266789,0.21794213845364832,0.7039250895711484,6.202637751747322,2.034312404348073,1.1909150966154927,6.068000481024105,1.0,3.14,-0.38171043975458313,-1.5564983654808109,-3.0935311802967878,3.14,3.056118081448181
369,0.7369624142562082,0.21798337623495542,0.7039286641363998,6.20268363240229,2.0343200566100674,1.1909138892458586,6.068046339664027,1.0,3.14,-0.38171899971511253,-1.556487513147151,-3.0935787012447915,3.14,3.0560561897966725
370,0.7369780242864854,0.21802463181384069,0.7039322409269688,6.202729530661728,2.0343277119297993,1.1909126818423004,6.0680922158998145,1.0,3.14,-0.3817275629194044,-1.5564766560169703,-3.093626240148308,3.14,3.0559942750874938
371,0.7369936437236273,0.2180659051979536,0.7039358199443273,6.202775446532846,2.0343353703085763,1.1909114744051126,6.068138109738674,1.0,3.14,-0.3817361293687289,-1.5564657940878968,-3.0936737970141723,3.14,3.055932337312091
372,0.7370092725737555,0.21810719639495213,0.7039394011899475,6.202821380022864,2.0343430317477047,1.190910266934586,6.068184021187821,1.0,3.14,-0.38174469906435776,-1.5564549273575579,-3.093721371849224,3.14,3.055870376461907
373,0.7370249108429947,0.21814850541249445,0.703942984665301,6.202867331139,2.0343506962484947,1.190909059431012,6.068229950254469,1.0,3.14,-0.3817532720075632,-1.5564440558235788,-3.0937689646603035,3.14,3.055808392528381
374,0.7370405585374752,0.21818983225824418,0.7039465703718635,6.202913299888479,2.034358363812254,1.1909078518946847,6.06827589694584,1.0,3.14,-0.3817618481996173,-1.5564331794835835,-3.0938165754542557,3.14,3.0557463855029496
375,0.73705621566333,0.21823117693986477,0.7039501583111099,6.202959286278525,2.0343660344402936,1.1909066443258973,6.068321861269156,1.0,3.14,-0.38177042764179314,-1.5564222983351947,-3.0938642042379274,3.14,3.055684355377045
376,0.7370718822266972,0.21827253946502703,0.7039537484845165,6.20300529031637,2.034373708133923,1.190905436724943,6.068367843231643,1.0,3.14,-0.38177901033536454,-1.5564114123760335,-3.093911851018169,3.14,3.055622302142096
377,0.7370875582337186,0.21831391984140422,0.7039573408935594,6.203051312009248,2.0343813848944543,1.190904229092115,6.068413842840534,1.0,3.14,-0.3817875962816061,-1.55640052160372,-3.093959515801833,3.14,3.055560225789528
378,0.7371032436905418,0.218355318076676,0.7039609355397192,6.203097351364399,2.0343890647231975,1.1909030214277079,6.068459860103063,1.0,3.14,-0.3817961854817921,-1.5563896260158727,-3.0940071985957758,3.14,3.0554981263107632
379,0.7371189386033176,0.21839673417852146,0.7039645324244728,6.203143408389065,2.034396747621467,1.1909018137320162,6.06850589502647,1.0,3.14,-0.38180477793719847,-1.556378725610108,-3.0940548994068555,3.14,3.0554360036972206
380,0.7371346429782005,0.21843816815462566,0.7039681315493023,6.2031894830904895,2.034404433590575,1.1909006060053346,6.068551947617995,1.0,3.14,-0.3818133736491011,-1.556367820384042,-3.094102618241934,3.14,3.0553738579403147
381,0.737150356821351,0.21847962001267623,0.7039717329156885,6.203235575475922,2.0344121226318346,1.190899398247958,6.068598017884885,1.0,3.14,-0.3818219726187767,-1.5563569103352886,-3.094150355107876,3.14,3.0553116890314573
382,0.7371660801389336,0.21852108976036946,0.7039753365251137,6.203281685552621,2.034419814746562,1.1908981904601827,6.068644105834392,1.0,3.14,-0.38183057484750266,-1.55634599546146,-3.0941981100115483,3.14,3.0552494969620567
383,0.7371818129371138,0.2185625774053955,0.7039789423790616,6.203327813327837,2.0344275099360716,1.190896982642303,6.068690211473766,1.0,3.14,-0.381839180336557,-1.556335075760168,-3.0942458829598216,3.14,3.055187281723517
384,0.7371975552220672,0.2186040829554616,0.7039825504790164,6.203373958808838,2.0344352082016783,1.1908957747946156,6.068736334810268,1.0,3.14,-0.38184778908721806,-1.5563241512290227,-3.094293673959569,3.14,3.0551250433072403
385,0.7372133069999693,0.21864560641826492,0.7039861608264641,6.203420122002882,2.0344429095447,1.1908945669174174,6.068782475851156,1.0,3.14,-0.38185640110076485,-1.5563132218656317,-3.0943414830176668,3.14,3.0550627817046236
386,0.7372290682770014,0.21868714780151574,0.7039897734228913,6.203466302917241,2.034450613966454,1.1908933590110038,6.0688286346036975,1.0,3.14,-0.3818650163784772,-1.5563022876676025,-3.0943893101409934,3.14,3.055000496907061
387,0.7372448390593489,0.21872870711292283,0.7039933882697852,6.203512501559185,2.034458321468257,1.190892151075674,6.068874811075159,1.0,3.14,-0.3818736349216348,-1.5562913486325405,-3.0944371553364314,3.14,3.0549381889059437
388,0.7372606193532016,0.21877028436020493,0.7039970053686346,6.203558717935994,2.0344660320514283,1.1908909431117243,6.0689210052728155,1.0,3.14,-0.38188225673151904,-1.55628040475805,-3.094485018610865,3.14,3.0548758576926582
389,0.7372764091647543,0.2188118795510782,0.70400062472093,6.203604952054945,2.034473745717287,1.190889735119452,6.068967217203943,1.0,3.14,-0.3818908818094112,-1.5562694560417334,-3.094532899971182,3.14,3.054813503258589
390,0.7372922085002054,0.21885349269326593,0.7040042463281612,6.203651203923323,2.034481462467152,1.1908885270991563,6.06901344687582,1.0,3.14,-0.3818995101565933,-1.5562585024811921,-3.094580799424273,3.14,3.0547511255951156
391,0.7373080173657575,0.21889512379449333,0.7040078701918203,6.203697473548415,2.0344891823023463,1.1908873190511349,6.069059694295731,1.0,3.14,-0.3819081417743483,-1.5562475440740258,-3.0946287169770312,3.14,3.0546887246936154
392,0.7373238357676181,0.21893677286249166,0.7040114963134003,6.2037437609375115,2.034496905224189,1.1908861109756859,6.069105959470965,1.0,3.14,-0.3819167766639593,-1.556236580817833,-3.094676652636353,3.14,3.054626300545461
393,0.7373396637119989,0.21897843990499508,0.7040151246943953,6.20379006609791,2.034504631234003,1.1908849028731099,6.069152242408814,1.0,3.14,-0.38192541482671,-1.55622561271021,-3.0947246064091383,3.14,3.0545638531420223
394,0.7373555012051165,0.21902012492973894,0.7040187553362995,6.203836389036907,2.0345123603331117,1.1908836947437056,6.069198543116571,1.0,3.14,-0.38193405626388494,-1.556214639748753,-3.094772578302289,3.14,3.054501382474666
395,0.7373713482531894,0.21906182794446674,0.7040223882406096,6.203882729761806,2.0345200925228357,1.1908824865877725,6.069244861601537,1.0,3.14,-0.38194270097676897,-1.5562036619310564,-3.09482056832271,3.14,3.054438888534754
396,0.7373872048624442,0.21910354895692327,0.7040260234088221,6.2039290882799145,2.034527827804502,1.1908812784056115,6.0692911978710145,1.0,3.14,-0.381951348966648,-1.5561926792547118,-3.09486857647731,3.14,3.0543763713136456
397,0.7374030710391086,0.21914528797485577,0.7040296608424349,6.203975464598541,2.034535566179434,1.1908800701975217,6.06933755193231,1.0,3.14,-0.3819600002348085,-1.5561816917173112,-3.094916602772999,3.14,3.054313830802697
398,0.7374189467894164,0.21918704500601738,0.7040333005429488,6.204021858725,2.0345433076489567,1.1908788619638055,6.069383923792734,1.0,3.14,-0.38196865478253683,-1.556170699316444,-3.0949646472166914,3.14,3.0542512669932598
399,0.7374348321196069,0.2192288200581677,0.7040369425118624,6.204068270666612,2.034551052214397,1.1908776537047632,6.069430313459603,1.0,3.14,-0.38197731261112067,-1.5561597020496982,-3.095012709815304,3.14,3.054188679876683
400,0.7374507270359208,0.21927061313906487,0.7040405867506769,6.204114700430698,2.034558799877081,1.1908764454206962,6.069476720940234,1.0,3.14,-0.3819859737218483,-1.5561486999146608,-3.0950607905757566,3.14,3.0541260694443113
401,0.7374666315446049,0.2193124242564721,0.7040442332608954,6.204161148024582,2.034566550638337,1.1908752371119065,6.069523146241948,1.0,3.14,-0.38199463811600815,-1.5561376929089172,-3.0951088895049716,3.14,3.0540634356874867
402,0.7374825456519106,0.21935425341815804,0.7040478820440206,6.204207613455594,2.034574304499492,1.1908740287786963,6.0695695893720725,1.0,3.14,-0.38200330579488967,-1.5561266810300514,-3.095157006609875,3.14,3.054000778597547
403,0.7374984693640929,0.21939610063189555,0.7040515331015577,6.204254096731069,2.0345820614618755,1.1908728204213674,6.069616050337937,1.0,3.14,-0.3820119767597826,-1.5561156642756457,-3.0952051418973947,3.14,3.053938098165827
404,0.7375144026874114,0.2194379659054593,0.7040551864350109,6.204300597858343,2.0345898215268168,1.1908716120402234,6.069662529146876,1.0,3.14,-0.3820206510119774,-1.5561046426432814,-3.0952532953744623,3.14,3.053875394383658
405,0.7375303456281307,0.21947984924662925,0.704058842045888,6.204347116844758,2.034597584695646,1.1908704036355673,6.069709025806225,1.0,3.14,-0.38202932855276533,-1.5560936161305379,-3.0953014670480123,3.14,3.053812667242367
406,0.7375462981925195,0.21952175066318647,0.7040624999356951,6.2043936536976565,2.034605350969694,1.1908691952077022,6.069755540323327,1.0,3.14,-0.382038009383438,-1.5560825847349935,-3.095349656924982,3.14,3.053749916733278
407,0.7375622603868499,0.21956367016292103,0.7040661601059423,6.204440208424391,2.0346131203502935,1.1908679867569325,6.069802072705526,1.0,3.14,-0.38204669350528764,-1.5560715484542247,-3.0953978650123117,3.14,3.0536871428477115
408,0.7375782322174007,0.21960560775362142,0.7040698225581385,6.20448678103231,2.034620892838775,1.1908667782835622,6.069848622960173,1.0,3.14,-0.38205538091960706,-1.556060507285807,-3.0954460913169446,3.14,3.0536243455769845
409,0.7375942136904515,0.2196475634430826,0.7040734872937945,6.204533371528772,2.0346286684364716,1.1908655697878952,6.069895191094618,1.0,3.14,-0.3820640716276898,-1.556049461227314,-3.0954943358458267,3.14,3.05356152491241
410,0.737610204812291,0.21968953723910442,0.7040771543144224,6.204579979921138,2.034636447144717,1.1908643612702376,6.06994177711622,1.0,3.14,-0.38207276563083015,-1.5560384102763176,-3.0955425986059066,3.14,3.0534986808452986
411,0.7376262055892079,0.21973152914948738,0.7040808236215351,6.20462660621677,2.034644228964847,1.1908631527308935,6.069988381032339,1.0,3.14,-0.3820814629303227,-1.5560273544303889,-3.095590879604137,3.14,3.053435813366956
412,0.7376422160274985,0.21977353918204115,0.7040844952166458,6.204673250423041,2.0346520138981954,1.1908619441701693,6.070035002850341,1.0,3.14,-0.3820901635274629,-1.5560162936870976,-3.0956391788474726,3.14,3.053372922468685
413,0.7376582361334618,0.21981556734457197,0.7040881691012699,6.204719912547318,2.0346598019460975,1.1908607355883696,6.070081642577592,1.0,3.14,-0.3820988674235467,-1.5560052280440113,-3.095687496342871,3.14,3.0533100081417848
414,0.7376742659134014,0.21985761364489606,0.7040918452769235,6.204766592596979,2.0346675931098903,1.190859526985802,6.070128300221466,1.0,3.14,-0.38210757461987055,-1.5559941574986966,-3.095735832097293,3.14,3.053247070377551
415,0.7376903053736262,0.21989967809082991,0.7040955237451235,6.204813290579403,2.034675387390912,1.190858318362772,6.070174975789338,1.0,3.14,-0.382116285117732,-1.5559830820487184,-3.095784186117703,3.14,3.053184109167276
416,0.737706354520449,0.2199417606901952,0.704099204507388,6.204860006501973,2.0346831847904974,1.190857109719587,6.070221669288588,1.0,3.14,-0.3821249989184282,-1.5559720016916405,-3.0958325584110673,3.14,3.053121124502248
417,0.7377224133601855,0.21998386145081633,0.7041028875652369,6.204906740372077,2.034690985309988,1.1908559010565543,6.070268380726601,1.0,3.14,-0.3821337160232579,-1.5559609164250245,-3.0958809489843553,3.14,3.0530581163737525
418,0.7377384818991597,0.22002598038052631,0.7041065729201895,6.204953492197109,2.034698788950721,1.190854692373982,6.070315110110764,1.0,3.14,-0.38214243643351964,-1.5559498262464317,-3.0959293578445397,3.14,3.0529950847730705
419,0.7377545601436954,0.22006811748715405,0.7041102605737676,6.205000261984459,2.0347065957140367,1.1908534836721767,6.070361857448468,1.0,3.14,-0.3821511601505136,-1.5559387311534207,-3.0959777849985963,3.14,3.05293202969148
420,0.7377706481001244,0.22011027277853887,0.704113950527494,6.20504704974153,2.0347144056012763,1.1908522749514476,6.0704086227471095,1.0,3.14,-0.38215988717554,-1.5559276311435495,-3.0960262304535036,3.14,3.0528689511202556
421,0.7377867457747815,0.22015244626252023,0.7041176427828911,6.205093855475724,2.0347222186137808,1.1908510662121028,6.070455406014087,1.0,3.14,-0.3821686175098994,-1.555916526214374,-3.0960746942162434,3.14,3.0528058490506678
422,0.7378028531740062,0.22019463794694322,0.704121337341485,6.205140679194447,2.034730034752891,1.1908498574544522,6.070502207256806,1.0,3.14,-0.38217735115489304,-1.5559054163634491,-3.0961231762937995,3.14,3.0527427234739837
423,0.7378189703041427,0.2202368478396589,0.7041250342048002,6.205187520905112,2.034737854019951,1.1908486486788041,6.070549026482672,1.0,3.14,-0.3821860881118233,-1.555894301588328,-3.0961716766931597,3.14,3.052679574381467
424,0.7378350971715384,0.2202790759485148,0.7041287333743637,6.20523438061513,2.0347456764163034,1.1908474398854685,6.070595863699095,1.0,3.14,-0.382194828381993,-1.5558831818865624,-3.0962201954213144,3.14,3.052616401764378
425,0.7378512337825469,0.22032132228137283,0.7041324348517036,6.205281258331926,2.0347535019432934,1.190846231074756,6.0706427189134935,1.0,3.14,-0.38220357196670496,-1.5558720572557025,-3.096268732485257,3.14,3.0525532056139735
426,0.7378673801435253,0.22036358684608823,0.7041361386383479,6.205328154062915,2.0347613306022634,1.190845022246976,6.0706895921332835,1.0,3.14,-0.38221231886726326,-1.555860927693298,-3.0963172878919836,3.14,3.0524899859215058
427,0.7378835362608354,0.2204058696505282,0.7041398447358269,6.205375067815528,2.0347691623945607,1.1908438134024397,6.070736483365889,1.0,3.14,-0.38222106908497266,-1.555849793196895,-3.0963658616484935,3.14,3.0524267426782243
428,0.7378997021408437,0.22044817070256098,0.7041435531456726,6.205421999597196,2.034776997321531,1.1908426045414582,6.070783392618736,1.0,3.14,-0.3822298226211379,-1.5558386537640403,-3.096414453761789,3.14,3.0523634758753753
429,0.7379158777899208,0.22049049001005688,0.704147263869415,6.205468949415351,2.0347848353845204,1.1908413956643422,6.070830319899256,1.0,3.14,-0.38223857947706497,-1.555827509392278,-3.096463064238875,3.14,3.0523001855042007
430,0.7379320632144413,0.2205328275808895,0.7041509769085895,6.20551591727743,2.0347926765848783,1.190840186771405,6.070877265214883,1.0,3.14,-0.38224733965406005,-1.5558163600791506,-3.0965116930867604,3.14,3.052236871555939
431,0.7379482584207857,0.22057518342294424,0.7041546922647289,6.20556290319088,2.0348005209239504,1.190838977862957,6.070924228573057,1.0,3.14,-0.38225610315343017,-1.5558052058222003,-3.096560340312456,3.14,3.0521735340218257
432,0.7379644634153382,0.22061755754410048,0.7041584099393685,6.205609907163143,2.034808368403087,1.1908377689393113,6.070971209981219,1.0,3.14,-0.38226486997648307,-1.5557940466189666,-3.0966090059229763,3.14,3.0521101728930917
433,0.7379806782044865,0.22065994995224592,0.704162129934045,6.205656929201669,2.0348162190236376,1.1908365600007802,6.071018209446815,1.0,3.14,-0.38227364012452686,-1.5557828824669881,-3.0966576899253377,3.14,3.052046788160965
434,0.7379969027946249,0.2207023606552726,0.704165852250296,6.205703969313913,2.0348240727869533,1.1908353510476783,6.0710652269772964,1.0,3.14,-0.3822824135988704,-1.5557717133638014,-3.0967063923265608,3.14,3.0519833798166704
435,0.7380131371921507,0.22074478966107672,0.7041695768896604,6.205751027507334,2.0348319296943833,1.1908341420803177,6.071112262580118,1.0,3.14,-0.3822911904008228,-1.5557605393069427,-3.0967551131336686,3.14,3.0519199478514283
436,0.738029381403466,0.22078723697755506,0.7041733038536765,6.205798103789392,2.034839789747281,1.1908329330990126,6.071159316262737,1.0,3.14,-0.3822999705316946,-1.5557493602939456,-3.096803852353687,3.14,3.051856492256456
437,0.738045635434977,0.22082970261261298,0.7041770331438858,6.2058451981675535,2.034847652946998,1.1908317241040771,6.071206388032615,1.0,3.14,-0.3823087539927962,-1.555738176322343,-3.096852609993646,3.14,3.0517930130229667
438,0.7380618992930957,0.22087218657415789,0.7041807647618299,6.20589231064929,2.034855519294888,1.1908305150958256,6.07125347789722,1.0,3.14,-0.38231754078543906,-1.5557269873896655,-3.0969013860605767,3.14,3.0517295101421706
