jkpark150901/flame_robotics_drt/experiment/inspection_ik/session_20260722_142108/fallback/inspection_ik_20260722_142155_rb20_1900es_normalized_fallback.csv
iteration,err_norm,position_error,orientation_error,tcp_x,tcp_y,tcp_z,q0_rt_joint_linear_track,q1_rt_joint_carriage,q2_rt_base,q3_rt_shoulder,q4_rt_elbow,q5_rt_wrist1,q6_rt_wrist2,q7_rt_wrist3
0,2.389987652180229,0.9192370569412552,2.118261529680291,2.850775119921631,1.7922486613963715,2.077002676116443,2.7165137559017287,1.0,3.14,-0.5026602782563206,-0.002840549439827685,-3.14,3.14,3.14
1,2.0759334805555434,0.7739357137842335,1.8744701049539594,2.8300782642700577,1.9451186879129352,1.9665429099431684,2.6955734310470465,1.0,3.14,-0.5072047352191158,-0.2434258046821699,-3.14,3.14,3.14
2,1.7913080215943342,0.5898042945712635,1.666624242635107,2.8086524727535545,2.146567545524172,1.784482397357261,2.673827791409985,1.0,3.14,-0.639672956032168,-0.3193296792679585,-3.1352164695392846,3.14,3.1349556617896686
3,1.5026918193742764,0.45042540246289486,1.4226684429130467,2.7929653517342885,2.2878970319311684,1.5774818718703267,2.657916907336768,1.0,3.14,-0.7190952618749189,-0.48485346276799224,-3.1288115183335248,3.14,3.1284564818605762
4,1.2499100758974875,0.3535987551311005,1.194223823782126,2.7815117357004784,2.312531860172798,1.3963090796893347,2.646372367704232,0.9665964122150155,3.14,-0.741706692843693,-0.6922539254962116,-3.1215098314557785,3.14,3.121119566280371
5,1.0633145600968037,0.29434136725557336,1.0197942324896752,2.7744589055677906,2.274363472447566,1.2741035380151111,2.639329731775537,0.9338301634696948,3.14,-0.7237209116903506,-0.8866377392431406,-3.113825903941792,3.14,3.113394991238385
6,0.9405670562612366,0.26367120690455637,0.9019831043933328,2.7704541612636286,2.2204418445992506,1.204461277422539,2.6353790055102055,0.9128594211068346,3.14,-0.6881812655924993,-1.0421123845409248,-3.1063907393558945,3.14,3.105901413208941
7,0.8651525848018765,0.2492151542544938,0.8280830370171534,2.767971587392481,2.1713671309589144,1.1698360307722604,2.6329592051498243,0.9023385977012215,3.14,-0.6488733953473089,-1.157336206163116,-3.0997666450831574,3.14,3.099204525243884
8,0.8206709390721769,0.24199924742353943,0.7839911248163627,2.7660203550345996,2.133029395224808,1.1556363870099018,2.6310651458997247,0.8991858636823893,3.14,-0.6120202468734359,-1.239987899329789,-3.094276676999713,3.14,3.093632762284883
9,0.7950040628189791,0.2374649118761382,0.7586159059090379,2.764151171674234,2.1053514885143465,1.152317841713257,2.629243664085596,0.9009014397710294,3.14,-0.5798825810308122,-1.2988173771811728,-3.089983127707456,3.14,3.089252497588854
10,0.780227496071471,0.23379240974251733,0.7443220299262051,2.7622455871016975,2.086391054430913,1.154230728400997,2.6273766357869954,0.9057325965833349,3.14,-0.552811478995456,-1.3411345524947325,-3.086769232286002,3.14,3.0859494264252905
11,0.771476151127614,0.2304151673007172,0.73622653141769,2.760325766413959,2.073953967884753,1.1582355232428097,2.6254878756335454,0.9124952836282629,3.14,-0.5303023166737052,-1.3724063712055539,-3.0844379703481506,3.14,3.083527818426986
12,0.7658826061296232,0.22723399294711147,0.7313665583660769,2.7584462443589337,2.0661394362391814,1.1626964957477388,2.623633732958175,0.9204010748905492,3.14,-0.5115452438207828,-1.3964931665409783,-3.082781780797673,3.14,3.0817807198497054
13,0.761818253296243,0.22427980557916857,0.7280295862103788,2.7566501755565676,2.061466422994402,1.1668404445341167,2.621858933310172,0.9289315612990414,3.14,-0.4957047824659191,-1.416015843943436,-3.0816179752735753,3.14,3.080525698774065
14,0.7583998031125652,0.2215904611052294,0.725281142574168,2.7549595447611925,2.0588485423892893,1.1703685999514326,2.6201866883024003,0.9377517308456599,3.14,-0.48204658636482317,-1.4326954469498894,-3.0808006224114868,3.14,3.0796169156342024
15,0.755180577076726,0.21917749586620808,0.722652370484606,2.753378595603365,2.057522938838077,1.17322826045833,2.6186221428489165,0.9466503965479547,3.14,-0.4699797780813557,-1.4476255250267973,-3.0802200941554245,3.14,3.078944763380293
16,0.7519612205998872,0.21702629366657064,0.7199411274349893,2.751900313376647,2.0569737187758257,1.1754818919295176,2.617158915432207,0.9554990018265657,3.14,-0.45905614014454016,-1.4614765474970897,-3.079797563677101,3.14,3.078430409421023
17,0.748675653560606,0.21510569561986476,0.7170892279618236,2.7505120992056233,2.056864564809404,1.1772348231897818,2.6157848355857767,0.9642231154856818,3.14,-0.4489503520191194,-1.4746429305543007,-3.0794782898819086,3.14,3.0780190995673937
18,0.7453239575100316,0.2133777316735906,0.7141091807265421,2.7491996871818793,2.0569846504326033,1.1785976881024696,2.6144859172889285,0.9727828624041366,3.14,-0.439434574332977,-1.487345197911675,-3.0792253980871545,3.14,3.0776739466459864
19,0.7419342772146362,0.21180459038531002,0.711042338694608,2.7479494516183562,2.0572076821592877,1.1796690055359684,2.6132487114616407,0.9811597060658976,3.14,-0.4303540157036963,-1.4996986779128114,-3.0790147558888745,3.14,3.077370809113743
20,0.7385423769452638,0.21035259973832338,0.7079364750697039,2.7467495407994944,2.057462242502032,1.1805289730410797,2.612061473875829,0.9893477281224734,3.14,-0.42160626407392554,-1.5117581537143012,-3.0788310243211066,3.14,3.0770943427160242
21,0.7351816577514246,0.20899390256326092,0.7048349716925613,2.7455902596516837,2.057711141357921,1.1812390901865586,2.610914572417094,0.9973480430001613,3.14,-0.4131250903033549,-1.5235458165354896,-3.0786647513688155,3.14,3.076835093594448
22,0.7320728543296401,0.20836581574553428,0.7017726281852525,2.744464023563343,2.0527722185634705,1.181844450972735,2.609800457894071,1.0,3.14,-0.40486842517949684,-1.5350680167398025,-3.0785103089582595,3.14,3.076587434580396
23,0.7301853122487126,0.20806330198655398,0.6998837704820065,2.7434700356393202,2.0465064345140327,1.182842692170111,2.608816476334253,1.0,3.14,-0.39785694501719443,-1.544105588863631,-3.078379002014943,3.14,3.0763622542659435
24,0.7294622591296397,0.20767220471709152,0.6992372156805053,2.742651086628171,2.041898780350553,1.1841843139115031,2.608004884935208,1.0,3.14,-0.39245405696827923,-1.5502179363756372,-3.0782860395192353,3.14,3.076174728257105
25,0.729386859951218,0.20725198276719742,0.6992763757081247,2.7419914187409877,2.038586880103585,1.1855650651914185,2.607350502376822,1.0,3.14,-0.3883999709850022,-1.554250311725204,-3.0782346699162804,3.14,3.0760283077352453
26,0.7296381601564562,0.20684443788764637,0.6996538320437773,2.7414723345602563,2.0362575898630477,1.186828461561635,2.6068351311195905,1.0,3.14,-0.38542882100087333,-1.5568358760570784,-3.0782193386733345,3.14,3.075917573363927
27,0.7300248626096245,0.2064756701627631,0.7001620776822113,2.741073674870562,2.0346547876591723,1.1879075338725382,2.6064390215954947,1.0,3.14,-0.3832985019591193,-1.5584372268353122,-3.078231656620504,3.14,3.075834227488204
28,0.7304391209908779,0.20615926858111136,0.7006844307390675,2.740775386027554,2.033577032231151,1.1887868492912022,2.6061424426985424,1.0,3.14,-0.3818032603206971,-1.5593848276544144,-3.0782633386397897,3.14,3.075770048129862
29,0.73082517073104,0.20589969456853033,0.7011612826606959,2.7405587274244714,2.0328706689123446,1.1894784046754334,2.6059268999775185,1.0,3.14,-0.38077630573768867,-1.5599097110290403,-3.0783074317237418,3.14,3.075718126691221
30,0.7311585562764494,0.2056953370324209,0.7015674964578917,2.7404070165191867,2.0324214767141435,1.1900068208217216,2.605775893898946,1.0,3.14,-0.38008715911127594,-1.5601699036962589,-3.0783586411822887,3.14,3.075673200246024
31,0.731432715974765,0.20554099921113492,0.7018976643746538,2.740305966622642,2.032146480499518,1.1904006488531382,2.6056752706974473,1.0,3.14,-0.37963664573591277,-1.5602710099161612,-3.0784132263916697,3.14,3.0756315511837755
32,0.7316505577337649,0.20542975626266624,0.7021567698515622,2.740243724267406,2.0319866928585326,1.190687600699322,2.6056132713605815,1.0,3.14,-0.37935122633875923,-1.5602817883262405,-3.0784687269053994,3.14,3.0755907358762515
33,0.7318193473159267,0.2053542311233172,0.7023544820636219,2.740210713369706,2.0319010613730852,1.190892224805922,2.605580385494535,1.0,3.14,-0.3791775755240849,-1.5602456537578253,-3.078523653985695,3.14,3.0755492779350004
34,0.7319477465114973,0.2053073904824458,0.7025018352585221,2.7401993736789847,2.031861632368929,1.1910350446289215,2.605569097534023,1.0,3.14,-0.37907783401866113,-1.5601889823808428,-3.078577210502134,3.14,3.075506389310528
35,0.7320442112379868,0.20528297841892493,0.7026094320962996,2.7402038568304095,2.0318498119929425,1.1911325212152764,2.6055735887967777,1.0,3.14,-0.37902567782581836,-1.5601269815165548,-3.078629062680658,3.14,3.075461742898221
36,0.7321162230038184,0.2052756974609092,0.7026865889828058,2.740219721530012,2.0318535535745372,1.1911974361817579,2.6055894371840247,1.0,3.14,-0.3790031923782053,-1.5600677499622917,-3.078679166956701,3.14,3.0754153000157514
37,0.7321700098442987,0.20528122773510998,0.7027410383575329,2.740243652298511,2.0318652920023843,1.1912394494505614,2.605613339239769,1.0,3.14,-0.3789984641146087,-1.5600150240127988,-3.078727645912182,3.14,3.075367186801421
38,0.7322105374272535,0.20529615271494242,0.7027789395789679,2.740273213924623,2.0318804599855462,1.1912656901467806,2.6056428669846063,1.0,3.14,-0.3790037732284739,-1.559969989284328,-3.0787747039774285,3.14,3.0753176102600097
39,0.7322416345653927,0.20531783955301433,0.7028050431511305,2.7403066456143255,2.031896444861321,1.1912813057020921,2.6056762637376076,1.0,3.14,-0.37901426885500833,-1.5599324426700003,-3.078820573333007,3.14,3.0752668044220197
40,0.7322661723331414,0.20534430517929836,0.7028229151458738,2.7403426938203608,2.0319118707995756,1.1912899353771995,2.6057122780957105,1.0,3.14,-0.37902701873841643,-1.5599015122130775,-3.0788654815869627,3.14,3.075214998213637
41,0.7322862513381111,0.2053740867235204,0.7028351691141606,2.7403804799988376,2.0319261159841293,1.191294098616446,2.6057500324628604,1.0,3.14,-0.379040341697979,-1.5598760834423844,-3.07890963441908,3.14,3.0751623982449403
42,0.7323033738072262,0.2054061259865738,0.7028436783330742,2.7404193983264102,2.0319389958534746,1.1912955018518596,2.6057889212732515,1.0,3.14,-0.37905334858655904,-1.559855036084532,-3.07895320800916,3.14,3.0751091813452147
43,0.7323185904748761,0.20543967190765672,0.7028497567727082,2.740459038158505,2.0319505611964637,1.1912952736938378,2.60582853377143,1.0,3.14,-0.3790656336053533,-1.5598373622474504,-3.0789963474895186,3.14,3.0750554930945704
44,0.732332619888504,0.20547420146907236,0.7028543061238937,2.7404991263115592,2.0319609739269984,1.1912941406505886,2.605868596492003,1.0,3.14,-0.37907707177793554,-1.5598222135713211,-3.0790391688120406,3.14,3.0750014497490747
45,0.7323459417748935,0.20550935756121094,0.7028579309840015,2.7405394848352995,2.031970434129261,1.1912925554216691,2.6059089311473675,1.0,3.14,-0.3790876898069032,-1.5598089082429154,-3.079081762298509,3.14,3.0749471418333796
46,0.7323588679418962,0.20554490145088378,0.7028610264690763,2.7405800006273826,2.0319791400135876,1.1912907885604782,2.6059494243052748,1.0,3.14,-0.37909758654722503,-1.5597969173485053,-3.079124196783837,3.14,3.074892638314494
47,0.7323715947444837,0.20558067725573745,0.702863843176532,2.7406206039260126,2.0319872682987556,1.1912889925925931,2.6059900059118495,1.0,3.14,-0.37910688622879096,-1.5597858423651598,-3.0791665237105192,3.14,3.074837990718091
48,0.7323842410069832,0.20561658594749035,0.7028665342531016,2.74066125333854,2.031994966731987,1.1912872459088921,2.606030634331328,1.0,3.14,-0.37911571270782113,-1.5597753905641165,-3.079208780833952,3.14,3.0747832368493135
49,0.7323968748267388,0.2056525667039694,0.7028691887568554,2.7407019255993883,2.0320023533899696,1.1912855821311865,2.60607128610445,1.0,3.14,-0.3791241767796822,-1.5597653519063905,-3.07925099539146,3.14,3.0747284039726615
50,0.7324095321017166,0.2056885837911763,0.7028718547949607,2.740742608692745,2.032009519408444,1.1912840092630408,2.606111949066264,1.0,3.14,-0.37913237126324006,-1.5597555790560451,-3.0792931867047804,3.14,3.0746735114220156
51,0.7324222290436428,0.20572461751619203,0.7028745552126157,2.7407832973288744,2.032016533126293,1.191282521811015,2.606152617815408,1.0,3.14,-0.3791403704370752,-1.5597459709981822,-3.0793353682509,3.14,3.0746185726766413
52,0.7324349704177215,0.20576065811597274,0.7028772979743829,2.7408239900381517,2.032023444500764,1.1912811081765744,2.6061932908007845,1.0,3.14,-0.37914823168605555,-1.5597364601330004,-3.0793775492675883,3.14,3.0745635969702234
53,0.732447754812722,0.20579670172201736,0.7028800828451242,2.7408646873565377,2.032030289199638,1.1912797549444802,2.6062339685002622,1.0,3.14,-0.37915599807027406,-1.559727002424567,-3.0794197359706206,3.14,3.074508590510427
54,0.7324605778941774,0.2058327477639097,0.7028829055480684,2.740905390732493,2.0320370921095843,1.1912784491923587,2.6062746523218205,1.0,3.14,-0.3791637010837498,-1.5597175700808028,-3.0794619324582677,3.14,3.0744535573849263
55,0.73247343432123,0.20586879734984206,0.7028857602434851,2.7409461018998407,2.032043870191935,1.1912771795823036,2.606315343971722,1.0,3.14,-0.37917136322080786,-1.5597081462442621,-3.0795041413710216,3.14,3.074398500222125
56,0.7324863188025031,0.20590485229580524,0.7028886409191342,2.7409868225433405,2.03205063471938,1.191275936736842,2.6063560451164314,1.0,3.14,-0.37917900018102924,-1.5596987212283084,-3.0795463643643037,3.14,3.074343420664497
57,0.7324992266156822,0.20594091457473715,0.7028915420977031,2.7410275541419247,2.0320573929742416,1.1912747132218358,2.606396757223076,1.0,3.14,-0.3791866226665436,-1.5596892899084813,-3.0795886024412864,3.14,3.0742883197017954
58,0.7325121538072108,0.20597698602955192,0.7028944591325529,2.7410682979148855,2.0320641495040217,1.191273503336597,2.606437481503584,1.0,3.14,-0.37919423779104094,-1.5596798499563427,-3.079630856183088,3.14,3.0742331979014836
59,0.7325250972125072,0.20601306824581542,0.7028973882687691,2.741109054823766,2.0320709070274567,1.191272302830309,2.606478218915105,1.0,3.14,-0.379201850150336,-1.5596704006737434,-3.0796731259050425,3.14,3.0741780555651417
60,0.732538054384922,0.20604916251623778,0.7029003265814764,2.741149825601125,2.032077667073462,1.1912711086113166,2.606518970187728,1.0,3.14,-0.37920946261424815,-1.5596609422454601,-3.0797154117606715,3.14,3.0741228928325075
61,0.7325510234866329,0.20608526985397685,0.7029032718596311,2.7411906107892268,2.032084430421465,1.1912699184830033,2.606559735862467,1.0,3.14,-0.37921707689827655,-1.5596514752766821,-3.079757713809306,3.14,3.07406770974914
62,0.7325640031718493,0.20612139102859112,0.7029062224747272,2.741231410779445,2.032091197397612,1.1912687309201724,2.606600516330173,1.0,3.14,-0.37922469396686176,-1.5596420005197027,-3.079800032058922,3.14,3.074012506309265
63,0.7325769924781886,0.20615752660932316,0.7029091772555606,2.741272225847735,2.032097968068817,1.191267544888664,2.606641311866699,1.0,3.14,-0.3792323143113512,-1.5596325187227886,-3.079842366492398,3.14,3.0739572824820423
64,0.7325899907332819,0.20619367700747554,0.7029121353789024,2.741313056184405,2.0321047423660104,1.1912663597050686,2.6066821226624675,1.0,3.14,-0.37923993813701534,-1.5596230305553649,-3.0798847170829444,3.14,3.073902038226987
65,0.7326029974785446,0.206229842513878,0.7029150962793502,2.7413539019178894,2.03211152015949,1.1912651749308365,2.606722948846126,1.0,3.14,-0.3792475654855713,-1.559613536578845,-3.0799270838026254,3.14,3.073846773502488
66,0.7326160124093131,0.20626602333001967,0.7029180595779779,2.7413947631330533,2.0321183013026833,1.1912639902944022,2.6067637905027787,1.0,3.14,-0.37925519631300597,-1.559604037243177,-3.079969466626619,3.14,3.073791488270065
67,0.7326290353292699,0.20630221959278236,0.7029210250276837,2.741435639884847,2.032125085655692,1.1912628056352605,2.606804647687602,1.0,3.14,-0.37926283053715026,-1.55959453289654,-3.080011865534954,3.14,3.073736182496099
68,0.7326420661166505,0.20633843139343305,0.7029239924724578,2.7414765322082237,2.032131873096341,1.1912616208647149,2.6068455204357472,1.0,3.14,-0.3792704680653026,-1.5595850238005968,-3.0800542805128326,3.14,3.0736808561521483
69,0.7326551046997859,0.20637465879178732,0.7029269618177617,2.7415174401251643,2.032138663523883,1.1912604359389656,2.6068864087693577,1.0,3.14,-0.3792781088090816,-1.5595755101469455,-3.080096711550229,3.14,3.0736255092145477
70,0.7326681510397923,0.2064109018265113,0.702929933009474,2.7415583636495264,2.032145456858651,1.191259250841092,2.6069273127024193,1.0,3.14,-0.37928575269139203,-1.5595659920724854,-3.0801391586411837,3.14,3.073570141663698
71,0.732681205118597,0.20644716052243048,0.702932906019271,2.7415993027903083,2.0321522530397322,1.1912580655693286,2.606968232244027,1.0,3.14,-0.3792933996487451,-1.5595564696726685,-3.0801816217830194,3.14,3.0735147534832796
72,0.7326942669308486,0.20648343489559912,0.7029358808346966,2.741640257553782,2.0321590520218966,1.1912568801296655,2.6070091674005256,1.0,3.14,-0.37930104963102773,-1.5595469430123383,-3.080224100975606,3.14,3.0734593446595184
73,0.7327073364785838,0.2065197249567279,0.7029388574525961,2.741681227944843,2.032165853772462,1.1912556945313701,2.6070501181768617,1.0,3.14,-0.3793087026000215,-1.5595374121342602,-3.080266596220729,3.14,3.073403915180551
74,0.7327204137678187,0.20655603071344666,0.7029418358748932,2.741722213967827,2.0321726582684483,1.191254508784416,2.607091084577408,1.0,3.14,-0.3793163585274501,-1.5595278770656282,-3.080309107521574,3.14,3.0733484650359086
75,0.7327334988064463,0.20659235217174604,0.7029448161059663,2.74176321562698,2.032179465494172,1.1912533228981335,2.6071320666064337,1.0,3.14,-0.37932401739299126,-1.5595183378228983,-3.0803516348823234,3.14,3.073292994216116
76,0.7327465916029957,0.20662868933686573,0.7029477981510897,2.741804232926701,2.032186275439303,1.191252136880599,2.6071730642683537,1.0,3.14,-0.3793316791824749,-1.5595087944152914,-3.080394178307853,3.14,3.073237502712385
77,0.7327596921659496,0.20666504221381937,0.7029507820155688,2.7418452658716523,2.032193088097346,1.1912509507384603,2.6072140775678387,1.0,3.14,-0.37933934388635493,-1.559499246847282,-3.0804367378035082,3.14,3.0731819905163915
78,0.7327728005034134,0.20670141080767376,0.7029537677043044,2.7418863144667838,2.032199903464492,1.1912497644769968,2.607255106509845,1.0,3.14,-0.37934701149847777,-1.559489695120317,-3.080479313374944,3.14,3.0731264576201163
79,0.7327859166229873,0.20673779512368992,0.7029567552216145,2.7419273787173233,2.03220672153878,1.1912485781002862,2.607296151099601,1.0,3.14,-0.3793546820151218,-1.5594801392339852,-3.080521905028015,3.14,3.0730709040157325
80,0.7327990405317528,0.20677419516736834,0.7029597445712136,2.7419684586287376,2.032213542319479,1.1912473916114141,2.607337211342574,1.0,3.14,-0.37936235543427016,-1.559470579186787,-3.0805645127686945,3.14,3.0730153296955294
81,0.7328121722363236,0.20681061094445177,0.7029627357562549,2.742009554206694,2.032220365806666,1.1912462050126769,2.607378287244429,1.0,3.14,-0.37937003175507517,-1.55946101497663,-3.0806071366030303,3.14,3.0729597346518625
82,0.732825311742917,0.20684704246089836,0.7029657287794142,2.7420506654570156,2.0322271920009234,1.1912450183057652,2.6074193788109885,1.0,3.14,-0.37937771097747114,-1.5594514466011353,-3.0806497765371086,3.14,3.0729041188771213
83,0.7328384590574295,0.2068834897228528,0.7029687236429796,2.7420917923856525,2.032234020903143,1.1912438314919158,2.6074604860481987,1.0,3.14,-0.3793853931019032,-1.5594418740578206,-3.080692432577034,3.14,3.0728484823637086
84,0.7328516141855097,0.2069199527366054,0.7029717203489351,2.7421329349986445,2.0322408525143976,1.1912426445720348,2.6075016089620973,1.0,3.14,-0.3793930781291393,-1.5594322973441992,-3.08073510472892,3.14,3.0727928251040293
85,0.7328647771326208,0.20695643150856394,0.702974718899035,2.742174093302102,2.032247686835852,1.1912414575467933,2.6075427475587905,1.0,3.14,-0.37940076606014334,-1.5594227164578316,-3.0807777929988798,3.14,3.0727371470904843
86,0.7328779479040862,0.20699292604522304,0.7029777192948633,2.7422152673021833,2.0322545238687173,1.1912402704166971,2.607583901844434,1.0,3.14,-0.37940845689599295,-1.5594131313963453,-3.0808204973930255,3.14,3.0726814483154667
87,0.7328911265051348,0.20702943635314355,0.7029807215378805,2.7422564570050842,2.0322613636142193,1.1912390831821402,2.6076250718252205,1.0,3.14,-0.3794161506378266,-1.5594035421574381,-3.080863217917466,3.14,3.0726257287713614
88,0.7329043129409263,0.2070659624389358,0.7029837256294615,2.7422976624170263,2.032268206073579,1.1912378958434424,2.607666257507368,1.0,3.14,-0.3794238472868105,-1.5593939487388726,-3.080905954578307,3.14,3.0725699884505446
89,0.7329175072165739,0.20710250430924174,0.7029867315709214,2.742338883544247,2.0322750512480106,1.191236708400875,2.6077074588971114,1.0,3.14,-0.3794315468441209,-1.559384351138465,-3.0809487073816513,3.14,3.072514227345384
90,0.7329307093371636,0.20713906197073276,0.7029897393635333,2.742380120393,2.0322818991387144,1.1912355208546785,2.6077486760007007,1.0,3.14,-0.37943924931093276,-1.559374749354077,-3.0809914763336006,3.14,3.07245844544824
91,0.7329439193077619,0.20717563543009493,0.7029927490085471,2.742421372969546,2.0322887497468787,1.1912343332050765,2.607789908824393,1.0,3.14,-0.3794469546884148,-1.5593651433836038,-3.0810342614402546,3.14,3.0724026427514683
92,0.7329571371334251,0.20721222469402706,0.7029957605071949,2.7424626412801527,2.0322956030736794,1.1912331454522813,2.607831157374453,1.0,3.14,-0.3794546629777283,-1.5593555332249662,-3.0810770627077138,3.14,3.072346819247417
93,0.7329703628192051,0.20724882976923786,0.7029987738607006,2.742503925331093,2.0323024591202836,1.1912319575965018,2.6078724216571514,1.0,3.14,-0.3794623741800264,-1.559345918876104,-3.0811198801420785,3.14,3.0722909749284297
94,0.7329835963701523,0.20728545066244214,0.7030017890702811,2.7425452251286444,2.0323093178878513,1.1912307696379434,2.607913701678762,1.0,3.14,-0.37947008829645557,-1.55933630033497,-3.0811627137494506,3.14,3.0722351097868463
95,0.7329968377913167,0.2073220873803612,0.7030048061371499,2.742586540679088,2.0323161793775366,1.1912295815768108,2.607954997445563,1.0,3.14,-0.3794778053281564,-1.5593266775995265,-3.081205563535933,3.14,3.072179223815002
96,0.7330100870877528,0.20735873992971954,0.7030078250625229,2.742627871988708,2.03232304359049,1.191228393413311,2.607996308963835,1.0,3.14,-0.37948552527626456,-1.559317050667741,-3.08124842950763,3.14,3.072123317005228
97,0.7330233442645158,0.2073954083172468,0.7030108458476123,2.7426692190637922,2.0323299105278565,1.1912272051476496,2.6080376362398625,1.0,3.14,-0.37949324814191265,-1.5593074195375853,-3.0812913116706486,3.14,3.072067389349852
98,0.7330366093266664,0.20743209254967354,0.7030138684936345,2.7427105819106306,2.0323367801907835,1.1912260167800357,2.608078979279933,1.0,3.14,-0.3795009739262307,-1.559297784207032,-3.0813342100310974,3.14,3.0720114408412
99,0.7330498822792669,0.20746879263373483,0.7030168930018051,2.7427519605355153,2.032343652580412,1.191224828310678,2.6081203380903357,1.0,3.14,-0.37950870263034703,-1.5592881446740556,-3.0813771245950874,3.14,3.071955471471592
100,0.7330631631273862,0.20750550857616873,0.7030199193733413,2.7427933549447436,2.032350527697888,1.191223639739787,2.6081617126773646,1.0,3.14,-0.37951643425538895,-1.55927850093663,-3.0814200553687314,3.14,3.0718994812333476
101,0.7330764518760944,0.20754224038371605,0.7030229476094613,2.742834765144614,2.032357405544354,1.1912224510675733,2.6082031030473147,1.0,3.14,-0.379524168802483,-1.559268852992729,-3.0814630023581455,3.14,3.071843470118781
102,0.7330897485304662,0.20757898806311958,0.7030259777113858,2.742876191141428,2.0323642861209517,1.1912212622942497,2.6082445092064845,1.0,3.14,-0.37953190627275557,-1.5592592008403254,-3.0815059655694474,3.14,3.0717874381202055
103,0.7331030530955802,0.20761575162112614,0.7030290096803341,2.7429176329414897,2.0323711694288256,1.1912200734200273,2.608285931161176,1.0,3.14,-0.37953964666733336,-1.5592495444773913,-3.081548945008758,3.14,3.0717313852299295
104,0.7331163655765197,0.20765253106448686,0.7030320435175293,2.7429590905511096,2.032378055469119,1.1912188844451206,2.6083273689176947,1.0,3.14,-0.37954738998734233,-1.5592398839018973,-3.0815919406822,3.14,3.0716753114402593
105,0.7331296859783702,0.2076893263999518,0.7030350792241935,2.7430005639765955,2.0323849442429758,1.1912176953697426,2.608368822482347,1.0,3.14,-0.37955513623390963,-1.5592302191118133,-3.081634952595899,3.14,3.0716192167434984
106,0.7331430143062211,0.20772613763427789,0.7030381168015516,2.7430420532242628,2.032391835751541,1.1912165061941071,2.6084102918614445,1.0,3.14,-0.3795628854081626,-1.5592205501051075,-3.081677980755982,3.14,3.0715631011319466
107,0.7331563505651658,0.2077629647742235,0.7030411562508279,2.743083558300428,2.032398729995959,1.1912153169184285,2.6084517770613007,1.0,3.14,-0.37957063751122855,-1.5592108768797477,-3.081721025168581,3.14,3.0715069645979014
108,0.7331696947603012,0.20779980782654933,0.703044197573248,2.7431250792114104,2.0324056269773756,1.1912141275429216,2.6084932780882317,1.0,3.14,-0.37957839254423575,-1.5592011994336992,-3.0817640858398274,3.14,3.0714508071336564
109,0.7331830468967273,0.20783666679802001,0.7030472407700392,2.743166615963533,2.0324125266969384,1.1912129380678014,2.608534794948558,1.0,3.14,-0.3795861505083129,-1.5591915177649271,-3.0818071627758576,3.14,3.0713946287315035
110,0.733196406979548,0.20787354169540506,0.7030502858424285,2.7432081685631236,2.032419429155792,1.1912117484932827,2.608576327648603,1.0,3.14,-0.37959391140458887,-1.559181831871396,-3.081850255982809,3.14,3.0713384293837303
111,0.7332097750138705,0.20791043252547306,0.7030533327916446,2.743249737016509,2.0324263343550864,1.1912105588195814,2.608617876194692,1.0,3.14,-0.37960167523419347,-1.559172141751067,-3.0818933654668217,3.14,3.071282209082622
112,0.7332231510048065,0.20794733929499895,0.7030563816189168,2.7432913213300227,2.0324332422959666,1.1912093690469128,2.6086594405931542,1.0,3.14,-0.3796094419982566,-1.5591624474019024,-3.081936491234039,3.14,3.071225967820461
113,0.7332365349574693,0.2079842620107592,0.7030594323254751,2.7433329215099995,2.032440152979584,1.191208179175493,2.608701020850322,1.0,3.14,-0.3796172116979089,-1.559152748821862,-3.081979633290606,3.14,3.0711697055895266
114,0.7332499268769782,0.20802120067953492,0.7030624849125512,2.743374537562779,2.0324470664070846,1.1912069892055395,2.6087426169725303,1.0,3.14,-0.37962498433428093,-1.5591430460089044,-3.082022791642671,3.14,3.0711134223820946
115,0.7332633267684531,0.20805815530810673,0.7030655393813765,2.7434161694947,2.0324539825796206,1.191205799137268,2.608784228966117,1.0,3.14,-0.3796327599085051,-1.5591333389609876,-3.082065966296383,3.14,3.0710571181904385
116,0.7332767346370206,0.2080951259032627,0.7030685957331839,2.743457817312109,2.0324609014983417,1.1912046089708952,2.6088258568374245,1.0,3.14,-0.37964053842171297,-1.5591236276760678,-3.082109157257896,3.14,3.071000793006828
117,0.7332901504878084,0.20813211247179064,0.7030716539692072,2.743499481021352,2.0324678231643976,1.1912034187066391,2.608867500592796,1.0,3.14,-0.37964831987503717,-1.5591139121521007,-3.082152364533365,3.14,3.0709444468235305
118,0.7333035743259481,0.20816911502048455,0.7030747140906802,2.7435411606287814,2.0324747475789406,1.1912022283447157,2.6089091602385803,1.0,3.14,-0.37965610426961116,-1.5591041923870408,-3.0821955881289473,3.14,3.07088807963281
119,0.733317006156576,0.20820613355613876,0.7030777760988388,2.74358285614075,2.0324816747431225,1.191201037885343,2.608950835781127,1.0,3.14,-0.3796638916065681,-1.5590944683788408,-3.0822388280508037,3.14,3.070831691426928
120,0.733330445984831,0.20824316808555154,0.703080839994919,2.7436245675636144,2.032488604658096,1.1911998473287406,2.6089925272267904,1.0,3.14,-0.37967168188704226,-1.5590847401254524,-3.082282084305097,3.14,3.0707752821981416
121,0.7333438938158557,0.20828021861552562,0.7030839057801571,2.743666294903735,2.0324955373250124,1.1911986566751238,2.609034234581927,1.0,3.14,-0.3796794751121682,-1.559075007624827,-3.082325356897992,3.14,3.0707188519387065
122,0.7333573496547969,0.2083172851528646,0.7030869734557922,2.7437080381674748,2.032502472745028,1.1911974659247138,2.609075957852897,1.0,3.14,-0.3796872712830811,-1.5590652708749129,-3.082368645835657,3.14,3.0706624006408747
123,0.7333708135068028,0.208354367704377,0.7030900430230627,2.7437497973612,2.0325094109192956,1.1911962750777274,2.609117697046063,1.0,3.14,-0.37969507040091655,-1.5590555298736595,-3.082411951124262,3.14,3.070605928296895
124,0.7333842853770276,0.2083914662768733,0.7030931144832064,2.743791572491279,2.0325163518489693,1.1911950841343844,2.609159452167791,1.0,3.14,-0.3797028724668104,-1.559045784619014,-3.08245527276998,3.14,3.0705494348990134
125,0.7333977652706288,0.20842858087716784,0.7030961878374665,2.7438333635640855,2.0325232955352055,1.191193893094904,2.609201223224451,1.0,3.14,-0.37971067748189946,-1.5590360351089216,-3.082498610778986,3.14,3.070492920439473
126,0.7334112531927652,0.2084657115120776,0.7030992630870817,2.743875170585994,2.0325302419791598,1.1911927019595052,2.6092430102224147,1.0,3.14,-0.3797184854473208,-1.5590262813413278,-3.082541965157458,3.14,3.070436384910513
127,0.7334247491486018,0.20850285818842265,0.7031023402332963,2.7439169935633827,2.0325371911819885,1.1911915107284081,2.609284813168058,1.0,3.14,-0.37972629636421207,-1.559016523314176,-3.0825853359115762,3.14,3.0703798283043713
128,0.733438253143306,0.2085400209130278,0.7031054192773519,2.7439588325026354,2.032544143144849,1.1911903194018327,2.6093266320677593,1.0,3.14,-0.37973411023371134,-1.5590067610254086,-3.0826287230475233,3.14,3.070323250613281
129,0.7334517651820486,0.2085771996927173,0.7031085002204926,2.744000687410134,2.032551097868898,1.1911891279799993,2.6093684669279,1.0,3.14,-0.37974192705695725,-1.558996994472967,-3.082672126571485,3.14,3.0702666518294732
130,0.7334652852700038,0.20861439453432257,0.7031115830639634,2.7440425582922683,2.032558055355294,1.1911879364631284,2.609410317754864,1.0,3.14,-0.37974974683508883,-1.5589872236547908,-3.0827155464896485,3.14,3.0702100319451757
131,0.7334788134123507,0.20865160544467545,0.7031146678090098,2.744084445155429,2.032565015605197,1.191186744851441,2.609452184555041,1.0,3.14,-0.37975756956924583,-1.5589774485688195,-3.0827589828082047,3.14,3.0701533909526133
132,0.7334923496142693,0.20868883243061162,0.7031177544568773,2.744126348006009,2.0325719786197647,1.1911855531451572,2.609494067334821,1.0,3.14,-0.37976539526056846,-1.558967669212991,-3.0828024355333463,3.14,3.0700967288440077
133,0.7335058938809462,0.20872607549897118,0.7031208430088137,2.7441682668504073,2.032578944400157,1.1911843613444992,2.6095359661005983,1.0,3.14,-0.37977322391019713,-1.5589578855852417,-3.082845904671269,3.14,3.0700400456115773
134,0.73351944621757,0.20876333465659533,0.7031239334660674,2.744210201695023,2.032585912947535,1.1911831694496886,2.60957788085877,1.0,3.14,-0.37978105551927305,-1.5589480976835068,-3.08288939022817,3.14,3.069983341247538
135,0.7335330066293332,0.20880060991032998,0.7031270258298875,2.744252152546261,2.032592884263059,1.1911819774609473,2.6096198116157368,1.0,3.14,-0.37978889008893774,-1.5589383055057204,-3.08293289221025,3.14,3.0699266157441016
136,0.7335465751214318,0.20883790126702312,0.7031301201015238,2.744294119410527,2.032599858347892,1.191180785378497,2.609661758377902,1.0,3.14,-0.3797967276203337,-1.5589285090498153,-3.0829764106237123,3.14,3.0698698690934787
137,0.7335601516990642,0.20887520873352605,0.7031332162822261,2.74433610229423,2.0326068352031945,1.1911795932025604,2.609703721151672,1.0,3.14,-0.37980456811460345,-1.558918708313724,-3.083019945474762,3.14,3.069813101287875
138,0.7335737363674354,0.20891253231669518,0.7031363143732472,2.7443781012037856,2.0326138148301296,1.19117840093336,2.609745699943457,1.0,3.14,-0.37981241157289,-1.5589089032953765,-3.0830634967696073,3.14,3.069756312319494
139,0.7335873291317512,0.20894987202338502,0.7031394143758388,2.7444201161456063,2.032620797229862,1.1911772085711192,2.6097876947596697,1.0,3.14,-0.37982025799633706,-1.558899093992702,-3.0831070645144587,3.14,3.0696995021805367
140,0.7336009299972213,0.2089872278604592,0.7031425162912545,2.7444621471261135,2.0326277824035532,1.1911760161160607,2.6098297056067263,1.0,3.14,-0.37982810738608874,-1.5588892804036298,-3.0831506487155287,3.14,3.0696426708631996
141,0.7336145389690608,0.2090245998347811,0.7031456201207483,2.7445041941517294,2.03263477035237,1.191174823568408,2.6098717324910456,1.0,3.14,-0.3798359597432899,-1.558879462526086,-3.0831942493790336,3.14,3.069585818359678
142,0.733628156052486,0.2090619879532183,0.7031487258655752,2.7445462572288792,2.0326417610774756,1.191173630928385,2.6099137754190505,1.0,3.14,-0.37984381506908554,-1.5588696403579971,-3.083237866511191,3.14,3.069528944662162
143,0.7336417812527185,0.20909939222264096,0.7031518335269914,2.7445883363639916,2.032648754580036,1.1911724381962152,2.609955834397166,1.0,3.14,-0.37985167336462156,-1.5588598138972876,-3.0832815001182214,3.14,3.0694720497628403
144,0.7336554145749833,0.20913681264992154,0.703154943106253,2.7446304315634973,2.0326557508612177,1.1911712453721237,2.6099979094318204,1.0,3.14,-0.3798595346310441,-1.5588499831418803,-3.083325150206348,3.14,3.069415133653898
145,0.7336690560245085,0.209174249241939,0.7031580546046179,2.7446725428338334,2.032662749922187,1.1911700524563347,2.610040000529447,1.0,3.14,-0.37986739886949983,-1.5588401480896985,-3.083368816781797,3.14,3.069358196327517
146,0.7336827056065255,0.20921170200557127,0.7031611680233447,2.7447146701814362,2.032669751764112,1.191168859449073,2.6100821076964786,1.0,3.14,-0.37987526608113603,-1.5588303087386626,-3.083412499850796,3.14,3.0693012377758766
147,0.73369636332627,0.20924917094770262,0.7031642833636932,2.744756813612748,2.03267675638816,1.1911676663505637,2.6101242309393546,1.0,3.14,-0.37988313626710035,-1.5588204650866926,-3.083456199419576,3.14,3.0692442579911523
148,0.7337100291889805,0.20928665607521815,0.7031674006269223,2.744798973134212,2.0326837637954998,1.1911664731610319,2.610166370264516,1.0,3.14,-0.37989100942854137,-1.5588106171317075,-3.0834999154943703,3.14,3.069187256965517
149,0.7337237031999008,0.20932415739500806,0.703170519814294,2.744841148752277,2.0326907739872997,1.1911652798807029,2.610208525678407,1.0,3.14,-0.3798988855666074,-1.5588007648716249,-3.0835436480814145,3.14,3.069130234691141
150,0.7337373853642769,0.20936167491396446,0.7031736409270704,2.7448833404733923,2.0326977869647287,1.1911640865098034,2.6102506971874755,1.0,3.14,-0.37990676468244766,-1.5587909083043607,-3.083587397186947,3.14,3.0690731911601903
151,0.7337510756873582,0.2093992086389822,0.7031767639665141,2.7449255483040123,2.0327048027289596,1.1911628930485592,2.6102928847981715,1.0,3.14,-0.37991464677721243,-1.5587810474278299,-3.0836311628172086,3.14,3.069016126364829
152,0.7337647741743983,0.20943675857696248,0.7031798889338884,2.7449677722505954,2.032711821281161,1.1911616994971963,2.61033508851695,1.0,3.14,-0.3799225318520516,-1.558771182239947,-3.0836749449784433,3.14,3.0689590402972176
153,0.733778480830655,0.20947432473480457,0.7031830158304584,2.7450100123195997,2.0327188426225047,1.1911605058559425,2.610377308350267,1.0,3.14,-0.379930419908116,-1.558761312738624,-3.0837187436768967,3.14,3.0689019329495135
154,0.7337921956613888,0.20951190711941617,0.7031861446574893,2.7450522685174907,2.0327258667541623,1.191159312125024,2.6104195443045835,1.0,3.14,-0.3799383109465568,-1.5587514389217731,-3.083762558918817,3.14,3.0688448043138714
155,0.7338059186718636,0.20954950573770434,0.7031892754162479,2.7450945408507335,2.032732893677306,1.1911581183046673,2.610461796386362,1.0,3.14,-0.37994620496852627,-1.558741560787304,-3.083806390710456,3.14,3.0687876543824424
156,0.7338196498673479,0.2095871205965814,0.7031924081080003,2.745136829325799,2.0327399233931107,1.1911569243951012,2.6105040646020705,1.0,3.14,-0.3799541019751765,-1.5587316783331262,-3.0838502390580667,3.14,3.068730483147375
157,0.7338333892531127,0.20962475170296044,0.7031955427340156,2.7451791339491587,2.032746955902749,1.1911557303965532,2.6105463489581773,1.0,3.14,-0.3799620019676603,-1.5587217915571474,-3.0838941039679053,3.14,3.068673290600814
158,0.7338471368344346,0.2096623990637605,0.7031986792955625,2.745221454727289,2.0327539912073935,1.1911545363092513,2.610588649461156,1.0,3.14,-0.3799699049471309,-1.5587119004572743,-3.0839379854462305,3.14,3.068616076734902
159,0.7338608926165917,0.20970006268590274,0.7032018177939107,2.74526379166667,2.0327610293082214,1.1911533421334235,2.6106309661174825,1.0,3.14,-0.3799778109147426,-1.558702005031412,-3.083981883499304,3.14,3.0685588415417775
160,0.7338746566048661,0.20973774257631117,0.7032049582303307,2.7453061447737834,2.032768070206408,1.1911521478692977,2.610673298933636,1.0,3.14,-0.3799857198716496,-1.5586921052774654,-3.084025798133389,3.14,3.068501585013577
161,0.7338884288045446,0.2097754387419136,0.7032081006060941,2.7453485140551153,2.0327751139031265,1.1911509535171045,2.610715647916099,1.0,3.14,-0.3799936318190063,-1.5586822011933377,-3.0840697293547525,3.14,3.068444307142433
162,0.733902209220917,0.2098131511896403,0.7032112449224733,2.745390899517154,2.0327821603995564,1.1911497590770712,2.6107580130713575,1.0,3.14,-0.3800015467579688,-1.5586722927769303,-3.084113677169663,3.14,3.068387007920476
163,0.7339159978592769,0.2098508799264255,0.7032143911807422,2.7454333011663925,2.0327892096968734,1.1911485645494289,2.6108003944059,1.0,3.14,-0.3800094646896925,-1.5586623800261439,-3.084157641584392,3.14,3.0683296873398316
164,0.7339297947249211,0.2098886249592053,0.7032175393821746,2.7454757190093244,2.032796261796255,1.1911473699344064,2.6108427919262187,1.0,3.14,-0.3800173856153342,-1.5586524629388778,-3.084201622605214,3.14,3.068272345392624
165,0.7339435998231507,0.20992638629492155,0.7032206895280454,2.7455181530524504,2.0328033166988813,1.1911461752322339,2.610885205638809,1.0,3.14,-0.38002530953605085,-1.5586425415130305,-3.0842456202384048,3.14,3.068214982070974
166,0.7339574131592704,0.20996416394051687,0.7032238416196309,2.7455606033022706,2.0328103744059285,1.1911449804431413,2.6109276355501696,1.0,3.14,-0.3800332364529998,-1.5586326157464991,-3.084289634490244,3.14,3.0681575973669983
167,0.7339712347385882,0.21000195790293763,0.703226995658208,2.74560306976529,2.0328174349185786,1.1911437855673592,2.6109700816668013,1.0,3.14,-0.38004116636733914,-1.5586226856371788,-3.0843336653670135,3.14,3.0681001912728116
168,0.7339850645664147,0.210039768189134,0.7032301516450535,2.745645552448017,2.03282449823801,1.1911425906051185,2.6110125439952094,1.0,3.14,-0.3800490992802273,-1.558612751182965,-3.084377712874997,3.14,3.068042763780525
169,0.7339989026480673,0.21007759480605911,0.7032333095814471,2.745688051356962,2.032831564365403,1.1911413955566503,2.611055022541902,1.0,3.14,-0.3800570351928232,-1.5586028123817506,-3.084421777020482,3.14,3.067985314882247
170,0.7340127489888637,0.21011543776066868,0.7032364694686677,2.7457305664986404,2.0328386333019415,1.1911402004221858,2.61109751731339,1.0,3.14,-0.3800649741062866,-1.5585928692314277,-3.0844658578097577,3.14,3.0679278445700824
171,0.7340266035941272,0.21015329705992333,0.7032396313079957,2.7457730978795696,2.032845705048803,1.1911390052019564,2.6111400283161883,1.0,3.14,-0.3800729160217772,-1.5585829217298879,-3.084509955249116,3.14,3.0678703528361333
172,0.7340404664691836,0.21019117271078408,0.7032427951007129,2.7458156455062697,2.032852779607174,1.191137809896194,2.6111825555568142,1.0,3.14,-0.38008086094045623,-1.5585729698750201,-3.0845540693448514,3.14,3.067812839672498
173,0.734054337619364,0.21022906472021827,0.7032459608480999,2.7458582093852657,2.0328598569782343,1.1911366145051314,2.6112250990417896,1.0,3.14,-0.38008880886348395,-1.5585630136647135,-3.0845982001032612,3.14,3.0677553050712727
174,0.7340682170500026,0.2102669730951958,0.7032491285514422,2.7459007895230862,2.03286693716317,1.1911354190290004,2.6112676587776376,1.0,3.14,-0.3800967597920226,-1.5585530530968545,-3.0846423475306453,3.14,3.06769774902455
175,0.734082104766435,0.21030489784268597,0.7032522982120214,2.745943385926258,2.032874020163163,1.1911342234680338,2.6113102347708854,1.0,3.14,-0.380104713727234,-1.55854308816933,-3.0846865116333055,3.14,3.067640171524419
176,0.7340960007740047,0.21034283896966793,0.7032554698311237,2.745985998601319,2.032881105979399,1.1911330278224648,2.6113528270280644,1.0,3.14,-0.3801126706702808,-1.5585331188800244,-3.084730692417547,3.14,3.067582572562966
177,0.7341099050780552,0.2103807964831178,0.703258643410035,2.7460286275548036,2.032888194613064,1.1911318320925268,2.611395435555708,1.0,3.14,-0.38012063062232637,-1.5585231452268211,-3.0847748898896765,3.14,3.0675249521322754
178,0.7341238176839345,0.2104187703900184,0.7032618189500408,2.746071272793252,2.032895286065343,1.1911306362784526,2.611438060360353,1.0,3.14,-0.3801285935845343,-1.5585131672076031,-3.0848191040560047,3.14,3.0674673102244263
179,0.7341377385969967,0.21045676069735691,0.7032649964524287,2.7461139343232106,2.0329023803374224,1.1911294403804766,2.6114807014485404,1.0,3.14,-0.3801365595580689,-1.558503184820251,-3.084863334922844,3.14,3.067409646831496
180,0.7341516678225958,0.2104947674121184,0.7032681759184874,2.7461566121512218,2.03290947743049,1.1911282443988325,2.6115233588268123,1.0,3.14,-0.3801445285440948,-1.5584931980626453,-3.0849075824965095,3.14,3.0673519619455583
181,0.7341656053660924,0.21053279054129684,0.703271357349506,2.746199306283838,2.0329165773457327,1.1911270483337548,2.6115660325017167,1.0,3.14,-0.3801525005437772,-1.5584832069326644,-3.0849518467833192,3.14,3.0672942555586844
182,0.7341795512328503,0.21057083009188635,0.7032745407467749,2.746242016727612,2.032923680084339,1.1911258521854784,2.6116087224798026,1.0,3.14,-0.38016047555828186,-1.5584732114281858,-3.084996127789593,3.14,3.067236527662942
183,0.7341935054282351,0.21060888607088515,0.703277726111585,2.7462847434890993,2.0329307856474976,1.1911246559542379,2.611651428767624,1.0,3.14,-0.380168453588775,-1.558463211547086,-3.085040425521654,3.14,3.0671787782503954
184,0.7342074679576192,0.21064695848529558,0.7032809134452278,2.7463274865748613,2.032937894036398,1.191123459640269,2.6116941513717364,1.0,3.14,-0.3801764346364234,-1.55845320728724,-3.085084739985828,3.14,3.0671210073131063
185,0.7342214388263758,0.2106850473421218,0.703284102748997,2.74637024599146,2.0329450052522304,1.191122263243806,2.6117368902987006,1.0,3.14,-0.3801844187023948,-1.5584431986465213,-3.0851290711884425,3.14,3.0670632148431327
186,0.7342354180398837,0.2107231526483715,0.703287294024185,2.746413021745461,2.032952119296185,1.191121066765086,2.6117796455550786,1.0,3.14,-0.3801924057878567,-1.5584331856228026,-3.085173419135829,3.14,3.0670054008325303
187,0.7342494056035246,0.21076127441105577,0.7032904872720873,2.746455813843434,2.0329592361694537,1.191119870204344,2.611822417147437,1.0,3.14,-0.38020039589397764,-1.5584231682139555,-3.0852177838343198,3.14,3.0669475652733507
188,0.7342634015226841,0.21079941263718968,0.7032936824939997,2.746498622291952,2.032966355873227,1.1911186735618167,2.6118652050823457,1.0,3.14,-0.3802083890219262,-1.5584131464178501,-3.0852621652902514,3.14,3.066889708157643
189,0.7342774058027525,0.21083756733379092,0.7032968796912172,2.7465414470975915,2.0329734784086986,1.1911174768377413,2.6119080093663767,1.0,3.14,-0.3802163851728722,-1.558403120232355,-3.085306563509962,3.14,3.066831829477453
190,0.7342914184491209,0.21087573850787944,0.7033000788650389,2.74658428826693,2.03298060377706,1.1911162800323536,2.6119508300061054,1.0,3.14,-0.38022438434798544,-1.558393089655338,-3.0853509784997923,3.14,3.0667739292248233
191,0.7343054394671871,0.21091392616647883,0.7033032800167615,2.746627145806549,2.0329877319795067,1.1911150831458914,2.6119936670081114,1.0,3.14,-0.3802323865484365,-1.5583830546846653,-3.0853954102660865,3.14,3.066716007391794
192,0.7343194688623521,0.21095213031661939,0.703306483147685,2.7466700197230383,2.032994863017232,1.1911138861785917,2.612036520378978,1.0,3.14,-0.38024039177539615,-1.5583730153182025,-3.0854398588151906,3.14,3.0666580639704004
193,0.7343335066400198,0.21099035096532942,0.7033096882591088,2.7467129100229832,2.033001996891429,1.1911126891306931,2.61207939012529,1.0,3.14,-0.3802484000300358,-1.5583629715538132,-3.0854843241534535,3.14,3.066600098952677
194,0.7343475528055976,0.21102858811964428,0.7033128953523343,2.746755816712978,2.0330091336032954,1.1911114920024326,2.6121222762536367,1.0,3.14,-0.38025641131352805,-1.5583529233893603,-3.085528806287227,3.14,3.0665421123306533
195,0.7343616073644975,0.21106684178659973,0.7033161044286622,2.746798739799616,2.0330162731540256,1.1911102947940482,2.61216517877061,1.0,3.14,-0.3802644256270452,-1.5583428708227054,-3.085573305222864,3.14,3.0664841040963564
196,0.7343756703221355,0.21110511197323673,0.7033193154893966,2.746841679289497,2.0330234155448177,1.1911090975057794,2.6122080976828057,1.0,3.14,-0.38027244297176027,-1.558332813851708,-3.085617820966722,3.14,3.06642607424181
197,0.7343897416839306,0.21114339868660104,0.70332252853584,2.746884635189225,2.033030560776867,1.191107900137865,2.612251032996823,1.0,3.14,-0.3802804633488467,-1.558322752474228,-3.085662353525161,3.14,3.066368022759035
198,0.7344038214553053,0.2111817019337373,0.703325743569298,2.7469276075054023,2.0330377088513716,1.1911067026905438,2.6122939847192637,1.0,3.14,-0.3802884867594789,-1.5583126866881227,-3.0857069029045414,3.14,3.0663099496400488
199,0.7344179096416866,0.21122002172169704,0.7033289605910741,2.746970596244639,2.033044859769531,1.1911055051640542,2.6123369528567326,1.0,3.14,-0.3802965132048316,-1.5583026164912488,-3.085751469111228,3.14,3.066251854876866
200,0.7344320062485047,0.21125835805753243,0.7033321796024765,2.747013601413546,2.033052013532543,1.1911043075586378,2.6123799374158385,1.0,3.14,-0.3803045426860799,-1.5582925418814613,-3.0857960521515886,3.14,3.066193738461498
201,0.7344461112811943,0.21129671094830293,0.7033354006048111,2.7470566230187403,2.0330591701416076,1.191103109874533,2.6124229384031943,1.0,3.14,-0.3803125752043994,-1.5582824628566145,-3.085840652031992,3.14,3.066135600385952
202,0.7344602247451926,0.2113350804010663,0.7033386235993868,2.747099661066838,2.033066329597924,1.191101912111981,2.6124659558254137,1.0,3.14,-0.3803206107609664,-1.5582723794145612,-3.085885268758811,3.14,3.066077440642234
203,0.7344743466459422,0.2113734664228873,0.703341848587512,2.7471427155644625,2.0330734919026936,1.1911007142712218,2.612508989689116,1.0,3.14,-0.3803286493569578,-1.5582622915531525,-3.08592990233842,3.14,3.0660192592223456
204,0.7344884769888882,0.21141186902083264,0.7033450755704972,2.7471857865182385,2.033080657057118,1.1910995163524958,2.612552040000923,1.0,3.14,-0.380336690993551,-1.5582521992702392,-3.085974552777197,3.14,3.0659610561182853
205,0.7345026157794792,0.21145028820197104,0.7033483045496526,2.747228873934793,2.0330878250623985,1.1910983183560455,2.6125951067674595,1.0,3.14,-0.38034473567192373,-1.5582421025636697,-3.086019220081522,3.14,3.0659028313220484
206,0.7345167630231697,0.21148872397337778,0.7033515355262905,2.74727197782076,2.0330949959197375,1.1910971202821112,2.612638189995354,1.0,3.14,-0.3803527833932542,-1.5582320014312923,-3.0860639042577778,3.14,3.0658445848256273
207,0.7345309187254148,0.21152717634212706,0.703354768501723,2.747315098182771,2.0331021696303395,1.191095922130934,2.612681289691238,1.0,3.14,-0.3803608341587219,-1.5582218958709533,-3.0861086053123494,3.14,3.0657863166210113
208,0.734545082891676,0.21156564531530134,0.7033580034772636,2.747358235027468,2.033109346195406,1.1910947239027574,2.6127244058617465,1.0,3.14,-0.3803688879695053,-1.5582117858804985,-3.0861533232516254,3.14,3.0657280267001865
209,0.7345592555274174,0.21160413089998267,0.7033612404542275,2.74740138836149,2.033116525616142,1.1910935255978226,2.612767538513518,1.0,3.14,-0.3803769448267849,-1.5582016714577716,-3.086198058081996,3.14,3.0656697150551353
210,0.7345734366381078,0.21164263310325782,0.703364479433929,2.747444558191483,2.033123707893753,1.1910923272163718,2.612810687653194,1.0,3.14,-0.3803850047317415,-1.5581915526006151,-3.0862428098098547,3.14,3.065611381677838
211,0.7345876262292179,0.21168115193221573,0.7033677204176852,2.747487744524094,2.033130893029444,1.1910911287586488,2.612853853287419,1.0,3.14,-0.38039306768555575,-1.5581814293068705,-3.086287578441597,3.14,3.0655530265602704
212,0.7346018243062241,0.21171968739395036,0.7033709634068127,2.7475309473659753,2.0331380810244224,1.1910899302248956,2.6128970354228414,1.0,3.14,-0.3804011336894094,-1.558171301574378,-3.0863323639836215,3.14,3.0654946496944064
213,0.7346160308746061,0.2117582394955579,0.7033742084026303,2.747574166723781,2.0331452718798926,1.1910887316153567,2.6129402340661128,1.0,3.14,-0.3804092027444841,-1.5581611694009776,-3.0863771664423294,3.14,3.065436251072216
214,0.7346302459398466,0.21179680824413843,0.7033774554064559,2.7476174026041704,2.0331524655970634,1.191087532930275,2.612983449223888,1.0,3.14,-0.38041727485196297,-1.5581510327845063,-3.086421985824124,3.14,3.065377830685666
215,0.7346444695074332,0.2118353936467954,0.7033807044196094,2.7476606550138043,2.033159662177142,1.191086334169894,2.6130266809028253,1.0,3.14,-0.38042535001302896,-1.558140891722801,-3.086466822135413,3.14,3.0653193885267203
216,0.7346587015828557,0.21187399571063395,0.7033839554434127,2.7477039239593464,2.0331668616213365,1.1910851353344585,2.613069929109585,1.0,3.14,-0.38043342822886567,-1.5581307462136966,-3.086511675382604,3.14,3.06526092458734
217,0.7346729421716099,0.21191261444276366,0.7033872084791871,2.747747209447465,2.0331740639308578,1.1910839364242134,2.6131131938508334,1.0,3.14,-0.38044150950065747,-1.558120596255027,-3.086556545572109,3.14,3.065202438859482
218,0.734687191279194,0.21195124985029787,0.7033904635282553,2.7477905114848316,2.0331812691069135,1.191082737439403,2.6131564751332377,1.0,3.14,-0.38044959382958876,-1.5581104418446252,-3.0866014327103426,3.14,3.0651439313351005
219,0.7347014489111109,0.21198990194035522,0.7033937205919406,2.747833830078123,2.033188477150715,1.1910815383802724,2.61319977296347,1.0,3.14,-0.3804576812168452,-1.5581002829803225,-3.0866463368037214,3.14,3.065085402006147
220,0.7347157150728651,0.212028570720052,0.7033969796715682,2.7478771652340144,2.033195688063473,1.1910803392470675,2.613243087348204,1.0,3.14,-0.3804657716636125,-1.5580901196599488,-3.0866912578586647,3.14,3.065026850864569
221,0.7347299897699682,0.21206725619651304,0.7034002407684624,2.7479205169591885,2.0332029018463995,1.1910791400400331,2.613286418294119,1.0,3.14,-0.38047386517107723,-1.5580799518813337,-3.086736195881595,3.14,3.0649682779023117
222,0.7347442730079323,0.21210595837686422,0.7034035038839493,2.7479638852603294,2.0332101185007057,1.1910779407594152,2.613329765807895,1.0,3.14,-0.3804819617404259,-1.558069779642305,-3.0867811508789376,3.14,3.0649096831113165
223,0.7347585647922759,0.2121446772682346,0.703406769019357,2.7480072701441247,2.033217338027604,1.1910767414054604,2.613373129896218,1.0,3.14,-0.3804900613728462,-1.5580596029406886,-3.0868261228571194,3.14,3.0648510664835213
224,0.7347728651285202,0.21218341287775844,0.7034100361760137,2.7480506716172672,2.0332245604283092,1.191075541978415,2.613416510565776,1.0,3.14,-0.3804981640695259,-1.5580494217743097,-3.0868711118225707,3.14,3.0647924280108616
225,0.7347871740221906,0.21222216521257095,0.703413305355249,2.7480940896864507,2.0332317857040345,1.1910743424785264,2.6134599078232594,1.0,3.14,-0.3805062698316535,-1.5580392361409923,-3.086916117781724,3.14,3.0647337676852695
226,0.7348014914788153,0.21226093427981205,0.703416576558391,2.748137524358373,2.033239013855994,1.1910731429060406,2.613503321675364,1.0,3.14,-0.38051437866041815,-1.558029046038559,-3.086961140741015,3.14,3.0646750854986737
227,0.7348158175039279,0.21229972008662465,0.7034198497867724,2.7481809756397357,2.033246244885403,1.1910719432612062,2.613546752128787,1.0,3.14,-0.38052249055700926,-1.5580188514648312,-3.0870061807068816,3.14,3.0646163814429994
228,0.7348301521030652,0.21233852264015587,0.7034231250417242,2.7482244435372443,2.0332534787934775,1.19107074354427,2.6135901991902313,1.0,3.14,-0.38053060552261725,-1.5580086524176289,-3.0870512376857646,3.14,3.0645576555101695
229,0.7348444952817674,0.21237734194755528,0.7034264023245792,2.748267928057607,2.033260715581435,1.1910695437554801,2.613633662866401,1.0,3.14,-0.38053872355843243,-1.557998448894771,-3.0870963116841073,3.14,3.0644989076921028
230,0.7348588470455785,0.2124161780159754,0.7034296816366709,2.748311429207534,2.0332679552504893,1.1910683438950846,2.613677143164004,1.0,3.14,-0.38054684466564603,-1.5579882408940753,-3.0871414027083555,3.14,3.0644401379807156
231,0.734873207400047,0.2124550308525713,0.7034329629793349,2.74835494699374,2.033275197801861,1.191067143963333,2.6137206400897517,1.0,3.14,-0.38055496884545,-1.557978028413357,-3.087186510764958,3.14,3.0643813463679206
232,0.7348875763507254,0.21249390046450545,0.7034362463539059,2.748398481422945,2.033282443236767,1.1910659439604732,2.6137641536503597,1.0,3.14,-0.3805630960990362,-1.5579678114504323,-3.087231635860366,3.14,3.064322532845627
233,0.7349019539031685,0.212532786858939,0.70343953176172,2.7484420325018686,2.0332896915564262,1.1910647438867537,2.6138076838525457,1.0,3.14,-0.3805712264275979,-1.5579575900031146,-3.087276778001034,3.14,3.0642636974057416
234,0.7349163400629375,0.21257169004303988,0.7034428192041156,2.7484856002372378,2.0332969427620577,1.1910635437424257,2.6138512307030317,1.0,3.14,-0.3805793598323277,-1.557947364069216,-3.0873219371934177,3.14,3.0642048400401674
235,0.734930734835594,0.2126106100239754,0.7034461086824303,2.7485291846357778,2.033304196854882,1.1910623435277377,2.613894794208542,1.0,3.14,-0.38058749631442046,-1.557937133646548,-3.0873671134439773,3.14,3.0641459607408046
236,0.7349451382267077,0.21264954680892179,0.7034494001980033,2.7485727857042237,2.0333114538361197,1.1910611432429399,2.6139383743758065,1.0,3.14,-0.38059563587506984,-1.5579268987329202,-3.087412306759174,3.14,3.0640870594995495
237,0.7349595502418481,0.21268850040505347,0.7034526937521753,2.7486164034493084,2.033318713706992,1.1910599428882827,2.6139819712115555,1.0,3.14,-0.3806037785154711,-1.5579166593261415,-3.0874575171454732,3.14,3.0640281363082957
238,0.7349739708865911,0.21272747081955157,0.7034559893462866,2.7486600378777712,2.0333259764687206,1.1910587424640164,2.6140255847225244,1.0,3.14,-0.3806119242368196,-1.5579064154240194,-3.0875027446093415,3.14,3.0639691911589337
239,0.7349884001665156,0.21276645805959848,0.7034592869816798,2.748703688996353,2.0333332421225276,1.191057541970392,2.614069214915452,1.0,3.14,-0.3806200730403114,-1.5578961670243596,-3.0875479891572493,3.14,3.063910224043351
240,0.7350028380872047,0.21280546213238113,0.7034625866596979,2.7487473568118,2.0333405106696367,1.191056341407661,2.61411286179708,1.0,3.14,-0.3806282249271431,-1.557885914124967,-3.0875932507956687,3.14,3.0638512349534306
241,0.7350172846542448,0.21284448304508954,0.7034658883816847,2.74879104133086,2.0333477821112713,1.1910551407760743,2.6141565253741534,1.0,3.14,-0.3806363798985118,-1.5578756567236451,-3.0876385295310755,3.14,3.0637922238810535
242,0.7350317398732263,0.2128835208049167,0.7034691921489841,2.7488347425602844,2.033355056448656,1.1910539400758835,2.6142002056534213,1.0,3.14,-0.38064453795561526,-1.5578653948181964,-3.0876838253699477,3.14,3.0637331908180974
243,0.7350462037497444,0.21292257541906096,0.7034724979629431,2.7488784605068304,2.033362333683015,1.1910527393073411,2.6142439026416358,1.0,3.14,-0.3806526990996514,-1.5578551284064217,-3.0877291383187653,3.14,3.063674135756436
244,0.7350606762893978,0.21296164689472175,0.7034758058249075,2.748922195177256,2.0333696138155735,1.1910515384706994,2.6142876163455524,1.0,3.14,-0.38066086333181887,-1.5578448574861208,-3.087774468384012,3.14,3.063615058687941
245,0.7350751574977877,0.21300073523910162,0.7034791157362265,2.7489659465783225,2.0333768968475585,1.1910503375662116,2.6143313467719294,1.0,3.14,-0.3806690306533173,-1.5578345820550912,-3.087819815572174,3.14,3.06355595960448
246,0.7350896473805212,0.21303984045940838,0.7034824276982465,2.749009714716796,2.033384182780197,1.1910491365941294,2.614375093927529,1.0,3.14,-0.3806772010653466,-1.5578243021111304,-3.087865179889739,3.14,3.0634968384979167
247,0.7351041459432079,0.21307896256285203,0.7034857417123183,2.7490534995994453,2.0333914716147166,1.1910479355547066,2.6144188578191176,1.0,3.14,-0.3806853745691069,-1.5578140176520345,-3.0879105613431994,3.14,3.063437695360113
248,0.7351186531914614,0.21311810155664607,0.7034890577797922,2.7490973012330424,2.033398763352343,1.1910467344481974,2.614462638453463,1.0,3.14,-0.3806935511657989,-1.5578037286755981,-3.0879559599390487,3.14,3.063378530182927
249,0.7351331691309004,0.21315725744800892,0.7034923759020189,2.749141119624364,2.033406057994308,1.1910455332748533,2.6145064358373387,1.0,3.14,-0.38070173085662473,-1.557793435179614,-3.0880013756837834,3.14,3.0633193429582137
250,0.735147693767146,0.21319643024415955,0.7034956960803511,2.7491849547801883,2.033413355541838,1.1910443320349313,2.61455024997752,1.0,3.14,-0.38070991364278556,-1.5577831371618747,-3.0880468085839032,3.14,3.0632601336778245
251,0.7351622271058238,0.21323561995232287,0.7034990183161424,2.7492288067072983,2.033420655996164,1.191043130728684,2.614594080880786,1.0,3.14,-0.3807180995254846,-1.5577728346201702,-3.08809225864591,3.14,3.0632009023336075
252,0.7351767691525635,0.2132748265797253,0.7035023426107464,2.749272675412479,2.0334279593585163,1.1910419293563665,2.6146379285539196,1.0,3.14,-0.38072628850592466,-1.5577625275522902,-3.0881377258763085,3.14,3.063141648917408
253,0.735191319912999,0.21331405013359842,0.703505668965518,2.7493165609025216,2.033435265630127,1.1910407279182338,2.6146817930037076,1.0,3.14,-0.38073448058530956,-1.5577522159560224,-3.0881832102816063,3.14,3.0630823734210684
254,0.7352058793927668,0.21335329062117636,0.7035089973818144,2.749360463184218,2.0334425748122262,1.1910395264145412,2.6147256742369382,1.0,3.14,-0.3807426757648431,-1.5577418998291541,-3.0882287118683136,3.14,3.0630230758364267
255,0.7352204475975088,0.2133925480496958,0.7035123278609914,2.7494043822643635,2.0334498869060464,1.1910383248455447,2.6147695722604047,1.0,3.14,-0.38075087404573016,-1.5577315791694704,-3.0882742306429427,3.14,3.0629637561553182
256,0.7352350245328702,0.21343182242639777,0.703515660404407,2.749448318149758,2.033457201912822,1.1910371232114993,2.614813487080904,1.0,3.14,-0.38075907542917636,-1.5577212539747551,-3.0883197666120097,3.14,3.0629044143695756
257,0.7352496102045001,0.21347111375852773,0.7035189950134211,2.749492270847206,2.0334645198337844,1.1910359215126618,2.614857418705235,1.0,3.14,-0.3807672799163869,-1.557710924242792,-3.088365319782032,3.14,3.0628450504710276
258,0.7352642046180513,0.2135104220533334,0.7035223316893929,2.7495362403635135,2.033471840670169,1.191034719749288,2.6149013671402015,1.0,3.14,-0.380775487508569,-1.5577005899713618,-3.088410890159531,3.14,3.0627856644514995
259,0.7352788077791804,0.21354974731806448,0.7035256704336831,2.7495802267054894,2.0334791644232117,1.1910335179216358,2.61494533239261,1.0,3.14,-0.38078369820692887,-1.557690251158245,-3.08845647775103,3.14,3.062726256302814
260,0.7352934196935492,0.21358908955997707,0.7035290112476529,2.749624229879948,2.0334864910941453,1.191032316029961,2.61498931446927,1.0,3.14,-0.38079191201267404,-1.5576799078012213,-3.088502082563056,3.14,3.0626668260167906
261,0.735308040366822,0.2136284487863287,0.7035323541326659,2.7496682498937055,2.0334938206842077,1.1910311140745216,2.615033313376996,1.0,3.14,-0.3808001289270128,-1.5576695598980674,-3.0885477046021372,3.14,3.0626073735852444
262,0.7353226698046671,0.21366782500438022,0.7035356990900848,2.749712286753582,2.0335011531946345,1.1910299120555752,2.6150773291226037,1.0,3.14,-0.3808083489511535,-1.5576592074465603,-3.0885933438748054,3.14,3.0625478989999886
263,0.7353373080127581,0.21370721822139757,0.7035390461212748,2.749756340466402,2.0335084886266634,1.1910287099733798,2.615121361712914,1.0,3.14,-0.3808165720863053,-1.5576488504444748,-3.088639000387595,3.14,3.0624884022528325
264,0.7353519549967716,0.213746628444649,0.7035423952276012,2.749800411038992,2.033515826981532,1.1910275078281936,2.6151654111547513,1.0,3.14,-0.3808247983336777,-1.5576384888895847,-3.0886846741470433,3.14,3.0624288833355817
265,0.7353666107623873,0.21378605568140616,0.7035457464104308,2.7498444984781836,2.033523168260479,1.1910263056202752,2.615209477454942,1.0,3.14,-0.3808330276944814,-1.5576281227796622,-3.0887303651596896,3.14,3.0623693422400398
266,0.7353812753152902,0.213825499938943,0.7035490996711302,2.7498886027908087,2.0335305124647447,1.191025103349883,2.6152535606203164,1.0,3.14,-0.38084126016992703,-1.5576177521124785,-3.0887760734320766,3.14,3.062309778958006
267,0.7353959486611689,0.21386496122453943,0.7035524550110682,2.749932723983706,2.0335378595955667,1.191023901017277,2.61529766065771,1.0,3.14,-0.38084949576122545,-1.557607376885804,-3.08882179897075,3.14,3.062250193481277
268,0.7354106308057158,0.2139044395454781,0.7035558124316144,2.7499768620637175,2.0335452096541866,1.1910226986227157,2.6153417775739594,1.0,3.14,-0.380857734469589,-1.5575969970974066,-3.088867541782257,3.14,3.062190585801645
269,0.7354253217546269,0.2139439349090436,0.703559171934138,2.750021017037686,2.0335525626418454,1.1910214961664594,2.615385911375906,1.0,3.14,-0.38086597629623004,-1.557586612745054,-3.088913301873148,3.14,3.0621309559109005
270,0.7354400215136034,0.21398344732252483,0.7035625335200112,2.75006518891246,2.0335599185597846,1.1910202936487682,2.615430062070394,1.0,3.14,-0.3808742212423613,-1.5575762238265114,-3.0889590792499773,3.14,3.06207130380083
271,0.7354547300883487,0.21402297679321375,0.7035658971906057,2.7501093776948897,2.033567277409246,1.1910190910699021,2.6154742296642715,1.0,3.14,-0.38088246930919645,-1.5575658303395443,-3.0890048739193,3.14,3.0620116294632163
272,0.7354694474845713,0.21406252332840764,0.7035692629472947,2.750153583391832,2.0335746391914737,1.1910178884301224,2.61551841416439,1.0,3.14,-0.3808907204979495,-1.5575554322819156,-3.089050685887676,3.14,3.0619519328898397
273,0.735484173707983,0.2141020869354056,0.703572630791452,2.7501978060101435,2.0335820039077093,1.1910166857296889,2.6155626155776046,1.0,3.14,-0.3808989748098352,-1.5575450296513875,-3.0890965151616654,3.14,3.061892214072477
274,0.7354989087643011,0.21414166762151005,0.7035760007244533,2.750242045556687,2.0335893715591986,1.191015482968864,2.615606833910774,1.0,3.14,-0.3809072322460686,-1.5575346224457203,-3.089142361747833,3.14,3.061832473002901
275,0.735513652659245,0.21418126539402704,0.7035793727476731,2.7502863020383264,2.0335967421471848,1.1910142801479082,2.6156510691707586,1.0,3.14,-0.38091549280786563,-1.5575242106626737,-3.089188225652746,3.14,3.061772709672883
276,0.7355284053985393,0.2142208802602666,0.7035827468624904,2.7503305754619314,2.033604115672915,1.1910130772670842,2.615695321364425,1.0,3.14,-0.3809237564964424,-1.557513794300005,-3.0892341068829734,3.14,3.0617129240741887
277,0.7355431669879114,0.2142605122275415,0.7035861230702817,2.7503748658343734,2.0336114921376343,1.191011874326654,2.615739590498641,1.0,3.14,-0.3809320233130156,-1.557503373355472,-3.089280005445088,3.14,3.061653116198582
278,0.7355579374330944,0.21430016130316887,0.703589501372426,2.7504191731625287,2.0336188715425894,1.1910106713268802,2.61578387658028,1.0,3.14,-0.38094029325880285,-1.5574929478268293,-3.0893259213456647,3.14,3.0615932860378234
279,0.7355727167398234,0.214339827494468,0.7035928817703029,2.7504634974532753,2.033626253889028,1.1910094682680248,2.6158281796162166,1.0,3.14,-0.38094856633502217,-1.5574825177118314,-3.089371854591281,3.14,3.0615334335836697
280,0.735587504913839,0.2143795108087633,0.7035962642652934,2.7505078387134967,2.0336336391781966,1.1910082651503517,2.615872499613331,1.0,3.14,-0.3809568425428918,-1.5574720830082314,-3.089417805188518,3.14,3.061473558827875
281,0.7356023019608854,0.21441921125338276,0.7035996488587797,2.75055219695008,2.033641027411346,1.1910070619741238,2.6159168365785055,1.0,3.14,-0.380965121883631,-1.5574616437137798,-3.089463773143959,3.14,3.0614136617621894
282,0.7356171078867101,0.21445892883565457,0.703603035552143,2.750596572169912,2.0336484185897223,1.1910058587396049,2.6159611905186257,1.0,3.14,-0.3809734043584595,-1.5574511998262275,-3.0895097584641893,3.14,3.0613537423783597
283,0.7356319226970657,0.21449866356291336,0.7036064243467687,2.7506409643798873,2.0336558127145787,1.191004655447059,2.6160055614405824,1.0,3.14,-0.3809816899685973,-1.5574407513433228,-3.089555761155798,3.14,3.06129380066813
284,0.7356467463977081,0.2145384154424986,0.7036098152440399,2.7506853735869035,2.0336632097871634,1.1910034520967503,2.6160499493512686,1.0,3.14,-0.3809899787152652,-1.5574302982628137,-3.089601781225377,3.14,3.061233836623241
285,0.7356615789943978,0.21457818448175048,0.7036132082453429,2.75072979979786,2.0336706098087283,1.191002248688943,2.616094354257581,1.0,3.14,-0.3809982705996845,-1.5574198405824462,-3.08964781867952,3.14,3.0611738502354298
286,0.7356764204928977,0.21461797068801225,0.7036166033520643,2.7507742430196593,2.033678012780524,1.1910010452239026,2.616138776166419,1.0,3.14,-0.3810065656230769,-1.557409378299965,-3.089693873524824,3.14,3.0611138414964305
287,0.7356912708989777,0.21465777406863196,0.7036200005655915,2.750818703259209,2.0336854187038043,1.1909998417018945,2.616183215084687,1.0,3.14,-0.38101486378666494,-1.5573989114131133,-3.0897399457678882,3.14,3.0610538103979734
288,0.7357061302184085,0.2146975946309627,0.7036233998873129,2.7508631805234205,2.0336928275798214,1.1909986381231836,2.616227671019292,1.0,3.14,-0.3810231650916715,-1.5573884399196338,-3.0897860354153157,3.14,3.060993756931786
289,0.7357209984569661,0.21473743238235757,0.7036268013186173,2.7509076748192065,2.033700239409829,1.190997434488036,2.616272143977145,1.0,3.14,-0.3810314695393201,-1.5573779638172673,-3.0898321424737114,3.14,3.060933681089592
290,0.735735875620432,0.21477728733017787,0.7036302048608956,2.750952186153487,2.03370765419508,1.1909962307967177,2.6163166339651602,1.0,3.14,-0.38103977713083503,-1.5573674831037534,-3.089878266949683,3.14,3.060873582863113
291,0.7357507617145894,0.21481715948178207,0.7036336105155393,2.7509967145331804,2.033715071936832,1.190995027049495,2.616361140990255,1.0,3.14,-0.3810480878674409,-1.5573569977768296,-3.0899244088498414,3.14,3.0608134622440657
292,0.7357656567452266,0.21485704884453774,0.7036370182839411,2.7510412599652128,2.0337224926363384,1.1909938232466344,2.6164056650593506,1.0,3.14,-0.3810564017503627,-1.5573465078342332,-3.0899705681808,3.14,3.060753319224164
293,0.7357805607181356,0.21489695542581258,0.7036404281674927,2.751085822456511,2.0337299162948557,1.1909926193884035,2.6164502061793717,1.0,3.14,-0.38106471878082643,-1.5573360132737,-3.0900167449491747,3.14,3.0606931537951194
294,0.7357954736391129,0.21493687923298024,0.7036438401675896,2.7511304020140086,2.0337373429136414,1.1909914154750694,2.6164947643572476,1.0,3.14,-0.38107303896005834,-1.5573255140929638,-3.0900629391615846,3.14,3.060632965948639
295,0.7358103955139592,0.21497682027341633,0.7036472542856271,2.7511749986446397,2.0337447724939515,1.1909902115068998,2.616539339599909,1.0,3.14,-0.381081362289285,-1.557315010289758,-3.090109150824651,3.14,3.0605727556764264
296,0.7358253263484781,0.21501677855449958,0.7036506705230008,2.7512196123553427,2.033752205037046,1.1909890074841627,2.616583931914292,1.0,3.14,-0.38108968876973437,-1.5573045018618132,-3.0901553799449983,3.14,3.0605125229701833
297,0.7358402661484789,0.21505675408361472,0.7036540888811078,2.751264243153061,2.033759640544181,1.1909878034071257,2.616628541307335,1.0,3.14,-0.3810980184026342,-1.5572939888068604,-3.0902016265292542,3.14,3.060452267821607
298,0.7358552149197726,0.2150967468681461,0.7036575093613474,2.751308891044739,2.0337670790166182,1.1909865992760584,2.6166731677859802,1.0,3.14,-0.38110635118921304,-1.557283471122628,-3.090247890584048,3.14,3.0603919902223913
299,0.735870172668177,0.21513675691548562,0.7036609319651169,2.7513535560373277,2.033774520455616,1.190985395091229,2.6167178113571747,1.0,3.14,-0.3811146871307001,-1.557272948806844,-3.0902941721160126,3.14,3.0603316901642277
300,0.735885139399512,0.2151767842330271,0.7036643566938171,2.7513982381377797,2.033781964862436,1.1909841908529062,2.6167624720278675,1.0,3.14,-0.38112302622832506,-1.5572624218572344,-3.0903404711317832,3.14,3.060271367638803
301,0.7359001151196023,0.215216828828165,0.7036677835488498,2.7514429373530493,2.0337894122383386,1.190982986561361,2.6168071498050107,1.0,3.14,-0.3811313684833181,-1.5572518902715238,-3.090386787637998,3.14,3.060211022637802
302,0.7359150998342764,0.2152568907083031,0.703671212531616,2.7514876536900994,2.0337968625845857,1.190981782216862,2.616851844695562,1.0,3.14,-0.38113971389691015,-1.5572413540474357,-3.0904331216412984,3.14,3.0601506551529054
303,0.735930093549367,0.21529696988084343,0.7036746436435188,2.7515323871558914,2.0338043159024406,1.1909805778196794,2.6168965567064815,1.0,3.14,-0.3811480624703327,-1.5572308131826922,-3.0904794731483274,3.14,3.060090265175791
304,0.7359450962707119,0.21533706635319513,0.7036780768859636,2.751577137757394,2.0338117721931654,1.1909793733700844,2.6169412858447325,1.0,3.14,-0.38115641420481755,-1.5572202676750142,-3.090525842165732,3.14,3.060029852698132
305,0.7359601080041501,0.21537718013276783,0.7036815122603531,2.751621905501576,2.033819231458025,1.1909781688683465,2.616986032117282,1.0,3.14,-0.3811647691015973,-1.5572097175221213,-3.090572228700161,3.14,3.0599694177116006
306,0.7359751287555276,0.21541731122697858,0.7036849497680947,2.751666690395414,2.0338266936982823,1.1909769643147377,2.6170307955311016,1.0,3.14,-0.38117312716190466,-1.5571991627217319,-3.0906186327582663,3.14,3.059908960207864
307,0.7359901585306933,0.21545745964324317,0.7036883894105944,2.751711492445883,2.033834158915204,1.190975759709529,2.6170755760931645,1.0,3.14,-0.3811814883869738,-1.557188603271562,-3.090665054346703,3.14,3.059848480178586
308,0.7360051973354996,0.21549762538898465,0.7036918311892619,2.7517563116599657,2.0338416271100543,1.1909745550529922,2.6171203738104496,1.0,3.14,-0.38118985277803885,-1.5571780391693273,-3.0907114934721287,3.14,3.0597879776154278
309,0.7360202451758049,0.2155378084716298,0.7036952751055037,2.751801148044648,2.0338490982841,1.1909733503453985,2.6171651886899383,1.0,3.14,-0.38119822033633444,-1.5571674704127423,-3.0907579501412035,3.14,3.059727452510047
310,0.7360353020574687,0.21557800889860415,0.7036987211607311,2.7518460016069155,2.033856572438609,1.1909721455870215,2.617210020738615,1.0,3.14,-0.38120659106309596,-1.557156896999519,-3.0908044243605906,3.14,3.059666904854097
311,0.7360503679863581,0.2156182266773438,0.7037021693563551,2.751890872353764,2.0338640495748486,1.1909709407781337,2.617254869963469,1.0,3.14,-0.3812149649595591,-1.5571463189273693,-3.0908509161369557,3.14,3.0596063346392297
312,0.7360654429683408,0.21565846181528245,0.7037056196937858,2.7519357602921852,2.033871529694086,1.1909697359190061,2.617299736371492,1.0,3.14,-0.3812233420269608,-1.5571357361940035,-3.0908974254769674,3.14,3.059545741857092
313,0.7360805270092914,0.21569871431986146,0.7037090721744379,2.7519806654291816,2.0338790127975908,1.1909685310099143,2.61734461996968,1.0,3.14,-0.38123172226653773,-1.5571251487971296,-3.0909439523872972,3.14,3.0594851264993284
314,0.7360956201150866,0.21573898419852316,0.7037125267997244,2.752025587771754,2.0338864988866323,1.1909673260511298,2.6173895207650326,1.0,3.14,-0.38124010567952793,-1.5571145567344553,-3.0909904968746194,3.14,3.059424488557579
315,0.7361107222916093,0.21577927145871437,0.70371598357106,2.75207052732691,2.0338939879624816,1.1909661210429283,2.6174344387645525,1.0,3.14,-0.38124849226716917,-1.5571039600036862,-3.0910370589456106,3.14,3.059363828023482
316,0.7361258335447443,0.21581957610788527,0.7037194424898604,2.752115484101658,2.033901480026409,1.1909649159855824,2.617479373975246,1.0,3.14,-0.38125688203070046,-1.5570933586025273,-3.091083638606951,3.14,3.059303144888671
317,0.7361409538803816,0.21585989815348955,0.7037229035575425,2.7521604581030124,2.0339089750796853,1.1909637108793676,2.6175243264041232,1.0,3.14,-0.38126527497136087,-1.5570827525286817,-3.091130235865323,3.14,3.0592424391447772
318,0.7361560833044154,0.21590023760298555,0.7037263667755244,2.7522054493379904,2.033916473123583,1.190962505724558,2.617569296058198,1.0,3.14,-0.3812736710903906,-1.557072141779851,-3.0911768507274116,3.14,3.059181710783428
319,0.7361712218227434,0.2159405944638333,0.7037298321452239,2.752250457813612,2.033923974159375,1.1909613005214295,2.6176142829444875,1.0,3.14,-0.38128207038903,-1.557061526353736,-3.0912234831999053,3.14,3.059120959796247
320,0.736186369441268,0.2159809687434978,0.7037332996680611,2.752295483536902,2.0339314781883355,1.1909600952702561,2.617659287070013,1.0,3.14,-0.3812904728685203,-1.5570509062480362,-3.0912701332894947,3.14,3.0590601861748548
321,0.7362015261658962,0.2160213604494479,0.7037367693454568,2.752340526514889,2.033938985211738,1.1909588899713155,2.6177043084417986,1.0,3.14,-0.38129887853010275,-1.5570402814604485,-3.0913168010028738,3.14,3.058999389910869
322,0.736216692002537,0.21606176958915374,0.7037402411788332,2.752385586754602,2.033946495230857,1.190957684624882,2.617749347066872,1.0,3.14,-0.3813072873750197,-1.5570296519886702,-3.0913634863467387,3.14,3.0589385709959034
323,0.7362318669571061,0.21610219617009302,0.7037437151696116,2.7524306642630796,2.033954008246968,1.1909564792312326,2.6177944029522657,1.0,3.14,-0.38131569940451393,-1.5570190178303962,-3.091410189327789,3.14,3.0588777294215683
324,0.7362470510355223,0.2161426401997433,0.7037471913192167,2.7524757590473583,2.0339615242613465,1.190955273790644,2.6178394761050146,1.0,3.14,-0.38132411461982874,-1.55700837898332,-3.0914569099527274,3.14,3.0588168651794714
325,0.7362622442437072,0.2161831016855857,0.7037506696290733,2.7525208711144793,2.0339690432752695,1.1909540683033937,2.617884566532157,1.0,3.14,-0.3813325330222079,-1.556997735445134,-3.0915036482282576,3.14,3.058755978261216
326,0.7362774465875889,0.21622358063510982,0.7037541501006062,2.752566000471492,2.0339765652900157,1.1909528627697574,2.6179296742407363,1.0,3.14,-0.38134095461289624,-1.5569870872135296,-3.091550404161088,3.14,3.058695068658403
327,0.7362926580730978,0.21626407705580297,0.7037576327352422,2.7526111471254433,2.0339840903068604,1.1909516571900143,2.617974799237798,1.0,3.14,-0.3813493793931385,-1.556976434286196,-3.0915971777579285,3.14,3.0586341363626293
328,0.7363078787061701,0.21630459095515805,0.7037611175344093,2.752656311083386,2.0339916183270845,1.1909504515644418,2.618019941530392,1.0,3.14,-0.38135780736418046,-1.5569657766608214,-3.0916439690254927,3.14,3.058573181365488
329,0.7363231084927441,0.21634512234067407,0.703764604499536,2.7527014923523794,2.0339991493519665,1.190949245893318,2.618065101125572,1.0,3.14,-0.38136623852726814,-1.5569551143350928,-3.0916907779704967,3.14,3.05851220365857
330,0.736338347438764,0.21638567121984947,0.7037680936320528,2.7527466909394813,2.034006683382786,1.1909480401769221,2.6181102780303944,1.0,3.14,-0.3813746728836483,-1.5569444473066956,-3.09173760459966,3.14,3.0584512032334623
331,0.7363535955501771,0.21642623760019017,0.7037715849333885,2.7527919068517575,2.0340142204208242,1.1909468344155314,2.61815547225192,1.0,3.14,-0.3813831104345686,-1.5569337755733144,-3.0917844489197033,3.14,3.0583901800817483
332,0.7363688528329351,0.21646682148920313,0.7037750784049756,2.752837140096275,2.034021760467361,1.190945628609427,2.6182006837972134,1.0,3.14,-0.38139155118127643,-1.5569230991326317,-3.0918313109373514,3.14,3.058329134195008
333,0.7363841192929943,0.21650742289439862,0.7037785740482467,2.752882390680104,2.03402930352368,1.1909444227588872,2.6182459126733417,1.0,3.14,-0.381399995125021,-1.5569124179823288,-3.091878190659332,3.14,3.0582680655648184
334,0.7363993949363145,0.2165480418232928,0.7037820718646358,2.7529276586103206,2.0340368495910632,1.1909432168641925,2.6182911588873767,1.0,3.14,-0.3814084422670509,-1.5569017321200855,-3.0919250880923745,3.14,3.0582069741827524
335,0.7364146797688604,0.21658867828340525,0.7037855718555768,2.7529729438940045,2.034044398670794,1.1909420109256221,2.6183364224463945,1.0,3.14,-0.3814168926086159,-1.556891041543581,-3.091972003243213,3.14,3.0581458600403804
336,0.7364299737966005,0.2166293322822567,0.7037890740225057,2.753018246538236,2.0340519507641543,1.1909408049434576,2.6183817033574726,1.0,3.14,-0.38142534615096596,-1.5568803462504925,-3.092018936118582,3.14,3.058084723129269
337,0.736445277025507,0.2166700038273731,0.7037925783668592,2.7530635665501015,2.034059505872431,1.1909395989179792,2.618427001627693,1.0,3.14,-0.3814338028953523,-1.5568696462384952,-3.092065886725221,3.14,3.0580235634409814
338,0.7364605894615572,0.21671069292628398,0.703796084890075,2.7531089039366905,2.0340670639969085,1.1909383928494683,2.6184723172641435,1.0,3.14,-0.381442262843026,-1.556858941505264,-3.092112855069871,3.14,3.0579623809670773
339,0.7364759111107319,0.21675139958652298,0.7037995935935915,2.753154258705097,2.0340746251388726,1.1909371867382066,2.6185176502739127,1.0,3.14,-0.3814507259952392,-1.5568482320484722,-3.0921598411592766,3.14,3.057901175699113
340,0.736491241979016,0.2167921238156263,0.7038031044788476,2.753199630862416,2.034082189299609,1.1909359805844746,2.618563000664094,1.0,3.14,-0.3814591923532445,-1.5568375178657916,-3.092206845000184,3.14,3.0578399476286413
341,0.7365065820723992,0.21683286562113493,0.7038066175472848,2.7532450204157497,2.0340897564804057,1.1909347743885548,2.6186083684417847,1.0,3.14,-0.38146766191829506,-1.5568267989548925,-3.0922538665993438,3.14,3.0577786967472127
342,0.736521931396875,0.21687362501059146,0.7038101328003454,2.753290427372201,2.034097326682551,1.190933568150731,2.618653753614085,1.0,3.14,-0.38147613469164393,-1.5568160753134437,-3.0923009059635085,3.14,3.0577174230463724
343,0.7365372899584408,0.21691440199154485,0.7038136502394711,2.7533358517388784,2.0341048999073315,1.1909323618712848,2.6186991561880997,1.0,3.14,-0.38148461067454587,-1.556805346939113,-3.0923479630994337,3.14,3.0576561265176636
344,0.7365526577630986,0.2169551965715463,0.7038171698661045,2.753381293522893,2.034112476156037,1.1909311555504987,2.6187445761709363,1.0,3.14,-0.381493089868256,-1.5567946138295665,-3.0923950380138776,3.14,3.057594807152626
345,0.7365680348168544,0.21699600875814984,0.7038206916816923,2.75342675273136,2.034120055429959,1.1909299491886567,2.618790013569707,1.0,3.14,-0.3815015722740295,-1.556783875982469,-3.0924421307136014,3.14,3.057533464942795
346,0.7365834211257188,0.21703683855891473,0.7038242156876787,2.7534722293713982,2.0341276377303865,1.1909287427860422,2.6188354683915263,1.0,3.14,-0.38151005789312237,-1.5567731333954842,-3.092489241205369,3.14,3.057472099879704
347,0.7365988166957064,0.21707768598140234,0.7038277418855113,2.753517723450129,2.034135223058609,1.1909275363429401,2.6188809406435136,1.0,3.14,-0.381518546726791,-1.556762386066274,-3.0925363694959476,3.14,3.057410711954881
348,0.7366142215328357,0.2171185510331801,0.7038312702766369,2.753563234974681,2.0341428114159212,1.1909263298596333,2.618926430332792,1.0,3.14,-0.381527038776293,-1.5567516339924987,-3.0925835155921066,3.14,3.057349301159852
349,0.7366296356431299,0.21715943372181712,0.7038348008625054,2.7536087639521827,2.034150402803614,1.1909251233364078,2.618971937466488,1.0,3.14,-0.38153553404288587,-1.556740877171818,-3.0926306795006187,3.14,3.0572878674861403
350,0.7366450590326153,0.2172003340548856,0.7038383336445648,2.753654310389767,2.03415799722298,1.1909239167735475,2.6190174620517306,1.0,3.14,-0.38154403252782804,-1.55673011560189,-3.092677861228259,3.14,3.057226410925264
351,0.7366604917073241,0.21724125203996336,0.7038418686242673,2.7536998742945715,2.0341655946753137,1.1909227101713378,2.619063004095654,1.0,3.14,-0.3815525342323784,-1.5567193492803708,-3.092725060781806,3.14,3.0571649314687384
352,0.7366759336732913,0.21728218768462992,0.7038454058030637,2.753745455673737,2.0341731951619098,1.1909215035300647,2.619108563605396,1.0,3.14,-0.3815610391577965,-1.5567085782049157,-3.0927722781680407,3.14,3.057103429108076
353,0.7366913849365567,0.21732314099646957,0.7038489451824075,2.7537910545344073,2.034180798684062,1.1909202968500143,2.6191541405880967,1.0,3.14,-0.38156954730534226,-1.5566978023731783,-3.0928195133937466,3.14,3.057041903834785
354,0.7367068455031655,0.21736411198307096,0.703852486763752,2.7538366708837323,2.034188405243068,1.190919090131473,2.6191997350509015,1.0,3.14,-0.3815780586762764,-1.5566870217828106,-3.092866766465711,3.14,3.056980355640371
355,0.7367223153791639,0.21740510065202465,0.7038560305485516,2.753882304728862,2.034196014840222,1.1909178833747263,2.619245347000959,1.0,3.14,-0.38158657327186035,-1.5566762364314644,-3.0929140373907225,3.14,3.056918784516336
356,0.7367377945706058,0.217446107010927,0.7038595765382627,2.753927956076954,2.034203627476822,1.1909166765800625,2.619290976445421,1.0,3.14,-0.3815950910933557,-1.5566654463167884,-3.0929613261755744,3.14,3.0568571904541777
357,0.7367532830835473,0.21748713106737627,0.7038631247343415,2.7539736249351665,2.0342112431541657,1.190915469747767,2.6193366233914435,1.0,3.14,-0.3816036121420255,-1.556654651436431,-3.093008632827062,3.14,3.0567955734453913
358,0.7367687809240501,0.2175281728289752,0.7038666751382466,2.754019311310663,2.0342188618735513,1.190914262878129,2.6193822878461863,1.0,3.14,-0.3816121364191321,-1.5566438517880388,-3.093055957351983,3.14,3.056733933481468
359,0.7367842880981791,0.21756923230332947,0.7038702277514365,2.75406501521061,2.0342264836362784,1.1909130559714363,2.6194279698168126,1.0,3.14,-0.3816206639259393,-1.556633047369257,-3.093103299757139,3.14,3.0566722705538965
360,0.7367998046120029,0.21761030949804885,0.7038737825753704,2.754110736642177,2.034234108443646,1.190911849027976,2.6194736693104885,1.0,3.14,-0.38162919466371154,-1.5566222381777297,-3.0931506600493326,3.14,3.0566105846541607
361,0.7368153304715959,0.21765140442074835,0.7038773396115103,2.75415647561254,2.0342417362969547,1.1909106420480378,2.619519386334386,1.0,3.14,-0.3816377286337132,-1.5566114242110995,-3.0931980382353714,3.14,3.0565488757737422
362,0.7368308656830354,0.21769251707904458,0.7038808988613171,2.7542022321288764,2.0342493671975057,1.1909094350319094,2.619565120895679,1.0,3.14,-0.38164626583721,-1.5566006054670078,-3.093245434322065,3.14,3.0564871439041186
363,0.7368464102524045,0.21773364748055793,0.7038844603262541,2.7542480061983667,2.0342570011466,1.1909082279798806,2.619610873001545,1.0,3.14,-0.38165480627546766,-1.5565897819430938,-3.0932928483162256,3.14,3.056425389036764
364,0.7368619641857888,0.2177747956329129,0.7038880240077849,2.7542937978281965,2.034264638145541,1.1909070208922408,2.6196566426591663,1.0,3.14,-0.38166334994975293,-1.5565789536369958,-3.093340280224669,3.14,3.0563636111631496
365,0.7368775274892793,0.2178159615437382,0.7038915899073757,2.754339607025555,2.034272278195631,1.1909058137692805,2.6197024298757285,1.0,3.14,-0.3816718968613325,-1.556568120546351,-3.093387730054212,3.14,3.0563018102747423
366,0.7368931001689712,0.21785714522066713,0.7038951580264907,2.754385433797636,2.0342799212981735,1.190904606611289,2.619748234658421,1.0,3.14,-0.38168044701147447,-1.5565572826687948,-3.0934351978116768,3.14,3.0562399863630065
367,0.7369086822309634,0.2178983466713343,0.7038987283665982,2.7544312781516354,2.034287567454473,1.1909033994185576,2.619794057014437,1.0,3.14,-0.381689000401447,-1.5565464400019609,-3.0934826835038867,3.14,3.0561781394194023
368,0.7369242736813604,0.2179395659033799,0.7039023009291657,2.7544771400947536,2.034295216665836,1.190902192191376,2.619839896950973,1.0,3.14,-0.3816975570325193,-1.556535592543482,-3.093530187137669,3.14,3.0561162694353867
369,0.7369398745262683,0.21798080292444633,0.7039058757156627,2.7545230196341937,2.034302868933566,1.190900984930036,2.619885754475229,1.0,3.14,-0.38170611690596057,-1.5565247402909899,-3.0935777087198524,3.14,3.0560543764024133
370,0.7369554847718002,0.21802205774218023,0.7039094527275586,2.7545689167771634,2.0343105242589705,1.1908997776348296,2.6199316295944097,1.0,3.14,-0.3817146800230407,-1.556513883242114,-3.09362524825727,3.14,3.0559924603119324
371,0.736971104424072,0.21806333036423403,0.7039130319663248,2.754614831530876,2.0343181826433563,1.1908985703060475,2.619977522315723,1.0,3.14,-0.3817232463850308,-1.5565030213944828,-3.093672805756757,3.14,3.0559305211553904
372,0.7369867334892046,0.2181046207982609,0.7039166134334335,2.754660763902545,2.034325844088031,1.190897362943983,2.620023432646381,1.0,3.14,-0.3817318159932017,-1.5564921547457233,-3.0937203812251517,3.14,3.055868558924231
373,0.7370023719733224,0.2181459290519182,0.7039201971303578,2.754706713899389,2.0343335085943033,1.190896155548927,2.6200693605935985,1.0,3.14,-0.381740388848826,-1.5564812832934611,-3.093767974669295,3.14,3.055806573609894
374,0.737018019882555,0.21818725513286874,0.7039237830585716,2.7547526815286316,2.0343411761634824,1.190894948121173,2.6201153061645948,1.0,3.14,-0.38174896495317556,-1.5564704070353206,-3.0938155860960315,3.14,3.0557445652038147
375,0.7370336772230365,0.21822859904877878,0.703927371219551,2.7547986667975004,2.034348846796877,1.1908937406610158,2.6201612693665934,1.0,3.14,-0.3817575443075229,-1.5564595259689242,-3.093863215512207,3.14,3.0556825336974263
376,0.7370493440009033,0.21826996080731603,0.7039309616147711,2.7548446697132234,2.0343565204957987,1.1908925331687465,2.6202072502068203,1.0,3.14,-0.3817661269131427,-1.5564486400918935,-3.093910862924672,3.14,3.055620479082158
377,0.7370650202222981,0.218311340416154,0.7039345542457102,2.7548906902830352,2.0343641972615583,1.1908913256446596,2.620253248692506,1.0,3.14,-0.38177471277130864,-1.5564377494018484,-3.093958528340279,3.14,3.0555584013494363
378,0.7370807058933678,0.21835273788297055,0.7039381491138459,2.754936728514175,2.034371877095467,1.1908901180890497,2.620299264830886,1.0,3.14,-0.3817833018832955,-1.5564268538964074,-3.0940062117658833,3.14,3.0554963004906828
379,0.7370964010202626,0.21839415321544461,0.7039417462206579,2.7549827844138823,2.034379559998837,1.190888910502211,2.6203452986291964,1.0,3.14,-0.3817918942503788,-1.5564159535731874,-3.0940539132083433,3.14,3.0554341764973167
380,0.7371121056091378,0.21843558642126132,0.7039453455676267,2.755028857989404,2.0343872459729826,1.1908877028844382,2.62039135009468,1.0,3.14,-0.3818004898738346,-1.556405048429804,-3.0941016326745205,3.14,3.0553720293607536
381,0.7371278196661522,0.21847703750810823,0.7039489471562334,2.755074949247988,2.034394935019217,1.1908864952360267,2.620437419234582,1.0,3.14,-0.3818090887549394,-1.5563941384638715,-3.0941493701712792,3.14,3.055309859072405
382,0.7371435431974694,0.21851850648367657,0.7039525509879608,2.7551210581968864,2.034402627138854,1.1908852875572715,2.620483506056152,1.0,3.14,-0.3818176908949705,-1.5563832236730029,-3.094197125705486,3.14,3.0552476656236798
383,0.7371592762092589,0.21855999335566376,0.7039561570642919,2.7551671848433585,2.0344103223332093,1.1908840798484686,2.620529610566644,1.0,3.14,-0.38182629629520565,-1.5563723040548092,-3.094244899284011,3.14,3.055185449005983
384,0.7371750187076906,0.21860149813176716,0.7039597653867121,2.7552133291946626,2.0344180206035993,1.1908828721099136,2.620575732773313,1.0,3.14,-0.38183490495692335,-1.5563613796069007,-3.0942926909137274,3.14,3.0551232092107155
385,0.7371907706989428,0.21864302081969075,0.7039633759567053,2.7552594912580637,2.0344257219513397,1.1908816643419038,2.620621872683421,1.0,3.14,-0.3818435168814024,-1.556350450326886,-3.094340500601511,3.14,3.055060946229276
386,0.7372065321891961,0.2186845614271413,0.7039669887757604,2.7553056710408295,2.0344334263777464,1.1908804565447353,2.620668030304232,1.0,3.14,-0.38185213206992236,-1.5563395162123717,-3.0943883283542393,3.14,3.0549986600530583
387,0.7372223031846356,0.2187261199618281,0.7039706038453635,2.7553518685502314,2.034441133884141,1.1908792487187059,2.6207142056430137,1.0,3.14,-0.3818607505237638,-1.5563285772609632,-3.094436174178795,3.14,3.054936350673454
388,0.7372380836914507,0.21876769643146682,0.7039742211670037,2.7553980837935454,2.034448844471838,1.1908780408641124,2.6207603987070387,1.0,3.14,-0.381869372244207,-1.5563176334702655,-3.0944840380820624,3.14,3.05487401808185
389,0.7372538737158357,0.21880929084377468,0.7039778407421705,2.7554443167780507,2.034456558142159,1.1908768329812531,2.6208066095035827,1.0,3.14,-0.38187799723253363,-1.5563066848378813,-3.0945319200709287,3.14,3.054811662269631
390,0.7372696732639888,0.21885090320647357,0.703981462572355,2.7554905675110297,2.034464274896423,1.190875625070425,2.620852838039925,1.0,3.14,-0.3818866254900256,-1.5562957313614116,-3.094579820152284,3.14,3.0547492832281775
391,0.7372854823421128,0.21889253352729066,0.7039850866590495,2.755536835999772,2.0344719947359504,1.1908744171319283,2.62089908432335,1.0,3.14,-0.38189525701796545,-1.5562847730384564,-3.0946277383330214,3.14,3.054686880948866
392,0.7373013009564148,0.21893418181395255,0.7039887130037457,2.7555831222515645,2.0344797176620633,1.1908732091660605,2.620945348361144,1.0,3.14,-0.3819038918176364,-1.556273809866614,-3.0946756746200372,3.14,3.0546244554230704
393,0.7373171291131051,0.2189758480741942,0.7039923416079381,2.755629426273704,2.0344874436760825,1.1908720011731213,2.620991630160598,1.0,3.14,-0.3819125298903221,-1.556262841843482,-3.0947236290202307,3.14,3.054562006642161
394,0.7373329668184013,0.21901753231575255,0.7039959724731217,2.755675748073489,2.034495172779331,1.1908707931534093,2.6210379297290074,1.0,3.14,-0.38192117123730707,-1.5562518689666556,-3.0947716015405033,3.14,3.0544995345975035
395,0.7373488140785222,0.21905923454636775,0.7039996056007931,2.755722087658221,2.0345029049731322,1.1908695851072257,2.62108424707367,1.0,3.14,-0.3819298158598762,-1.5562408912337284,-3.09481959218776,3.14,3.0544370392804616
396,0.7373646708996923,0.2191009547737838,0.7040032409924482,2.755768445035206,2.0345106402588113,1.1908683770348696,2.621130582201889,1.0,3.14,-0.3819384637593153,-1.556229908642294,-3.0948676009689082,3.14,3.0543745206823947
397,0.73738053728814,0.21914269300574987,0.7040068786495854,2.755814820211753,2.0345183786376904,1.1908671689366412,2.62117693512097,1.0,3.14,-0.3819471149369101,-1.5562189211899438,-3.0949156278908587,3.14,3.0543119787946584
398,0.7373964132500993,0.21918444925001843,0.704010518573704,2.755861213195178,2.0345261201110962,1.1908659608128422,2.621223305838224,1.0,3.14,-0.38195576939394765,-1.5562079288742672,-3.0949636729605254,3.14,3.0542494136086056
399,0.7374122987918083,0.21922622351434468,0.7040141607663049,2.7559076239927967,2.0345338646803555,1.1908647526637735,2.6212696943609646,1.0,3.14,-0.38196442713171547,-1.5561969316928523,-3.0950117361848246,3.14,3.054186825115585
400,0.7374281939195078,0.21926801580648872,0.7040178052288882,2.755954052611931,2.034541612346793,1.1908635444897362,2.621316100696509,1.0,3.14,-0.3819730881515011,-1.5561859296432865,-3.0950598175706756,3.14,3.054124213306942
401,0.7374440986394443,0.21930982613421313,0.7040214519629572,2.7560004990599047,2.0345493631117377,1.1908623362910322,2.621362524852179,1.0,3.14,-0.38198175245459354,-1.5561749227231552,-3.095107917125001,3.14,3.0540615781740192
402,0.7374600129578691,0.21935165450528712,0.704025100970014,2.75604696334405,2.034557116976518,1.1908611280679644,2.621408966835301,1.0,3.14,-0.38199042004228195,-1.5561639109300422,-3.0951560348547256,3.14,3.053998919708154
403,0.7374759368810359,0.21939350092748008,0.704028752251564,2.756093445471696,2.0345648739424607,1.1908599198208334,2.6214554266532026,1.0,3.14,-0.38199909091585615,-1.5561528942615308,-3.095204170766778,3.14,3.053936237900682
404,0.7374918704152061,0.21943536540856715,0.7040324058091127,2.756139945450181,2.034572634010897,1.190858711549944,2.621501904313218,1.0,3.14,-0.38200776507660644,-1.5561418727152012,-3.0952523248680888,3.14,3.053873532742934
405,0.7375078135666422,0.21947724795632834,0.7040360616441662,2.7561864632868462,2.0345803971831558,1.1908575032555988,2.621548399822684,1.0,3.14,-0.3820164425258237,-1.5561308462886336,-3.0953004971655926,3.14,3.0538108042262384
406,0.7375237663416142,0.21951914857854482,0.7040397197582323,2.756232998989035,2.034588163460569,1.190856294938101,2.6215949131889413,1.0,3.14,-0.3820251232647999,-1.556119814979406,-3.095348687666226,3.14,3.053748052341919
407,0.7375397287463923,0.21956106728300256,0.7040433801528195,2.7562795525640946,2.0345959328444683,1.1908550865977545,2.621641444419334,1.0,3.14,-0.382033807294827,-1.5561087787850951,-3.095396896376929,3.14,3.053685277081297
408,0.7375557007872552,0.21960300407749325,0.7040470428294372,2.756326124019379,2.034603705336185,1.1908538782348632,2.6216879935212116,1.0,3.14,-0.3820424946171978,-1.556097737703277,-3.0954451233046445,3.14,3.053622478435689
409,0.7375716824704839,0.21964495896981073,0.7040507077895966,2.7563727133622433,2.034611480937052,1.1908526698497326,2.6217345605019258,1.0,3.14,-0.3820511852332056,-1.5560866917315253,-3.095493368456318,3.14,3.0535596563964096
410,0.7375876738023651,0.2196869319677531,0.7040543750348093,2.756419320600048,2.0346192596484025,1.1908514614426668,2.6217811453688324,1.0,3.14,-0.3820598791441445,-1.556075640867412,-3.095541631838899,3.14,3.053496810954768
411,0.7376036747891881,0.21972892307911931,0.7040580445665888,2.7564659457401537,2.0346270414715715,1.1908502530139713,2.621827748129292,1.0,3.14,-0.38206857635130953,-1.5560645851085078,-3.0955899134593383,3.14,3.0534339421020715
412,0.7376196854372482,0.21977093231171885,0.7040617163864478,2.756512588789932,2.0346348264078946,1.1908490445639515,2.6218743687906687,1.0,3.14,-0.38207727685599563,-1.5560535244523828,-3.095638213324591,3.14,3.053371049829623
413,0.7376357057528448,0.21981295967335854,0.7040653904959021,2.756559249756752,2.034642614458706,1.1908478360929133,2.62192100736033,1.0,3.14,-0.3820859806594986,-1.5560424588966049,-3.0956865314416144,3.14,3.053308134128722
414,0.7376517357422812,0.21985500517185333,0.7040690668964675,2.75660592864799,2.0346504056253427,1.190846627601163,2.621967663845648,1.0,3.14,-0.38209468776311517,-1.5560313884387407,-3.0957348678173693,3.14,3.0532451949906645
415,0.7376677754118647,0.21989706881501814,0.7040727455896613,2.7566526254710233,2.034658199909142,1.1908454190890072,2.6220143382539973,1.0,3.14,-0.3821033981681425,-1.556020313076355,-3.095783222458819,3.14,3.053182232406743
416,0.7376838247679097,0.21993915061067598,0.7040764265770011,2.756699340233237,2.0346659973114414,1.1908442105567523,2.622061030592758,1.0,3.14,-0.38211211187587796,-1.556009232807012,-3.0958315953729296,3.14,3.053119246368246
417,0.7376998838167312,0.21998125056664908,0.7040801098600068,2.7567460729420152,2.034673797833579,1.1908430020047067,2.6221077408693128,1.0,3.14,-0.3821208288876198,-1.5559981476282736,-3.0958799865666706,3.14,3.053056236866459
418,0.7377159525646511,0.2200233686907684,0.7040837954401983,2.7567928236047514,2.034681601476895,1.1908417934331768,2.6221544690910497,1.0,3.14,-0.3821295492046672,-1.5559870575377006,-3.0959283960470145,3.14,3.0529932038926644
419,0.7377320310179956,0.22006550499086652,0.7040874833190977,2.75683959222884,2.0346894082427274,1.1908405848424712,2.6222012152653598,1.0,3.14,-0.3821382728283193,-1.5559759625328524,-3.095976823820936,3.14,3.0529301474381394
420,0.7377481191830952,0.22010765947477925,0.7040911734982266,2.756886378821679,2.0346972181324174,1.1908393762328982,2.6222479793996376,1.0,3.14,-0.38214699975987665,-1.5559648626112863,-3.0960252698954145,3.14,3.0528670674941596
421,0.7377642170662843,0.2201498321503455,0.7040948659791089,2.75693318339067,2.0347050311473067,1.1908381676047664,2.6222947615012817,1.0,3.14,-0.38215573000063985,-1.5559537577705587,-3.09607373427743,3.14,3.0528039640519955
422,0.7377803246739019,0.22019202302541027,0.7040985607632687,2.7569800059432197,2.0347128472887377,1.1908369589583847,2.622341561577695,1.0,3.14,-0.3821644635519104,-1.5559426480082243,-3.096122216973967,3.14,3.052740837102915
423,0.7377964420122914,0.2202342321078222,0.7041022578522317,2.757026846486739,2.034720666558052,1.1908357502940619,2.6223883796362846,1.0,3.14,-0.38217320041499014,-1.5559315333218375,-3.096170717992013,3.14,3.052677686638182
424,0.7378125690878007,0.22027645940543245,0.704105957247525,2.757073705028642,2.0347284889565924,1.1908345416121082,2.6224352156844604,1.0,3.14,-0.3821819405911816,-1.5559204137089495,-3.096219237338557,3.14,3.0526145126490567
425,0.7378287059067834,0.22031870492609568,0.7041096589506766,2.757120581576345,2.0347363144857042,1.1908333329128338,2.622482069729637,1.0,3.14,-0.3821906840817879,-1.5559092891671105,-3.0962677750205927,3.14,3.052551315126796
426,0.7378448524755962,0.22036096867767413,0.7041133629632143,2.757167476137273,2.0347441431467312,1.1908321241965492,2.6225289417792337,1.0,3.14,-0.382199430888113,-1.5558981596938697,-3.0963163310451165,3.14,3.052488094062653
427,0.7378610088005996,0.2204032506680288,0.7041170692866696,2.7572143887188494,2.034751974941019,1.1908309154635641,2.6225758318406713,1.0,3.14,-0.38220818101146137,-1.5558870252867747,-3.0963649054191267,3.14,3.052424849447878
428,0.7378771748881603,0.22044555090502718,0.7041207779225719,2.7572613193285043,2.0347598098699144,1.1908297067141909,2.622622739921377,1.0,3.14,-0.382216934453138,-1.5558758859433712,-3.0964134981496256,3.14,3.0523615812737166
429,0.737893350744649,0.2204878693965423,0.7041244888724544,2.7573082679736727,2.0347676479347627,1.1908284979487396,2.6226696660287807,1.0,3.14,-0.3822256912144484,-1.5558647416612041,-3.096462109243618,3.14,3.0522982895314117
430,0.73790953637644,0.2205302061504474,0.7041282021378493,2.7573552346617904,2.0347754891369116,1.1908272891675227,2.622716610170316,1.0,3.14,-0.3822344512966989,-1.5558535924378165,-3.0965107387081114,3.14,3.052234974212202
431,0.7379257317899137,0.22057256117462304,0.7041319177202913,2.7574022194003014,2.0347833334777112,1.1908260803708528,2.6227635723534215,1.0,3.14,-0.3822432147011966,-1.5558424382707492,-3.0965593865501173,3.14,3.0521716353073227
432,0.7379419369914538,0.22061493447695132,0.7041356356213163,2.7574492221966493,2.0347911809585075,1.1908248715590417,2.6228105525855385,1.0,3.14,-0.38225198142924866,-1.5558312791575426,-3.0966080527766495,3.14,3.0521082728080065
433,0.7379581519874474,0.2206573260653175,0.7041393558424605,2.7574962430582826,2.034799031580653,1.1908236627324023,2.6228575508741128,1.0,3.14,-0.3822607514821637,-1.5558201150957351,-3.0966567373947242,3.14,3.0520448867054806
434,0.7379743767842887,0.2206997359476149,0.7041430783852604,2.757543281992657,2.0348068853454953,1.1908224538912475,2.6229045672265947,1.0,3.14,-0.3822695248612501,-1.5558089460828646,-3.0967054404113616,3.14,3.05198147699097
435,0.7379906113883746,0.22074216413173692,0.7041468032512551,2.7575903390072285,2.0348147422543876,1.190821245035891,2.6229516016504375,1.0,3.14,-0.3822783015678172,-1.555797772116466,-3.0967541618335845,3.14,3.0519180436556956
436,0.7380068558061075,0.2207846106255827,0.704150530441984,2.757637414109459,2.03482260230868,1.1908200361666466,2.622998654153099,1.0,3.14,-0.38228708160317504,-1.5557865931940742,-3.0968029016684184,3.14,3.0518545866908755
