jkpark150901/flame_robotics_drt/experiment/inspection_ik/session_20260721_142344/success/inspection_ik_20260721_142502_dda_rb10_1300e_normalized_success.csv
iteration,err_norm,position_error,orientation_error,tcp_x,tcp_y,tcp_z,q0_dda_joint_linear_track,q1_dda_joint_carriage,q2_dda_joint_base,q3_dda_joint_shoulder,q4_dda_joint_elbow,q5_dda_joint_wrist1,q6_dda_joint_wrist2,q7_dda_joint_wrist3
0,4.89277831540939,2.913108058425548,2.7874290185478388,0.47255,3.7499999999986655,2.697,0.0,0.0,0.0,0.0,0.0,0.0,0.0,0.0
1,3.7638367459843955,2.8061977147311934,1.8767897904540063,1.75317424861098,4.486011481760537,2.4167299796654214,1.0655950237722982,0.05205992825227542,-0.2992518923926132,0.566908335539174,0.2524155105083019,-0.04023682210366431,-0.3794534656112744,-0.10036875364008778
2,2.040203271650199,1.5039257817812517,1.260681442635034,2.460132625797909,3.39269703663557,1.559430202063659,1.112643434171106,-0.5117934208027328,-1.1999569234026535,0.8903411861917865,1.0413871341023877,-0.06805532255696872,-0.10906793494564249,-0.8327017224787914
3,1.4230746577647497,1.0821009384476032,0.8816528548698312,2.5413004078388135,2.9276884499368787,1.3067942937537809,1.234055887274592,-0.5967043926360599,-1.5377164407067663,1.0608332030685448,1.1968895899158223,-0.07614949719802043,-0.42706464901048496,-0.9313261721289934
4,0.9587249274445747,0.7535002328961677,0.5792970418718896,2.526661427768224,2.559984181228069,1.2600293115345247,1.3345909133626095,-0.6328738425259162,-1.8678490349792847,1.1331707098204746,1.1904671322956397,-0.11606020416632921,-0.7371284685951518,-0.9081604589909749
5,0.6332615942704866,0.5074607141287689,0.37485833712252414,2.4974387602589,2.308701510998799,1.3116240418146827,1.4214455264356158,-0.6759221503318594,-2.095340229493938,1.1222572485544104,1.139689915802545,-0.09343512423924219,-0.9514770260263583,-0.9088320111775953
6,0.41483996657700856,0.33590560102346206,0.2423091825596209,2.472271349415504,2.1516374042628224,1.3835080205749288,1.4868414733200797,-0.7101356448894462,-2.238614153624276,1.090696906363331,1.0822741757409495,-0.05374702557294161,-1.0804712582003864,-0.9217136322315825
7,0.27102620143898487,0.2207614590054906,0.15690978109057593,2.454614631560302,2.055185323032676,1.4452229299206036,1.5348090464752744,-0.7350072411822108,-2.3279841915933632,1.0624123048330396,1.0342746116440127,-0.0190822605136782,-1.1558114973404423,-0.9363609096217484
8,0.1768302705186667,0.14455175282846816,0.10176388708336746,2.442806187468518,1.995241180894869,1.491067095724751,1.5688959228369523,-0.7526375439344574,-2.384580749436876,1.041712169512788,0.9983806377062366,0.006788413253647631,-1.200391631155365,-0.9489323659748818
9,0.1152556217129661,0.09442844933303023,0.06605993621227045,2.434993496605211,1.9574439470109448,1.523114420045588,1.59242348281537,-0.7649024736113321,-2.420854619719088,1.0275604053943714,0.9729443563150784,0.02497212013092452,-1.2273328887140025,-0.9585039217644871
10,0.07506210129739514,0.06158634826360288,0.042905294638948446,2.4298455932915,1.9333533806935639,1.5448510116008438,1.608323414030581,-0.7732868788268082,-2.4442571212126345,1.0181449288781659,0.9554702086830443,0.037376024834236105,-1.2439356110517792,-0.965343159176001
11,0.048856072532406716,0.040122267017345274,0.02787501048339859,2.4264643234600354,1.9178892209767495,1.5593513172625937,1.6189192441543776,-0.7789351656599836,-2.4594066211022882,1.0119543198158216,0.9436970611923212,0.04569135616928048,-1.254329278463502,-0.970055255354488
12,0.03178552817128917,0.026119163092943768,0.018113272234890548,2.424249612376947,1.9079172516834355,1.568930644659683,1.625917254075369,-0.782698001322617,-2.469230848872054,1.0079063156337469,0.9358636904039095,0.05120560521357133,-1.2609129809298025,-0.9732319246274679
13,0.020673343673590694,0.01699468542022984,0.011771342307576175,2.4228022709263572,1.901468312273883,1.5752216117019278,1.630512763425503,-0.7851847823999908,-2.4756078237527923,1.005266467069728,0.9306939370234852,0.054836938815224445,-1.2651185408928243,-0.9753451217452793
14,0.013443247153245162,0.011054032367551422,0.007650403356644789,2.421858023357658,1.8972900841655012,1.5793377785217046,1.6335196283002944,-0.786819173544064,-2.4797494291545337,1.003547327720831,0.9273001125284935,0.05721751602667804,-1.267820667192219,-0.976739227878365
15,0.008740554300231495,0.007188392439655902,0.004972343314852999,2.4212427424957994,1.8945798619761716,1.5820246751753375,1.6354824695170558,-0.7878893350785922,-2.4824401213391725,1.0024286300625993,0.9250798198995722,0.05877355542816329,-1.2695636800287893,-0.9776541179149767
16,0.005682441226782313,0.004673900022411591,0.00323183817993849,2.4208421553340846,1.8928205439811097,1.583775966864679,1.6367618766310916,-0.7885883065900373,-2.484188541386793,1.001700974292895,0.9236305292590554,0.059788697699987,-1.2706909811382305,-0.978252510427743
17,0.0036940724398642766,0.0030386841716488915,0.0021006109418629927,2.42058149507241,1.8916779437300457,1.5849163419358505,1.6375950110565531,-0.7890440853274051,-2.485324811370965,1.0012277927536908,0.922685890041595,0.06045013948252429,-1.2714213404862265,-0.9786430536625947
18,0.0024013703705910556,0.001975443521115265,0.0013653578104816872,2.4204119485696385,1.8909356422630805,1.585658449610715,1.6381372014319127,-0.789340963763356,-2.486063313033878,1.000920139289792,0.9220707648167944,0.0608807690979652,-1.271895070928752,-0.9788975900808348
19,0.0015609966448480485,0.0012841803210304399,0.0008874634196557618,2.4203016944903064,1.8904533010262214,1.5861411875130507,1.6384899083648452,-0.7895342031603424,-2.486543315270767,1.0007201283684242,0.9216704583893665,0.061160981204025786,-1.272202575944013,-0.9790633354965312
20,0.0010147000261522532,0.0008347874315131817,0.0005768414586152258,2.420230009297892,1.890139838550519,1.586455124600793,1.6387192923235603,-0.7896599253362953,-2.486855311310533,1.000590105703253,0.9214100547949482,0.06134325355386351,-1.272402279686548,-0.9791712006264626
21,0.0006595819097417325,0.0005426481260721692,0.0003749417338758256,2.4201834058810316,1.8899361091208307,1.5866592515644722,1.638868447617518,-0.7897416959402562,-2.487058109445992,1.0005055841415966,0.9212407037599416,0.06146179159391234,-1.272532015285798,-0.9792413715489343
22,0.00042874274222434505,0.0003527409205442383,0.00024370921489113304,2.420153110548725,1.889803691424387,1.586791963634632,1.6389654241455738,-0.789794869688762,-2.4871899304732503,1.0004506420582115,0.9211305866192631,0.06153886981137223,-1.2726163143266591,-0.9792870096161961
23,0.0002786909481091152,0.00022929269217898774,0.0001584092989451544,2.420133417456906,1.889717621007507,1.586878239532772,1.639028471029498,-0.7898294430712599,-2.4872756163452574,1.0004149282834898,0.9210589930503195,0.06158898445064931,-1.2726710972266457,-0.9793166871932124
24,0.00018115389137019682,0.00014904675460328032,0.00010296502914712493,2.420120616594933,1.8896616746352601,1.5869343247524546,1.6390694574983118,-0.789851920693824,-2.4873313139105755,1.000391713647559,0.921012449243039,0.061621565939046795,-1.2727067017955231,-0.9793359839760728
25,0.00011775290814945748,9.688432011559007e-05,6.69266474789773e-05,2.4201122959661823,1.8896253085504549,1.5869707828734418,1.6390961017977856,-0.7898665335599723,-2.487367518597795,1.0003766237920542,0.920982191988358,0.06164274759540668,-1.2727298432884002,-0.9793485301793681
26,7.654116641748686e-05,6.297723627257947e-05,4.3501938652370215e-05,2.4201068875808533,1.8896016697493025,1.586994481961689,1.639113422265387,-0.7898760331568425,-2.4873910525260863,1.0003668152062875,0.9209625229125527,0.06165651771341219,-1.2727448848602365,-0.9793566869988063
