jkpark150901/flame_robotics_drt/experiment/inspection_ik/session_20260722_143013/fallback/inspection_ik_20260722_143101_rb20_1900es_normalized_fallback.csv
iteration,err_norm,position_error,orientation_error,tcp_x,tcp_y,tcp_z,q0_rt_joint_linear_track,q1_rt_joint_carriage,q2_rt_base,q3_rt_shoulder,q4_rt_elbow,q5_rt_wrist1,q6_rt_wrist2,q7_rt_wrist3
0,3.0012985913161105,1.178197042575091,2.686141450741067,2.6548155383815244,1.0043795476597928,1.540941472165606,2.271799460568018,1.0,1.221246069209594,0.6773619510137653,-1.9658354706424594,-1.523346344266606,-3.14,1.8569522373021032
1,2.3816542211174694,1.173907558391445,2.014372215117829,2.588716294598933,1.0069811819749945,1.1120163333253368,2.1205221685995017,1.0,1.3451909627278729,0.5106402161084475,-2.491570388918658,-1.342259156658737,-3.14,1.6743734785240503
2,1.9552363533581187,1.151110869054325,1.530755573614473,2.464066743900147,1.1324832475083637,0.9495724820721353,1.9870513172357136,1.0,1.7975274966687047,0.24955302433969256,-2.6343999501238313,-1.041931246900542,-3.14,1.3725697728044066
3,1.5114643845378801,0.991603538848018,1.098992387694699,2.2765863847173966,1.5695735387637588,0.8811394594896917,1.6574341834341308,1.0,2.412459194877898,-0.2926818202352776,-2.2123387058758723,-0.6195319790738668,-3.14,0.946515602396472
4,1.1790052461237637,0.8444580273364877,0.7986277934679726,2.4295328598137393,1.5381879756998191,1.039116217640083,2.2681355398238803,1.0,3.088775772290489,0.0480357922733039,-2.317659959645746,-0.18927420818521457,-3.14,0.5118309301136221
5,0.957029539985444,0.5974368737478872,0.7370398808303074,2.6131951563172158,1.6680192842005104,1.1838401514120485,2.4791251970120447,1.0,3.14,0.005775292313341035,-2.046618207296744,-0.029563394675965943,-3.14,0.3513155001714363
6,0.8585777688204326,0.4207251721809937,0.7433389566350445,2.765160538838685,1.7616241228045553,1.2459000985187714,2.6309581874158354,1.0,3.14,-0.06739451313270521,-1.8803423069197993,0.05106432104439526,-3.14,0.2703828682801932
7,0.8092791570111884,0.30090621686726204,0.7486259102559292,2.8708206327955423,1.8316950636019576,1.2662680213198008,2.736517126672533,1.0,3.14,-0.13571863449145055,-1.7745393760327268,0.10166088445309049,-3.14,0.21961575152719726
8,0.7806447294525095,0.21914196592109886,0.7478059054641897,2.942957593287466,1.8845270075630192,1.266811499884452,2.8085768089592653,1.0,3.14,-0.19274751120834124,-1.7051842243942943,0.13505233329728597,-3.14,0.18612219651658674
9,0.7620332701107859,0.16479986324387919,0.7431481150195175,2.991668327509035,1.9236343249639103,1.258816410806809,2.857229838386228,1.0,3.14,-0.2377813802149682,-1.6594275322087741,0.15741059370659644,-3.14,0.16370445870460654
10,0.7488128811451769,0.13090665880955982,0.7367421732348814,3.0243613768887654,1.9519307884858104,1.2480440373538892,2.889880891963954,1.0,3.14,-0.27206795001525713,-1.629509387296145,0.17244582671322614,-3.14,0.1486381530409441
11,0.7388242199228844,0.11196682960286948,0.729918277918451,3.046235527546667,1.9719480513996743,1.2372932271803505,2.9117252239256683,1.0,3.14,-0.2974510943572185,-1.6103521885813967,0.18256352581841806,-3.14,0.13850867320119728
12,0.7310149466167375,0.10301073605191605,0.7234384373703883,3.06084927819772,1.985798053667189,1.2277854759596891,2.9263183004956144,1.0,3.14,-0.31580099001034023,-1.5984748975701608,0.18936629693770454,-3.14,0.13170724703664052
13,0.7248340257703901,0.0998356056563088,0.7176922594502237,3.070605306857488,1.9951661493705153,1.2199222065383541,2.9360603371748124,1.0,3.14,-0.32877976289090066,-1.5914466982921205,0.19393281073139307,-3.14,0.1271509747197457
14,0.7199519684941059,0.09952057153089269,0.7128331274251561,3.077114640626234,2.0013496948652745,1.2136991087433004,2.9425604439825714,1.0,3.14,-0.3377655090630041,-1.5875717250242285,0.19699182420301145,-3.14,0.12410820212345106
15,0.716135266335888,0.10038828449068657,0.7088705682807902,3.081454305608182,2.005318866211332,1.208931054169631,2.9468942024489313,1.0,3.14,-0.343850940007239,-1.5856818193411928,0.1990361899337903,-3.14,0.1220841029480795
16,0.713194447497096,0.10160316513053706,0.7057332279872963,3.0843438063147417,2.0077816307503276,1.2053714583173718,2.949780057397299,1.0,3.14,-0.34787454833132225,-1.5849883323899236,0.20039910545666548,-3.14,0.12074414338096254
17,0.7109655555308088,0.10279543065478597,0.7033110424448633,3.0862639729473367,2.00924336444029,1.2027726352647774,2.9516980798985206,1.0,3.14,-0.3504629100445314,-1.5849723673604463,0.20130556935914323,-3.14,0.11986242542925848
18,0.7093052014860325,0.10382589494135275,0.7014822212577732,3.08753636154803,2.0100573113584757,1.2009134064073366,2.952969294214069,1.0,3.14,-0.3520735319721035,-1.5853032153796973,0.2019072475710872,-3.14,0.11928668100842572
19,0.7080899453963381,0.10466118682071404,0.7001292758934499,3.088376151707893,2.010465181062434,1.1996089545232766,2.95380851568612,1.0,3.14,-0.3530333863485178,-1.5857784911047357,0.20230614083752516,-3.14,0.1189145081455843
20,0.7072161744027282,0.1053124781056409,0.6991474480143123,3.088927387433208,2.010628659142566,1.1987115007939881,2.954359544696104,1.0,3.14,-0.35357132476832376,-1.5862810358517303,0.2025706591456717,-3.14,0.11867723065749042
21,0.7065992486610384,0.10580676583416833,0.6984481491124966,3.0892864856676456,2.0106531888584023,1.1981066651140517,2.954718639532424,1.0,3.14,-0.3538441485945816,-1.58674857670548,0.2027465361556915,-3.14,0.11852893897180658
22,0.7061718110402647,0.10617402513382268,0.6979593501766685,3.089517946239561,2.0106054994601132,1.1977081963484002,2.954950199926302,1.0,3.14,-0.353956882440562,-1.587152875423308,0.20286423334860545,-3.14,0.11843905578487775
23,0.7058815448071961,0.1064418909032235,0.6976242840354961,3.089664868793373,2.010526252099502,1.19745249024927,2.9550972648613123,1.0,3.14,-0.35397811186506056,-1.5874857697681894,0.20294395563934287,-3.14,0.11838730018737709
24,0.70568871827591,0.10663382707029029,0.6973993636508777,3.0897560038352734,2.0104389788194412,1.1972935811823966,2.9551885500707535,1.0,3.14,-0.3539513126797894,-1.5877501010547033,0.20299904243174374,-3.14,0.11836028307954523
25,0.7055637844307542,0.10676885558088778,0.6972518769504074,3.089810485315465,2.010356273056036,1.1971988825321822,2.9552431712246823,1.0,3.14,-0.3539030382023364,-1.5879540217771138,0.20303825481497398,-3.14,0.11834921097933047
26,0.7054852050279222,0.10686193503926657,0.6971577779551358,3.089841009140373,2.010283985450492,1.1971457292660352,2.9552738160717205,1.0,3.14,-0.3538487131166536,-1.5881075822032524,0.20306731381433618,-3.14,0.11834834181439444
27,0.7054375827734213,0.10692456470215729,0.6970997339937228,3.0898559682479867,2.0102240012353687,1.1971186658061863,2.955288875300139,1.0,3.14,-0.35379664861307747,-1.5882208107629558,0.20308993148640508,-3.14,0.11835394989624394
28,0.7054101234393355,0.10696542064040153,0.6970654886656791,3.089860886224217,2.0101760292654007,1.1971073754555035,2.955293873444546,1.0,3.14,-0.35375076478381284,-1.588302741818312,0.2031084994161602,-3.14,0.11836363483841499
29,0.7053954113397911,0.10699094086135598,0.6970465419000336,3.089859378989058,2.0101387167802605,1.1971051355654425,2.9552924288894595,1.0,3.14,-0.35371239310702696,-1.5883610199194944,0.20312454644608685,-3.14,0.11837586213344833
30,0.7053884612895482,0.10700582857303727,0.6970371178899929,3.0898537988861525,2.010110314628548,1.1971076884764487,2.955286896960805,1.0,3.14,-0.3536814378408723,-1.5884018354835603,0.20313904148789746,-3.14,0.11838965923466013
31,0.7053860023315175,0.107013467592545,0.6970333785947593,3.0898456650932142,2.0100890505194355,1.197112432168179,2.9552787997822816,1.0,3.14,-0.35365710014189966,-1.588430034913548,0.20315259274074435,-3.14,0.11840441561750449
32,0.7053859483840068,0.10701625532849285,0.6970328377557207,3.089835950390454,2.0100733184924695,1.1971178510082903,2.955269112768443,1.0,3.14,-0.35363831075031305,-1.5884493083562663,0.20316557794399395,-3.14,0.11841975205930425
33,0.7053870150302108,0.10701586354498795,0.6970339332468508,3.0898252715114407,2.0100617572430033,1.1971231230573058,2.9552584548679643,1.0,3.14,-0.3536239734512547,-1.5884623983679231,0.2031782289488945,-3.14,0.118435435765245
34,0.705388447611678,0.10701343852696597,0.6970357210730115,3.0898140149159863,2.0100532648564946,1.1971278546792836,2.955247214324108,1.0,3.14,-0.3536130894383148,-1.5884712986680447,0.20319068620426073,-3.14,0.11845132568783728
35,0.7053898321525337,0.10700975197439767,0.6970376606463711,3.0898024194369995,2.010046980170574,1.1971319052100782,2.9552356313583212,1.0,3.14,-0.3536048096186659,-1.5884774283355272,0.20320303355414007,-3.14,0.11846733760410981
36,0.7053909666264647,0.10700531283745592,0.6970394671058956,3.0897906302349103,2.010042249266161,1.197135274115381,2.9552238521824865,1.0,3.14,-0.35359844562849824,-1.5884817764414627,0.20321532024455163,-3.14,0.11848342202878383
37,0.7053917752978573,0.10700044885414864,0.6970410118995056,3.0897787337507423,2.0100385878590408,1.1971380306396484,2.955211964014687,1.0,3.14,-0.3535934590986766,-1.5884850174920642,0.20322757468749883,-3.14,0.11849955039918428
38,0.7053922531947973,0.10699536504098549,0.6970422574328612,3.089766780145911,2.010035645406799,1.1971402717149904,2.9552000175778925,1.0,3.14,-0.3535894411307442,-1.5884876007433426,0.20323981296170174,-3.14,0.11851570654204058
39,0.7053924312249038,0.10699018496681435,0.6970432152888633,3.089754797556197,2.0100331736767374,1.1971420981971708,2.955188041405041,1.0,3.14,-0.3535860889498295,-1.5884898175092839,0.20325204398727126,-3.14,0.11853188147823669
40,0.7053923551194404,0.10698497938523181,0.6970439204155598,3.0897428010327745,2.010031000705224,1.1971436026335414,2.9551760508221707,1.0,3.14,-0.35358318350265194,-1.5884918507160457,0.2032642726232776,-3.14,0.118548070312236
41,0.7053920734102317,0.10697978574012108,0.6970444158843293,3.0897307980667534,2.0100290100748253,1.1971448640138538,2.9551640535063353,1.0,3.14,-0.3535805697898535,-1.588493810601922,0.20327650148573062,-3.14,0.11856427040589355
42,0.7053916311339391,0.10697462119172528,0.6970447444610455,3.0897187919406277,2.010027124939056,1.1971459465319663,2.9551520528627053,1.0,3.14,-0.3535781405518546,-1.5884957599000107,0.20328873198967884,-3.14,0.11858048033118232
43,0.7053910670348814,0.10696949112136693,0.6970449444288397,3.089706783715342,2.0100252960325315,1.1971469004718607,2.955140050030849,1.0,3.14,-0.35357582327976045,-1.5884977312269066,0.20330096492958386,-3.14,0.11859669928655414
44,0.7053904127997237,0.10696439453786996,0.6970450479554067,3.089694773373987,2.0100234928843017,1.1971477640627124,2.9551280450424855,1.0,3.14,-0.35357357020168056,-1.5884997388219348,0.20331320079106047,-3.14,0.11861292678313491
45,0.7053896933859097,0.10695932740215681,0.6970450808959399,3.0896827604540564,2.010021697520544,1.197148565628965,2.9551160374638035,1.0,3.14,-0.3535713507693519,-1.5885017862773496,0.20332543991063187,-3.14,0.11862916248365782
46,0.7053889278643708,0.10695428458349622,0.6970450633331129,3.0896707443769165,2.010019900048656,1.1971493256694132,2.955104026731977,1.0,3.14,-0.35356914615504664,-1.5885038714833464,0.20333768255252138,-3.14,0.1186454061248322
47,0.7053881304347657,0.10694926093920024,0.6970450104307448,3.089658724603553,2.0100180956288756,1.1971500586899202,2.9550920123157467,1.0,3.14,-0.3535669453106678,-1.5885059896805234,0.20334992894228954,-3.14,0.11866165748316404
48,0.7053873114248447,0.1069442518502281,0.6970449333580084,3.0896467006948978,2.010016282446362,1.1971507747272399,2.9550799937789747,1.0,3.14,-0.35356474220708495,-1.5885081352570396,0.20336217927953587,-3.14,0.11867791636189925
49,0.7053864781811875,0.10693925343265223,0.6970448401555108,3.089634672323006,2.010014460389062,1.1971514805640215,2.9550679707939307,1.0,3.14,-0.35356253394338794,-1.5885103027358727,0.20337443374153477,-3.14,0.11869418258715178
50,0.7053856358158349,0.10693426256694541,0.6970447364848128,3.0896226392595993,2.010012630212635,1.1971521806663403,2.9550559431311645,1.0,3.14,-0.3535603194828718,-1.5885124872567573,0.20338669248375646,-3.14,0.11871045600722334
51,0.7053847878055353,0.10692927683399978,0.6970446262439308,3.0896106013564473,2.010010793033767,1.1971528778875102,2.955043910640694,1.0,3.14,-0.35355809883071365,-1.588514684756248,0.20339895563996524,-3.14,0.11872673649239558
52,0.7053839364568023,0.10692429441145118,0.6970445120536247,3.089598558524953,2.010008950039262,1.197153573983725,2.9550318732320555,1.0,3.14,-0.3535558725160721,-1.5885168919782353,0.20341122332288727,-3.14,0.11874302393418595
53,0.7053830832569117,0.10691931396094975,0.6970443956299094,3.0895865107182776,2.0100071023327093,1.1971542699833457,2.955019830856671,1.0,3.14,-0.35355364127910927,-1.5885191063983148,0.2034234956256218,-3.14,0.11875931824388214
54,0.7053822291323764,0.10691433452247405,0.6970442780619969,3.089574457917088,2.010005250865669,1.19715496644556,2.9550077834937065,1.0,3.14,-0.35355140589239764,-1.58852132611249,0.20343577262363202,-3.14,0.11877561935051224
55,0.7053813746350402,0.10690935542298247,0.6970441600148358,3.089562400118937,2.0100033964182282,1.197155663637482,2.954995731139486,1.0,3.14,-0.3535491670677865,-1.5885235497191244,0.20344805437705854,-3.14,0.11879192719850336
56,0.7053805200731362,0.10690437620153795,0.69704404187344,3.0895503373307784,2.010001539606345,1.1971563616524898,2.9549836737999913,1.0,3.14,-0.3535469254155764,-1.5885257762093308,0.20346034093311544,-3.14,0.11880824174526487
57,0.7053796656015634,0.10689939655029176,0.6970439238434897,3.089538269563956,2.009999680901922,1.1971570604871593,2.954971611485822,1.0,3.14,-0.35354468143409234,-1.5885280048725823,0.2034726323283894,-3.14,0.1188245629588743
58,0.7053788112826211,0.1068944162694096,0.697043806019878,3.0895261968310552,2.0099978206572797,1.1971577600896595,2.9549595442090077,1.0,3.14,-0.35354243551559944,-1.5885302352194208,0.20348492859092732,-3.14,0.11884089081597896
59,0.7053779571258163,0.10688943523353796,0.6970436884322667,3.089514119144062,2.0099959591294025,1.197158460388955,2.9549474719811295,1.0,3.14,-0.3535401879598532,-1.5885324669204919,0.20349722974205242,-3.14,0.11885722529997167
60,0.7053771031131617,0.10688445336745075,0.6970435710745322,3.0895020365134163,2.009994096501655,1.1971591613114305,2.9549353948123382,1.0,3.14,-0.3535379389901418,-1.5885346997598868,0.20350953579789224,-3.14,0.1188735663994571
61,0.7053762492146491,0.10687947062877538,0.697043453923153,3.0894899489476324,2.0099922329020403,1.1971598627895148,2.9549233127109487,1.0,3.14,-0.35353568876898067,-1.588536933600348,0.2035218467706283,-3.14,0.11888991410699791
62,0.7053753953972367,0.1068744869959975,0.697043336948203,3.0894778564532714,2.00999036841792,1.1971605647654264,2.9549112256833827,1.0,3.14,-0.35353343741207016,-1.5885391683579089,0.20353416266949345,-3.14,0.11890626841811432
63,0.7053745416296704,0.10686950246033383,0.6970432201195246,3.0894657590350905,2.009988503107468,1.197161267192082,2.9548991337343065,1.0,3.14,-0.3535311849999862,-1.5885414039838193,0.20354648350155166,-3.14,0.1189226293305023
64,0.7053736878847349,0.10686451702036753,0.697043103409854,3.0894536566962874,2.0099866370083443,1.1971619700324898,2.9548870368668596,1.0,3.14,-0.35352893158756193,-1.5885436404519393,0.20355880927229575,-3.14,0.11893899684343423
65,0.705372834139981,0.1068595306786102,0.6970429867961115,3.0894415494387695,2.0099847701441034,1.1971626732584377,2.954874935082912,1.0,3.14,-0.3535266772111773,-1.5885458777501398,0.2035711399860978,-3.14,0.1189553709573075
66,0.7053719803776176,0.10685454343937299,0.6970428702596311,3.0894294372634095,2.0099829025288285,1.19716337684896,2.9548628283833156,1.0,3.14,-0.35352442189426453,-1.588548115874579,0.2035834756465428,-3.14,0.11897175167331009
67,0.7053711265839898,0.10684955530751847,0.6970427537858331,3.089417320170274,2.0099810341704054,1.19716408078884,2.954850716768124,1.0,3.14,-0.35352216565136957,-1.5885503548259978,0.203595816256672,-3.14,0.11898813899317678
68,0.7053702727489064,0.10684456628777328,0.697042637363658,3.089405198158814,2.009979165072786,1.1971647850672884,2.954838600236784,1.0,3.14,-0.35351990849108034,-1.5885525946073984,0.20360816181915758,-3.14,0.11900453291901408
69,0.7053694188649556,0.10683957638440093,0.6970425209849233,3.0893930712280264,2.0099772952375186,1.1971654896768333,2.9548264787882887,1.0,3.14,-0.3535176504180939,-1.5885548352226522,0.20362051233642597,-3.14,0.1190209334531767
70,0.7053685649268824,0.10683458560107503,0.69704240464372,3.089380939376571,2.0099754246647614,1.1971661946124321,2.9548143524212986,1.0,3.14,-0.3535153914346457,-1.5885570766757104,0.20363286781074363,-3.14,0.11903734059818163
71,0.7053677109310603,0.10682959394087857,0.6970422883358772,3.0893688026028667,2.009973553353928,1.1971668998707838,2.9548022211342344,1.0,3.14,-0.3535131315414714,-1.5885593189702025,0.20364522824427567,-3.14,0.11905375435664951
72,0.7053668568750651,0.10682460140636335,0.6970421720585226,3.089356660905163,2.0099716813040835,1.1971676054498088,2.954790084925348,1.0,3.14,-0.3535108707384412,-1.5885615621092646,0.20365759363912497,-3.14,0.11907017473126527
73,0.7053660027573382,0.10681960799963162,0.6970420558097288,3.0893445142815947,2.0099698085141853,1.1971683113482627,2.954777943792775,1.0,3.14,-0.35350860902496617,-1.5885638060955023,0.20366996399735815,-3.14,0.11908660172475229
74,0.7053651485769309,0.10681461372241932,0.6970419395882439,3.089332362730212,2.0099679349832074,1.1971690175654643,2.954765797734569,1.0,3.14,-0.35350634640024636,-1.5885660509310267,0.20368233932102195,-3.14,0.11910303533985596
75,0.705364294333318,0.10680961857618147,0.697041823393287,3.0893202062490173,2.0099660607102066,1.1971697241010968,2.9547536467487334,1.0,3.14,-0.3535040828634183,-1.5885682966175199,0.20369471961215352,-3.14,0.11911947557933332
76,0.705363440026257,0.1068046225621543,0.6970417072244,3.089308044835975,2.0099641856943458,1.1971704309550757,2.954741490833234,1.0,3.14,-0.3535018184136342,-1.5885705431563122,0.20370710487278648,-3.14,0.11913592244594703
77,0.7053625856556943,0.10679962568141683,0.6970415910813376,3.089295878489027,2.0099623099348927,1.1971711381274561,2.9547293299860153,1.0,3.14,-0.35349955305010095,-1.5885727905484552,0.2037194951049545,-3.14,0.11915237594246186
78,0.7053617312216955,0.10679462793493033,0.697041474963996,3.0892837072061035,2.009960433431213,1.1971718456183773,2.9547171642050087,1.0,3.14,-0.35349728677209336,-1.5885750387947872,0.20373189031069294,-3.14,0.1191688360716429
79,0.7053608767243994,0.10678962932357867,0.697041358872357,3.0892715309851275,2.0099585561827538,1.197172553428018,2.954704993488137,1.0,3.14,-0.35349501957895546,-1.5885772878959867,0.20374429049203985,-3.14,0.1191853028362547
80,0.7053600221639883,0.10678462984818592,0.6970412428064551,3.089259349824013,2.009956678189028,1.1971732615565782,2.9546928178333176,1.0,3.14,-0.35349275147009296,-1.588579537852616,0.203756695651036,-3.14,0.1192017762390612
81,0.7053591675406686,0.10677962950953956,0.697041126766356,3.0892471637206755,2.009954799449602,1.197173970004264,2.9546806372384657,1.0,3.14,-0.3534904824449632,-1.588581788665153,0.20376910578972487,-3.14,0.11921825628282569
82,0.7053583128546578,0.10677462830840324,0.6970410107521401,3.0892349726730273,2.0099529199640798,1.1971746787712805,2.954668451701495,1.0,3.14,-0.3534882125030658,-1.588584040334019,0.2037815209101524,-3.14,0.11923474297031114
83,0.7053574581061771,0.10676962624552506,0.6970408947638947,3.0892227766789797,2.009951039732095,1.1971753878578257,2.9546562612203187,1.0,3.14,-0.35348594164393327,-1.5885862928595946,0.20379394101436674,-3.14,0.11925123630428038
84,0.7053566032954497,0.10676462332164417,0.697040778801709,3.0892105757364456,2.0099491587533027,1.1971760972640935,2.954644065792849,1.0,3.14,-0.3534836698671228,-1.5885885462422344,0.20380636610441796,-3.14,0.11926773628749644
85,0.7053557484226953,0.10675961953749544,0.6970406628656702,3.089198369843335,2.009947277027372,1.1971768069902688,2.9546318654169976,1.0,3.14,-0.3534813971722103,-1.5885908004822753,0.2038187961823578,-3.14,0.11928424292272284
86,0.7053548934881316,0.10675461489381044,0.6970405469558651,3.0891861589975593,2.0099453945539834,1.1971775170365335,2.9546196600906764,1.0,3.14,-0.3534791235587844,-1.5885930555800434,0.2038312312502394,-3.14,0.11930075621272372
87,0.7053540384919735,0.10674960939132039,0.6970404310723762,3.0891739431970273,2.0099435113328243,1.1971782274030625,2.9546074498117965,1.0,3.14,-0.3534768490264435,-1.5885953115358589,0.2038436713101173,-3.14,0.11931727616026398
88,0.7053531834344335,0.10674460303075979,0.6970403152152834,3.0891617224396506,2.0099416273635846,1.1971789380900277,2.954595234578269,1.0,3.14,-0.353474573574792,-1.5885975683500382,0.20385611636404724,-3.14,0.11933380276810944
89,0.7053523283157218,0.106739595812862,0.6970401993846652,3.089149496723339,2.0099397426459604,1.1971796490975972,2.9545830143880045,1.0,3.14,-0.353472297203439,-1.5885998260228953,0.20386856641408602,-3.14,0.11935033603902696
90,0.7053514731360473,0.10673458773836092,0.6970400835805975,3.0891372660459986,2.009937857179648,1.1971803604259383,2.9545707892389115,1.0,3.14,-0.3534700199119958,-1.5886020845547444,0.20388102146229142,-3.14,0.11936687597578452
91,0.7053506178956171,0.10672957880799572,0.6970399678031554,3.0891250304055387,2.0099359709643427,1.1971810720752154,2.9545585591288988,1.0,3.14,-0.35346774170007556,-1.588604343945899,0.20389348151072234,-3.14,0.11938342258115113
92,0.7053497625946376,0.10672456902250461,0.6970398520524119,3.089112789799866,2.009934083999743,1.1971817840455923,2.9545463240558743,1.0,3.14,-0.3534654625672927,-1.588606604196673,0.2039059465614385,-3.14,0.11939997585789704
93,0.7053489072333157,0.10671955838262821,0.6970397363284407,3.089100544226887,2.0099321962855465,1.1971824963372322,2.954534084017745,1.0,3.14,-0.35346318251326186,-1.5886088653073804,0.20391841661650065,-3.14,0.11941653580879368
94,0.7053480518118563,0.10671454688910849,0.6970396206313129,3.089088293684506,2.0099303078214517,1.197183208950297,2.9545218390124175,1.0,3.14,-0.35346090153759824,-1.5886111272783356,0.20393089167797038,-3.14,0.11943310243661365
95,0.7053471963304646,0.10670953454269094,0.6970395049611006,3.089076038170628,2.0099284186071547,1.197183921884948,2.9545095890377966,1.0,3.14,-0.3534586196399168,-1.5886133901098545,0.20394337174791022,-3.14,0.11944967574413079
96,0.705346340789346,0.10670452134411976,0.6970393893178745,3.089063777683157,2.009926528642355,1.197184635141348,2.9544973340917866,1.0,3.14,-0.3534563368198326,-1.5886156538022518,0.20395585682838363,-3.14,0.11946625573412015
97,0.7053454851887068,0.10669950729414267,0.6970392737017069,3.089051512219995,2.0099246379267486,1.1971853487196584,2.9544850741722914,1.0,3.14,-0.3534540530769599,-1.5886179183558438,0.20396834692145493,-3.14,0.119482842409358
98,0.7053446295287519,0.10669449239350863,0.697039158112669,3.089039241779042,2.009922746460031,1.1971860626200417,2.954472809277213,1.0,3.14,-0.35345176841091314,-1.5886201837709466,0.20398084202918934,-3.14,0.11949943577262184
99,0.7053437738096878,0.10668947664296728,0.6970390425508305,3.089026966358202,2.0099208542419027,1.1971867768426585,2.954460539404453,1.0,3.14,-0.35344948282130745,-1.588622450047876,0.203993342153653,-3.14,0.1195160358266904
100,0.7053429180317192,0.10668446004327074,0.697038927016264,3.0890146859553713,2.0099189612720574,1.197187491387671,2.954448264551912,1.0,3.14,-0.35344719630775623,-1.5886247171869496,0.2040058472969129,-3.14,0.11953264257434365
101,0.7053420621950531,0.10667944259517242,0.6970388115090402,3.089002400568451,2.0099170675501927,1.197188206255241,2.95443598471749,1.0,3.14,-0.35344490886987373,-1.5886269851884836,0.204018357461037,-3.14,0.11954925601836276
102,0.7053412062998969,0.10667442429942564,0.6970386960292306,3.0889901101953376,2.0099151730760054,1.1971889214455311,2.9544236998990847,1.0,3.14,-0.35344262050727343,-1.5886292540527946,0.20403087264809408,-3.14,0.11956587616153017
103,0.7053403503464561,0.10666940515678733,0.6970385805769066,3.088977814833928,2.0099132778491913,1.1971896369587025,2.9544114100945946,1.0,3.14,-0.35344033121956886,-1.5886315237802004,0.20404339286015385,-3.14,0.1195825030066295
104,0.7053394943349376,0.10666438516801463,0.697038465152138,3.0889655144821186,2.009911381869446,1.1971903527949181,2.9543991153019165,1.0,3.14,-0.35343804100637327,-1.5886337943710185,0.20405591809928694,-3.14,0.11959913655644562
105,0.7053386382655493,0.10665936433386723,0.6970383497549983,3.0889532091378045,2.009909485136466,1.1971910689543388,2.9543868155189457,1.0,3.14,-0.3534357498672998,-1.5886360658255658,0.20406844836756488,-3.14,0.11961577681376465
106,0.7053377821384993,0.10665434265510386,0.6970382343855583,3.088940898798878,2.009907587649946,1.1971917854371292,2.9543745107435764,1.0,3.14,-0.353433457801961,-1.5886383381441598,0.20408098366706,-3.14,0.11963242378137394
107,0.7053369259539947,0.1066493201324858,0.6970381190438897,3.0889285834632325,2.009905689409584,1.1971925022434504,2.954362200973703,1.0,3.14,-0.3534311648099701,-1.5886406113271179,0.2040935239998457,-3.14,0.11964907746206205
108,0.7053360697122439,0.10664429676677825,0.6970380037300635,3.0889162631287617,2.009903790415073,1.197193219373465,2.9543498862072193,1.0,3.14,-0.3534288708909395,-1.5886428853747583,0.2041060693679962,-3.14,0.11966573785861875
109,0.705335213413455,0.106639272558744,0.6970378884441526,3.0889039377933547,2.00990189066611,1.1971939368273352,2.9543375664420157,1.0,3.14,-0.3534265760444817,-1.5886451602873988,0.20411861977358656,-3.14,0.11968240497383512
110,0.7053343570578368,0.1066342475091502,0.6970377731862277,3.088891607454902,2.0098999901623884,1.1971946546052243,2.954325241675984,1.0,3.14,-0.35342428027020845,-1.5886474360653577,0.2041311752186928,-3.14,0.11969907881050339
111,0.7053335006455984,0.10662922161876279,0.6970376579563615,3.0888792721112934,2.0098980889036056,1.1971953727072953,2.954312911907014,1.0,3.14,-0.35342198356773225,-1.5886497127089523,0.20414373570539188,-3.14,0.1197157593714171
112,0.7053326441769495,0.10662419488835227,0.6970375427546258,3.088866931760417,2.0098961868894545,1.1971960911337105,2.954300577132995,1.0,3.14,-0.3534196859366644,-1.588651990218501,0.20415630123576156,-3.14,0.11973244665937095
113,0.7053317876520996,0.10661916731868562,0.697037427581094,3.088854586400158,2.0098942841196323,1.1971968098846342,2.9542882373518142,1.0,3.14,-0.35341738737661693,-1.588654268594322,0.20416887181188065,-3.14,0.11974914067716093
114,0.7053309310712577,0.10661413891053767,0.6970373124358362,3.088842236028405,2.0098923805938314,1.1971975289602284,2.95427589256136,1.0,3.14,-0.353415087887201,-1.5886565478367343,0.20418144743582875,-3.14,0.11976584142758422
115,0.7053300744346351,0.1066091096646802,0.6970371973189267,3.088829880643043,2.0098904763117478,1.197198248360657,2.954263542759518,1.0,3.14,-0.35341278746802807,-1.5886588279460558,0.20419402810968637,-3.14,0.11978254891343927
116,0.7053292177424407,0.10660407958188754,0.6970370822304357,3.0888175202419546,2.009888571273075,1.1971989680860826,2.954251187944173,1.0,3.14,-0.3534104861187095,-1.5886611089226055,0.204206613835535,-3.14,0.11979926313752574
117,0.7053283609948867,0.10659904866293607,0.6970369671704366,3.0888051548230244,2.0098866654775085,1.1971996881366687,2.954238828113209,1.0,3.14,-0.3534081838388562,-1.5886633907667018,0.20421920461545695,-3.14,0.11981598410264459
118,0.7053275041921832,0.10659401690860269,0.6970368521390027,3.0887927843841347,2.0098847589247413,1.1972004085125798,2.9542264632645097,1.0,3.14,-0.35340588062807843,-1.588665673478664,0.2042318004515355,-3.14,0.11983271181159794
119,0.7053266473345413,0.10658898431966589,0.6970367371362053,3.088780408923166,2.0098828516144684,1.1972011292139784,2.954214093395957,1.0,3.14,-0.35340357648598764,-1.5886679570588105,0.20424440134585478,-3.14,0.11984944626718919
120,0.7053257904221729,0.106583950896906,0.6970366221621184,3.088768028437999,2.0098809435463836,1.1972018502410289,2.954201718505433,1.0,3.14,-0.3534012714121935,-1.5886702415074605,0.20425700730049987,-3.14,0.11986618747222295
121,0.7053249334552898,0.10657891664110597,0.6970365072168135,3.088755642926514,2.00987903472018,1.197202571593894,2.954189338590817,1.0,3.14,-0.35339896540630655,-1.5886725268249335,0.20426961831755674,-3.14,0.11988293542950511
122,0.7053240764341041,0.10657388155304712,0.6970363923003645,3.088743252386589,2.0098771251355516,1.1972032932727394,2.954176953649989,1.0,3.14,-0.35339665846793694,-1.5886748130115482,0.20428223439911228,-3.14,0.11989969014184278
123,0.7053232193588286,0.10656884563351425,0.697036277412844,3.0887308568161007,2.0098752147921926,1.1972040152777281,2.9541645636808274,1.0,3.14,-0.3533943505966944,-1.588677100067624,0.2042948555472543,-3.14,0.1199164516120443
124,0.7053223622296749,0.10656380888329404,0.6970361625543249,3.0887184562129266,2.0098733036897958,1.197204737609024,2.954152168681209,1.0,3.14,-0.35339204179218886,-1.5886793879934809,0.20430748176407146,-3.14,0.11993321984291927
125,0.7053215050468569,0.10655877130317369,0.6970360477248803,3.088706050574942,2.009871391828055,1.1972054602667912,2.954139768649011,1.0,3.14,-0.35338973205402996,-1.588681676789438,0.2043201130516534,-3.14,0.11994999483727851
126,0.7053206478105872,0.10655373289394074,0.6970359329245834,3.088693639900021,2.0098694792066634,1.197206183251195,2.9541273635821086,1.0,3.14,-0.3533874213818266,-1.588683966455815,0.20433274941209062,-3.14,0.1199667765979341
127,0.7053197905210792,0.10654869365638749,0.697035818153507,3.0886812241860375,2.009867565825313,1.1972069065623985,2.954114953478376,1.0,3.14,-0.35338510977518856,-1.5886862569929323,0.20434539084747458,-3.14,0.11998356512769935
128,0.7053189331785474,0.10654365359130462,0.6970357034117247,3.0886688034308643,2.009865651683698,1.1972076302005665,2.954102538335687,1.0,3.14,-0.3533827972337246,-1.5886885484011093,0.20435803735989758,-3.14,0.12000036042938883
129,0.7053180757832052,0.10653861269948507,0.6970355886993109,3.088656377632372,2.0098637367815106,1.197208354165864,2.9540901181519135,1.0,3.14,-0.3533804837570435,-1.588690840680666,0.20437068895145288,-3.14,0.12001716250581836
130,0.7053172183352675,0.106533570981724,0.6970354740163384,3.088643946788433,2.0098618211184434,1.1972090784584561,2.9540776929249284,1.0,3.14,-0.35337816934475386,-1.5886931338319223,0.20438334562423463,-3.14,0.12003397135980498
131,0.7053163608349489,0.10652852843881727,0.6970353593628805,3.0886315108969153,2.009859904694189,1.1972098030785068,2.9540652626526014,1.0,3.14,-0.3533758539964645,-1.5886954278551986,0.20439600738033792,-3.14,0.120050786994167
132,0.7053155032824637,0.10652348507156258,0.6970352447390109,3.0886190699556897,2.0098579875084406,1.1972105280261809,2.9540528273328026,1.0,3.14,-0.3533735377117836,-1.5886977227508154,0.20440867422185874,-3.14,0.12006760941172395
133,0.7053146456780279,0.10651844088075867,0.6970351301448039,3.0886066239626215,2.0098560695608896,1.1972112533016432,2.9540403869634,1.0,3.14,-0.3533712204903195,-1.5887000185190931,0.20442134615089397,-3.14,0.12008443861529663
134,0.7053137880218561,0.10651339586720672,0.6970350155803327,3.0885941729155793,2.0098541508512278,1.1972119789050595,2.954027941542262,1.0,3.14,-0.3533689023316797,-1.5887023151603528,0.20443402316954143,-3.14,0.12010127460770707
135,0.7053129303141646,0.10650835003170889,0.6970349010456711,3.088581716812429,2.0098522313791474,1.1972127048365944,2.954015491067255,1.0,3.14,-0.3533665832354725,-1.5887046126749143,0.20444670527989986,-3.14,0.12011811739177856
136,0.7053120725551696,0.10650330337506683,0.6970347865408936,3.088569255651034,2.0098503111443415,1.1972134310964133,2.9540030355362443,1.0,3.14,-0.3533642632013052,-1.5887069110630985,0.20445939248406889,-3.14,0.12013496697033565
137,0.7053112147450871,0.10649825589808777,0.697034672066074,3.0885567894292594,2.0098483901465003,1.197214157684681,2.9539905749470954,1.0,3.14,-0.35336194222878536,-1.588709210325227,0.20447208478414905,-3.14,0.12015182334620411
138,0.7053103568841341,0.10649320760157642,0.6970345576212871,3.088544318144967,2.009846468385316,1.197214884601564,2.9539781092976716,1.0,3.14,-0.3533596203175203,-1.5887115104616198,0.20448478218224184,-3.14,0.12016868652221098
139,0.7053094989725276,0.10648815848634031,0.6970344432066062,3.0885318417960184,2.0098445458604806,1.197215611847227,2.9539656385858355,1.0,3.14,-0.35335729746711725,-1.5887138114725983,0.20449748468044962,-3.14,0.12018555650118455
140,0.7053086410104847,0.10648310855318978,0.6970343288221069,3.088519360380277,2.0098426225716852,1.1972163394218367,2.9539531628094498,1.0,3.14,-0.3533549736771827,-1.5887161133584837,0.20451019228087566,-3.14,0.12020243328595438
141,0.7053077829982224,0.10647805780293515,0.6970342144678621,3.0885068738956,2.0098406985186212,1.197217067325557,2.9539406819663747,1.0,3.14,-0.3533526489473238,-1.5887184161195977,0.20452290498562423,-3.14,0.12021931687935122
142,0.7053069249359589,0.10647300623638951,0.6970341001439472,3.0884943823398476,2.009838773700978,1.1972177955585552,2.95392819605447,1.0,3.14,-0.3533503232771467,-1.5887207197562618,0.20453562279680046,-3.14,0.12023620728420713
143,0.7053060668239127,0.10646795385436505,0.6970339858504369,3.0884818857108782,2.0098368481184496,1.1972185241209972,2.9539157050715947,1.0,3.14,-0.3533479966662582,-1.5887230242687966,0.20454834571651034,-3.14,0.12025310450335541
144,0.7053052086623015,0.10646290065767805,0.6970338715874052,3.0884693840065474,2.0098349217707243,1.1972192530130483,2.9539032090156065,1.0,3.14,-0.3533456691142645,-1.5887253296575246,0.20456107374686092,-3.14,0.12027000853963059
145,0.7053043504513442,0.10645784664714486,0.6970337573549272,3.088456877224712,2.009832994657494,1.1972199822348748,2.9538907078843626,1.0,3.14,-0.35334334062077155,-1.5887276359227671,0.20457380688996,-3.14,0.1202869193958685
146,0.7053034921912592,0.10645279182358335,0.6970336431530777,3.088444365363227,2.0098310667784496,1.1972207117866434,2.9538782016757192,1.0,3.14,-0.3533410111853852,-1.588729943064846,0.2045865451479164,-3.14,0.12030383707490619
147,0.7053026338822671,0.10644773618781449,0.6970335289819318,3.0884318484199476,2.0098291381332802,1.1972214416685196,2.953865690387531,1.0,3.14,-0.353338680807711,-1.5887322510840836,0.2045992885228399,-3.14,0.12032076157958196
148,0.7053017755245865,0.10644267974065795,0.6970334148415638,3.088419326392725,2.0098272087216777,1.19722217188067,2.953853174017652,1.0,3.14,-0.3533363494873548,-1.5887345599808016,0.2046120370168411,-3.14,0.1203376929127354
149,0.7053009171184367,0.10643762248293662,0.6970333007320497,3.088406799279411,2.0098252785433313,1.1972229024232615,2.953840652563935,1.0,3.14,-0.3533340172239214,-1.5887368697553226,0.20462479063203157,-3.14,0.12035463107720734
150,0.705300058664039,0.10643256441547545,0.6970331866534644,3.0883942670778595,2.009823347597931,1.1972236332964612,2.953828126024232,1.0,3.14,-0.35333168401701603,-1.5887391804079685,0.20463754937052375,-3.14,0.12037157607583987
151,0.7052992001616131,0.10642750553909881,0.6970330726058832,3.088381729785918,2.0098214158851677,1.1972243645004346,2.9538155943963944,1.0,3.14,-0.3533293498662443,-1.5887414919390614,0.20465031323443109,-3.14,0.1203885279114763
152,0.7052983416113798,0.10642244585463492,0.6970329585893803,3.088369187401436,2.0098194834047294,1.1972250960353494,2.9538030576782717,1.0,3.14,-0.3533270147712105,-1.5887438043489246,0.20466308222586788,-3.14,0.12040548658696128
153,0.7052974830135598,0.1064173853629119,0.697032844604033,3.0883566399222624,2.009817550156308,1.1972258279013714,2.9537905158677136,1.0,3.14,-0.35332467873151946,-1.58874611763788,0.2046758563469494,-3.14,0.12042245210514063
154,0.7052966243683749,0.10641232406476003,0.6970327306499154,3.0883440873462447,2.009815616139592,1.1972265600986687,2.9537779689625676,1.0,3.14,-0.3533223417467753,-1.588748431806251,0.20468863559979178,-3.14,0.1204394244688615
155,0.7052957656760466,0.10640726196101065,0.6970326167271037,3.088331529671228,2.00981368135427,1.1972272926274083,2.9537654169606813,1.0,3.14,-0.3533200038165824,-1.58875074685436,0.20470141998651215,-3.14,0.12045640368097224
156,0.7052949069367964,0.10640219905249626,0.6970325028356735,3.088318966895057,2.0098117458000333,1.197228025487757,2.9537528598599,1.0,3.14,-0.35331766494054506,-1.5887530627825297,0.20471420950922847,-3.14,0.12047338974432253
157,0.7052940481508467,0.10639713534005281,0.6970323889757004,3.0883063990155772,2.009809809476569,1.197228758679882,2.9537402976580696,1.0,3.14,-0.3533153251182668,-1.588755379591084,0.2047270041700597,-3.14,0.12049038266176326
158,0.70529318931842,0.10639207082451611,0.69703227514726,3.0882938260306325,2.009807872383567,1.1972294922039513,2.9537277303530343,1.0,3.14,-0.35331298434935166,-1.5887576972803452,0.2047398039711257,-3.14,0.1205073824361466
159,0.7052923304397389,0.1063870055067234,0.6970321613504288,3.0882812479380632,2.0098059345207164,1.197230226060131,2.9537151579426366,1.0,3.14,-0.3533106426334033,-1.588760015850637,0.20475260891454725,-3.14,0.12052438907032598
160,0.7052914715150261,0.10638193938751363,0.6970320475852824,3.088268664735711,2.0098039958877054,1.1972309602485904,2.953702580424719,1.0,3.14,-0.35330829997002483,-1.5887623353022826,0.20476541900244605,-3.14,0.1205414025671561
161,0.7052906125445058,0.1063768724677281,0.6970319338518969,3.0882560764214175,2.009802056484223,1.197231694769496,2.9536899977971225,1.0,3.14,-0.3533059563588197,-1.5887646556356054,0.20477823423694472,-3.14,0.12055842292949294
162,0.7052897535284006,0.10637180474820827,0.6970318201503484,3.0882434829930205,2.0098001163099584,1.197232429623016,2.9536774100576872,1.0,3.14,-0.35330361179939074,-1.5887669768509294,0.20479105462016686,-3.14,0.12057545016019369
163,0.7052888944669348,0.10636673622979789,0.6970317064807138,3.0882308844483584,2.009798175364599,1.1972331648093182,2.9536648172042526,1.0,3.14,-0.35330126629134045,-1.588769298948578,0.20480388015423692,-3.14,0.12059248426211687
164,0.7052880353603329,0.1063616669133424,0.697031592843069,3.0882182807852683,2.0097962336478323,1.197233900328571,2.9536522192346566,1.0,3.14,-0.353298919834272,-1.5887716219288752,0.2048167108412803,-3.14,0.12060952523812221
165,0.705287176208819,0.10635659679968866,0.6970314792374898,3.088205672001588,2.0097942911593485,1.1972346361809416,2.9536396161467366,1.0,3.14,-0.3532965724277879,-1.5887739457921446,0.20482954668342337,-3.14,0.12062657309107075
166,0.7052863170126186,0.1063515258896847,0.697031365664054,3.088193058095151,2.0097923478988333,1.1972353723665992,2.9536270079383287,1.0,3.14,-0.35329422407149,-1.5887762705387103,0.2048423876827934,-3.14,0.12064362782382476
167,0.7052854577719555,0.10634645418417939,0.6970312521228372,3.0881804390637924,2.0097904038659773,1.1972361088857113,2.953614394607268,1.0,3.14,-0.353291874764981,-1.5887785961688963,0.20485523384151855,-3.14,0.12066068943924783
168,0.7052845984870566,0.10634138168402624,0.6970311386139164,3.0881678149053458,2.009788459060465,1.1972368457384461,2.9536017761513893,1.0,3.14,-0.3532895245078624,-1.5887809226830274,0.20486808516172797,-3.14,0.12067775794020479
169,0.7052837391581461,0.10633630839007571,0.6970310251373684,3.088155185617643,2.0097865134819872,1.1972375829249724,2.953589152568525,1.0,3.14,-0.3532871732997364,-1.5887832500814274,0.20488094164555168,-3.14,0.12069483332956173
170,0.7052828797854516,0.1063312343031829,0.6970309116932699,3.0881425511985148,2.009784567130229,1.1972383204454595,2.9535765238565075,1.0,3.14,-0.3532848211402039,-1.5887855783644211,0.20489380329512066,-3.14,0.12071191561018602
171,0.7052820203691978,0.1063261594242043,0.6970307982816984,3.0881299116457925,2.009782620004878,1.197239058300075,2.9535638900131684,1.0,3.14,-0.3532824680288667,-1.588787907532333,0.20490667011256683,-3.14,0.12072900478494629
172,0.7052811609096123,0.10632108375399636,0.6970306849027301,3.0881172669573047,2.0097806721056224,1.197239796488988,2.9535512510363375,1.0,3.14,-0.35328011396532627,-1.5887902375854877,0.20491954210002303,-3.14,0.12074610085671246
173,0.7052803014069212,0.10631600729341895,0.6970305715564429,3.088104617130881,2.0097787234321487,1.1972405350123674,2.953538606923845,1.0,3.14,-0.3532777589491833,-1.5887925685242101,0.20493241925962302,-3.14,0.12076320382835572
174,0.7052794418613524,0.10631093004333195,0.6970304582429133,3.0880919621643477,2.009776773984144,1.197241273870382,2.953525957673518,1.0,3.14,-0.35327540298003873,-1.588794900348825,0.20494530159350152,-3.14,0.1207803137027485
175,0.705278582273133,0.1063058520045968,0.6970303449622184,3.0880793020555304,2.009774823761295,1.197242013063201,2.9535133032831844,1.0,3.14,-0.3532730460574933,-1.5887972330596578,0.20495818910379415,-3.14,0.12079743048276455
176,0.7052777226424911,0.10630077317807815,0.6970302317144369,3.088066636802256,2.0097728727632878,1.1972427525909939,2.95350064375067,1.0,3.14,-0.3532706881811474,-1.5887995666570331,0.20497108179263746,-3.14,0.12081455417127888
177,0.7052768629696539,0.106295693564641,0.6970301184996444,3.0880539664023474,2.009770920989809,1.197243492453929,2.9534879790738002,1.0,3.14,-0.35326832935060154,-1.5888019011412768,0.20498397966216897,-3.14,0.12083168477116775
178,0.7052760032548501,0.1062906131651505,0.6970300053179198,3.0880412908536283,2.009768968440546,1.1972442326521766,2.953475309250399,1.0,3.14,-0.35326596956545586,-1.5888042365127133,0.20499688271452707,-3.14,0.12084882228530873
179,0.7052751434983091,0.10628553198047636,0.6970298921693403,3.088028610153922,2.0097670151151847,1.1972449731859056,2.953462634278291,1.0,3.14,-0.3532636088253101,-1.5888065727716687,0.20500979095185115,-3.14,0.12086596671658063
180,0.7052742837002589,0.10628045001148773,0.6970297790539838,3.088015924301049,2.0097650610134106,1.197245714055286,2.9534499541552965,1.0,3.14,-0.3532612471297643,-1.5888089099184683,0.2050227043762815,-3.14,0.12088311806786357
181,0.7052734238609301,0.1062753672590556,0.6970296659719276,3.0880032332928296,2.00976310613491,1.1972464552604871,2.9534372688792385,1.0,3.14,-0.35325888447841797,-1.588811247953438,0.20503562298995937,-3.14,0.12090027634203893
182,0.7052725639805509,0.1062702837240531,0.6970295529232509,3.087990537127084,2.0097611504793695,1.1972471968016791,2.9534245784479363,1.0,3.14,-0.3532565208708705,-1.588813586876903,0.20504854679502688,-3.14,0.12091744154198936
183,0.7052717040593515,0.1062651994073546,0.69702943990803,3.087977835801629,2.0097591940464734,1.1972479386790313,2.953411882859209,1.0,3.14,-0.3532541563067212,-1.5888159266891901,0.20506147579362716,-3.14,0.12093461367059881
184,0.7052708440975619,0.10626011430983567,0.697029326926344,3.0879651293142834,2.0097572368359087,1.1972486808927139,2.9533991821108754,1.0,3.14,-0.3532517907855692,-1.5888182673906246,0.20507440998790424,-3.14,0.12095179273075247
185,0.7052699840954134,0.10625502843237429,0.6970292139782706,3.087952417662863,2.00975527884736,1.1972494234428968,2.9533864762007527,1.0,3.14,-0.3532494243070133,-1.5888206089815327,0.2050873493800031,-3.14,0.12096897872533688
186,0.7052691240531361,0.10624994177584773,0.697029101063888,3.0879397008451823,2.009753320080514,1.197250166329751,2.9533737651266567,1.0,3.14,-0.35324705687065217,-1.5888229514622405,0.20510029397206958,-3.14,0.12098617165723982
187,0.7052682639709613,0.10624485434113942,0.6970289881832752,3.0879269788590564,2.0097513605350534,1.1972509095534452,2.953361048886403,1.0,3.14,-0.35324468847608415,-1.588825294833075,0.20511324376625062,-3.14,0.1210033715293503
188,0.7052674038491202,0.10623976612912917,0.6970288753365099,3.0879142517022986,2.0097494002106653,1.1972516531141515,2.953348327477806,1.0,3.14,-0.35324231912290804,-1.5888276390943619,0.20512619876469396,-3.14,0.1210205783445587
189,0.7052665436878444,0.10623467714070282,0.6970287625236703,3.087901519372722,2.0097474391070334,1.1972523970120388,2.953335600898679,1.0,3.14,-0.3532399488107217,-1.5888299842464282,0.2051391589695483,-3.14,0.12103779210575663
190,0.7052656834873657,0.10622958737674379,0.697028649744836,3.0878887818681373,2.009745477223844,1.197253141247278,2.9533228691468336,1.0,3.14,-0.35323757753912344,-1.5888323302896001,0.20515212438296332,-3.14,0.12105501281583698
191,0.7052648232479171,0.10622449683813887,0.6970285370000849,3.0878760391863533,2.009743514560781,1.1972538858200406,2.953310132220081,1.0,3.14,-0.3532352053077106,-1.5888346772242048,0.20516509500708963,-3.14,0.12107224047769397
192,0.7052639629697304,0.10621940552577787,0.6970284242894957,3.0878632913251822,2.0097415511175285,1.1972546307304968,2.9532973901162327,1.0,3.14,-0.353232832116081,-1.5888370250505692,0.2051780708440787,-3.14,0.12108947509422305
193,0.7052631026530388,0.10621431344054995,0.6970283116131476,3.0878505382824293,2.0097395868937706,1.1972553759788171,2.953284642833096,1.0,3.14,-0.35323045796383207,-1.5888393737690203,0.2051910518960831,-3.14,0.12110671666832097
194,0.7052622422980754,0.10620922058334616,0.6970281989711195,3.087837780055903,2.009737621889193,1.197256121565173,2.9532718903684807,1.0,3.14,-0.35322808285056123,-1.5888417233798846,0.20520403816525618,-3.14,0.1211239652028858
195,0.7052613819050738,0.10620412695506026,0.6970280863634907,3.087825016643411,2.0097356561034796,1.1972568674897353,2.953259132720194,1.0,3.14,-0.3532257067758655,-1.5888440738834897,0.2052170296537523,-3.14,0.12114122070081686
196,0.7052605214742682,0.10619903255658747,0.6970279737903395,3.0878122480427574,2.0097336895363127,1.1972576137526754,2.953246369886041,1.0,3.14,-0.3532233297393416,-1.588846425280163,0.20523002636372678,-3.14,0.12115848316501476
197,0.705259661005892,0.10619393738882195,0.6970278612517458,3.0877994742517454,2.0097317221873787,1.1972583603541644,2.953233601863827,1.0,3.14,-0.35322095174058643,-1.5888487775702318,0.20524302829733582,-3.14,0.12117575259838144
198,0.7052588005001792,0.10618884145266429,0.697027748747788,3.08778669526818,2.0097297540563592,1.197259107294373,2.9532208286513573,1.0,3.14,-0.35321857277919644,-1.588851130754024,0.20525603545673665,-3.14,0.12119302900382004
199,0.7052579399573655,0.10618374474901218,0.6970276362785467,3.0877739110898625,2.009727785142939,1.1972598545734738,2.953208050246434,1.0,3.14,-0.3532161928547679,-1.588853484831867,0.20526904784408737,-3.14,0.12121031238423503
200,0.7052570793776859,0.10617864727876723,0.6970275238441006,3.0877611217145944,2.0097258154468007,1.1972606021916379,2.95319526664686,1.0,3.14,-0.35321381196689694,-1.5888558398040882,0.205282065461547,-3.14,0.12122760274253223
201,0.705256218761375,0.10617354904283194,0.6970274114445292,3.0877483271401758,2.0097238449676285,1.1972613501490366,2.953182477850436,1.0,3.14,-0.3532114301151797,-1.588858195671016,0.20529508831127563,-3.14,0.12124490008161867
202,0.7052553581086687,0.1061684500421102,0.6970272990799125,3.087735527364406,2.009721873705105,1.1972620984458424,2.9531696838549624,1.0,3.14,-0.353209047299212,-1.5888605524329782,0.20530811639543417,-3.14,0.1212622044044027
203,0.705254497419803,0.1061633502775088,0.6970271867503295,3.0877227223850836,2.009719901658914,1.197262847082226,2.953156884658238,1.0,3.14,-0.3532066635185895,-1.5888629100903027,0.2053211497161845,-3.14,0.121279515713794
204,0.7052536366950146,0.1061582497499336,0.6970270744558613,3.087709912200005,2.0097179288287377,1.1972635960583609,2.953144080258061,1.0,3.14,-0.35320427877290733,-1.5888652686433176,0.20533418827568947,-3.14,0.12129683401270347
205,0.7052527759345395,0.10615314846029454,0.6970269621965864,3.087697096806967,2.009715955214259,1.197264345374418,2.9531312706522286,1.0,3.14,-0.35320189306176103,-1.5888676280923515,0.20534723207611288,-3.14,0.12131415930404332
206,0.7052519151386145,0.10614804640950287,0.6970268499725855,3.0876842762037646,2.0097139808151607,1.1972650950305694,2.953118455838537,1.0,3.14,-0.3531995063847457,-1.5888699884377329,0.20536028111961946,-3.14,0.1213314915907271
207,0.7052510543074767,0.10614294359846876,0.6970267377839386,3.087671450388191,2.0097120056311257,1.1972658450269884,2.9531056358147807,1.0,3.14,-0.35319711874145615,-1.5888723496797899,0.20537333540837488,-3.14,0.12134883087566962
208,0.7052501934413643,0.10613784002810743,0.6970266256307264,3.087658619358041,2.009710029661836,1.1972665953638468,2.9530928105787546,1.0,3.14,-0.353194730131487,-1.5888747118188513,0.20538639494454577,-3.14,0.12136617716178696
209,0.705249332540514,0.10613273569933356,0.6970265135130277,3.087645783111105,2.0097080529069746,1.1972673460413166,2.9530799801282512,1.0,3.14,-0.3531923405544328,-1.5888770748552463,0.20539945973029972,-3.14,0.12138353045199653
210,0.7052484716051646,0.10612763061306468,0.6970264014309241,3.087632941645175,2.0097060753662226,1.1972680970595706,2.9530671444610626,1.0,3.14,-0.35318995000988807,-1.5888794387893035,0.2054125297678052,-3.14,0.12140089074921705
211,0.7052476106355547,0.1061225247702194,0.6970262893844956,3.0876200949580417,2.009704097039262,1.1972688484187823,2.9530543035749797,1.0,3.14,-0.3531875584974465,-1.5888818036213517,0.20542560505923171,-3.14,0.1214182580563685
212,0.7052467496319222,0.1061174181717172,0.697026177373823,3.087607243047492,2.0097021179257752,1.1972696001191236,2.953041457467793,1.0,3.14,-0.35318516601670263,-1.5888841693517197,0.20543868560674966,-3.14,0.12143563237637217
213,0.7052458885945069,0.10611231081848092,0.6970260653989865,3.0875943859113177,2.0097001380254444,1.1972703521607675,2.9530286061372912,1.0,3.14,-0.35318277256725017,-1.588886535980737,0.2054517714125304,-3.14,0.12145301371215067
214,0.7052450275235476,0.10610720271143265,0.697025953460067,3.0875815235473016,2.0096981573379504,1.197271104543887,2.9530157495812617,1.0,3.14,-0.35318037814868253,-1.588888903508733,0.20546486247874626,-3.14,0.12147040206662786
215,0.7052441664192838,0.10610209385149787,0.697025841557145,3.087568655953232,2.009696175862975,1.1972718572686556,2.953002887797492,1.0,3.14,-0.3531779827605932,-1.588891271936037,0.2054779588075705,-3.14,0.12148779744272895
216,0.705243305281956,0.10609698423960497,0.6970257296903011,3.087555783126894,2.0096941936001986,1.1972726103352456,2.9529900207837687,1.0,3.14,-0.35317558640257546,-1.588893641262979,0.20549106040117732,-3.14,0.12150519984338039
217,0.705242444111804,0.10609187387667958,0.6970256178596175,3.0875429050660714,2.0096922105493045,1.197273363743831,2.9529771485378755,1.0,3.14,-0.35317318907422235,-1.588896011489888,0.2055041672617419,-3.14,0.12152260927150998
218,0.7052415829090691,0.10608676276365292,0.6970255060651744,3.087530021768546,2.0096902267099717,1.1972741174945851,2.9529642710575965,1.0,3.14,-0.35317079077512664,-1.5888983826170937,0.20551727939144035,-3.14,0.12154002573004682
219,0.7052407216739911,0.10608165090145583,0.6970253943070536,3.0875171332321005,2.009688242081882,1.1972748715876818,2.952951388340715,1.0,3.14,-0.3531683915048811,-1.588900754644926,0.20553039679244972,-3.14,0.12155744922192133
220,0.7052398604068119,0.1060765382910218,0.6970252825853348,3.087504239454516,2.0096862566647165,1.1972756260232933,2.9529385003850126,1.0,3.14,-0.35316599126307857,-1.588903127573715,0.20554351946694804,-3.14,0.12157487975006515
221,0.7052389991077727,0.10607142493328556,0.6970251709001007,3.0874913404335724,2.0096842704581555,1.197276380801595,2.9529256071882704,1.0,3.14,-0.3531635900493108,-1.5889055014037912,0.2055566474171143,-3.14,0.12159231731741128
222,0.7052381377771156,0.10606631082918344,0.6970250592514321,3.0874784361670486,2.00968228346188,1.1972771359227592,2.952912708748268,1.0,3.14,-0.3531611878631703,-1.5889078761354842,0.20556978064512843,-3.14,0.12160976192689403
223,0.7052372764150824,0.10606119597965388,0.6970249476394109,3.087465526652722,2.009680295675569,1.1972778913869606,2.952899805062784,1.0,3.14,-0.3531587847042487,-1.5889102517691247,0.20558291915317126,-3.14,0.12162721358144901
224,0.7052364150219155,0.10605608038563578,0.6970248360641179,3.087452611888369,2.0096783070989037,1.1972786471943733,2.952886896129596,1.0,3.14,-0.35315638057213816,-1.588912628305043,0.20559606294342464,-3.14,0.12164467228401313
225,0.705235553597858,0.10605096404807082,0.6970247245256364,3.087439691871767,2.0096763177315644,1.197279403345171,2.9528739819464813,1.0,3.14,-0.35315397546643,-1.5889150057435693,0.20560921201807136,-3.14,0.1216621380375246
226,0.7052346921431529,0.10604584696790151,0.6970246130240464,3.0874267666006885,2.0096743275732307,1.1972801598395282,2.9528610625112153,1.0,3.14,-0.3531515693867158,-1.5889173840850344,0.20562236637929518,-3.14,0.12167961084492292
227,0.7052338306580433,0.10604072914607288,0.6970245015594304,3.08741383607291,2.0096723366235834,1.197280916677619,2.952848137821573,1.0,3.14,-0.3531491623325868,-1.588919763329769,0.20563552602928076,-3.14,0.12169709070914893
228,0.7052329691427729,0.10603561058353113,0.6970243901318708,3.0874009002862017,2.0096703448823003,1.1972816738596175,2.9528352078753275,1.0,3.14,-0.353146754303634,-1.5889221434781042,0.2056486909702138,-3.14,0.12171457763314474
229,0.7052321075975861,0.10603049128122322,0.697024278741449,3.087387959238337,2.0096683523490633,1.197282431385699,2.952822272670252,1.0,3.14,-0.35314434529944827,-1.5889245245303707,0.20566186120428084,-3.14,0.12173207161985382
230,0.7052312460227269,0.1060253712400992,0.6970241673882472,3.087375012927085,2.00966635902355,1.1972831892560374,2.9528093322041173,1.0,3.14,-0.3531419353196199,-1.5889269064868998,0.20567503673366952,-3.14,0.1217495726722209
231,0.7052303844184404,0.10602025046111037,0.6970240560723484,3.0873620613502166,2.0096643649054404,1.1972839474708081,2.9527963864746947,1.0,3.14,-0.35313952436373963,-1.5889292893480222,0.2056882175605683,-3.14,0.12176708079319208
232,0.7052295227849711,0.10601512894520881,0.6970239447938341,3.0873491045055004,2.0096623699944143,1.1972847060301857,2.9527834354797533,1.0,3.14,-0.353137112431398,-1.5889316731140695,0.20570140368716666,-3.14,0.1217845959857147
233,0.7052286611225643,0.10601000669334931,0.6970238335527869,3.087336142390703,2.0096603742901498,1.1972854649343447,2.952770479217062,1.0,3.14,-0.3531346995221849,-1.5889340577853732,0.20571459511565512,-3.14,0.12180211825273742
234,0.7052277994314654,0.10600488370648818,0.6970237223492892,3.087323175003591,2.009658377792326,1.1972862241834603,2.9527575176843883,1.0,3.14,-0.3531322856356903,-1.5889364433622648,0.205727791848225,-3.14,0.12181964759721024
235,0.7052269377119208,0.1059997599855826,0.6970236111834239,3.0873102023419317,2.009656380500622,1.1972869837777083,2.9527445508794985,1.0,3.14,-0.3531298707715039,-1.5889388298450757,0.20574099388706868,-3.14,0.12183718402208452
236,0.7052260759641764,0.10599463553159237,0.6970235000552732,3.0872972244034873,2.0096543824147157,1.1972877437172627,2.952731578800158,1.0,3.14,-0.3531274549292153,-1.588941217234138,0.20575420123437946,-3.14,0.1218547275303128
237,0.7052252141884787,0.1059895103454784,0.6970233889649203,3.0872842411860226,2.009652383534286,1.1972885040022998,2.9527186014441313,1.0,3.14,-0.35312503810841384,-1.5889436055297832,0.20576741389235162,-3.14,0.12187227812484905
238,0.7052243523850752,0.10598438442820277,0.6970232779124484,3.0872712526873,2.0096503838590123,1.197289264632995,2.9527056188091816,1.0,3.14,-0.35312262030868863,-1.588945994732343,0.20578063186318038,-3.14,0.12188983580864853
239,0.7052234905542121,0.10597925778073086,0.6970231668979392,3.0872582589050808,2.0096483833885714,1.1972900256095231,2.9526926308930714,1.0,3.14,-0.35312020152962875,-1.5889483848421504,0.20579385514906198,-3.14,0.12190740058466774
240,0.7052226286961374,0.10597413040402696,0.6970230559214772,3.0872452598371236,2.009646382122642,1.197290786932061,2.9526796376935613,1.0,3.14,-0.3531177817708231,-1.5889507758595367,0.20580708375219356,-3.14,0.1219249724558646
241,0.705221766811099,0.10596900229906052,0.6970229449831442,3.0872322554811897,2.009644380060902,1.1972915486007827,2.9526666392084127,1.0,3.14,-0.3531153610318602,-1.5889531677848345,0.20582031767477324,-3.14,0.1219425514251983
242,0.7052209048993443,0.10596387346680021,0.6970228340830241,3.087219245835038,2.009642377203029,1.1972923106158657,2.9526536354353845,1.0,3.14,-0.3531129393123284,-1.5889555606183767,0.20583355691900007,-3.14,0.12196013749562935
243,0.7052200429611224,0.10595874390821654,0.6970227232212,3.0872062308964234,2.0096403735487014,1.197293072977485,2.9526406263722347,1.0,3.14,-0.3531105166118162,-1.588957954360495,0.20584680148707415,-3.14,0.12197773067011955
244,0.7052191809966827,0.10595361362428372,0.6970226123977556,3.0871932106631053,2.0096383690975954,1.1972938356858172,2.952627612016721,1.0,3.14,-0.35310809292991147,-1.5889603490115225,0.20586005138119645,-3.14,0.12199533095163206
245,0.7052183190062726,0.10594848261597321,0.6970225016127743,3.0871801851328358,2.0096363638493906,1.1972945987410386,2.9526145923665985,1.0,3.14,-0.35310566826620216,-1.5889627445717915,0.20587330660356895,-3.14,0.12201293834313134
246,0.7052174569901436,0.10594335088426425,0.6970223908663398,3.08716715430337,2.009634357803761,1.1972953621433247,2.952601567419623,1.0,3.14,-0.35310324262027587,-1.5889651410416354,0.2058865671563946,-3.14,0.12203055284758314
247,0.7052165949485439,0.10593821843013192,0.6970222801585355,3.0871541181724615,2.009632350960387,1.1972961258928527,2.9525885371735483,1.0,3.14,-0.35310081599172033,-1.5889675384213866,0.20589983304187728,-3.14,0.12204817446795463
248,0.7052157328817235,0.10593308525455676,0.6970221694894455,3.0871410767378626,2.0096303433189444,1.1972968899897984,2.9525755016261277,1.0,3.14,-0.3530983883801227,-1.5889699367113788,0.20591310426222187,-3.14,0.12206580320721416
249,0.7052148707899335,0.10592795135852111,0.6970220588591529,3.087128029997324,2.0096283348791086,1.197297654434338,2.952562460775113,1.0,3.14,-0.35309595978507013,-1.5889723359119448,0.20592638081963419,-3.14,0.12208343906833151
250,0.7052140086734247,0.10592281674300458,0.697021948267743,3.0871149779485942,2.0096263256405584,1.19729841922665,2.9525494146182547,1.0,3.14,-0.3530935302061495,-1.5889747360234177,0.20593966271632103,-3.14,0.12210108205427775
251,0.7052131465324477,0.10591768140899334,0.6970218377152988,3.0871019205894243,2.00962431560297,1.19729918436691,2.9525363631533037,1.0,3.14,-0.35309109964294777,-1.588977137046131,0.20595294995449015,-3.14,0.12211873216802525
252,0.7052122843672536,0.10591254535747396,0.6970217272019049,3.087088857917562,2.0096223047660193,1.1972999498552948,2.9525233063780085,1.0,3.14,-0.3530886680950514,-1.5889795389804184,0.20596624253635032,-3.14,0.12213638941254773
253,0.7052114221780943,0.10590740858943441,0.6970216167276445,3.0870757899307537,2.009620293129382,1.1973007156919813,2.9525102442901168,1.0,3.14,-0.3530862355620468,-1.5889819418266136,0.20597954046411124,-3.14,0.1221540537908202
254,0.7052105599652219,0.10590227110586226,0.6970215062926037,3.087062716626744,2.009618280692736,1.1973014818771472,2.9524971768873756,1.0,3.14,-0.35308380204352047,-1.5889843455850499,0.20599284373998356,-3.14,0.12217172530581903
255,0.7052096977288881,0.10589713290775007,0.6970213958968655,3.0870496380032804,2.009616267455757,1.197302248410969,2.9524841041675307,1.0,3.14,-0.353081367539058,-1.5889867502560617,0.20600615236617892,-3.14,0.12218940396052191
256,0.7052088354693464,0.10589199399609094,0.6970212855405147,3.0870365540581037,2.009614253418119,1.1973030152936244,2.9524710261283262,1.0,3.14,-0.35307893204824525,-1.5889891558399831,0.20601946634490992,-3.14,0.12220708975790785
257,0.7052079731868496,0.10588685437187928,0.6970211752236364,3.08702346478896,2.0096122385795,1.1973037825252908,2.9524579427675066,1.0,3.14,-0.353076495570668,-1.5889915623371473,0.20603278567839012,-3.14,0.12222478270095721
258,0.7052071108816509,0.10588171403611013,0.6970210649463152,3.0870103701935876,2.0096102229395743,1.1973045501061466,2.9524448540828137,1.0,3.14,-0.3530740581059114,-1.588993969747889,0.20604611036883408,-3.14,0.12224248279265164
259,0.7052062485540033,0.10587657298978305,0.6970209547086355,3.086997270269729,2.009608206498018,1.1973053180363677,2.9524317600719896,1.0,3.14,-0.35307161965356126,-1.5889963780725427,0.2060594404184573,-3.14,0.12226019003597412
260,0.7052053862041614,0.1058714312338963,0.6970208445106825,3.086984165015123,2.0096061892545065,1.1973060863161333,2.952418660732775,1.0,3.14,-0.35306918021320227,-1.5889987873114424,0.20607277582947628,-3.14,0.12227790443390898
261,0.7052045238323792,0.105866288769453,0.6970207343525406,3.0869710544275093,2.0096041712087143,1.1973068549456203,2.952405556062909,1.0,3.14,-0.35306673978441927,-1.5890011974649232,0.20608611660410847,-3.14,0.12229562598944187
262,0.7052036614389111,0.10586114559745471,0.6970206242342958,3.0869579385046246,2.009602152360318,1.197307623925007,2.9523924460601307,1.0,3.14,-0.35306429836679737,-1.589003608533319,0.2060994627445723,-3.14,0.12231335470555976
263,0.7052027990240124,0.10585600171890695,0.6970205141560324,3.086944817244205,2.0096001327089903,1.1973083932544717,2.952379330722177,1.0,3.14,-0.3530618559599204,-1.5890060205169654,0.2061128142530872,-3.14,0.12233109058525099
264,0.7052019365879382,0.10585085713481615,0.6970204041178362,3.086931690643987,2.009598112254408,1.197309162934192,2.952366210046784,1.0,3.14,-0.3530594125633733,-1.5890084334161962,0.2061261711318735,-3.14,0.12234883363150517
265,0.705201074130944,0.10584571184618938,0.6970202941197926,3.0869185587017034,2.0095960909962454,1.197309932964347,2.9523530840316874,1.0,3.14,-0.35305696817674,-1.589010847231347,0.20613953338315258,-3.14,0.1223665838473133
266,0.7052002116532861,0.10584056585403881,0.6970201841619871,3.0869054214150897,2.0095940689341756,1.197310703345115,2.9523399526746217,1.0,3.14,-0.3530545227996044,-1.5890132619627526,0.20615290100914674,-3.14,0.12238434123566767
267,0.7051993491552196,0.1058354191593739,0.6970200742445041,3.0868922787818756,2.0095920460678753,1.1973114740766728,2.9523268159733194,1.0,3.14,-0.35305207643155073,-1.5890156776107485,0.2061662740120793,-3.14,0.12240210579956193
268,0.705198486637002,0.10583027176320908,0.6970199643674315,3.086879130799794,2.009590022397017,1.1973122451592013,2.9523136739255134,1.0,3.14,-0.35304962907216186,-1.5890180941756697,0.20617965239417446,-3.14,0.12241987754199106
269,0.7051976240988898,0.10582512366655955,0.6970198545308527,3.086865977466575,2.0095879979212756,1.1973130165928778,2.952300526528935,1.0,3.14,-0.3530471807210216,-1.589020511657852,0.20619303615765755,-3.14,0.12243765646595135
270,0.7051967615411404,0.10581997487044166,0.6970197447348548,3.086852818779947,2.0095859726403247,1.1973137883778813,2.952287373781313,1.0,3.14,-0.3530447313777129,-1.5890229300576306,0.20620642530475475,-3.14,0.12245544257444048
271,0.7051958989640109,0.1058148253758747,0.697019634979523,3.086839654737639,2.009583946553838,1.197314560514391,2.952274215680378,1.0,3.14,-0.353042281041819,-1.5890253493753412,0.20621981983769325,-3.14,0.1224732358704574
272,0.7051950363677595,0.1058096751838773,0.6970195252649437,3.086826485337377,2.0095819196614904,1.1973153330025859,2.952261052223857,1.0,3.14,-0.3530398297129227,-1.5890277696113195,0.20623321975870124,-3.14,0.12249103635700244
273,0.7051941737526447,0.10580452429547314,0.6970194155912035,3.0868133105768876,2.009579891962954,1.1973161058426447,2.9522478834094774,1.0,3.14,-0.35303737739060626,-1.5890301907659017,0.20624662507000788,-3.14,0.12250884403707722
274,0.7051933111189241,0.10579937271168563,0.6970193059583881,3.0868001304538955,2.0095778634579027,1.1973168790347468,2.952234709234965,1.0,3.14,-0.3530349240744525,-1.5890326128394234,0.20626003577384328,-3.14,0.12252665891368478
275,0.7051924484668575,0.10579422043353953,0.6970191963665837,3.086786944966125,2.0095758341460104,1.1973176525790719,2.9522215296980443,1.0,3.14,-0.35303246976404373,-1.5890350358322207,0.20627345187243853,-3.14,0.12254448098982944
276,0.7051915857967029,0.1057890674620628,0.6970190868158761,3.0867737541112983,2.0095738040269495,1.1973184264757986,2.9522083447964396,1.0,3.14,-0.3530300144589619,-1.5890374597446302,0.20628687336802579,-3.14,0.12256231026851684
277,0.705190723108721,0.10578391379828357,0.6970189773063528,3.0867605578871378,2.009571773100394,1.197319200725107,2.9521951545278733,1.0,3.14,-0.3530275581587887,-1.5890398845769877,0.20630030026283802,-3.14,0.12258014675275404
278,0.7051898604031716,0.10577875944323342,0.6970188678381006,3.086747356291364,2.009569741366015,1.1973199753271775,2.952181958890067,1.0,3.14,-0.3530251008631056,-1.58904231032963,0.20631373255910934,-3.14,0.12259799044554937
279,0.7051889976803138,0.10577360439794349,0.6970187584112054,3.086734149321695,2.009567708823487,1.1973207502821888,2.952168757880741,1.0,3.14,-0.35302264257149474,-1.5890447370028933,0.20632717025907474,-3.14,0.1226158413499125
280,0.7051881349404092,0.10576844866344974,0.6970186490257543,3.086720936975853,2.009565675472482,1.197321525590321,2.9521555514976163,1.0,3.14,-0.35302018328353707,-1.5890471645971143,0.20634061336497023,-3.14,0.12263369946885451
281,0.7051872721837176,0.10576329224078625,0.6970185396818338,3.0867077192515517,2.0095636413126727,1.197322301251754,2.9521423397384097,1.0,3.14,-0.35301772299881384,-1.58904959311263,0.20635406187903277,-3.14,0.12265156480538776
282,0.7051864094105009,0.1057581351309923,0.6970184303795312,3.0866944961465097,2.0095616063437305,1.1973230772666676,2.9521291226008395,1.0,3.14,-0.35301526171690584,-1.5890520225497773,0.20636751580350035,-3.14,0.12266943736252597
283,0.7051855466210203,0.10575297733510623,0.6970183211189335,3.086681267658442,2.009559570565328,1.197323853635243,2.9521159000826223,1.0,3.14,-0.3530127994373938,-1.589054452908893,0.20638097514061193,-3.14,0.12268731714328421
284,0.7051846838155373,0.10574781885416988,0.6970182119001277,3.0866680337850636,2.009557533977138,1.1973246303576595,2.952102672181473,1.0,3.14,-0.35301033615985844,-1.5890568841903143,0.20639443989260745,-3.14,0.12270520415067887
285,0.7051838209943146,0.10574265968922501,0.6970181027232007,3.0866547945240868,2.009555496578833,1.1973254074340975,2.9520894388951064,1.0,3.14,-0.35300787188388016,-1.5890593163943783,0.20640791006172776,-3.14,0.12272309838772773
286,0.7051829581576149,0.10573749984131878,0.6970179935882411,3.0866415498732245,2.009553458370081,1.1973261848647383,2.952076200221235,1.0,3.14,-0.3530054066090386,-1.5890617495214223,0.2064213856502148,-3.14,0.12274099985744988
287,0.7051820953057003,0.10573233931149377,0.6970178844953349,3.0866282998301875,2.0095514193505593,1.197326962649762,2.952062956157571,1.0,3.14,-0.3530029403349146,-1.5890641835717834,0.20643486666031144,-3.14,0.1227589085628658
288,0.705181232438834,0.10572717810080168,0.6970177754445702,3.0866150443926856,2.009549379519935,1.1973277407893486,2.952049706701826,1.0,3.14,-0.3530004730610871,-1.5890666185458002,0.2064483530942616,-3.14,0.12277682450699721
289,0.70518036955728,0.10572201621029091,0.6970176664360354,3.0866017835584287,2.0095473388778804,1.1973285192836804,2.9520364518517104,1.0,3.14,-0.3529980047871359,-1.5890690544438097,0.20646184495431005,-3.14,0.12279474769286734
290,0.705179506661302,0.1057168536410137,0.6970175574698169,3.086588517325125,2.0095452974240673,1.1973292981329375,2.952023191604932,1.0,3.14,-0.35299553551264057,-1.5890714912661494,0.20647534224270264,-3.14,0.12281267812350066
291,0.7051786437511641,0.10571169039402246,0.6970174485460032,3.08657524569048,2.0095432551581673,1.197330077337301,2.9520099259591994,1.0,3.14,-0.3529930652371803,-1.5890739290131575,0.2064888449616862,-3.14,0.122830615801923
292,0.7051777808271307,0.10570652647037393,0.6970173396646829,3.086561968652201,2.00954121207985,1.197330856896952,2.9519966549122194,1.0,3.14,-0.35299059396033405,-1.589076367685172,0.2065023531135086,-3.14,0.12284856073116154
293,0.7051769178894667,0.10570136187112428,0.6970172308259427,3.086548686207992,2.009539168188787,1.197331636812072,2.9519833784616982,1.0,3.14,-0.3529881216816807,-1.5890788072825308,0.20651586670041852,-3.14,0.12286651291424486
294,0.7051760549384374,0.10569619659733276,0.6970171220298712,3.086535398355558,2.0095371234846495,1.1973324170828419,2.9519700966053404,1.0,3.14,-0.35298564840079905,-1.5890812478055723,0.20652938572466584,-3.14,0.12288447235420283
295,0.705175191974308,0.10569103065005925,0.6970170132765564,3.0865221050926004,2.009535077967107,1.1973331977094441,2.951956809340849,1.0,3.14,-0.35298317411726726,-1.5890836892546345,0.20654291018850124,-3.14,0.12290243905406673
296,0.7051743289973444,0.10568586403036685,0.6970169045660873,3.086508806416821,2.00953303163583,1.1973339786920592,2.9519435166659274,1.0,3.14,-0.35298069883066385,-1.5890861316300564,0.20655644009417654,-3.14,0.12292041301686911
297,0.7051734660078128,0.10568069673931944,0.697016795898552,3.086495502325921,2.00953098449049,1.1973347600308686,2.9519302185782768,1.0,3.14,-0.35297822254056693,-1.5890885749321761,0.20656997544394445,-3.14,0.12293839424564397
298,0.7051726030059802,0.1056755287779827,0.6970166872740385,3.0864821928176,2.0095289365307556,1.1973355417260554,2.9519169150755977,1.0,3.14,-0.35297574524655384,-1.5890910191613328,0.20658351624005872,-3.14,0.12295638274342661
299,0.705171739992112,0.10567036014742506,0.6970165786926353,3.0864688778895553,2.009526887756297,1.1973363237778,2.9519036061555894,1.0,3.14,-0.35297326694820286,-1.5890934643178651,0.2065970624847741,-3.14,0.12297437851325367
300,0.7051708769664771,0.10566519084871459,0.6970164701544324,3.086455557539485,2.009524838166785,1.1973371061862863,2.9518902918159506,1.0,3.14,-0.35297078764509093,-1.5890959104021116,0.2066106141803463,-3.14,0.1229923815581632
301,0.7051700139293422,0.10566002088292496,0.6970163616595171,3.086442231765086,2.0095227877618878,1.1973378889516944,2.9518769720543783,1.0,3.14,-0.3529683073367957,-1.5890983574144117,0.20662417132903196,-3.14,0.12301039188119456
302,0.7051691508809751,0.1056548502511275,0.6970162532079792,3.0864289005640533,2.0095207365412757,1.1973386720742079,2.951863646868569,1.0,3.14,-0.3529658260228941,-1.5891008053551043,0.20663773393308885,-3.14,0.1230284094853885
303,0.7051682878216443,0.10564967895439725,0.6970161447999074,3.08641556393408,2.0095186845046182,1.1973394555540084,2.951850316256217,1.0,3.14,-0.35296334370296334,-1.5891032542245285,0.2066513019947756,-3.14,0.12304643437378711
304,0.7051674247516184,0.10564450699381066,0.6970160364353907,3.0864022218728606,2.0095166316515853,1.197340239391279,2.9518369802150177,1.0,3.14,-0.3529608603765801,-1.5891057040230236,0.20666487551635193,-3.14,0.12306446654943383
305,0.7051665616711659,0.1056393343704468,0.6970159281145182,3.0863888743780854,2.0095145779818444,1.1973410235862019,2.9518236387426633,1.0,3.14,-0.3529583760433205,-1.5891081547509296,0.2066784545000785,-3.14,0.12308250601537347
306,0.7051656985805561,0.10563416108538681,0.6970158198373789,3.0863755214474486,2.009512523495066,1.1973418081389589,2.9518102918368463,1.0,3.14,-0.3529558907027614,-1.5891106064085858,0.20669203894821697,-3.14,0.12310055277465219
307,0.7051648354800594,0.10562898713971033,0.6970157116040634,3.0863621630786358,2.009510468190918,1.1973425930497341,2.9517969394952566,1.0,3.14,-0.35295340435447853,-1.5891130589963314,0.20670562886302998,-3.14,0.12311860683031757
308,0.7051639723699443,0.10562381253450344,0.6970156034146602,3.0863487992693392,2.0095084120690694,1.1973433783187102,2.951783581715585,1.0,3.14,-0.35295091699804787,-1.5891155125145071,0.20671922424678124,-3.14,0.12313666818541844
309,0.7051631092504821,0.10561863727085048,0.6970154952692584,3.0863354300172445,2.0095063551291887,1.1973441639460698,2.9517702184955197,1.0,3.14,-0.3529484286330456,-1.5891179669634519,0.20673282510173535,-3.14,0.12315473684300508
310,0.7051622461219432,0.10561346134983952,0.6970153871679488,3.0863220553200406,2.009504297370946,1.1973449499319955,2.9517568498327487,1.0,3.14,-0.3529459392590471,-1.5891204223435063,0.20674643143015797,-3.14,0.1231728128061291
311,0.7051613829845983,0.10560828477256003,0.6970152791108206,3.086308675175411,2.0095022387940062,1.1973457362766717,2.951743475724958,1.0,3.14,-0.3529434488756274,-1.5891228786550105,0.20676004323431574,-3.14,0.12319089607784349
312,0.7051605198387186,0.1056031075401029,0.6970151710979634,3.086295289581041,2.00950017939804,1.1973465229802807,2.951730096169834,1.0,3.14,-0.352940957482362,-1.5891253358983046,0.20677366051647628,-3.14,0.12320898666120257
313,0.705159656684576,0.10559792965356148,0.6970150631294671,3.0862818985346148,2.0094981191827146,1.1973473100430059,2.9517167111650604,1.0,3.14,-0.35293846507882587,-1.5891277940737294,0.20678728327890822,-3.14,0.12322708455926207
314,0.705158793522442,0.10559275111402933,0.6970149552054226,3.0862685020338128,2.0094960581476977,1.197348097465032,2.9517033207083205,1.0,3.14,-0.3529359716645937,-1.5891302531816247,0.2068009115238812,-3.14,0.12324518977507906
315,0.7051579303525896,0.10558757192260455,0.6970148473259188,3.0862551000763183,2.0094939962926572,1.197348885246541,2.9516899247972974,1.0,3.14,-0.35293347723924035,-1.5891327132223316,0.20681454525366585,-3.14,0.12326330231171195
316,0.705157067175291,0.10558239208038417,0.6970147394910475,3.0862416926598106,2.0094919336172614,1.1973496733877178,2.9516765234296716,1.0,3.14,-0.3529309818023399,-1.5891351741961903,0.20682818447053378,-3.14,0.1232814221722206
317,0.70515620399082,0.10557721158846994,0.6970146317008981,3.08622827978197,2.009489870121176,1.1973504618887463,2.9516631166031235,1.0,3.14,-0.35292848535346655,-1.589137636103542,0.2068418291767576,-3.14,0.12329954935966612
318,0.7051553407994484,0.10557203044796108,0.6970145239555612,3.0862148614404723,2.009487805804071,1.1973512507498103,2.951649704315332,1.0,3.14,-0.35292598789219487,-1.589140098944727,0.20685547937461096,-3.14,0.12331768387711112
319,0.7051544776014508,0.10556684865996502,0.6970144162551273,3.086201437632997,2.009485740665611,1.197352039971093,2.9516362865639754,1.0,3.14,-0.35292348941809815,-1.5891425627200875,0.20686913506636848,-3.14,0.12333582572761943
320,0.7051536143971014,0.10556166622558505,0.6970143085996864,3.0861880083572184,2.0094836747054643,1.1973528295527796,2.9516228633467305,1.0,3.14,-0.3529209899307503,-1.589145027429964,0.20688279625430575,-3.14,0.1233539749142564
321,0.705152751186674,0.10555648314593,0.6970142009893306,3.086174573610812,2.0094816079232967,1.197353619495054,2.951609434661273,1.0,3.14,-0.3529184894297243,-1.589147493074698,0.20689646294069938,-3.14,0.12337213144008866
322,0.7051518879704437,0.10555129942210836,0.6970140934241499,3.086161133391452,2.009479540318776,1.197354409798101,2.951596000505278,1.0,3.14,-0.3529159879145939,-1.5891499596546306,0.20691013512782702,-3.14,0.12339029530818421
323,0.7051510247486853,0.10554611505523176,0.6970139859042351,3.0861476876968092,2.0094774718915684,1.1973552004621044,2.9515825608764183,1.0,3.14,-0.3529134853849322,-1.5891524271701034,0.20692381281796732,-3.14,0.12340846652161243
324,0.7051501615216745,0.10554093004641332,0.6970138784296778,3.0861342365245577,2.009475402641341,1.197355991487249,2.951569115772368,1.0,3.14,-0.35291098184031183,-1.589154895621458,0.20693749601339986,-3.14,0.12342664508344411
325,0.7051492982896868,0.10553574439676727,0.6970137710005684,3.0861207798723664,2.009473332567759,1.1973567828737204,2.951555665190797,1.0,3.14,-0.35290847728030533,-1.5891573650090363,0.20695118471640528,-3.14,0.12344483099675141
326,0.705148435052999,0.10553055810741127,0.697013663616999,3.086107317737905,2.009471261670489,1.1973575746217022,2.951542209129377,1.0,3.14,-0.3529059717044853,-1.58915983533318,0.2069648789292652,-3.14,0.12346302426460781
327,0.7051475718118867,0.1055253711794634,0.6970135562790606,3.0860938501188433,2.0094691899491974,1.1973583667313803,2.9515287475857765,1.0,3.14,-0.3529034651124241,-1.5891623065942309,0.20697857865426228,-3.14,0.12348122489008823
328,0.7051467085666272,0.10552018361404365,0.6970134489868446,3.086080377012846,2.0094671174035494,1.19735915920294,2.951515280557664,1.0,3.14,-0.35290095750369377,-1.589164778792531,0.20699228389368013,-3.14,0.12349943287626887
329,0.705145845317497,0.10551499541227502,0.6970133417404426,3.086066898417581,2.0094650440332114,1.1973599520365652,2.9515018080427065,1.0,3.14,-0.35289844887786637,-1.5891672519284226,0.2070059946498034,-3.14,0.1235176482262274
330,0.7051449820647744,0.10550980657528138,0.6970132345399459,3.086053414330713,2.0094629698378492,1.1973607452324413,2.9514883300385706,1.0,3.14,-0.35289593923451357,-1.5891697260022482,0.20701971092491775,-3.14,0.12353587094304284
331,0.7051441188087367,0.1055046171041883,0.6970131273854471,3.086039924749907,2.0094608948171278,1.1973615387907557,2.9514748465429212,1.0,3.14,-0.35289342857320627,-1.58917220101435,0.2070334327213098,-3.14,0.12355410102979558
332,0.7051432555496624,0.10549942700012531,0.6970130202770365,3.0860264296728244,2.009458818970711,1.1973623327116913,2.951461357553422,1.0,3.14,-0.3528909168935164,-1.589174676965071,0.20704716004126725,-3.14,0.12357233848956736
333,0.70514239228783,0.10549423626421955,0.6970129132148074,3.0860129290971283,2.0094567422982674,1.197363126995436,2.9514478630677363,1.0,3.14,-0.35288840419501494,-1.589177153854753,0.2070608928870787,-3.14,0.12359058332544136
334,0.7051415290235185,0.10548904489760401,0.6970128061988514,3.085999423020478,2.0094546647994593,1.1973639216421739,2.9514343630835254,1.0,3.14,-0.3528858904772727,-1.5891796316837394,0.2070746312610339,-3.14,0.12360883554050207
335,0.7051406657570063,0.10548385290141245,0.6970126992292609,3.085985911440535,2.0094525864739525,1.1973647166520913,2.95142085759845,1.0,3.14,-0.35288337573986034,-1.5891821104523731,0.20708837516542347,-3.14,0.12362709513783544
336,0.7051398024885742,0.10547866027677896,0.6970125923061273,3.0859723943549566,2.009450507321412,1.1973655120253746,2.9514073466101705,1.0,3.14,-0.3528808599823486,-1.5891845901609967,0.20710212460253916,-3.14,0.1236453621205287
337,0.7051389392185011,0.10547346702484221,0.6970124854295439,3.0859588717614015,2.009448427341502,1.197366307762209,2.951393830116344,1.0,3.14,-0.3528783432043078,-1.5891870708099536,0.2071158795746736,-3.14,0.12366363649167057
338,0.7051380759470686,0.10546827314674041,0.6970123785996027,3.0859453436575244,2.009446346533886,1.1973671038627816,2.951380308114629,1.0,3.14,-0.35287582540530776,-1.5891895523995867,0.2071296400841205,-3.14,0.12368191825435108
339,0.705137212674556,0.10546307864361319,0.6970122718163966,3.085931810040982,2.0094442648982316,1.1973679003272781,2.9513667806026813,1.0,3.14,-0.352873306584919,-1.589192034930239,0.20714340613317458,-3.14,0.12370020741166167
340,0.7051363494012449,0.10545788351660669,0.6970121650800172,3.0859182709094295,2.009442182434199,1.197368697155885,2.9513532475781568,1.0,3.14,-0.3528707867427107,-1.5891945184022551,0.20715717772413159,-3.14,0.12371850396669513
341,0.7051354861274167,0.10545268776686167,0.6970120583905581,3.0859047262605164,2.0094400991414547,1.1973694943487887,2.951339709038708,1.0,3.14,-0.3528682658782528,-1.5891970028159774,0.20717095485928824,-3.14,0.12373680792254568
342,0.7051346228533528,0.10544749139552713,0.6970119517481126,3.085891176091898,2.0094380150196613,1.1973702919061766,2.9513261649819897,1.0,3.14,-0.35286574399111414,-1.5891994881717502,0.20718473754094227,-3.14,0.12375511928230892
343,0.7051337595793358,0.10544229440375026,0.6970118451527729,3.085877620401224,2.0094359300684843,1.1973710898282341,2.9513126154056533,1.0,3.14,-0.35286322108086454,-1.5892019744699166,0.20719852577139244,-3.14,0.12377343804908178
344,0.7051328963056482,0.10543709679268248,0.6970117386046325,3.0858640591861453,2.0094338442875848,1.1973718881151498,2.9512990603073495,1.0,3.14,-0.35286069714707224,-1.5892044617108212,0.2072123195529385,-3.14,0.12379176422596265
345,0.7051320330325718,0.10543189856347485,0.6970116321037838,3.08585049244431,2.0094317576766287,1.1973726867671093,2.951285499684728,1.0,3.14,-0.3528581721893066,-1.5892069498948076,0.20722611888788128,-3.14,0.12381009781605125
346,0.7051311697603904,0.10542669971728195,0.6970115256503204,3.085836920173365,2.0094296702352783,1.1973734857842995,2.951271933535438,1.0,3.14,-0.35285564620713605,-1.5892094390222202,0.20723992377852254,-3.14,0.1238284388224487
347,0.7051303064893873,0.10542150025526019,0.6970114192443356,3.0858233423709582,2.009427581963196,1.1973742851669085,2.9512583618571266,1.0,3.14,-0.35285311920012874,-1.5892119290934033,0.2072537342271651,-3.14,0.12384678724825757
348,0.7051294432198465,0.10541630017856692,0.697011312885923,3.0858097590347344,2.009425492860046,1.1973750849151226,2.9512447846474403,1.0,3.14,-0.35285059116785317,-1.5892144201087008,0.20726755023611274,-3.14,0.12386514309658173
349,0.7051285799520521,0.10541109948836128,0.6970112065751771,3.085796170162338,2.009423402925491,1.1973758850291303,2.951231201904025,1.0,3.14,-0.35284806210987696,-1.5892169120684574,0.2072813718076703,-3.14,0.1238835063705265
350,0.7051277166862885,0.10540589818580631,0.6970111003121899,3.0857825757514137,2.0094213121591937,1.1973766855091181,2.9512176136245247,1.0,3.14,-0.35284553202576824,-1.5892194049730175,0.20729519894414367,-3.14,0.12390187707319855
351,0.7051268534228409,0.10540069627206389,0.6970109940970555,3.085768975799601,2.0094192205608166,1.1973774863552746,2.9512040198065823,1.0,3.14,-0.3528430009150942,-1.5892218988227262,0.2073090316478397,-3.14,0.12392025520770597
352,0.7051259901619942,0.1053954937483012,0.6970108879298688,3.0857553703045437,2.0094171281300217,1.197378287567787,2.9511904204478405,1.0,3.14,-0.3528404687774225,-1.5892243936179282,0.20732286992106627,-3.14,0.12393864077715822
353,0.7051251269040341,0.10539029061568483,0.6970107818107226,3.08574175926388,2.009415034866471,1.197379089146843,2.95117681554594,1.0,3.14,-0.3528379356123202,-1.5892268893589683,0.20733671376613225,-3.14,0.12395703378466617
354,0.7051242636492471,0.10538508687538314,0.6970106757397116,3.08572814267525,2.0094129407698293,1.197379891092631,2.9511632050985206,1.0,3.14,-0.3528354014193545,-1.589229386046191,0.20735056318534756,-3.14,0.1239754342333421
355,0.7051234003979187,0.10537988252856888,0.6970105697169302,3.085714520536291,2.0094108458397555,1.1973806934053388,2.9511495891032213,1.0,3.14,-0.3528328661980918,-1.5892318836799424,0.20736441818102316,-3.14,0.12399384212629963
356,0.7051225371503362,0.1053746775764144,0.6970104637424714,3.0857008928446397,2.009408750075913,1.1973814960851543,2.95113596755768,1.0,3.14,-0.3528303299480992,-1.5892343822605672,0.20737827875547096,-3.14,0.12401225746665383
357,0.7051216739067865,0.10536947202009418,0.6970103578164312,3.085687259597931,2.0094066534779635,1.1973822991322662,2.951122340459533,1.0,3.14,-0.3528277926689428,-1.5892368817884106,0.20739214491100397,-3.14,0.12403068025752112
358,0.7051208106675568,0.10536426586078557,0.6970102519389029,3.085673620793801,2.0094045560455687,1.197383102546863,2.9511087078064158,1.0,3.14,-0.35282525436018886,-1.5892393822638184,0.20740601664993613,-3.14,0.12404911050201936
359,0.7051199474329353,0.10535905909966689,0.6970101461099818,3.085659976429882,2.00940245777839,1.1973839063291334,2.9510950695959632,1.0,3.14,-0.3528227150214032,-1.5892418836871363,0.2074198939745825,-3.14,0.12406754820326776
360,0.7051190842032095,0.10535385173792071,0.6970100403297619,3.085646326503808,2.0094003586760882,1.197384710479265,2.9510814258258087,1.0,3.14,-0.35282017465215193,-1.58924438605871,0.20743377688725906,-3.14,0.12408599336438697
361,0.7051182209786683,0.10534864377672772,0.6970099345983384,3.085632671013207,2.009398258738324,1.1973855149974477,2.9510677764935833,1.0,3.14,-0.3528176332520005,-1.5892468893788851,0.20744766539028286,-3.14,0.12410444598849903
362,0.7051173577596005,0.1053434352172726,0.6970098289158062,3.085619009955712,2.0093961579647606,1.1973863198838703,2.9510541215969193,1.0,3.14,-0.35281509082051443,-1.5892493936480074,0.20746155948597197,-3.14,0.12412290607872735
363,0.7051164945462948,0.10533822606074272,0.6970097232822599,3.0856053433289503,2.009394056355057,1.1973871251387207,2.951040461133446,1.0,3.14,-0.352812547357259,-1.5892518988664235,0.2074754591766455,-3.14,0.12414137363819674
364,0.7051156313390414,0.10533301630832724,0.6970096176977952,3.085591671130552,2.009391953908874,1.1973879307621886,2.9510267951007934,1.0,3.14,-0.352810002861799,-1.5892544050344795,0.20748936446462354,-3.14,0.12415984867003349
365,0.7051147681381303,0.1053278059612144,0.6970095121625067,3.0855779933581418,2.009389850625874,1.1973887367544636,2.951013123496588,1.0,3.14,-0.3528074573336994,-1.5892569121525209,0.20750327535222723,-3.14,0.12417833117736518
366,0.7051139049438513,0.10532259502059803,0.6970094066764903,3.085564310009346,2.0093877465057153,1.1973895431157344,2.9509994463184572,1.0,3.14,-0.3528049107725247,-1.589259420220895,0.20751719184177875,-3.14,0.12419682116332086
367,0.7051130417564955,0.10531738348767135,0.697009301239841,3.0855506210817873,2.0093856415480587,1.197390349846191,2.950985763564026,1.0,3.14,-0.35280236317783914,-1.589261929239948,0.2075311139356012,-3.14,0.12421531863103098
368,0.7051121785763536,0.10531217136363173,0.6970091958526542,3.0855369265730936,2.009383535752565,1.1973911569460232,2.95097207523092,1.0,3.14,-0.3527998145492073,-1.5892644392100261,0.20754504163601883,-3.14,0.12423382358362738
369,0.7051113154037171,0.10530695864967618,0.6970090905150262,3.0855232264808836,2.0093814291188945,1.1973919644154196,2.9509583813167612,1.0,3.14,-0.35279726488619306,-1.5892669501314767,0.20755897494535688,-3.14,0.12425233602424327
370,0.7051104522388777,0.10530174534700591,0.6970089852270516,3.0855095208027796,2.0093793216467053,1.1973927722545707,2.950944681819173,1.0,3.14,-0.35279471418836034,-1.5892694620046464,0.2075729138659416,-3.14,0.12427085595601331
371,0.7051095890821275,0.10529653145682176,0.6970088799888273,3.0854958095364027,2.0093772133356596,1.1973935804636664,2.950930976735776,1.0,3.14,-0.35279216245527273,-1.5892719748298818,0.20758685840010024,-3.14,0.12428938338207357
372,0.7051087259337591,0.10529131698032797,0.6970087748004481,3.0854820926793707,2.0093751041854158,1.1973943890428964,2.9509172660641902,1.0,3.14,-0.3527896096864936,-1.5892744886075307,0.20760080855016114,-3.14,0.1243079183055615
373,0.7051078627940649,0.10528610191873118,0.6970086696620109,3.085468370229302,2.009372994195633,1.1973951979924506,2.9509035498020353,1.0,3.14,-0.35278705588158615,-1.58927700333794,0.2076147643184536,-3.14,0.12432646072961594
374,0.7051069996633381,0.10528088627323884,0.6970085645736117,3.085454642183814,2.0093708833659707,1.1973960073125198,2.9508898279469284,1.0,3.14,-0.35278450104011355,-1.589279519021457,0.207628725707308,-3.14,0.12434501065737719
375,0.7051061365418727,0.10527567004505993,0.6970084595353463,3.0854409085405217,2.009368771696089,1.1973968170032943,2.9508761004964863,1.0,3.14,-0.3527819451616386,-1.5892820356584292,0.20764269271905572,-3.14,0.12436356809198693
376,0.7051052734299619,0.10527045323540819,0.6970083545473105,3.0854271692970388,2.0093666591856447,1.197397627064963,2.9508623674483245,1.0,3.14,-0.35277938824572375,-1.5892845532492046,0.20765666535602917,-3.14,0.12438213303658822
377,0.7051044103279014,0.10526523584549556,0.6970082496096022,3.085413424450981,2.009364545834299,1.1973984374977191,2.9508486288000584,1.0,3.14,-0.3527768302919314,-1.5892870717941299,0.20767064362056176,-3.14,0.12440070549432564
378,0.7051035472359846,0.10526001787653806,0.6970081447223176,3.0853996739999596,2.00936243164171,1.1973992483017517,2.9508348845493004,1.0,3.14,-0.35277427129982397,-1.5892895912935534,0.20768462751498798,-3.14,0.12441928546834505
379,0.705102684154507,0.10525479932975361,0.697008039885553,3.0853859179415855,2.0093603166075353,1.197400059477252,2.9508211346936633,1.0,3.14,-0.3527717112689634,-1.589292111747823,0.20769861704164333,-3.14,0.12443787296179376
380,0.7051018210837638,0.1052495802063622,0.6970079350994056,3.0853721562734693,2.0093582007314335,1.1974008710244113,2.9508073792307576,1.0,3.14,-0.3527691501989115,-1.5892946331572864,0.20771261220286436,-3.14,0.12445646797782052
381,0.7051009580240516,0.10524436050758444,0.6970078303639711,3.08535838899322,2.009356084013065,1.1974016829434193,2.950793618158194,1.0,3.14,-0.35276658808923006,-1.589297155522292,0.2077266130009886,-3.14,0.12447507051957546
382,0.7051000949756647,0.10523914023464408,0.6970077256793473,3.085344616098444,2.009353966452085,1.1974024952344686,2.950779851473581,1.0,3.14,-0.35276402493948017,-1.5892996788431881,0.20774061943835467,-3.14,0.12449368059021014
383,0.7050992319389014,0.10523391938876842,0.6970076210456314,3.085330837586752,2.0093518480481527,1.1974033078977497,2.950766079174527,1.0,3.14,-0.3527614607492235,-1.589302203120323,0.2077546315173022,-3.14,0.12451229819287755
384,0.7050983689140572,0.10522869797118306,0.6970075164629205,3.085317053455746,2.0093497288009265,1.1974041209334536,2.9507523012586385,1.0,3.14,-0.3527588955180212,-1.589304728354045,0.2077686492401718,-3.14,0.12453092333073208
385,0.7050975059014302,0.10522347598311727,0.6970074119313109,3.085303263703032,2.0093476087100646,1.1974049343417728,2.950738517723521,1.0,3.14,-0.35275632924543365,-1.5893072545447025,0.2077826726093052,-3.14,0.12454955600692953
386,0.7050966429013178,0.10521825342580278,0.6970073074509019,3.085289468326213,2.0093454877752235,1.1974057481228988,2.9507247285667786,1.0,3.14,-0.3527537619310213,-1.5893097816926447,0.20779670162704508,-3.14,0.12456819622462711
387,0.7050957799140177,0.10521303030047476,0.6970072030217891,3.085275667322892,2.00934336599606,1.197406562277022,2.950710933786015,1.0,3.14,-0.3527511935743452,-1.5893123097982205,0.20781073629573524,-3.14,0.12458684398698346
388,0.7050949169398286,0.10520780660836727,0.6970070986440711,3.0852618606906703,2.009341243372232,1.1974073768043358,2.9506971333788328,1.0,3.14,-0.352748624174965,-1.5893148388617784,0.20782477661772042,-3.14,0.12460549929715864
389,0.7050940539790488,0.10520258235071735,0.6970069943178452,3.0852480484271467,2.0093391199033976,1.197408191705031,2.9506833273428326,1.0,3.14,-0.3527460537324412,-1.5893173688836677,0.2078388225953465,-3.14,0.12462416215831412
390,0.705093191031978,0.10519735752876477,0.6970068900432097,3.085234230529921,2.0093369955892126,1.1974090069793006,2.950669515675614,1.0,3.14,-0.3527434822463333,-1.5893198998642373,0.20785287423096027,-3.14,0.12464283257361282
391,0.7050923280989152,0.10519213214375134,0.6970067858202621,3.0852204069965916,2.009334870429334,1.1974098226273364,2.950655698374777,1.0,3.14,-0.35274090971620115,-1.5893224318038364,0.2078669315269097,-3.14,0.124661510546219
392,0.70509146518016,0.10518690619691992,0.6970066816491003,3.0852065778247555,2.00933274442342,1.19741063864933,2.9506418754379187,1.0,3.14,-0.35273833614160427,-1.5893249647028147,0.20788099448554365,-3.14,0.12468019607929844
393,0.7050906022760128,0.10518167968951657,0.6970065775298229,3.0851927430120063,2.009330617571124,1.1974114550454749,2.9506280468626356,1.0,3.14,-0.3527357615221013,-1.589327498561522,0.20789506310921213,-3.14,0.12469888917601825
394,0.7050897393867747,0.10517645262278782,0.6970064734625279,3.0851789025559406,2.009328489872105,1.1974122718159632,2.9506142126465233,1.0,3.14,-0.3527331858572518,-1.589330033380307,0.20790913740026612,-3.14,0.12471758983954703
395,0.7050888765127457,0.10517122499798276,0.697006369447313,3.08516505645415,2.009326361326019,1.197413088960988,2.9506003727871764,1.0,3.14,-0.3527306091466143,-1.5893325691595206,0.20792321736105768,-3.14,0.12473629807305478
396,0.7050880136542271,0.10516599681635506,0.697006265484277,3.0851512047042293,2.009324231932521,1.1974139064807403,2.9505865272821885,1.0,3.14,-0.35272803138974773,-1.5893351058995122,0.2079373029939399,-3.14,0.1247550138797129
397,0.7050871508115217,0.10516076807915596,0.6970061615735195,3.085137347303767,2.0093221016912675,1.197414724375415,2.950572676129151,1.0,3.14,-0.35272545258621013,-1.5893376436006312,0.20795139430126688,-3.14,0.12477373726269425
398,0.7050862879849311,0.10515553878764146,0.697006057715138,3.0851234842503543,2.009319970601914,1.1974155426452044,2.950558819325655,1.0,3.14,-0.3527228727355599,-1.589340182263228,0.20796549128539377,-3.14,0.12479246822517313
399,0.7050854251747571,0.1051503089430689,0.6970059539092319,3.0851096155415805,2.0093178386641175,1.1974163612903013,2.9505449568692907,1.0,3.14,-0.35272029183735537,-1.5893427218876528,0.20797959394867677,-3.14,0.12481120677032521
400,0.705084562381303,0.10514507854669725,0.6970058501558997,3.0850957411750315,2.009315705877532,1.1974171803108997,2.9505310887576464,1.0,3.14,-0.35271770989115375,-1.5893452624742561,0.20799370229347314,-3.14,0.1248299529013276
401,0.705083699604872,0.1051398475997892,0.6970057464552404,3.0850818611482955,2.009313572241813,1.1974179997071916,2.9505172149883103,1.0,3.14,-0.35271512689651313,-1.5893478040233884,0.20800781632214116,-3.14,0.12484870662135886
402,0.7050828368457672,0.10513461610360676,0.6970056428073529,3.085067975458958,2.0093114377566175,1.1974188194793718,2.950503335558869,1.0,3.14,-0.35271254285299075,-1.5893503465353997,0.2080219360370401,-3.14,0.12486746793359897
403,0.7050819741042932,0.10512938405941669,0.6970055392123365,3.0850540841046037,2.009309302421599,1.1974196396276329,2.950489450466908,1.0,3.14,-0.3527099577601437,-1.5893528900106415,0.2080360614405304,-3.14,0.12488623684122933
404,0.7050811113807534,0.1051241514684867,0.6970054356702904,3.085040187082815,2.009307166236411,1.1974204601521692,2.9504755597100107,1.0,3.14,-0.3527073716175291,-1.5893554344494643,0.20805019253497342,-3.14,0.1249050133474328
405,0.7050802486754537,0.1051189183320847,0.6970053321813144,3.0850262843911733,2.009305029200711,1.1974212810531744,2.9504616632857608,1.0,3.14,-0.3527047844247039,-1.5893579798522182,0.2080643293227316,-3.14,0.12492379745539361
406,0.7050793859886981,0.1051136846514826,0.6970052287455086,3.0850123760272607,2.0093028913141535,1.1974221023308422,2.95044776119174,1.0,3.14,-0.35270219618122434,-1.5893605262192547,0.20807847180616845,-3.14,0.1249425891682975
407,0.7050785233207925,0.1051084504279552,0.6970051253629709,3.0849984619886572,2.0093007525763915,1.1974229239853666,2.950433853425529,1.0,3.14,-0.352699606886647,-1.5893630735509257,0.20809261998764852,-3.14,0.12496138848933153
408,0.7050776606720427,0.10510321566277793,0.697005022033802,3.084984542272941,2.009298612987079,1.1974237460169421,2.9504199399847084,1.0,3.14,-0.352697016540528,-1.5893656218475816,0.20810677386953738,-3.14,0.1249801954216843
409,0.7050767980427546,0.10509798035722673,0.6970049187581018,3.084970616877689,2.009296472545872,1.1974245684257632,2.950406020866856,1.0,3.14,-0.3526944251424234,-1.5893681711095737,0.20812093345420163,-3.14,0.12499900996854582
410,0.705075935433235,0.10509274451258421,0.6970048155359702,3.0849566858004804,2.0092943312524234,1.197425391212023,2.95039209606955,1.0,3.14,-0.35269183269188925,-1.589370721337254,0.20813509874400898,-3.14,0.1250178321331075
411,0.7050750728437907,0.10508750813012932,0.697004712367507,3.084942749038887,2.0092921891063877,1.1974262143759171,2.9503781655903656,1.0,3.14,-0.35268923918848066,-1.5893732725309737,0.2081492697413281,-3.14,0.1250366619185622
412,0.7050742102747295,0.10508227121114673,0.697004609252813,3.084928806590485,2.0092900461074183,1.1974270379176406,2.950364229426879,1.0,3.14,-0.35268664463175325,-1.5893758246910845,0.20816344644852877,-3.14,0.12505549932810422
413,0.7050733477263584,0.10507703375692314,0.6970045061919875,3.084914858452847,2.0092879022551684,1.1974278618373868,2.9503502875766636,1.0,3.14,-0.35268404902126227,-1.5893783778179384,0.20817762886798183,-3.14,0.12507434436492929
414,0.7050724851989858,0.10507179576874569,0.6970044031851312,3.084900904623545,2.0092857575492924,1.1974286861353511,2.950336340037293,1.0,3.14,-0.35268145235656256,-1.5893809319118872,0.2081918170020591,-3.14,0.12509319703223457
415,0.7050716226929202,0.1050665572479044,0.6970043002323452,3.0848869451001497,2.0092836119894426,1.197429510811729,2.950322386806339,1.0,3.14,-0.35267885463720894,-1.589383486973283,0.2082060108531335,-3.14,0.12511205733321865
416,0.7050707602084706,0.10506131819569148,0.6970041973337291,3.0848729798802315,2.009281465575273,1.1974303358667149,2.950308427881372,1.0,3.14,-0.3526762558627559,-1.589386043002478,0.208220210423579,-3.14,0.1251309252710816
417,0.7050698977459459,0.10505607861340005,0.6970040944893847,3.084859008961357,2.009279318306436,1.1974311613005049,2.950294463259961,1.0,3.14,-0.35267365603275785,-1.5893885999998243,0.20823441571577056,-3.14,0.1251498008490249
418,0.7050690353056559,0.1050508385023269,0.6970039916994122,3.0848450323410948,2.0092771701825853,1.1974319871132935,2.950280492939675,1.0,3.14,-0.352671055146769,-1.5893911579656745,0.20824862673208427,-3.14,0.12516868407025147
419,0.7050681728879106,0.1050455978637706,0.6970038889639126,3.084831050017012,2.009275021203373,1.1974328133052763,2.9502665169180817,1.0,3.14,-0.3526684532043433,-1.589393716900381,0.20826284347489724,-3.14,0.12518757493796567
420,0.7050673104930201,0.1050403566990297,0.6970037862829872,3.084817061986672,2.0092728713684522,1.1974336398766494,2.950252535192746,1.0,3.14,-0.3526658502050344,-1.5893962768042962,0.2082770659465876,-3.14,0.1252064734553733
421,0.7050664481212955,0.10503511500940856,0.6970036836567357,3.0848030682476395,2.009270720677474,1.1974344668276078,2.950238547761234,1.0,3.14,-0.352663246148396,-1.5893988376777735,0.2082912941495346,-3.14,0.12522537962568162
422,0.7050655857730471,0.10502987279621002,0.6970035810852616,3.084789068797478,2.009268569130093,1.1974352941583475,2.950224554621109,1.0,3.14,-0.3526606410339814,-1.589401399521165,0.20830552808611844,-3.14,0.1252442934520993
423,0.7050647234485876,0.10502463006074114,0.6970034785686643,3.084775063633748,2.0092664167259593,1.1974361218690641,2.950210555769934,1.0,3.14,-0.3526580348613437,-1.5894039623348246,0.20831976775872046,-3.14,0.12526321493783646
424,0.7050638611482283,0.10501938680431071,0.6970033761070465,3.084761052754011,2.0092642634647246,1.1974369499599546,2.95019655120527,1.0,3.14,-0.35265542763003566,-1.5894065261191048,0.20833401316972303,-3.14,0.12528214408610472
425,0.7050629988722816,0.10501414302822853,0.6970032737005092,3.084747036155826,2.009262109346043,1.197437778431214,2.950182540924678,1.0,3.14,-0.35265281933961035,-1.5894090908743583,0.20834826432150952,-3.14,0.12530108090011707
426,0.7050621366210598,0.10500889873380687,0.6970031713491541,3.08473301383675,2.009259954369564,1.19743860728304,2.9501685249257164,1.0,3.14,-0.3526502099896199,-1.5894116566009395,0.20836252121646448,-3.14,0.12532002538308795
427,0.7050612743948763,0.10500365392236186,0.6970030690530833,3.0847189857943427,2.0092577985349407,1.1974394365156271,2.9501545032059444,1.0,3.14,-0.3526475995796171,-1.5894142232992012,0.20837678385697336,-3.14,0.12533897753823328
428,0.7050604121940443,0.10499840859520862,0.6970029668123983,3.084704952026157,2.0092556418418237,1.197440266129173,2.950140475762918,1.0,3.14,-0.35264498810915357,-1.5894167909694974,0.2083910522454228,-3.14,0.12535793736877046
429,0.7050595500188781,0.10499316275366757,0.6970028646272015,3.08469091252975,2.0092534842898635,1.1974410961238746,2.950126442594194,1.0,3.14,-0.35264237557778133,-1.5894193596121815,0.20840532638420037,-3.14,0.12537690487791828
430,0.7050586878696912,0.1049879163990589,0.6970027624975946,3.0846768673026754,2.009251325878713,1.1974419264999276,2.950112403697327,1.0,3.14,-0.3526397619850524,-1.589421929227607,0.2084196062756948,-3.14,0.12539588006889696
431,0.7050578257467991,0.10498266953270596,0.6970026604236803,3.084662816342485,2.009249166608021,1.1974427572575297,2.95009835906987,1.0,3.14,-0.352637147330518,-1.5894244998161282,0.20843389192229583,-3.14,0.1254148629449282
432,0.7050569636505161,0.10497742215593296,0.6970025584055606,3.0846487596467296,2.0092470064774406,1.1974435883968777,2.9500843087093753,1.0,3.14,-0.35263453161372954,-1.589427071378099,0.20844818332639425,-3.14,0.12543385350923522
