jkpark150901/flame_robotics_drt/experiment/inspection_ik/session_20260722_143013/fallback/inspection_ik_20260722_143056_rb20_1900es_normalized_fallback.csv
iteration,err_norm,position_error,orientation_error,tcp_x,tcp_y,tcp_z,q0_rt_joint_linear_track,q1_rt_joint_carriage,q2_rt_base,q3_rt_shoulder,q4_rt_elbow,q5_rt_wrist1,q6_rt_wrist2,q7_rt_wrist3
0,4.7992591962574656,2.963763535740732,2.9730211677403293,0.267,-3.2807478955731993e-13,2.541,0.0,0.0,0.0,0.0,0.0,0.0,0.0,0.0
1,4.237393253021669,2.2789862675614954,2.957665075479673,0.35812672379677196,0.9474918815109477,2.300324603772361,0.040793906182557196,0.0590845338012077,-0.06372758966983172,0.5234135873656088,0.007856952887744097,-0.10275843092408814,-0.5076996815901207,-0.10275843092408814
2,4.271067428210366,2.5387625630850703,2.961211530004467,0.5065373244766402,0.33209677959164663,2.3658707879829555,0.24729893008357207,1.0,0.0950944219175166,-0.19060802755529138,-0.3254681187592152,1.7776207756785205,0.5962744598015031,-2.094959951287017
3,3.088789409508407,2.379873922055589,1.6561350732226148,0.8647429352991333,0.8189080321954617,0.6550448437655485,0.7073660311079242,1.0,-0.746336454982647,0.7265833967335877,-3.086136342468036,-0.3149034051903816,0.6591612399493204,1.7804674221654904
4,2.3930426038041026,2.069981139533644,1.0850490336919336,1.5323639989718358,0.8678726252486539,0.572140904403499,1.3404257013559786,1.0,-0.641874908628661,0.6792916615527225,-3.14,-0.1361295327501894,0.32583083357061343,2.0426734726482323
5,2.1489463652417946,2.0247044923330515,0.6911783330753514,2.057030561644004,0.5077419170097558,0.8065190882019189,2.0044917371628657,1.0,-0.42382751260989315,0.2707485977997775,-2.572151098140292,0.07338663893150704,-0.10808596016225652,2.230376659436452
6,1.7142473720997309,1.6367513102076199,0.5022844380082397,2.2669395801367793,0.8939057400686452,0.9279449426385687,2.0150706467431787,1.0,-0.41279771752905864,1.3363888680646565,-2.6942439032949785,0.19230187516198874,-1.1909238980262553,2.3019163357111863
7,1.2767258303919478,1.2272666729050499,0.3490027210224617,2.367383320162789,1.1937466511745916,1.2070180997905349,1.986967447257213,1.0,-0.4034118875889838,1.5693521207918761,-2.2718430116868324,0.18759345384283255,-1.908321470624645,2.5789827056233947
8,0.9032411566911893,0.8685406182300501,0.24674297633597495,2.364520606811148,1.4562900536043184,1.4518556299920329,1.9144063927978068,1.0,-0.32757684717649266,1.4650123350811788,-1.8191635915920785,0.23530499922614054,-2.279853593087363,2.8185198940326597
9,0.6446444067726824,0.6216267351048371,0.17031917265092633,2.3460412708435623,1.6153794179289016,1.6426666136361205,1.9064656832260167,1.0,-0.2351538162117938,1.295665716854591,-1.451503254778648,0.2858444960090173,-2.47713074435022,3.0331425977741984
10,0.49185142545645677,0.4577220501952545,0.1800159238633314,2.332266489367061,1.7190213414343627,1.7739311027099918,1.9418017417690547,1.0,-0.14019316775791082,1.1509832037317818,-1.1604713649950393,0.32719967348401796,-2.611526341917597,3.14
11,0.45490164500784297,0.3520468121979633,0.2879563182089699,2.3218572275597498,1.7856369691814713,1.8624300338274138,1.9966385494910843,1.0,-0.050056180425271435,1.0324593147556604,-0.9263015627440905,0.3560231591432179,-2.7149103077428816,3.14
12,0.4777975938147854,0.28869580385575755,0.3803995083441833,2.3123462388637797,1.8246584205143621,1.921688508952104,2.0592494088437974,1.0,0.03592835802632152,0.9358503390710443,-0.7381660726873204,0.3664723447488176,-2.798168873120319,3.14
13,0.5145790522892305,0.25489661348373494,0.4465471112506765,2.3042667069968936,1.8443553154551173,1.9612777814146776,2.121813794656862,1.0,0.11483999475639023,0.8570806573499459,-0.5858555128344166,0.357557028564239,-2.8673612930769035,3.14
14,0.5411047127390978,0.24063816313491546,0.4840597150263095,2.2973291142247527,1.8511802000412465,1.987644951104533,2.177327933120069,1.0,0.18282168348523825,0.7928802454375301,-0.46230319659512026,0.33145724516665553,-2.9251999031063547,3.14
15,0.5493073305186592,0.2378241210250852,0.49445725744215335,2.291253638237071,1.8504818231816265,2.005154009131666,2.221609363488568,1.0,0.23736507273954832,0.7408076944195296,-0.3626115049410249,0.2917048425511648,-2.972716257168518,3.14
16,0.5394609794311396,0.24032914737328173,0.4822042509403419,2.286101626547703,1.846513629084822,2.01675165004754,2.254047849142047,1.0,0.27828578792690606,0.6987041352455513,-0.2822782801991566,0.24240231675586113,-3.011148188296333,3.14
17,0.5157222731935963,0.24433448572183036,0.45338178226585024,2.2822150021064074,1.8419603755388563,2.024457139103805,2.2765293759467276,1.0,0.30722199879102796,0.6642889856351832,-0.21660356221499852,0.18771529449283825,-3.0423876738420335,3.14
18,0.48323664720769033,0.24809393212959902,0.4139221586858674,2.2799083893703562,1.8379429630164008,2.029686143658169,2.2914757073055005,1.0,0.32636771990313573,0.6355003740280162,-0.1617129361581358,0.13132681294899776,-3.0681551529495827,3.14
19,0.4467366427300923,0.25115017773811565,0.3687410775193037,2.2792537198609497,1.834620342191589,2.033415251438674,2.300877917897096,1.0,0.3378128206591675,0.6109624322794417,-0.11532529014623619,0.07612006567702162,-3.0894670861777795,3.14
20,0.41013991457318405,0.2535970748101979,0.32169742161969345,2.2800798338576436,1.8317998583426331,2.0362734496606474,2.306338172303892,1.0,0.34351422797123754,0.5899891720633215,-0.07640874588869424,0.024122402535120088,-3.106832662414291,3.14
21,0.3763901304471891,0.25565210548309797,0.27568151051681966,2.282074803525468,1.829272242538293,2.0386259624113343,2.3092309938467857,1.0,0.3452918534553183,0.5722657882697786,-0.04439653797458947,-0.023426763132085617,-3.1206353203846215,3.14
22,0.3473500341498684,0.25748503511358084,0.23265354118314852,2.284886096235723,1.8269185128312462,2.0406603371787546,2.3106774531023917,1.0,0.3446930562384338,0.5575464052796462,-0.01865321702870768,-0.0659385812399049,-3.1313291847093137,3.14
23,0.3238357319180948,0.25918616213443174,0.19373441652899825,2.288185058117226,1.8247028990924348,2.0424609441395916,2.3114730554039666,1.0,0.3428751431763364,0.5455194455195791,0.0016590322837627194,-0.10330068950860644,-3.139443966967003,3.14
24,0.30635156004061664,0.2613618971522825,0.15946783273111767,2.2918092489082524,1.8220319529645457,2.0444340546178688,2.3120914103362527,1.0,0.34059755815827614,0.5358078229249698,0.0174849016825187,-0.13571050077500108,-3.14,3.14
25,0.2940360678045797,0.2629628174304076,0.13126487889842764,2.2954048512779908,1.82002750734815,2.0459055268119797,2.3129586530233293,1.0,0.33834197739807226,0.5286677416311263,0.028983929258018806,-0.16226975425357285,-3.14,3.14
26,0.2855590840343113,0.2641284248834911,0.10828882152244107,2.298798397336928,1.818546079152791,2.046993373179424,2.314043998359914,1.0,0.3363387316469768,0.5234120907536345,0.03735470505580015,-0.18396557863368554,-3.14,3.14
27,0.27983602748281206,0.2650131917385017,0.08965883950098337,2.301890730248981,1.8174214889154616,2.047818600291684,2.315237234026278,1.0,0.3346463432224377,0.5194824200230963,0.04353960191528079,-0.20170837033023334,-3.14,3.14
28,0.27603801251673454,0.26570833240313224,0.07462970438216998,2.304637256755167,1.816548865264629,2.048457563760686,2.3164414863499694,1.0,0.3332512776415168,0.5164967599549963,0.048183935117164484,-0.21622809192262712,-3.14,3.14
29,0.27355815868237715,0.26626769732355665,0.06258263525707403,2.3070309226492727,1.8158608666627511,2.0489597105524333,2.317589710247728,1.0,0.3321150982144921,0.5141957671159474,0.05172463366554129,-0.22811499530094048,-3.14,3.14
30,0.2719659557148945,0.2667242426199688,0.05300686436840565,2.3090878097987173,1.8153126235749906,2.049358357771407,2.31864274644061,1.0,0.33119483639103914,0.5124013534225568,0.05445970227615745,-0.23784884066508924,-3.14,3.14
31,0.27096308673762803,0.267099521663241,0.045478881800242184,2.3108365745220976,1.8148728235090537,2.049676957733919,2.3195823523632093,1.0,0.3304509101591411,0.5109887182082907,0.05659578230933461,-0.24582078797984044,-3.14,3.14
32,0.2703464562364359,0.26740880362073616,0.039642619791004204,2.3123113593024724,1.8145186057624538,2.0499326907740936,2.3204042622590033,1.0,0.3298495556010232,0.5098683512116452,0.058279097629647836,-0.2523503474174089,-3.14,3.14
33,0.2699796856210273,0.2676637141951551,0.03519270199415848,2.3135473600756815,1.8142326514828584,2.0501385488523605,2.3211127376453207,1.0,0.32936299275627806,0.5089745996033923,0.059615288173914045,-0.2576987930417799,-3.14,3.14
34,0.26977223191613997,0.2678735681821918,0.03186255194218471,2.3145782529333374,1.8140014881276993,2.0503045837475207,2.321716721291251,1.0,0.3289687638083452,0.5082583493981739,0.060682169140646294,-0.26207992192920876,-3.14,3.14
35,0.26966459329877657,0.26804604879358057,0.02941827244533133,2.3154348496871275,1.8138144549439628,2.0504386920362028,2.3222272984677987,1.0,0.3286488595432549,0.5076822484094439,0.061538056430238776,-0.2656687547039129,-3.14,3.14
36,0.26961806061153726,0.26818757576548896,0.027657385787119487,2.3161445282749162,1.8136630309497739,2.0505471374810536,2.322656112031885,1.0,0.3283888794866298,0.5072175074894822,0.062227306779481656,-0.26860860603627007,-3.14,3.14
37,0.26960772819581824,0.2683035305198634,0.026409794808549766,2.3167311287328154,1.8135403683447457,2.050634918236583,2.323014432184189,1.0,0.3281773083887891,0.5068416992256961,0.06278408588426239,-0.271016847732715,-3.14,3.14
38,0.2696177809672446,0.268398416341572,0.025538089361555997,2.317215112018436,1.8134409492621508,2.0507060369957584,2.32331265690477,1.0,0.32800492340111903,0.5065372027408399,0.06323498831028389,-0.27298961489538986,-3.14,3.14
39,0.2696383435522747,0.26847598727367555,0.024935659862227493,2.3176138530338894,1.8133603223381296,2.0507637064797497,2.323560085430959,1.0,0.32786432021157846,0.5062900787848368,0.06360089760599558,-0.2746056534755673,-3.14,3.14
40,0.26966338847989446,0.2685393590727505,0.024522739488364618,2.317941988847876,1.8132948950483851,2.050810509246048,2.323764858026694,1.0,0.3277495387189015,0.506089239486728,0.06389833261448138,-0.2759294682037794,-3.14,3.14
41,0.26968935615780926,0.26859110694641186,0.024241392385402887,2.3182117755350977,1.8132417675614627,2.0508485236664895,2.323933991798943,1.0,0.3276557686785379,0.5059258251927379,0.0641404389029682,-0.2770138993386941,-3.14,3.14
42,0.26971425005879546,0.2686333516007438,0.024050489308117394,2.3184334277423484,1.8131985988742354,2.0508794240103825,2.3240734675228736,1.0,0.3275791183008412,0.5057927302267167,0.06433773013226934,-0.2779022325177136,-3.14,3.14
43,0.26973704743758725,0.2686678342377731,0.02392131909587265,2.3186154279909683,1.813163498691183,2.0509045602892133,2.3241883393957457,1.0,0.3275164319374915,0.505684237873539,0.06449864994687717,-0.2786299266470047,-3.14,3.14
44,0.2697573185206894,0.2686959811068318,0.023834078410321473,2.318764800545569,1.8131349400863714,2.0509250220933857,2.3242828508166853,1.0,0.3274651459310361,0.5055957368034308,0.06463000285987272,-0.27922602915480377,-3.14,3.14
45,0.2697749827618666,0.26871895839927246,0.023775221972800718,2.3188873492404363,1.8131116890166992,2.0509416896876473,2.324360546516891,1.0,0.3274231741620262,0.505523499062791,0.06473728805062157,-0.2797143352642193,-3.14,3.14
46,0.2697901547391322,0.2687377184447154,0.023735538057923167,2.3189878611621224,1.8130927475012188,2.0509552749357454,2.3244243759433125,1.0,0.3273888167826491,0.5054645051427636,0.06482496022420363,-0.28011433762947535,-3.14,3.14
47,0.2698030483201349,0.2687530382522194,0.023708786357112384,2.3190702793243374,1.8130773078643956,2.050966354096985,2.324476785628079,1.0,0.3273606871369999,0.505416305392596,0.06489663500534076,-0.28044200426587657,-3.14,3.14
48,0.26981391842228813,0.26876555144307684,0.02369075041124189,2.319137847945298,1.8130647159158124,2.050975394125049,2.3245197999667906,1.0,0.32733765302062234,0.5053769097188475,0.0649552516982095,-0.28071041582906753,-3.14,3.14
49,0.26982302680187364,0.26877577456576923,0.02367858603109506,2.3191932339697776,1.8130544413317329,2.0509827737720205,2.3245550907903487,1.0,0.32731878930580466,0.5053446994498227,0.06500320296424023,-0.2809302876764903,-3.14,3.14
50,0.2698306230137188,0.268784128692285,0.02367037670953929,2.3192386282696402,1.8130460538298874,2.050988800538782,2.3245840366177606,1.0,0.32730333962143676,0.5053183566712901,0.06504243861754881,-0.28111039754238804,-3.14,3.14
51,0.26983693479064413,0.26879095708775225,0.023664831835605585,2.3192758296314895,1.8130392039982213,2.050993724303247,2.3246077726983696,1.0,0.327290685279754,0.5052968074035481,0.06507454902575308,-0.2812579358902759,-3.14,3.14
52,0.2698421641365782,0.2687965396355309,0.02366108254664971,2.3193063142721067,1.8130336078594655,2.0509977482899666,2.3246272330054176,1.0,0.3272803200271439,0.5052791757923972,0.06510083234135397,-0.28137879292149937,-3.14,3.14
53,0.26984648676725526,0.2688011045956898,0.023658543943515218,2.319331293254322,1.813029034433669,2.0510010379104333,2.3246431853016083,1.0,0.3272718294923001,0.5052647470977657,0.06512234884598021,-0.2814777936913917,-3.14,3.14
54,0.2698500534064984,0.2688048381804435,0.02365682223408691,2.3193517598306173,1.8130252957069553,2.0510037278962945,2.324656260306915,1.0,0.32726487443450497,0.5052529377332298,0.06513996497748212,-0.2815588907144401,-3.14,3.14
55,0.2698529920130438,0.2688078923475072,0.023655652214627673,2.3193685284301595,1.8130222385325214,2.051005928062355,2.32466697588715,1.0,0.3272591770740179,0.5052432709730041,0.06515438906601996,-0.28162532174401694,-3.14,3.14
56,0.26985541037785304,0.2688103911415102,0.023654855201538125,2.3193822667308517,1.8130197380845035,2.0510077279683614,2.3246757570652594,1.0,0.3272545099274632,0.5052353572260475,0.06516620038609054,-0.281679739022931,-3.14,3.14
57,0.2698573987646647,0.26881243585397274,0.023654310733302254,2.319393522020999,1.8130176925610473,2.051009200694515,2.324682952545215,1.0,0.3272506866826576,0.5052288779987748,0.06517587280551422,-0.2817243151628718,-3.14,3.14
58,0.2698590324131603,0.26881410922268,0.023653937537745275,2.3194027428530153,1.8130160188934477,2.0510104059027157,2.3246888483355006,1.0,0.32724755473613737,0.5052235728426393,0.06518379405707796,-0.2817608298783546,-3.14,3.14
59,0.269860373814883,0.2688154788502748,0.023653680730912008,2.3194102968205637,1.813014649266537,2.051011392321352,2.3246936789676034,1.0,0.3272449890877446,0.5052192287212008,0.06519028145715972,-0.2817907410368599,-3.14,3.14
60,0.269861474726928,0.26881659998828056,0.023653503206376145,2.3194164851469736,1.813013528294047,2.0510121997642066,2.3246976367250123,1.0,0.3272428873437865,0.5052156713412742,0.06519559473591502,-0.2818152428610211,-3.14,3.14
61,0.26986237792034923,0.2688175178052831,0.023653379841733057,2.31942155465282,1.8130126107234514,2.0510128607723455,2.324700879229537,1.0,0.3272411656264094,0.5052127580805037,0.06519994651624193,-0.2818353136060042,-3.14,3.14
62,0.26986311867783785,0.268818269235682,0.02365329359958365,2.3194257075708404,1.8130118595693543,2.051013401950544,2.3247035356733483,1.0,0.3272397552241723,0.5052103722139591,0.06520351087676002,-0.28185175461519874,-3.14,3.14
63,0.26986372606382375,0.2688188844872211,0.02365323290222286,2.319429109593626,1.813011244594172,2.0510138450558917,2.3247057119358487,1.0,0.3272385998491028,0.505208418198773,0.06520643035206793,-0.2818652223132376,-3.14,3.14
64,0.2698642239935182,0.26881938827083557,0.023653189863199454,2.3194318964710967,1.813010741070544,2.0510142078851605,2.3247074947831545,1.0,0.32723765339017064,0.5052068178212396,0.0652088216574643,-0.28187625441347824,-3.14,3.14
65,0.2698646321275255,0.2688198008043742,0.02365315909504911,2.31943417941834,1.813010328772554,2.051014504998579,2.32470895531349,1.0,0.32723687807318214,0.5052055070474594,0.06521078037189916,-0.28188529138614826,-3.14,3.14
66,0.2698649666171575,0.2688201386320947,0.023653136905114842,2.3194360495477944,1.8130099911529545,2.0510147483104966,2.3247101517831164,1.0,0.3272362429534842,0.5052044334482397,0.06521238476964555,-0.2818926940441863,-3.14,3.14
67,0.26986524072319124,0.2688204152939995,0.02365312075244644,2.319437581501457,1.8130097146717252,2.0510149475716584,2.324711131923641,1.0,0.32723572268123113,0.505203554092965,0.0652136989560564,-0.28189875794883495,-3.14,3.14
68,0.26986546532816674,0.26882064187270266,0.02365310888052997,2.3194388364272864,1.8130094882478713,2.051015110763143,2.324711934841901,1.0,0.3272352964898988,0.5052028338266311,0.06521477543421753,-0.28190372521009244,-3.14,3.14
69,0.26986564935961704,0.2688208274403852,0.023653100068820578,2.319439864418044,1.8130093028116354,2.051015244418279,2.3247125925773737,1.0,0.32723494736766806,0.5052022438600541,0.06521565720606545,-0.2819077941531335,-3.14,3.14
70,0.2698658001391099,0.26882097942417854,0.023653093464045236,2.3194407065095644,1.8130091509386086,2.0510153538857803,2.324713131378691,1.0,0.32723466137860746,0.505201760616136,0.06521637949259926,-0.2819111272366173,-3.14,3.14
71,0.26986592366972345,0.26882110390495173,0.023653088465721967,2.319441396317973,1.8130090265506476,2.0510154435449026,2.3247135727498103,1.0,0.3272344271065715,0.5052013647855446,0.06521697114236964,-0.2819138575390125,-3.14,3.14
72,0.26986602487255285,0.2688212058616908,0.023653084648048977,2.319441961381044,1.8130089246713317,2.051015516981419,2.3247139343073377,1.0,0.3272342351996319,0.5052010405536971,0.06521745578482145,-0.2819160940719033,-3.14,3.14
73,0.26986610778110826,0.2688212893714126,0.023653081706691476,2.319442424257123,1.8130088412259693,2.0510155771315715,2.324714230483041,1.0,0.3272340779968647,0.5052007749679138,0.06521785277476792,-0.28191792613240796,-3.14,3.14
74,0.26986617570100435,0.2688213577727377,0.02365307942211072,2.3194428034254235,1.8130087728779947,2.051015626399854,2.3247144730994753,1.0,0.3272339492226083,0.5052005574192744,0.06521817796586345,-0.2819194268684799,-3.14,3.14
75,0.2698662313410545,0.26882141379975055,0.02365307763457211,2.3194431140235707,1.8130087168951075,2.051015666755402,2.3247146718416216,1.0,0.32723384373599657,0.5052003792183534,0.0652184443440627,-0.28192065619943885,-3.14,3.14
76,0.2698662769208473,0.26882145969155197,0.023653076226645253,2.319443368451819,1.8130086710397364,2.0510156998108804,2.3247148346432986,1.0,0.3272337573257731,0.5052002332478098,0.0652186625464295,-0.28192166320833284,-3.14,3.14
77,0.26986631425898744,0.26882149728193405,0.02365307511117739,2.3194435768680206,1.8130086334793876,2.0510157268870577,2.3247149680037484,1.0,0.3272336865422021,0.5052001136778873,0.06521884128605898,-0.28192248810165027,-3.14,3.14
78,0.26986634484546485,0.2688215280727927,0.02365307422286262,2.319443747593115,1.8130086027132593,2.051015749065672,2.3247150772470024,1.0,0.3272336285593709,0.5052000157334248,0.06521898770011217,-0.2819231638146237,-3.14,3.14
79,0.26986636990098695,0.26882155329422597,0.023653073512270868,2.3194438874432928,1.8130085775121703,2.0510157672327107,2.3247151667343626,1.0,0.32723358106238787,0.5051999355030442,0.06521910763488009,-0.281923717326219,-3.14,3.14
80,0.2698663904256139,0.2688215739537466,0.02365307294167003,2.319444002002103,1.8130085568693728,2.0510157821138484,2.324715240038476,1.0,0.32723354215497685,0.5051998697828738,0.06521920587927658,-0.2819241707363126,-3.14,3.14
81,0.26986640723861927,0.2688215908765699,0.02365307248197475,2.3194440958433566,1.8130085399602873,2.051015794303465,2.324715300085935,1.0,0.32723351028377956,0.5051998159485527,0.06521928635609031,-0.2819245421480639,-3.14,3.14
82,0.26986642101116093,0.2688216047386116,0.023653072110568298,2.3194441727137285,1.8130085261095252,2.0510158042884084,2.3247153492741015,1.0,0.32723348417634485,0.5051997718503981,0.06521935227864085,-0.2819248463907126,-3.14,3.14
83,0.2698664322930485,0.26882161609350674,0.023653071809837972,2.3194442356823295,1.8130085147638875,2.051015812467453,2.3247153895668022,1.0,0.327233462790332,0.5051997357275398,0.06521940627909766,-0.2819250956116603,-3.14,3.14
84,0.2698664415346804,0.26882162539473625,0.023653071565813786,2.3194442872632397,1.813008505470253,2.0510158191672345,2.324715422572728,1.0,0.327233445271898,0.5051997061375897,0.06521945051358864,-0.2819252997614751,-3.14,3.14
85,0.2698664491050116,0.26882163301374834,0.023653071367492496,2.3194443295158846,1.8130084978574703,2.051015824655306,2.3247154496096516,1.0,0.3272334309216109,0.5051996818990346,0.06521948674829738,-0.2819254669911846,-3.14,3.14
86,0.2698664553062821,0.2688216392548023,0.023653071206105308,2.3194443641272473,1.8130084916215246,2.051015829150823,2.3247154717570377,1.0,0.3272334191665259,0.5051996620440513,0.06521951642998772,-0.2819256039777189,-3.14,3.14
87,0.26986646038607454,0.2688216443671215,0.023653071074592115,2.3194443924792316,1.8130084865133933,2.0510158328333015,2.3247154898991385,1.0,0.3272334095373116,0.5051996457798558,0.06521954074377341,-0.28192571619049833,-3.14,3.14
88,0.26986646454720353,0.2688216485548526,0.023653070967357415,2.319444415703827,1.8130084823290953,2.051015835849789,2.3247155047602934,1.0,0.3272334016495129,0.5051996324570442,0.06521956066043852,-0.2819258081098094,-3.14,3.14
89,0.2698664679558037,0.26882165198521574,0.02365307087981965,2.319444434728309,1.813008478901546,2.051015838320736,2.3247155169338494,1.0,0.3272333951882008,0.5051996215436625,0.06521957697519976,-0.28192588340568703,-3.14,3.14
90,0.2698664707479672,0.268821654795187,0.023653070808336108,2.3194444503122558,1.8130084760938807,2.051015840344805,2.3247155269058495,1.0,0.32723338989539985,0.5051996126039623,0.06521959033945866,-0.2819259450844475,-3.14,3.14
91,0.26986647303517375,0.2688216570969683,0.023653070749930658,2.31944446307788,1.813008473793989,2.051015842002818,2.3247155350744384,1.0,0.3272333855597887,0.5051996052810014,0.06521960128681065,-0.28192599560872084,-3.14,3.14
92,0.269866474908744,0.2688216589824686,0.02365307070218108,2.319444473534869,1.8130084719100372,2.0510158433609775,2.324715541765758,1.0,0.32723338200826224,0.5051995992823921,0.06521961025435075,-0.28192603699577473,-3.14,3.14
93,0.2698664764434829,0.2688216605269747,0.02365307066312519,2.3194444821007334,1.8130084703668,2.051015844473513,2.3247155472469676,1.0,0.32723337909902117,0.5051995943686254,0.06521961760012537,-0.28192607089805805,-3.14,3.14
94,0.26986647770066685,0.26882166179215544,0.023653070631185734,2.3194444891174784,1.8130084691026587,2.051015845384846,2.3247155517369125,1.0,0.3272333767159095,0.5051995903435079,0.06521962361742861,-0.28192609866917734,-3.14,3.14
95,0.26986647873049124,0.2688216628285275,0.023653070605038944,2.3194444948652597,1.8130084680671383,2.051015846131365,2.3247155554148606,1.0,0.32723337476377834,0.5051995870463282,0.06521962854651261,-0.2819261214179421,-3.14,3.14
96,0.26986647957407356,0.26882166367747246,0.02365307058365209,2.3194444995735655,1.813008467218891,2.051015846742875,2.32471555842766,1.0,0.327233373164686,0.5051995843454388,0.06521963258418029,-0.28192614005263567,-3.14,3.14
97,0.2698664802650959,0.2688216643728854,0.02365307056614266,2.3194445034303848,1.8130084665240498,2.051015847243795,2.324715560895601,1.0,0.327233371854786,0.5051995821330013,0.06521963589164274,-0.28192615531728,-3.14,3.14
98,0.2698664808311479,0.26882166494253396,0.02365307055180652,2.3194445065897056,1.8130084659548695,2.0510158476541243,2.32471556291722,1.0,0.3272333707817788,0.5051995803206798,0.06521963860095645,-0.28192616782134217,-3.14,3.14
99,0.2698664812948303,0.26882166540916175,0.023653070540080364,2.3194445091776688,1.8130084654886254,2.0510158479902447,2.324715564573233,1.0,0.32723336990282254,0.5051995788361141,0.06521964082029554,-0.2819261780640682,-3.14,3.14
100,0.26986648167465666,0.2688216657913999,0.023653070530466606,2.319444511297605,1.8130084651067015,2.0510158482655787,2.3247155659297594,1.0,0.3272333691828238,0.5051995776200295,0.06521964263827117,-0.2819261864544166,-3.14,3.14
101,0.26986648198579233,0.2688216661045115,0.02365307052258971,2.319444513034154,1.8130084647938474,2.051015848491119,2.3247155670409607,1.0,0.32723336859303553,0.5051995766238717,0.06521964412746924,-0.2819261933273863,-3.14,3.14
102,0.2698664822406591,0.26882166636099697,0.023653070516149243,2.319444514456652,1.8130084645375728,2.0510158486758705,2.3247155679512037,1.0,0.32723336810990916,0.5051995758078675,0.06521964534734856,-0.2819261989573923,-3.14,3.14
103,0.2698664824494335,0.26882166657109696,0.023653070510872943,2.3194445156218935,1.8130084643276456,2.05101584882721,2.324715568696831,1.0,0.32723336771415534,0.5051995751394361,0.06521964634661494,-0.2819262035692223,-3.14,3.14
104,0.26986648262045254,0.26882166674320157,0.023653070506554262,2.3194445165764033,1.8130084641556825,2.0510158489511796,2.324715569307613,1.0,0.32723336738997283,0.5051995745918895,0.0652196471651658,-0.2819262073470116,-3.14,3.14
105,0.26986648276054287,0.2688216668841811,0.02365307050302421,2.319444517358292,1.813008464014819,2.0510158490527304,2.3247155698079363,1.0,0.3272333671244181,0.5051995741433655,0.0652196478356833,-0.2819262104415948,-3.14,3.14
106,0.2698664828752974,0.2688216669996644,0.023653070500113796,2.319444517998778,1.8130084638994306,2.051015849135915,2.324715570217777,1.0,0.3272333669068883,0.5051995737759565,0.0652196483849389,-0.2819262129765284,-3.14,3.14
107,0.2698664829692997,0.2688216670942626,0.023653070497729134,2.3194445185234325,1.8130084638049102,2.0510158492040564,2.3247155705534985,1.0,0.32723336672869846,0.5051995734749926,0.06521964883486267,-0.28192621505302407,-3.14,3.14
108,0.2698664830463008,0.26882166717175326,0.023653070495795115,2.319444518953205,1.8130084637274833,2.051015849259874,2.3247155708285057,1.0,0.32723336658273383,0.5051995732284574,0.06521964920341859,-0.2819262167539894,-3.14,3.14
109,0.26986648310937655,0.26882166723522943,0.023653070494199083,2.319444519305254,1.8130084636640593,2.0510158493055974,2.3247155710537784,1.0,0.3272333664631666,0.5051995730265079,0.06521964950532179,-0.2819262181473383,-3.14,3.14
110,0.26986648316104506,0.26882166728722595,0.0236530704928847,2.3194445195936346,1.8130084636121055,2.051015849343052,2.3247155712383107,1.0,0.32723336636522293,0.5051995728610805,0.06521964975262634,-0.28192621928870276,-3.14,3.14
111,0.26986648320337,0.2688216673298194,0.02365307049181442,2.319444519829863,1.8130084635695471,2.0510158493737327,2.324715571389471,1.0,0.3272333662849922,0.5051995727255705,0.06521964995520645,-0.2819262202236536,-3.14,3.14
112,0.2698664832380403,0.2688216673647095,0.023653070490950685,2.31944452002337,1.8130084635346857,2.0510158493988646,2.3247155715132943,1.0,0.327233366219271,0.505199572614567,0.06521965012115022,-0.2819262209895203,-3.14,3.14
113,0.2698664832664412,0.26882166739329016,0.023653070490227773,2.319444520181882,1.8130084635061285,2.051015849419452,2.3247155716147243,1.0,0.32723336616543536,0.5051995725236383,0.06521965025708337,-0.28192622161688147,-3.14,3.14
114,0.2698664832897049,0.26882166741670205,0.02365307048964569,2.3194445203117255,1.813008463482736,2.051015849436316,2.3247155716978103,1.0,0.3272333661213358,0.5051995724491539,0.0652196503684333,-0.2819262221307855,-3.14,3.14
115,0.26986648330876206,0.26882166743588026,0.023653070489157494,2.319444520418089,1.8130084634635735,2.05101584945013,2.3247155717658714,1.0,0.32723336608521164,0.5051995723881398,0.0652196504596459,-0.281926222551751,-3.14,3.14
116,0.26986648332437263,0.2688216674515902,0.023653070488772566,2.319444520505217,1.8130084634478765,2.0510158494614457,2.3247155718216237,1.0,0.32723336605562053,0.5051995723381597,0.06521965053436281,-0.2819262228965857,-3.14,3.14
117,0.2698664833371604,0.26882166746445874,0.02365307048844397,2.3194445205765866,1.8130084634350185,2.051015849470716,2.324715571867293,1.0,0.32723336603138087,0.5051995722972186,0.06521965059556724,-0.2819262231790577,-3.14,3.14
118,0.2698664833476348,0.26882166747499986,0.023653070488181095,2.31944452063505,1.813008463424486,2.0510158494783086,2.324715571904703,1.0,0.32723336601152486,0.5051995722636817,0.06521965064570308,-0.28192622341044515,-3.14,3.14
119,0.2698664833562155,0.26882166748363495,0.023653070487965163,2.31944452068294,1.813008463415858,2.051015849484529,2.3247155719353474,1.0,0.3272333659952597,0.5051995722362099,0.06521965068677188,-0.28192622359998665,-3.14,3.14
120,0.2698664833632442,0.26882166749070796,0.02365307048778678,2.3194445207221697,1.8130084634087908,2.0510158494896236,2.32471557196045,1.0,0.3272333659819361,0.5051995722137065,0.06521965072041341,-0.28192622375524984,-3.14,3.14
121,0.2698664833690013,0.26882166749650216,0.023653070487645953,2.3194445207543044,1.8130084634030015,2.051015849493797,2.3247155719810126,1.0,0.3272333659710221,0.5051995721952726,0.06521965074797097,-0.281926223882434,-3.14,3.14
122,0.26986648337371766,0.2688216675012485,0.023653070487523905,2.3194445207806274,1.813008463398259,2.051015849497216,2.3247155719978565,1.0,0.32723336596208197,0.5051995721801723,0.06521965077054484,-0.2819262239866172,-3.14,3.14
123,0.26986648337758123,0.26882166750513636,0.02365307048743002,2.3194445208021905,1.8130084633943744,2.0510158495000166,2.3247155720116544,1.0,0.3272333659547586,0.5051995721678029,0.06521965078903634,-0.2819262240719591,-3.14,3.14
124,0.2698664833807459,0.2688216675083211,0.023653070487345523,2.3194445208198538,1.8130084633911923,2.0510158495023103,2.324715572022957,1.0,0.32723336594875946,0.5051995721576708,0.06521965080418356,-0.281926224141867,-3.14,3.14
125,0.26986648338333796,0.2688216675109298,0.023653070487289193,2.319444520834322,1.8130084633885857,2.0510158495041897,2.3247155720322152,1.0,0.32723336594384544,0.5051995721493708,0.06521965081659147,-0.28192622419913227,-3.14,3.14
126,0.26986648338546154,0.26882166751306696,0.023653070487232863,2.319444520846175,1.8130084633864503,2.05101584950573,2.3247155720397994,1.0,0.32723336593982005,0.5051995721425719,0.06521965082675545,-0.2819262242460412,-3.14,3.14
127,0.26986648338720076,0.2688216675148168,0.023653070487176533,2.319444520855883,1.813008463384702,2.05101584950699,2.3247155720460118,1.0,0.3272333659365225,0.505199572137003,0.06521965083508119,-0.2819262242844666,-3.14,3.14
128,0.26986648338862546,0.26882166751625064,0.02365307048714837,2.3194445208638363,1.8130084633832693,2.051015849508023,2.3247155720511006,1.0,0.32723336593382135,0.5051995721324409,0.06521965084190125,-0.2819262243159429,-3.14,3.14
129,0.2698664833897926,0.2688216675174255,0.023653070487120204,2.3194445208703502,1.8130084633820953,2.0510158495088686,2.3247155720552692,1.0,0.3272333659316087,0.5051995721287039,0.06521965084748793,-0.2819262243417267,-3.14,3.14
130,0.26986648339074887,0.2688216675183873,0.02365307048708265,2.319444520875687,1.8130084633811343,2.051015849509562,2.324715572058684,1.0,0.32723336592979624,0.5051995721256427,0.06521965085206433,-0.28192622436284764,-3.14,3.14
131,0.26986648339153224,0.26882166751917574,0.023653070487073262,2.3194445208800594,1.8130084633803465,2.0510158495101303,2.3247155720614816,1.0,0.3272333659283117,0.5051995721231348,0.06521965085581312,-0.2819262243801489,-3.14,3.14
132,0.2698664833921738,0.26882166751982134,0.023653070487054482,2.3194445208836396,1.8130084633797015,2.051015849510595,2.3247155720637727,1.0,0.3272333659270955,0.505199572121081,0.06521965085888382,-0.2819262243943213,-3.14,3.14
133,0.2698664833926994,0.26882166752035047,0.023653070487045093,2.319444520886573,1.8130084633791728,2.0510158495109754,2.3247155720656494,1.0,0.3272333659260994,0.5051995721193983,0.06521965086139932,-0.2819262244059307,-3.14,3.14
134,0.26986648339313024,0.2688216675207838,0.023653070487026317,2.319444520888975,1.8130084633787398,2.051015849511288,2.3247155720671873,1.0,0.3272333659252835,0.5051995721180196,0.06521965086345992,-0.2819262244154405,-3.14,3.14
135,0.2698664833934831,0.26882166752113873,0.023653070487026317,2.3194445208909436,1.8130084633783852,2.051015849511544,2.3247155720684467,1.0,0.32723336592461494,0.5051995721168906,0.0652196508651478,-0.28192622442323045,-3.14,3.14
136,0.26986648339377123,0.26882166752142916,0.02365307048700754,2.319444520892556,1.813008463378095,2.0510158495117534,2.3247155720694788,1.0,0.3272333659240673,0.5051995721159658,0.06521965086653048,-0.2819262244296116,-3.14,3.14
137,0.26986648339400826,0.26882166752166714,0.023653070486998152,2.319444520893877,1.8130084633778571,2.0510158495119244,2.324715572070324,1.0,0.3272333659236187,0.5051995721152085,0.06521965086766304,-0.2819262244348388,-3.14,3.14
138,0.2698664833942016,0.2688216675218621,0.02365307048700754,2.3194445208949586,1.8130084633776624,2.0510158495120643,2.324715572071016,1.0,0.32723336592325114,0.505199572114588,0.06521965086859075,-0.2819262244391205,-3.14,3.14
139,0.2698664833943608,0.2688216675220221,0.02365307048700754,2.319444520895845,1.8130084633775025,2.05101584951218,2.3247155720715833,1.0,0.3272333659229502,0.5051995721140795,0.06521965086935068,-0.281926224442628,-3.14,3.14
140,0.2698664833944904,0.2688216675221527,0.023653070486988764,2.319444520896571,1.813008463377372,2.051015849512274,2.324715572072048,1.0,0.3272333659227037,0.5051995721136631,0.06521965086997325,-0.28192622444550114,-3.14,3.14
141,0.2698664833945965,0.26882166752225983,0.02365307048700754,2.319444520897166,1.813008463377265,2.0510158495123516,2.3247155720724284,1.0,0.3272333659225017,0.5051995721133218,0.06521965087048319,-0.2819262244478547,-3.14,3.14
142,0.2698664833946846,0.2688216675223483,0.023653070486998152,2.3194445208976524,1.8130084633771766,2.051015849512415,2.3247155720727397,1.0,0.32723336592233626,0.5051995721130423,0.0652196508709009,-0.2819262244497826,-3.14,3.14
143,0.2698664833947564,0.2688216675224203,0.023653070486988764,2.319444520898052,1.8130084633771046,2.051015849512466,2.3247155720729955,1.0,0.32723336592220076,0.5051995721128135,0.06521965087124315,-0.28192622445136184,-3.14,3.14
144,0.2698664833948147,0.2688216675224792,0.023653070486988764,2.319444520898379,1.8130084633770458,2.0510158495125093,2.3247155720732047,1.0,0.32723336592208996,0.5051995721126257,0.0652196508715235,-0.2819262244526556,-3.14,3.14
145,0.26986648339486247,0.26882166752252723,0.023653070486988764,2.3194445208986463,1.8130084633769978,2.0510158495125435,2.3247155720733756,1.0,0.32723336592199886,0.5051995721124724,0.06521965087175303,-0.28192622445371524,-3.14,3.14
146,0.26986648339490216,0.2688216675225672,0.023653070486988764,2.319444520898865,1.8130084633769579,2.0510158495125723,2.324715572073516,1.0,0.3272333659219244,0.5051995721123463,0.06521965087194115,-0.2819262244545833,-3.14,3.14
147,0.2698664833949344,0.2688216675225996,0.023653070486988764,2.3194445208990455,1.8130084633769254,2.051015849512596,2.324715572073631,1.0,0.3272333659218634,0.5051995721122432,0.06521965087209526,-0.2819262244552944,-3.14,3.14
148,0.2698664833949609,0.26882166752262604,0.023653070486988764,2.3194445208991925,1.813008463376899,2.051015849512615,2.324715572073725,1.0,0.3272333659218134,0.5051995721121588,0.06521965087222145,-0.28192622445587684,-3.14,3.14
149,0.2698664833949819,0.26882166752264763,0.023653070486988764,2.3194445208993124,1.8130084633768775,2.0510158495126305,2.324715572073802,1.0,0.3272333659217725,0.5051995721120898,0.06521965087232483,-0.28192622445635396,-3.14,3.14
150,0.2698664833950001,0.2688216675226656,0.023653070486979375,2.3194445208994114,1.8130084633768595,2.0510158495126434,2.3247155720738655,1.0,0.327233365921739,0.505199572112033,0.06521965087240954,-0.28192622445674487,-3.14,3.14
151,0.26986648339501473,0.2688216675226803,0.023653070486979375,2.319444520899492,1.8130084633768448,2.051015849512654,2.324715572073917,1.0,0.3272333659217115,0.5051995721119866,0.06521965087247887,-0.281926224457065,-3.14,3.14
152,0.26986648339502683,0.2688216675226923,0.023653070486988764,2.3194445208995584,1.8130084633768329,2.051015849512663,2.3247155720739596,1.0,0.32723336592168895,0.5051995721119485,0.06521965087253578,-0.28192622445732723,-3.14,3.14
153,0.26986648339503655,0.26882166752270187,0.023653070486988764,2.319444520899614,1.8130084633768233,2.051015849512669,2.3247155720739947,1.0,0.3272333659216705,0.5051995721119175,0.06521965087258237,-0.28192622445754206,-3.14,3.14
154,0.26986648339504377,0.2688216675227101,0.023653070486988764,2.319444520899658,1.813008463376815,2.0510158495126753,2.3247155720740227,1.0,0.3272333659216554,0.5051995721118918,0.06521965087262044,-0.28192622445771803,-3.14,3.14
155,0.26986648339505026,0.2688216675227165,0.023653070486979375,2.319444520899694,1.8130084633768087,2.0510158495126802,2.3247155720740458,1.0,0.3272333659216429,0.505199572111871,0.06521965087265166,-0.28192622445786214,-3.14,3.14
156,0.2698664833950562,0.26882166752272185,0.023653070486979375,2.319444520899723,1.8130084633768033,2.051015849512684,2.324715572074065,1.0,0.32723336592163277,0.5051995721118541,0.06521965087267721,-0.2819262244579802,-3.14,3.14
157,0.2698664833950606,0.2688216675227265,0.023653070486988764,2.319444520899748,1.8130084633767987,2.051015849512687,2.324715572074081,1.0,0.3272333659216245,0.50519957211184,0.06521965087269822,-0.2819262244580769,-3.14,3.14
158,0.26986648339506436,0.2688216675227303,0.023653070486979375,2.3194445208997685,1.8130084633767949,2.05101584951269,2.324715572074094,1.0,0.32723336592161784,0.5051995721118283,0.06521965087271543,-0.28192622445815624,-3.14,3.14
159,0.2698664833950666,0.26882166752273273,0.023653070486988764,2.319444520899786,1.8130084633767924,2.051015849512692,2.324715572074105,1.0,0.3272333659216121,0.5051995721118191,0.06521965087272945,-0.28192622445822113,-3.14,3.14
160,0.2698664833950689,0.2688216675227352,0.023653070486988764,2.3194445208997987,1.81300846337679,2.0510158495126936,2.3247155720741133,1.0,0.32723336592160757,0.5051995721118115,0.0652196508727409,-0.28192622445827425,-3.14,3.14
161,0.26986648339507135,0.2688216675227372,0.023653070486979375,2.31944452089981,1.813008463376788,2.051015849512695,2.3247155720741204,1.0,0.3272333659216038,0.5051995721118052,0.06521965087275032,-0.2819262244583178,-3.14,3.14
162,0.2698664833950727,0.2688216675227388,0.023653070486988764,2.319444520899819,1.8130084633767864,2.051015849512696,2.324715572074126,1.0,0.32723336592160074,0.5051995721118,0.06521965087275804,-0.2819262244583534,-3.14,3.14
163,0.2698664833950738,0.26882166752273984,0.023653070486988764,2.319444520899826,1.8130084633767853,2.051015849512697,2.3247155720741306,1.0,0.3272333659215982,0.5051995721117959,0.06521965087276434,-0.2819262244583826,-3.14,3.14
164,0.2698664833950751,0.26882166752274117,0.023653070486988764,2.3194445208998324,1.813008463376784,2.051015849512698,2.3247155720741346,1.0,0.3272333659215962,0.5051995721117924,0.06521965087276954,-0.2819262244584066,-3.14,3.14
165,0.2698664833950764,0.26882166752274206,0.023653070486979375,2.3194445208998364,1.8130084633767831,2.051015849512698,2.3247155720741373,1.0,0.3272333659215946,0.5051995721117895,0.06521965087277377,-0.28192622445842624,-3.14,3.14
166,0.2698664833950767,0.268821667522743,0.023653070486979375,2.3194445208998404,1.8130084633767822,2.0510158495126993,2.32471557207414,1.0,0.3272333659215933,0.5051995721117869,0.06521965087277735,-0.28192622445844234,-3.14,3.14
167,0.26986648339507674,0.2688216675227432,0.023653070486988764,2.319444520899844,1.813008463376782,2.0510158495126998,2.324715572074142,1.0,0.32723336592159213,0.5051995721117851,0.0652196508727802,-0.28192622445845544,-3.14,3.14
168,0.26986648339507746,0.26882166752274367,0.023653070486979375,2.3194445208998467,1.8130084633767816,2.0510158495126998,2.324715572074144,1.0,0.3272333659215911,0.5051995721117837,0.0652196508727825,-0.28192622445846616,-3.14,3.14
169,0.2698664833950781,0.26882166752274433,0.023653070486988764,2.3194445208998498,1.813008463376781,2.0510158495127,2.3247155720741453,1.0,0.3272333659215903,0.5051995721117825,0.0652196508727844,-0.28192622445847504,-3.14,3.14
170,0.26986648339507835,0.2688216675227445,0.023653070486979375,2.3194445208998506,1.8130084633767807,2.0510158495127007,2.3247155720741457,1.0,0.3272333659215896,0.5051995721117816,0.06521965087278589,-0.28192622445848226,-3.14,3.14
171,0.26986648339507824,0.2688216675227441,0.023653070486988764,2.319444520899852,1.8130084633767811,2.0510158495127,2.3247155720741466,1.0,0.32723336592158897,0.505199572111781,0.06521965087278715,-0.28192622445848814,-3.14,3.14
172,0.2698664833950787,0.2688216675227448,0.023653070486988764,2.319444520899853,1.8130084633767805,2.0510158495127,2.3247155720741475,1.0,0.3272333659215886,0.5051995721117801,0.06521965087278822,-0.28192622445849297,-3.14,3.14
173,0.26986648339507885,0.26882166752274494,0.023653070486988764,2.3194445208998538,1.8130084633767802,2.0510158495127007,2.3247155720741484,1.0,0.3272333659215884,0.5051995721117793,0.06521965087278914,-0.281926224458497,-3.14,3.14
174,0.26986648339507896,0.2688216675227454,0.023653070486988764,2.319444520899855,1.8130084633767798,2.051015849512701,2.3247155720741493,1.0,0.32723336592158814,0.5051995721117787,0.06521965087278989,-0.2819262244585003,-3.14,3.14
175,0.2698664833950789,0.26882166752274517,0.023653070486988764,2.319444520899856,1.81300846337678,2.051015849512701,2.32471557207415,1.0,0.32723336592158786,0.5051995721117783,0.06521965087279047,-0.28192622445850296,-3.14,3.14
176,0.26986648339507907,0.26882166752274517,0.023653070486988764,2.3194445208998564,1.81300846337678,2.0510158495127007,2.3247155720741506,1.0,0.32723336592158775,0.505199572111778,0.06521965087279098,-0.2819262244585052,-3.14,3.14
177,0.26986648339507957,0.26882166752274583,0.023653070486988764,2.319444520899857,1.8130084633767793,2.0510158495127015,2.3247155720741506,1.0,0.32723336592158775,0.5051995721117775,0.06521965087279141,-0.28192622445850707,-3.14,3.14
178,0.26986648339507974,0.26882166752274606,0.023653070486988764,2.319444520899857,1.8130084633767791,2.0510158495127015,2.3247155720741506,1.0,0.3272333659215875,0.5051995721117775,0.06521965087279165,-0.2819262244585085,-3.14,3.14
179,0.2698664833950794,0.2688216675227454,0.023653070486988764,2.3194445208998573,1.8130084633767798,2.0510158495127007,2.324715572074151,1.0,0.3272333659215873,0.5051995721117776,0.06521965087279191,-0.2819262244585096,-3.14,3.14
180,0.2698664833950799,0.26882166752274606,0.023653070486988764,2.3194445208998573,1.8130084633767791,2.051015849512701,2.324715572074151,1.0,0.32723336592158736,0.5051995721117771,0.06521965087279215,-0.2819262244585107,-3.14,3.14
181,0.2698664833950801,0.26882166752274606,0.023653070486988764,2.3194445208998573,1.8130084633767791,2.051015849512701,2.324715572074151,1.0,0.32723336592158736,0.505199572111777,0.06521965087279234,-0.2819262244585115,-3.14,3.14
182,0.26986648339508046,0.2688216675227465,0.023653070486979375,2.3194445208998578,1.8130084633767787,2.0510158495127015,2.324715572074151,1.0,0.32723336592158736,0.5051995721117767,0.06521965087279256,-0.2819262244585122,-3.14,3.14
183,0.2698664833950801,0.26882166752274606,0.023653070486988764,2.3194445208998578,1.8130084633767791,2.051015849512701,2.324715572074151,1.0,0.32723336592158714,0.5051995721117768,0.06521965087279262,-0.2819262244585127,-3.14,3.14
184,0.2698664833950804,0.2688216675227463,0.023653070486988764,2.319444520899858,1.813008463376779,2.0510158495127015,2.324715572074151,1.0,0.3272333659215872,0.5051995721117766,0.06521965087279274,-0.2819262244585132,-3.14,3.14
185,0.2698664833950804,0.2688216675227465,0.023653070486988764,2.319444520899858,1.8130084633767787,2.0510158495127015,2.324715572074151,1.0,0.32723336592158725,0.5051995721117765,0.06521965087279286,-0.2819262244585135,-3.14,3.14
186,0.2698664833950806,0.2688216675227463,0.023653070486979375,2.319444520899858,1.813008463376779,2.0510158495127015,2.3247155720741515,1.0,0.3272333659215872,0.5051995721117766,0.0652196508727929,-0.2819262244585138,-3.14,3.14
187,0.2698664833950806,0.2688216675227465,0.023653070486979375,2.319444520899858,1.8130084633767787,2.0510158495127015,2.3247155720741515,1.0,0.3272333659215872,0.5051995721117765,0.06521965087279297,-0.28192622445851406,-3.14,3.14
188,0.2698664833950804,0.2688216675227463,0.023653070486979375,2.3194445208998586,1.813008463376779,2.0510158495127015,2.324715572074152,1.0,0.32723336592158714,0.5051995721117766,0.06521965087279301,-0.28192622445851423,-3.14,3.14
189,0.26986648339508024,0.26882166752274606,0.023653070486988764,2.319444520899859,1.8130084633767791,2.0510158495127015,2.324715572074152,1.0,0.3272333659215871,0.5051995721117766,0.06521965087279298,-0.28192622445851434,-3.14,3.14
190,0.2698664833950804,0.2688216675227463,0.023653070486988764,2.319444520899859,1.813008463376779,2.0510158495127015,2.324715572074152,1.0,0.3272333659215871,0.5051995721117765,0.06521965087279302,-0.2819262244585145,-3.14,3.14
191,0.2698664833950803,0.2688216675227463,0.023653070486988764,2.319444520899859,1.813008463376779,2.0510158495127015,2.324715572074152,1.0,0.3272333659215872,0.5051995721117764,0.06521965087279313,-0.2819262244585147,-3.14,3.14
192,0.26986648339508046,0.2688216675227463,0.023653070486988764,2.3194445208998595,1.813008463376779,2.0510158495127015,2.3247155720741524,1.0,0.32723336592158714,0.5051995721117764,0.06521965087279313,-0.28192622445851473,-3.14,3.14
193,0.26986648339508035,0.2688216675227463,0.023653070486988764,2.3194445208998595,1.813008463376779,2.0510158495127015,2.3247155720741524,1.0,0.3272333659215871,0.5051995721117764,0.0652196508727931,-0.2819262244585148,-3.14,3.14
194,0.26986648339508046,0.2688216675227463,0.023653070486988764,2.3194445208998595,1.813008463376779,2.0510158495127015,2.3247155720741524,1.0,0.327233365921587,0.5051995721117765,0.06521965087279313,-0.28192622445851484,-3.14,3.14
195,0.2698664833950802,0.26882166752274606,0.023653070486988764,2.319444520899859,1.8130084633767791,2.0510158495127015,2.3247155720741524,1.0,0.327233365921587,0.5051995721117766,0.06521965087279309,-0.2819262244585149,-3.14,3.14
196,0.2698664833950802,0.26882166752274606,0.023653070486988764,2.319444520899859,1.8130084633767791,2.0510158495127015,2.3247155720741524,1.0,0.327233365921587,0.5051995721117766,0.06521965087279308,-0.2819262244585149,-3.14,3.14
197,0.2698664833950802,0.26882166752274606,0.023653070486988764,2.319444520899859,1.8130084633767791,2.0510158495127015,2.3247155720741524,1.0,0.327233365921587,0.5051995721117766,0.0652196508727931,-0.2819262244585149,-3.14,3.14
198,0.2698664833950802,0.26882166752274606,0.023653070486988764,2.319444520899859,1.8130084633767791,2.0510158495127015,2.3247155720741524,1.0,0.327233365921587,0.5051995721117766,0.06521965087279309,-0.2819262244585149,-3.14,3.14
199,0.2698664833950802,0.26882166752274606,0.023653070486988764,2.319444520899859,1.8130084633767791,2.0510158495127015,2.3247155720741524,1.0,0.327233365921587,0.5051995721117766,0.06521965087279308,-0.2819262244585149,-3.14,3.14
200,0.2698664833950802,0.26882166752274606,0.023653070486988764,2.319444520899859,1.8130084633767791,2.0510158495127015,2.3247155720741524,1.0,0.327233365921587,0.5051995721117766,0.0652196508727931,-0.2819262244585149,-3.14,3.14
201,0.2698664833950802,0.26882166752274606,0.023653070486988764,2.319444520899859,1.8130084633767791,2.0510158495127015,2.3247155720741524,1.0,0.327233365921587,0.5051995721117766,0.06521965087279309,-0.2819262244585149,-3.14,3.14
202,0.2698664833950802,0.26882166752274606,0.023653070486988764,2.319444520899859,1.8130084633767791,2.0510158495127015,2.3247155720741524,1.0,0.327233365921587,0.5051995721117766,0.06521965087279308,-0.2819262244585149,-3.14,3.14
203,0.2698664833950802,0.26882166752274606,0.023653070486988764,2.319444520899859,1.8130084633767791,2.0510158495127015,2.3247155720741524,1.0,0.327233365921587,0.5051995721117766,0.0652196508727931,-0.2819262244585149,-3.14,3.14
204,0.2698664833950802,0.26882166752274606,0.023653070486988764,2.319444520899859,1.8130084633767791,2.0510158495127015,2.3247155720741524,1.0,0.327233365921587,0.5051995721117766,0.06521965087279309,-0.2819262244585149,-3.14,3.14
205,0.2698664833950802,0.26882166752274606,0.023653070486988764,2.319444520899859,1.8130084633767791,2.0510158495127015,2.3247155720741524,1.0,0.327233365921587,0.5051995721117766,0.06521965087279308,-0.2819262244585149,-3.14,3.14
206,0.2698664833950802,0.26882166752274606,0.023653070486988764,2.319444520899859,1.8130084633767791,2.0510158495127015,2.3247155720741524,1.0,0.327233365921587,0.5051995721117766,0.0652196508727931,-0.2819262244585149,-3.14,3.14
207,0.2698664833950802,0.26882166752274606,0.023653070486988764,2.319444520899859,1.8130084633767791,2.0510158495127015,2.3247155720741524,1.0,0.327233365921587,0.5051995721117766,0.06521965087279309,-0.2819262244585149,-3.14,3.14
208,0.2698664833950802,0.26882166752274606,0.023653070486988764,2.319444520899859,1.8130084633767791,2.0510158495127015,2.3247155720741524,1.0,0.327233365921587,0.5051995721117766,0.06521965087279308,-0.2819262244585149,-3.14,3.14
209,0.2698664833950802,0.26882166752274606,0.023653070486988764,2.319444520899859,1.8130084633767791,2.0510158495127015,2.3247155720741524,1.0,0.327233365921587,0.5051995721117766,0.0652196508727931,-0.2819262244585149,-3.14,3.14
210,0.2698664833950802,0.26882166752274606,0.023653070486988764,2.319444520899859,1.8130084633767791,2.0510158495127015,2.3247155720741524,1.0,0.327233365921587,0.5051995721117766,0.06521965087279309,-0.2819262244585149,-3.14,3.14
211,0.2698664833950802,0.26882166752274606,0.023653070486988764,2.319444520899859,1.8130084633767791,2.0510158495127015,2.3247155720741524,1.0,0.327233365921587,0.5051995721117766,0.06521965087279308,-0.2819262244585149,-3.14,3.14
212,0.2698664833950802,0.26882166752274606,0.023653070486988764,2.319444520899859,1.8130084633767791,2.0510158495127015,2.3247155720741524,1.0,0.327233365921587,0.5051995721117766,0.0652196508727931,-0.2819262244585149,-3.14,3.14
213,0.2698664833950802,0.26882166752274606,0.023653070486988764,2.319444520899859,1.8130084633767791,2.0510158495127015,2.3247155720741524,1.0,0.327233365921587,0.5051995721117766,0.06521965087279309,-0.2819262244585149,-3.14,3.14
214,0.2698664833950802,0.26882166752274606,0.023653070486988764,2.319444520899859,1.8130084633767791,2.0510158495127015,2.3247155720741524,1.0,0.327233365921587,0.5051995721117766,0.06521965087279308,-0.2819262244585149,-3.14,3.14
215,0.2698664833950802,0.26882166752274606,0.023653070486988764,2.319444520899859,1.8130084633767791,2.0510158495127015,2.3247155720741524,1.0,0.327233365921587,0.5051995721117766,0.0652196508727931,-0.2819262244585149,-3.14,3.14
216,0.2698664833950802,0.26882166752274606,0.023653070486988764,2.319444520899859,1.8130084633767791,2.0510158495127015,2.3247155720741524,1.0,0.327233365921587,0.5051995721117766,0.06521965087279309,-0.2819262244585149,-3.14,3.14
217,0.2698664833950802,0.26882166752274606,0.023653070486988764,2.319444520899859,1.8130084633767791,2.0510158495127015,2.3247155720741524,1.0,0.327233365921587,0.5051995721117766,0.06521965087279308,-0.2819262244585149,-3.14,3.14
218,0.2698664833950802,0.26882166752274606,0.023653070486988764,2.319444520899859,1.8130084633767791,2.0510158495127015,2.3247155720741524,1.0,0.327233365921587,0.5051995721117766,0.0652196508727931,-0.2819262244585149,-3.14,3.14
219,0.2698664833950802,0.26882166752274606,0.023653070486988764,2.319444520899859,1.8130084633767791,2.0510158495127015,2.3247155720741524,1.0,0.327233365921587,0.5051995721117766,0.06521965087279309,-0.2819262244585149,-3.14,3.14
220,0.2698664833950802,0.26882166752274606,0.023653070486988764,2.319444520899859,1.8130084633767791,2.0510158495127015,2.3247155720741524,1.0,0.327233365921587,0.5051995721117766,0.06521965087279308,-0.2819262244585149,-3.14,3.14
221,0.2698664833950802,0.26882166752274606,0.023653070486988764,2.319444520899859,1.8130084633767791,2.0510158495127015,2.3247155720741524,1.0,0.327233365921587,0.5051995721117766,0.0652196508727931,-0.2819262244585149,-3.14,3.14
222,0.2698664833950802,0.26882166752274606,0.023653070486988764,2.319444520899859,1.8130084633767791,2.0510158495127015,2.3247155720741524,1.0,0.327233365921587,0.5051995721117766,0.06521965087279309,-0.2819262244585149,-3.14,3.14
223,0.2698664833950802,0.26882166752274606,0.023653070486988764,2.319444520899859,1.8130084633767791,2.0510158495127015,2.3247155720741524,1.0,0.327233365921587,0.5051995721117766,0.06521965087279308,-0.2819262244585149,-3.14,3.14
224,0.2698664833950802,0.26882166752274606,0.023653070486988764,2.319444520899859,1.8130084633767791,2.0510158495127015,2.3247155720741524,1.0,0.327233365921587,0.5051995721117766,0.0652196508727931,-0.2819262244585149,-3.14,3.14
225,0.2698664833950802,0.26882166752274606,0.023653070486988764,2.319444520899859,1.8130084633767791,2.0510158495127015,2.3247155720741524,1.0,0.327233365921587,0.5051995721117766,0.06521965087279309,-0.2819262244585149,-3.14,3.14
226,0.2698664833950802,0.26882166752274606,0.023653070486988764,2.319444520899859,1.8130084633767791,2.0510158495127015,2.3247155720741524,1.0,0.327233365921587,0.5051995721117766,0.06521965087279308,-0.2819262244585149,-3.14,3.14
227,0.2698664833950802,0.26882166752274606,0.023653070486988764,2.319444520899859,1.8130084633767791,2.0510158495127015,2.3247155720741524,1.0,0.327233365921587,0.5051995721117766,0.0652196508727931,-0.2819262244585149,-3.14,3.14
228,0.2698664833950802,0.26882166752274606,0.023653070486988764,2.319444520899859,1.8130084633767791,2.0510158495127015,2.3247155720741524,1.0,0.327233365921587,0.5051995721117766,0.06521965087279309,-0.2819262244585149,-3.14,3.14
229,0.2698664833950802,0.26882166752274606,0.023653070486988764,2.319444520899859,1.8130084633767791,2.0510158495127015,2.3247155720741524,1.0,0.327233365921587,0.5051995721117766,0.06521965087279308,-0.2819262244585149,-3.14,3.14
230,0.2698664833950802,0.26882166752274606,0.023653070486988764,2.319444520899859,1.8130084633767791,2.0510158495127015,2.3247155720741524,1.0,0.327233365921587,0.5051995721117766,0.0652196508727931,-0.2819262244585149,-3.14,3.14
231,0.2698664833950802,0.26882166752274606,0.023653070486988764,2.319444520899859,1.8130084633767791,2.0510158495127015,2.3247155720741524,1.0,0.327233365921587,0.5051995721117766,0.06521965087279309,-0.2819262244585149,-3.14,3.14
232,0.2698664833950802,0.26882166752274606,0.023653070486988764,2.319444520899859,1.8130084633767791,2.0510158495127015,2.3247155720741524,1.0,0.327233365921587,0.5051995721117766,0.06521965087279308,-0.2819262244585149,-3.14,3.14
233,0.2698664833950802,0.26882166752274606,0.023653070486988764,2.319444520899859,1.8130084633767791,2.0510158495127015,2.3247155720741524,1.0,0.327233365921587,0.5051995721117766,0.0652196508727931,-0.2819262244585149,-3.14,3.14
234,0.2698664833950802,0.26882166752274606,0.023653070486988764,2.319444520899859,1.8130084633767791,2.0510158495127015,2.3247155720741524,1.0,0.327233365921587,0.5051995721117766,0.06521965087279309,-0.2819262244585149,-3.14,3.14
235,0.2698664833950802,0.26882166752274606,0.023653070486988764,2.319444520899859,1.8130084633767791,2.0510158495127015,2.3247155720741524,1.0,0.327233365921587,0.5051995721117766,0.06521965087279308,-0.2819262244585149,-3.14,3.14
236,0.2698664833950802,0.26882166752274606,0.023653070486988764,2.319444520899859,1.8130084633767791,2.0510158495127015,2.3247155720741524,1.0,0.327233365921587,0.5051995721117766,0.0652196508727931,-0.2819262244585149,-3.14,3.14
237,0.2698664833950802,0.26882166752274606,0.023653070486988764,2.319444520899859,1.8130084633767791,2.0510158495127015,2.3247155720741524,1.0,0.327233365921587,0.5051995721117766,0.06521965087279309,-0.2819262244585149,-3.14,3.14
238,0.2698664833950802,0.26882166752274606,0.023653070486988764,2.319444520899859,1.8130084633767791,2.0510158495127015,2.3247155720741524,1.0,0.327233365921587,0.5051995721117766,0.06521965087279308,-0.2819262244585149,-3.14,3.14
239,0.2698664833950802,0.26882166752274606,0.023653070486988764,2.319444520899859,1.8130084633767791,2.0510158495127015,2.3247155720741524,1.0,0.327233365921587,0.5051995721117766,0.0652196508727931,-0.2819262244585149,-3.14,3.14
240,0.2698664833950802,0.26882166752274606,0.023653070486988764,2.319444520899859,1.8130084633767791,2.0510158495127015,2.3247155720741524,1.0,0.327233365921587,0.5051995721117766,0.06521965087279309,-0.2819262244585149,-3.14,3.14
241,0.2698664833950802,0.26882166752274606,0.023653070486988764,2.319444520899859,1.8130084633767791,2.0510158495127015,2.3247155720741524,1.0,0.327233365921587,0.5051995721117766,0.06521965087279308,-0.2819262244585149,-3.14,3.14
242,0.2698664833950802,0.26882166752274606,0.023653070486988764,2.319444520899859,1.8130084633767791,2.0510158495127015,2.3247155720741524,1.0,0.327233365921587,0.5051995721117766,0.0652196508727931,-0.2819262244585149,-3.14,3.14
243,0.2698664833950802,0.26882166752274606,0.023653070486988764,2.319444520899859,1.8130084633767791,2.0510158495127015,2.3247155720741524,1.0,0.327233365921587,0.5051995721117766,0.06521965087279309,-0.2819262244585149,-3.14,3.14
244,0.2698664833950802,0.26882166752274606,0.023653070486988764,2.319444520899859,1.8130084633767791,2.0510158495127015,2.3247155720741524,1.0,0.327233365921587,0.5051995721117766,0.06521965087279308,-0.2819262244585149,-3.14,3.14
245,0.2698664833950802,0.26882166752274606,0.023653070486988764,2.319444520899859,1.8130084633767791,2.0510158495127015,2.3247155720741524,1.0,0.327233365921587,0.5051995721117766,0.0652196508727931,-0.2819262244585149,-3.14,3.14
246,0.2698664833950802,0.26882166752274606,0.023653070486988764,2.319444520899859,1.8130084633767791,2.0510158495127015,2.3247155720741524,1.0,0.327233365921587,0.5051995721117766,0.06521965087279309,-0.2819262244585149,-3.14,3.14
247,0.2698664833950802,0.26882166752274606,0.023653070486988764,2.319444520899859,1.8130084633767791,2.0510158495127015,2.3247155720741524,1.0,0.327233365921587,0.5051995721117766,0.06521965087279308,-0.2819262244585149,-3.14,3.14
248,0.2698664833950802,0.26882166752274606,0.023653070486988764,2.319444520899859,1.8130084633767791,2.0510158495127015,2.3247155720741524,1.0,0.327233365921587,0.5051995721117766,0.0652196508727931,-0.2819262244585149,-3.14,3.14
249,0.2698664833950802,0.26882166752274606,0.023653070486988764,2.319444520899859,1.8130084633767791,2.0510158495127015,2.3247155720741524,1.0,0.327233365921587,0.5051995721117766,0.06521965087279309,-0.2819262244585149,-3.14,3.14
250,0.2698664833950802,0.26882166752274606,0.023653070486988764,2.319444520899859,1.8130084633767791,2.0510158495127015,2.3247155720741524,1.0,0.327233365921587,0.5051995721117766,0.06521965087279308,-0.2819262244585149,-3.14,3.14
251,0.2698664833950802,0.26882166752274606,0.023653070486988764,2.319444520899859,1.8130084633767791,2.0510158495127015,2.3247155720741524,1.0,0.327233365921587,0.5051995721117766,0.0652196508727931,-0.2819262244585149,-3.14,3.14
252,0.2698664833950802,0.26882166752274606,0.023653070486988764,2.319444520899859,1.8130084633767791,2.0510158495127015,2.3247155720741524,1.0,0.327233365921587,0.5051995721117766,0.06521965087279309,-0.2819262244585149,-3.14,3.14
253,0.2698664833950802,0.26882166752274606,0.023653070486988764,2.319444520899859,1.8130084633767791,2.0510158495127015,2.3247155720741524,1.0,0.327233365921587,0.5051995721117766,0.06521965087279308,-0.2819262244585149,-3.14,3.14
254,0.2698664833950802,0.26882166752274606,0.023653070486988764,2.319444520899859,1.8130084633767791,2.0510158495127015,2.3247155720741524,1.0,0.327233365921587,0.5051995721117766,0.0652196508727931,-0.2819262244585149,-3.14,3.14
255,0.2698664833950802,0.26882166752274606,0.023653070486988764,2.319444520899859,1.8130084633767791,2.0510158495127015,2.3247155720741524,1.0,0.327233365921587,0.5051995721117766,0.06521965087279309,-0.2819262244585149,-3.14,3.14
256,0.2698664833950802,0.26882166752274606,0.023653070486988764,2.319444520899859,1.8130084633767791,2.0510158495127015,2.3247155720741524,1.0,0.327233365921587,0.5051995721117766,0.06521965087279308,-0.2819262244585149,-3.14,3.14
257,0.2698664833950802,0.26882166752274606,0.023653070486988764,2.319444520899859,1.8130084633767791,2.0510158495127015,2.3247155720741524,1.0,0.327233365921587,0.5051995721117766,0.0652196508727931,-0.2819262244585149,-3.14,3.14
258,0.2698664833950802,0.26882166752274606,0.023653070486988764,2.319444520899859,1.8130084633767791,2.0510158495127015,2.3247155720741524,1.0,0.327233365921587,0.5051995721117766,0.06521965087279309,-0.2819262244585149,-3.14,3.14
259,0.2698664833950802,0.26882166752274606,0.023653070486988764,2.319444520899859,1.8130084633767791,2.0510158495127015,2.3247155720741524,1.0,0.327233365921587,0.5051995721117766,0.06521965087279308,-0.2819262244585149,-3.14,3.14
260,0.2698664833950802,0.26882166752274606,0.023653070486988764,2.319444520899859,1.8130084633767791,2.0510158495127015,2.3247155720741524,1.0,0.327233365921587,0.5051995721117766,0.0652196508727931,-0.2819262244585149,-3.14,3.14
261,0.2698664833950802,0.26882166752274606,0.023653070486988764,2.319444520899859,1.8130084633767791,2.0510158495127015,2.3247155720741524,1.0,0.327233365921587,0.5051995721117766,0.06521965087279309,-0.2819262244585149,-3.14,3.14
262,0.2698664833950802,0.26882166752274606,0.023653070486988764,2.319444520899859,1.8130084633767791,2.0510158495127015,2.3247155720741524,1.0,0.327233365921587,0.5051995721117766,0.06521965087279308,-0.2819262244585149,-3.14,3.14
263,0.2698664833950802,0.26882166752274606,0.023653070486988764,2.319444520899859,1.8130084633767791,2.0510158495127015,2.3247155720741524,1.0,0.327233365921587,0.5051995721117766,0.0652196508727931,-0.2819262244585149,-3.14,3.14
264,0.2698664833950802,0.26882166752274606,0.023653070486988764,2.319444520899859,1.8130084633767791,2.0510158495127015,2.3247155720741524,1.0,0.327233365921587,0.5051995721117766,0.06521965087279309,-0.2819262244585149,-3.14,3.14
265,0.2698664833950802,0.26882166752274606,0.023653070486988764,2.319444520899859,1.8130084633767791,2.0510158495127015,2.3247155720741524,1.0,0.327233365921587,0.5051995721117766,0.06521965087279308,-0.2819262244585149,-3.14,3.14
266,0.2698664833950802,0.26882166752274606,0.023653070486988764,2.319444520899859,1.8130084633767791,2.0510158495127015,2.3247155720741524,1.0,0.327233365921587,0.5051995721117766,0.0652196508727931,-0.2819262244585149,-3.14,3.14
267,0.2698664833950802,0.26882166752274606,0.023653070486988764,2.319444520899859,1.8130084633767791,2.0510158495127015,2.3247155720741524,1.0,0.327233365921587,0.5051995721117766,0.06521965087279309,-0.2819262244585149,-3.14,3.14
268,0.2698664833950802,0.26882166752274606,0.023653070486988764,2.319444520899859,1.8130084633767791,2.0510158495127015,2.3247155720741524,1.0,0.327233365921587,0.5051995721117766,0.06521965087279308,-0.2819262244585149,-3.14,3.14
269,0.2698664833950802,0.26882166752274606,0.023653070486988764,2.319444520899859,1.8130084633767791,2.0510158495127015,2.3247155720741524,1.0,0.327233365921587,0.5051995721117766,0.0652196508727931,-0.2819262244585149,-3.14,3.14
270,0.2698664833950802,0.26882166752274606,0.023653070486988764,2.319444520899859,1.8130084633767791,2.0510158495127015,2.3247155720741524,1.0,0.327233365921587,0.5051995721117766,0.06521965087279309,-0.2819262244585149,-3.14,3.14
271,0.2698664833950802,0.26882166752274606,0.023653070486988764,2.319444520899859,1.8130084633767791,2.0510158495127015,2.3247155720741524,1.0,0.327233365921587,0.5051995721117766,0.06521965087279308,-0.2819262244585149,-3.14,3.14
272,0.2698664833950802,0.26882166752274606,0.023653070486988764,2.319444520899859,1.8130084633767791,2.0510158495127015,2.3247155720741524,1.0,0.327233365921587,0.5051995721117766,0.0652196508727931,-0.2819262244585149,-3.14,3.14
273,0.2698664833950802,0.26882166752274606,0.023653070486988764,2.319444520899859,1.8130084633767791,2.0510158495127015,2.3247155720741524,1.0,0.327233365921587,0.5051995721117766,0.06521965087279309,-0.2819262244585149,-3.14,3.14
274,0.2698664833950802,0.26882166752274606,0.023653070486988764,2.319444520899859,1.8130084633767791,2.0510158495127015,2.3247155720741524,1.0,0.327233365921587,0.5051995721117766,0.06521965087279308,-0.2819262244585149,-3.14,3.14
275,0.2698664833950802,0.26882166752274606,0.023653070486988764,2.319444520899859,1.8130084633767791,2.0510158495127015,2.3247155720741524,1.0,0.327233365921587,0.5051995721117766,0.0652196508727931,-0.2819262244585149,-3.14,3.14
276,0.2698664833950802,0.26882166752274606,0.023653070486988764,2.319444520899859,1.8130084633767791,2.0510158495127015,2.3247155720741524,1.0,0.327233365921587,0.5051995721117766,0.06521965087279309,-0.2819262244585149,-3.14,3.14
277,0.2698664833950802,0.26882166752274606,0.023653070486988764,2.319444520899859,1.8130084633767791,2.0510158495127015,2.3247155720741524,1.0,0.327233365921587,0.5051995721117766,0.06521965087279308,-0.2819262244585149,-3.14,3.14
278,0.2698664833950802,0.26882166752274606,0.023653070486988764,2.319444520899859,1.8130084633767791,2.0510158495127015,2.3247155720741524,1.0,0.327233365921587,0.5051995721117766,0.0652196508727931,-0.2819262244585149,-3.14,3.14
279,0.2698664833950802,0.26882166752274606,0.023653070486988764,2.319444520899859,1.8130084633767791,2.0510158495127015,2.3247155720741524,1.0,0.327233365921587,0.5051995721117766,0.06521965087279309,-0.2819262244585149,-3.14,3.14
280,0.2698664833950802,0.26882166752274606,0.023653070486988764,2.319444520899859,1.8130084633767791,2.0510158495127015,2.3247155720741524,1.0,0.327233365921587,0.5051995721117766,0.06521965087279308,-0.2819262244585149,-3.14,3.14
281,0.2698664833950802,0.26882166752274606,0.023653070486988764,2.319444520899859,1.8130084633767791,2.0510158495127015,2.3247155720741524,1.0,0.327233365921587,0.5051995721117766,0.0652196508727931,-0.2819262244585149,-3.14,3.14
282,0.2698664833950802,0.26882166752274606,0.023653070486988764,2.319444520899859,1.8130084633767791,2.0510158495127015,2.3247155720741524,1.0,0.327233365921587,0.5051995721117766,0.06521965087279309,-0.2819262244585149,-3.14,3.14
283,0.2698664833950802,0.26882166752274606,0.023653070486988764,2.319444520899859,1.8130084633767791,2.0510158495127015,2.3247155720741524,1.0,0.327233365921587,0.5051995721117766,0.06521965087279308,-0.2819262244585149,-3.14,3.14
284,0.2698664833950802,0.26882166752274606,0.023653070486988764,2.319444520899859,1.8130084633767791,2.0510158495127015,2.3247155720741524,1.0,0.327233365921587,0.5051995721117766,0.0652196508727931,-0.2819262244585149,-3.14,3.14
285,0.2698664833950802,0.26882166752274606,0.023653070486988764,2.319444520899859,1.8130084633767791,2.0510158495127015,2.3247155720741524,1.0,0.327233365921587,0.5051995721117766,0.06521965087279309,-0.2819262244585149,-3.14,3.14
286,0.2698664833950802,0.26882166752274606,0.023653070486988764,2.319444520899859,1.8130084633767791,2.0510158495127015,2.3247155720741524,1.0,0.327233365921587,0.5051995721117766,0.06521965087279308,-0.2819262244585149,-3.14,3.14
287,0.2698664833950802,0.26882166752274606,0.023653070486988764,2.319444520899859,1.8130084633767791,2.0510158495127015,2.3247155720741524,1.0,0.327233365921587,0.5051995721117766,0.0652196508727931,-0.2819262244585149,-3.14,3.14
288,0.2698664833950802,0.26882166752274606,0.023653070486988764,2.319444520899859,1.8130084633767791,2.0510158495127015,2.3247155720741524,1.0,0.327233365921587,0.5051995721117766,0.06521965087279309,-0.2819262244585149,-3.14,3.14
289,0.2698664833950802,0.26882166752274606,0.023653070486988764,2.319444520899859,1.8130084633767791,2.0510158495127015,2.3247155720741524,1.0,0.327233365921587,0.5051995721117766,0.06521965087279308,-0.2819262244585149,-3.14,3.14
290,0.2698664833950802,0.26882166752274606,0.023653070486988764,2.319444520899859,1.8130084633767791,2.0510158495127015,2.3247155720741524,1.0,0.327233365921587,0.5051995721117766,0.0652196508727931,-0.2819262244585149,-3.14,3.14
291,0.2698664833950802,0.26882166752274606,0.023653070486988764,2.319444520899859,1.8130084633767791,2.0510158495127015,2.3247155720741524,1.0,0.327233365921587,0.5051995721117766,0.06521965087279309,-0.2819262244585149,-3.14,3.14
292,0.2698664833950802,0.26882166752274606,0.023653070486988764,2.319444520899859,1.8130084633767791,2.0510158495127015,2.3247155720741524,1.0,0.327233365921587,0.5051995721117766,0.06521965087279308,-0.2819262244585149,-3.14,3.14
293,0.2698664833950802,0.26882166752274606,0.023653070486988764,2.319444520899859,1.8130084633767791,2.0510158495127015,2.3247155720741524,1.0,0.327233365921587,0.5051995721117766,0.0652196508727931,-0.2819262244585149,-3.14,3.14
294,0.2698664833950802,0.26882166752274606,0.023653070486988764,2.319444520899859,1.8130084633767791,2.0510158495127015,2.3247155720741524,1.0,0.327233365921587,0.5051995721117766,0.06521965087279309,-0.2819262244585149,-3.14,3.14
295,0.2698664833950802,0.26882166752274606,0.023653070486988764,2.319444520899859,1.8130084633767791,2.0510158495127015,2.3247155720741524,1.0,0.327233365921587,0.5051995721117766,0.06521965087279308,-0.2819262244585149,-3.14,3.14
296,0.2698664833950802,0.26882166752274606,0.023653070486988764,2.319444520899859,1.8130084633767791,2.0510158495127015,2.3247155720741524,1.0,0.327233365921587,0.5051995721117766,0.0652196508727931,-0.2819262244585149,-3.14,3.14
297,0.2698664833950802,0.26882166752274606,0.023653070486988764,2.319444520899859,1.8130084633767791,2.0510158495127015,2.3247155720741524,1.0,0.327233365921587,0.5051995721117766,0.06521965087279309,-0.2819262244585149,-3.14,3.14
298,0.2698664833950802,0.26882166752274606,0.023653070486988764,2.319444520899859,1.8130084633767791,2.0510158495127015,2.3247155720741524,1.0,0.327233365921587,0.5051995721117766,0.06521965087279308,-0.2819262244585149,-3.14,3.14
299,0.2698664833950802,0.26882166752274606,0.023653070486988764,2.319444520899859,1.8130084633767791,2.0510158495127015,2.3247155720741524,1.0,0.327233365921587,0.5051995721117766,0.0652196508727931,-0.2819262244585149,-3.14,3.14
300,0.2698664833950802,0.26882166752274606,0.023653070486988764,2.319444520899859,1.8130084633767791,2.0510158495127015,2.3247155720741524,1.0,0.327233365921587,0.5051995721117766,0.06521965087279309,-0.2819262244585149,-3.14,3.14
301,0.2698664833950802,0.26882166752274606,0.023653070486988764,2.319444520899859,1.8130084633767791,2.0510158495127015,2.3247155720741524,1.0,0.327233365921587,0.5051995721117766,0.06521965087279308,-0.2819262244585149,-3.14,3.14
302,0.2698664833950802,0.26882166752274606,0.023653070486988764,2.319444520899859,1.8130084633767791,2.0510158495127015,2.3247155720741524,1.0,0.327233365921587,0.5051995721117766,0.0652196508727931,-0.2819262244585149,-3.14,3.14
303,0.2698664833950802,0.26882166752274606,0.023653070486988764,2.319444520899859,1.8130084633767791,2.0510158495127015,2.3247155720741524,1.0,0.327233365921587,0.5051995721117766,0.06521965087279309,-0.2819262244585149,-3.14,3.14
304,0.2698664833950802,0.26882166752274606,0.023653070486988764,2.319444520899859,1.8130084633767791,2.0510158495127015,2.3247155720741524,1.0,0.327233365921587,0.5051995721117766,0.06521965087279308,-0.2819262244585149,-3.14,3.14
305,0.2698664833950802,0.26882166752274606,0.023653070486988764,2.319444520899859,1.8130084633767791,2.0510158495127015,2.3247155720741524,1.0,0.327233365921587,0.5051995721117766,0.0652196508727931,-0.2819262244585149,-3.14,3.14
306,0.2698664833950802,0.26882166752274606,0.023653070486988764,2.319444520899859,1.8130084633767791,2.0510158495127015,2.3247155720741524,1.0,0.327233365921587,0.5051995721117766,0.06521965087279309,-0.2819262244585149,-3.14,3.14
307,0.2698664833950802,0.26882166752274606,0.023653070486988764,2.319444520899859,1.8130084633767791,2.0510158495127015,2.3247155720741524,1.0,0.327233365921587,0.5051995721117766,0.06521965087279308,-0.2819262244585149,-3.14,3.14
308,0.2698664833950802,0.26882166752274606,0.023653070486988764,2.319444520899859,1.8130084633767791,2.0510158495127015,2.3247155720741524,1.0,0.327233365921587,0.5051995721117766,0.0652196508727931,-0.2819262244585149,-3.14,3.14
309,0.2698664833950802,0.26882166752274606,0.023653070486988764,2.319444520899859,1.8130084633767791,2.0510158495127015,2.3247155720741524,1.0,0.327233365921587,0.5051995721117766,0.06521965087279309,-0.2819262244585149,-3.14,3.14
310,0.2698664833950802,0.26882166752274606,0.023653070486988764,2.319444520899859,1.8130084633767791,2.0510158495127015,2.3247155720741524,1.0,0.327233365921587,0.5051995721117766,0.06521965087279308,-0.2819262244585149,-3.14,3.14
311,0.2698664833950802,0.26882166752274606,0.023653070486988764,2.319444520899859,1.8130084633767791,2.0510158495127015,2.3247155720741524,1.0,0.327233365921587,0.5051995721117766,0.0652196508727931,-0.2819262244585149,-3.14,3.14
312,0.2698664833950802,0.26882166752274606,0.023653070486988764,2.319444520899859,1.8130084633767791,2.0510158495127015,2.3247155720741524,1.0,0.327233365921587,0.5051995721117766,0.06521965087279309,-0.2819262244585149,-3.14,3.14
313,0.2698664833950802,0.26882166752274606,0.023653070486988764,2.319444520899859,1.8130084633767791,2.0510158495127015,2.3247155720741524,1.0,0.327233365921587,0.5051995721117766,0.06521965087279308,-0.2819262244585149,-3.14,3.14
314,0.2698664833950802,0.26882166752274606,0.023653070486988764,2.319444520899859,1.8130084633767791,2.0510158495127015,2.3247155720741524,1.0,0.327233365921587,0.5051995721117766,0.0652196508727931,-0.2819262244585149,-3.14,3.14
315,0.2698664833950802,0.26882166752274606,0.023653070486988764,2.319444520899859,1.8130084633767791,2.0510158495127015,2.3247155720741524,1.0,0.327233365921587,0.5051995721117766,0.06521965087279309,-0.2819262244585149,-3.14,3.14
316,0.2698664833950802,0.26882166752274606,0.023653070486988764,2.319444520899859,1.8130084633767791,2.0510158495127015,2.3247155720741524,1.0,0.327233365921587,0.5051995721117766,0.06521965087279308,-0.2819262244585149,-3.14,3.14
317,0.2698664833950802,0.26882166752274606,0.023653070486988764,2.319444520899859,1.8130084633767791,2.0510158495127015,2.3247155720741524,1.0,0.327233365921587,0.5051995721117766,0.0652196508727931,-0.2819262244585149,-3.14,3.14
318,0.2698664833950802,0.26882166752274606,0.023653070486988764,2.319444520899859,1.8130084633767791,2.0510158495127015,2.3247155720741524,1.0,0.327233365921587,0.5051995721117766,0.06521965087279309,-0.2819262244585149,-3.14,3.14
319,0.2698664833950802,0.26882166752274606,0.023653070486988764,2.319444520899859,1.8130084633767791,2.0510158495127015,2.3247155720741524,1.0,0.327233365921587,0.5051995721117766,0.06521965087279308,-0.2819262244585149,-3.14,3.14
320,0.2698664833950802,0.26882166752274606,0.023653070486988764,2.319444520899859,1.8130084633767791,2.0510158495127015,2.3247155720741524,1.0,0.327233365921587,0.5051995721117766,0.0652196508727931,-0.2819262244585149,-3.14,3.14
321,0.2698664833950802,0.26882166752274606,0.023653070486988764,2.319444520899859,1.8130084633767791,2.0510158495127015,2.3247155720741524,1.0,0.327233365921587,0.5051995721117766,0.06521965087279309,-0.2819262244585149,-3.14,3.14
322,0.2698664833950802,0.26882166752274606,0.023653070486988764,2.319444520899859,1.8130084633767791,2.0510158495127015,2.3247155720741524,1.0,0.327233365921587,0.5051995721117766,0.06521965087279308,-0.2819262244585149,-3.14,3.14
323,0.2698664833950802,0.26882166752274606,0.023653070486988764,2.319444520899859,1.8130084633767791,2.0510158495127015,2.3247155720741524,1.0,0.327233365921587,0.5051995721117766,0.0652196508727931,-0.2819262244585149,-3.14,3.14
324,0.2698664833950802,0.26882166752274606,0.023653070486988764,2.319444520899859,1.8130084633767791,2.0510158495127015,2.3247155720741524,1.0,0.327233365921587,0.5051995721117766,0.06521965087279309,-0.2819262244585149,-3.14,3.14
325,0.2698664833950802,0.26882166752274606,0.023653070486988764,2.319444520899859,1.8130084633767791,2.0510158495127015,2.3247155720741524,1.0,0.327233365921587,0.5051995721117766,0.06521965087279308,-0.2819262244585149,-3.14,3.14
326,0.2698664833950802,0.26882166752274606,0.023653070486988764,2.319444520899859,1.8130084633767791,2.0510158495127015,2.3247155720741524,1.0,0.327233365921587,0.5051995721117766,0.0652196508727931,-0.2819262244585149,-3.14,3.14
327,0.2698664833950802,0.26882166752274606,0.023653070486988764,2.319444520899859,1.8130084633767791,2.0510158495127015,2.3247155720741524,1.0,0.327233365921587,0.5051995721117766,0.06521965087279309,-0.2819262244585149,-3.14,3.14
328,0.2698664833950802,0.26882166752274606,0.023653070486988764,2.319444520899859,1.8130084633767791,2.0510158495127015,2.3247155720741524,1.0,0.327233365921587,0.5051995721117766,0.06521965087279308,-0.2819262244585149,-3.14,3.14
329,0.2698664833950802,0.26882166752274606,0.023653070486988764,2.319444520899859,1.8130084633767791,2.0510158495127015,2.3247155720741524,1.0,0.327233365921587,0.5051995721117766,0.0652196508727931,-0.2819262244585149,-3.14,3.14
330,0.2698664833950802,0.26882166752274606,0.023653070486988764,2.319444520899859,1.8130084633767791,2.0510158495127015,2.3247155720741524,1.0,0.327233365921587,0.5051995721117766,0.06521965087279309,-0.2819262244585149,-3.14,3.14
331,0.2698664833950802,0.26882166752274606,0.023653070486988764,2.319444520899859,1.8130084633767791,2.0510158495127015,2.3247155720741524,1.0,0.327233365921587,0.5051995721117766,0.06521965087279308,-0.2819262244585149,-3.14,3.14
332,0.2698664833950802,0.26882166752274606,0.023653070486988764,2.319444520899859,1.8130084633767791,2.0510158495127015,2.3247155720741524,1.0,0.327233365921587,0.5051995721117766,0.0652196508727931,-0.2819262244585149,-3.14,3.14
333,0.2698664833950802,0.26882166752274606,0.023653070486988764,2.319444520899859,1.8130084633767791,2.0510158495127015,2.3247155720741524,1.0,0.327233365921587,0.5051995721117766,0.06521965087279309,-0.2819262244585149,-3.14,3.14
334,0.2698664833950802,0.26882166752274606,0.023653070486988764,2.319444520899859,1.8130084633767791,2.0510158495127015,2.3247155720741524,1.0,0.327233365921587,0.5051995721117766,0.06521965087279308,-0.2819262244585149,-3.14,3.14
335,0.2698664833950802,0.26882166752274606,0.023653070486988764,2.319444520899859,1.8130084633767791,2.0510158495127015,2.3247155720741524,1.0,0.327233365921587,0.5051995721117766,0.0652196508727931,-0.2819262244585149,-3.14,3.14
336,0.2698664833950802,0.26882166752274606,0.023653070486988764,2.319444520899859,1.8130084633767791,2.0510158495127015,2.3247155720741524,1.0,0.327233365921587,0.5051995721117766,0.06521965087279309,-0.2819262244585149,-3.14,3.14
337,0.2698664833950802,0.26882166752274606,0.023653070486988764,2.319444520899859,1.8130084633767791,2.0510158495127015,2.3247155720741524,1.0,0.327233365921587,0.5051995721117766,0.06521965087279308,-0.2819262244585149,-3.14,3.14
338,0.2698664833950802,0.26882166752274606,0.023653070486988764,2.319444520899859,1.8130084633767791,2.0510158495127015,2.3247155720741524,1.0,0.327233365921587,0.5051995721117766,0.0652196508727931,-0.2819262244585149,-3.14,3.14
339,0.2698664833950802,0.26882166752274606,0.023653070486988764,2.319444520899859,1.8130084633767791,2.0510158495127015,2.3247155720741524,1.0,0.327233365921587,0.5051995721117766,0.06521965087279309,-0.2819262244585149,-3.14,3.14
340,0.2698664833950802,0.26882166752274606,0.023653070486988764,2.319444520899859,1.8130084633767791,2.0510158495127015,2.3247155720741524,1.0,0.327233365921587,0.5051995721117766,0.06521965087279308,-0.2819262244585149,-3.14,3.14
341,0.2698664833950802,0.26882166752274606,0.023653070486988764,2.319444520899859,1.8130084633767791,2.0510158495127015,2.3247155720741524,1.0,0.327233365921587,0.5051995721117766,0.0652196508727931,-0.2819262244585149,-3.14,3.14
342,0.2698664833950802,0.26882166752274606,0.023653070486988764,2.319444520899859,1.8130084633767791,2.0510158495127015,2.3247155720741524,1.0,0.327233365921587,0.5051995721117766,0.06521965087279309,-0.2819262244585149,-3.14,3.14
343,0.2698664833950802,0.26882166752274606,0.023653070486988764,2.319444520899859,1.8130084633767791,2.0510158495127015,2.3247155720741524,1.0,0.327233365921587,0.5051995721117766,0.06521965087279308,-0.2819262244585149,-3.14,3.14
344,0.2698664833950802,0.26882166752274606,0.023653070486988764,2.319444520899859,1.8130084633767791,2.0510158495127015,2.3247155720741524,1.0,0.327233365921587,0.5051995721117766,0.0652196508727931,-0.2819262244585149,-3.14,3.14
345,0.2698664833950802,0.26882166752274606,0.023653070486988764,2.319444520899859,1.8130084633767791,2.0510158495127015,2.3247155720741524,1.0,0.327233365921587,0.5051995721117766,0.06521965087279309,-0.2819262244585149,-3.14,3.14
346,0.2698664833950802,0.26882166752274606,0.023653070486988764,2.319444520899859,1.8130084633767791,2.0510158495127015,2.3247155720741524,1.0,0.327233365921587,0.5051995721117766,0.06521965087279308,-0.2819262244585149,-3.14,3.14
347,0.2698664833950802,0.26882166752274606,0.023653070486988764,2.319444520899859,1.8130084633767791,2.0510158495127015,2.3247155720741524,1.0,0.327233365921587,0.5051995721117766,0.0652196508727931,-0.2819262244585149,-3.14,3.14
348,0.2698664833950802,0.26882166752274606,0.023653070486988764,2.319444520899859,1.8130084633767791,2.0510158495127015,2.3247155720741524,1.0,0.327233365921587,0.5051995721117766,0.06521965087279309,-0.2819262244585149,-3.14,3.14
349,0.2698664833950802,0.26882166752274606,0.023653070486988764,2.319444520899859,1.8130084633767791,2.0510158495127015,2.3247155720741524,1.0,0.327233365921587,0.5051995721117766,0.06521965087279308,-0.2819262244585149,-3.14,3.14
350,0.2698664833950802,0.26882166752274606,0.023653070486988764,2.319444520899859,1.8130084633767791,2.0510158495127015,2.3247155720741524,1.0,0.327233365921587,0.5051995721117766,0.0652196508727931,-0.2819262244585149,-3.14,3.14
351,0.2698664833950802,0.26882166752274606,0.023653070486988764,2.319444520899859,1.8130084633767791,2.0510158495127015,2.3247155720741524,1.0,0.327233365921587,0.5051995721117766,0.06521965087279309,-0.2819262244585149,-3.14,3.14
352,0.2698664833950802,0.26882166752274606,0.023653070486988764,2.319444520899859,1.8130084633767791,2.0510158495127015,2.3247155720741524,1.0,0.327233365921587,0.5051995721117766,0.06521965087279308,-0.2819262244585149,-3.14,3.14
353,0.2698664833950802,0.26882166752274606,0.023653070486988764,2.319444520899859,1.8130084633767791,2.0510158495127015,2.3247155720741524,1.0,0.327233365921587,0.5051995721117766,0.0652196508727931,-0.2819262244585149,-3.14,3.14
354,0.2698664833950802,0.26882166752274606,0.023653070486988764,2.319444520899859,1.8130084633767791,2.0510158495127015,2.3247155720741524,1.0,0.327233365921587,0.5051995721117766,0.06521965087279309,-0.2819262244585149,-3.14,3.14
355,0.2698664833950802,0.26882166752274606,0.023653070486988764,2.319444520899859,1.8130084633767791,2.0510158495127015,2.3247155720741524,1.0,0.327233365921587,0.5051995721117766,0.06521965087279308,-0.2819262244585149,-3.14,3.14
356,0.2698664833950802,0.26882166752274606,0.023653070486988764,2.319444520899859,1.8130084633767791,2.0510158495127015,2.3247155720741524,1.0,0.327233365921587,0.5051995721117766,0.0652196508727931,-0.2819262244585149,-3.14,3.14
357,0.2698664833950802,0.26882166752274606,0.023653070486988764,2.319444520899859,1.8130084633767791,2.0510158495127015,2.3247155720741524,1.0,0.327233365921587,0.5051995721117766,0.06521965087279309,-0.2819262244585149,-3.14,3.14
358,0.2698664833950802,0.26882166752274606,0.023653070486988764,2.319444520899859,1.8130084633767791,2.0510158495127015,2.3247155720741524,1.0,0.327233365921587,0.5051995721117766,0.06521965087279308,-0.2819262244585149,-3.14,3.14
359,0.2698664833950802,0.26882166752274606,0.023653070486988764,2.319444520899859,1.8130084633767791,2.0510158495127015,2.3247155720741524,1.0,0.327233365921587,0.5051995721117766,0.0652196508727931,-0.2819262244585149,-3.14,3.14
360,0.2698664833950802,0.26882166752274606,0.023653070486988764,2.319444520899859,1.8130084633767791,2.0510158495127015,2.3247155720741524,1.0,0.327233365921587,0.5051995721117766,0.06521965087279309,-0.2819262244585149,-3.14,3.14
361,0.2698664833950802,0.26882166752274606,0.023653070486988764,2.319444520899859,1.8130084633767791,2.0510158495127015,2.3247155720741524,1.0,0.327233365921587,0.5051995721117766,0.06521965087279308,-0.2819262244585149,-3.14,3.14
362,0.2698664833950802,0.26882166752274606,0.023653070486988764,2.319444520899859,1.8130084633767791,2.0510158495127015,2.3247155720741524,1.0,0.327233365921587,0.5051995721117766,0.0652196508727931,-0.2819262244585149,-3.14,3.14
363,0.2698664833950802,0.26882166752274606,0.023653070486988764,2.319444520899859,1.8130084633767791,2.0510158495127015,2.3247155720741524,1.0,0.327233365921587,0.5051995721117766,0.06521965087279309,-0.2819262244585149,-3.14,3.14
364,0.2698664833950802,0.26882166752274606,0.023653070486988764,2.319444520899859,1.8130084633767791,2.0510158495127015,2.3247155720741524,1.0,0.327233365921587,0.5051995721117766,0.06521965087279308,-0.2819262244585149,-3.14,3.14
365,0.2698664833950802,0.26882166752274606,0.023653070486988764,2.319444520899859,1.8130084633767791,2.0510158495127015,2.3247155720741524,1.0,0.327233365921587,0.5051995721117766,0.0652196508727931,-0.2819262244585149,-3.14,3.14
366,0.2698664833950802,0.26882166752274606,0.023653070486988764,2.319444520899859,1.8130084633767791,2.0510158495127015,2.3247155720741524,1.0,0.327233365921587,0.5051995721117766,0.06521965087279309,-0.2819262244585149,-3.14,3.14
367,0.2698664833950802,0.26882166752274606,0.023653070486988764,2.319444520899859,1.8130084633767791,2.0510158495127015,2.3247155720741524,1.0,0.327233365921587,0.5051995721117766,0.06521965087279308,-0.2819262244585149,-3.14,3.14
368,0.2698664833950802,0.26882166752274606,0.023653070486988764,2.319444520899859,1.8130084633767791,2.0510158495127015,2.3247155720741524,1.0,0.327233365921587,0.5051995721117766,0.0652196508727931,-0.2819262244585149,-3.14,3.14
369,0.2698664833950802,0.26882166752274606,0.023653070486988764,2.319444520899859,1.8130084633767791,2.0510158495127015,2.3247155720741524,1.0,0.327233365921587,0.5051995721117766,0.06521965087279309,-0.2819262244585149,-3.14,3.14
370,0.2698664833950802,0.26882166752274606,0.023653070486988764,2.319444520899859,1.8130084633767791,2.0510158495127015,2.3247155720741524,1.0,0.327233365921587,0.5051995721117766,0.06521965087279308,-0.2819262244585149,-3.14,3.14
371,0.2698664833950802,0.26882166752274606,0.023653070486988764,2.319444520899859,1.8130084633767791,2.0510158495127015,2.3247155720741524,1.0,0.327233365921587,0.5051995721117766,0.0652196508727931,-0.2819262244585149,-3.14,3.14
372,0.2698664833950802,0.26882166752274606,0.023653070486988764,2.319444520899859,1.8130084633767791,2.0510158495127015,2.3247155720741524,1.0,0.327233365921587,0.5051995721117766,0.06521965087279309,-0.2819262244585149,-3.14,3.14
373,0.2698664833950802,0.26882166752274606,0.023653070486988764,2.319444520899859,1.8130084633767791,2.0510158495127015,2.3247155720741524,1.0,0.327233365921587,0.5051995721117766,0.06521965087279308,-0.2819262244585149,-3.14,3.14
374,0.2698664833950802,0.26882166752274606,0.023653070486988764,2.319444520899859,1.8130084633767791,2.0510158495127015,2.3247155720741524,1.0,0.327233365921587,0.5051995721117766,0.0652196508727931,-0.2819262244585149,-3.14,3.14
375,0.2698664833950802,0.26882166752274606,0.023653070486988764,2.319444520899859,1.8130084633767791,2.0510158495127015,2.3247155720741524,1.0,0.327233365921587,0.5051995721117766,0.06521965087279309,-0.2819262244585149,-3.14,3.14
376,0.2698664833950802,0.26882166752274606,0.023653070486988764,2.319444520899859,1.8130084633767791,2.0510158495127015,2.3247155720741524,1.0,0.327233365921587,0.5051995721117766,0.06521965087279308,-0.2819262244585149,-3.14,3.14
377,0.2698664833950802,0.26882166752274606,0.023653070486988764,2.319444520899859,1.8130084633767791,2.0510158495127015,2.3247155720741524,1.0,0.327233365921587,0.5051995721117766,0.0652196508727931,-0.2819262244585149,-3.14,3.14
378,0.2698664833950802,0.26882166752274606,0.023653070486988764,2.319444520899859,1.8130084633767791,2.0510158495127015,2.3247155720741524,1.0,0.327233365921587,0.5051995721117766,0.06521965087279309,-0.2819262244585149,-3.14,3.14
379,0.2698664833950802,0.26882166752274606,0.023653070486988764,2.319444520899859,1.8130084633767791,2.0510158495127015,2.3247155720741524,1.0,0.327233365921587,0.5051995721117766,0.06521965087279308,-0.2819262244585149,-3.14,3.14
380,0.2698664833950802,0.26882166752274606,0.023653070486988764,2.319444520899859,1.8130084633767791,2.0510158495127015,2.3247155720741524,1.0,0.327233365921587,0.5051995721117766,0.0652196508727931,-0.2819262244585149,-3.14,3.14
381,0.2698664833950802,0.26882166752274606,0.023653070486988764,2.319444520899859,1.8130084633767791,2.0510158495127015,2.3247155720741524,1.0,0.327233365921587,0.5051995721117766,0.06521965087279309,-0.2819262244585149,-3.14,3.14
382,0.2698664833950802,0.26882166752274606,0.023653070486988764,2.319444520899859,1.8130084633767791,2.0510158495127015,2.3247155720741524,1.0,0.327233365921587,0.5051995721117766,0.06521965087279308,-0.2819262244585149,-3.14,3.14
383,0.2698664833950802,0.26882166752274606,0.023653070486988764,2.319444520899859,1.8130084633767791,2.0510158495127015,2.3247155720741524,1.0,0.327233365921587,0.5051995721117766,0.0652196508727931,-0.2819262244585149,-3.14,3.14
384,0.2698664833950802,0.26882166752274606,0.023653070486988764,2.319444520899859,1.8130084633767791,2.0510158495127015,2.3247155720741524,1.0,0.327233365921587,0.5051995721117766,0.06521965087279309,-0.2819262244585149,-3.14,3.14
385,0.2698664833950802,0.26882166752274606,0.023653070486988764,2.319444520899859,1.8130084633767791,2.0510158495127015,2.3247155720741524,1.0,0.327233365921587,0.5051995721117766,0.06521965087279308,-0.2819262244585149,-3.14,3.14
386,0.2698664833950802,0.26882166752274606,0.023653070486988764,2.319444520899859,1.8130084633767791,2.0510158495127015,2.3247155720741524,1.0,0.327233365921587,0.5051995721117766,0.0652196508727931,-0.2819262244585149,-3.14,3.14
387,0.2698664833950802,0.26882166752274606,0.023653070486988764,2.319444520899859,1.8130084633767791,2.0510158495127015,2.3247155720741524,1.0,0.327233365921587,0.5051995721117766,0.06521965087279309,-0.2819262244585149,-3.14,3.14
388,0.2698664833950802,0.26882166752274606,0.023653070486988764,2.319444520899859,1.8130084633767791,2.0510158495127015,2.3247155720741524,1.0,0.327233365921587,0.5051995721117766,0.06521965087279308,-0.2819262244585149,-3.14,3.14
389,0.2698664833950802,0.26882166752274606,0.023653070486988764,2.319444520899859,1.8130084633767791,2.0510158495127015,2.3247155720741524,1.0,0.327233365921587,0.5051995721117766,0.0652196508727931,-0.2819262244585149,-3.14,3.14
390,0.2698664833950802,0.26882166752274606,0.023653070486988764,2.319444520899859,1.8130084633767791,2.0510158495127015,2.3247155720741524,1.0,0.327233365921587,0.5051995721117766,0.06521965087279309,-0.2819262244585149,-3.14,3.14
391,0.2698664833950802,0.26882166752274606,0.023653070486988764,2.319444520899859,1.8130084633767791,2.0510158495127015,2.3247155720741524,1.0,0.327233365921587,0.5051995721117766,0.06521965087279308,-0.2819262244585149,-3.14,3.14
392,0.2698664833950802,0.26882166752274606,0.023653070486988764,2.319444520899859,1.8130084633767791,2.0510158495127015,2.3247155720741524,1.0,0.327233365921587,0.5051995721117766,0.0652196508727931,-0.2819262244585149,-3.14,3.14
393,0.2698664833950802,0.26882166752274606,0.023653070486988764,2.319444520899859,1.8130084633767791,2.0510158495127015,2.3247155720741524,1.0,0.327233365921587,0.5051995721117766,0.06521965087279309,-0.2819262244585149,-3.14,3.14
394,0.2698664833950802,0.26882166752274606,0.023653070486988764,2.319444520899859,1.8130084633767791,2.0510158495127015,2.3247155720741524,1.0,0.327233365921587,0.5051995721117766,0.06521965087279308,-0.2819262244585149,-3.14,3.14
395,0.2698664833950802,0.26882166752274606,0.023653070486988764,2.319444520899859,1.8130084633767791,2.0510158495127015,2.3247155720741524,1.0,0.327233365921587,0.5051995721117766,0.0652196508727931,-0.2819262244585149,-3.14,3.14
396,0.2698664833950802,0.26882166752274606,0.023653070486988764,2.319444520899859,1.8130084633767791,2.0510158495127015,2.3247155720741524,1.0,0.327233365921587,0.5051995721117766,0.06521965087279309,-0.2819262244585149,-3.14,3.14
397,0.2698664833950802,0.26882166752274606,0.023653070486988764,2.319444520899859,1.8130084633767791,2.0510158495127015,2.3247155720741524,1.0,0.327233365921587,0.5051995721117766,0.06521965087279308,-0.2819262244585149,-3.14,3.14
398,0.2698664833950802,0.26882166752274606,0.023653070486988764,2.319444520899859,1.8130084633767791,2.0510158495127015,2.3247155720741524,1.0,0.327233365921587,0.5051995721117766,0.0652196508727931,-0.2819262244585149,-3.14,3.14
399,0.2698664833950802,0.26882166752274606,0.023653070486988764,2.319444520899859,1.8130084633767791,2.0510158495127015,2.3247155720741524,1.0,0.327233365921587,0.5051995721117766,0.06521965087279309,-0.2819262244585149,-3.14,3.14
400,0.2698664833950802,0.26882166752274606,0.023653070486988764,2.319444520899859,1.8130084633767791,2.0510158495127015,2.3247155720741524,1.0,0.327233365921587,0.5051995721117766,0.06521965087279308,-0.2819262244585149,-3.14,3.14
401,0.2698664833950802,0.26882166752274606,0.023653070486988764,2.319444520899859,1.8130084633767791,2.0510158495127015,2.3247155720741524,1.0,0.327233365921587,0.5051995721117766,0.0652196508727931,-0.2819262244585149,-3.14,3.14
402,0.2698664833950802,0.26882166752274606,0.023653070486988764,2.319444520899859,1.8130084633767791,2.0510158495127015,2.3247155720741524,1.0,0.327233365921587,0.5051995721117766,0.06521965087279309,-0.2819262244585149,-3.14,3.14
403,0.2698664833950802,0.26882166752274606,0.023653070486988764,2.319444520899859,1.8130084633767791,2.0510158495127015,2.3247155720741524,1.0,0.327233365921587,0.5051995721117766,0.06521965087279308,-0.2819262244585149,-3.14,3.14
404,0.2698664833950802,0.26882166752274606,0.023653070486988764,2.319444520899859,1.8130084633767791,2.0510158495127015,2.3247155720741524,1.0,0.327233365921587,0.5051995721117766,0.0652196508727931,-0.2819262244585149,-3.14,3.14
405,0.2698664833950802,0.26882166752274606,0.023653070486988764,2.319444520899859,1.8130084633767791,2.0510158495127015,2.3247155720741524,1.0,0.327233365921587,0.5051995721117766,0.06521965087279309,-0.2819262244585149,-3.14,3.14
406,0.2698664833950802,0.26882166752274606,0.023653070486988764,2.319444520899859,1.8130084633767791,2.0510158495127015,2.3247155720741524,1.0,0.327233365921587,0.5051995721117766,0.06521965087279308,-0.2819262244585149,-3.14,3.14
407,0.2698664833950802,0.26882166752274606,0.023653070486988764,2.319444520899859,1.8130084633767791,2.0510158495127015,2.3247155720741524,1.0,0.327233365921587,0.5051995721117766,0.0652196508727931,-0.2819262244585149,-3.14,3.14
408,0.2698664833950802,0.26882166752274606,0.023653070486988764,2.319444520899859,1.8130084633767791,2.0510158495127015,2.3247155720741524,1.0,0.327233365921587,0.5051995721117766,0.06521965087279309,-0.2819262244585149,-3.14,3.14
409,0.2698664833950802,0.26882166752274606,0.023653070486988764,2.319444520899859,1.8130084633767791,2.0510158495127015,2.3247155720741524,1.0,0.327233365921587,0.5051995721117766,0.06521965087279308,-0.2819262244585149,-3.14,3.14
410,0.2698664833950802,0.26882166752274606,0.023653070486988764,2.319444520899859,1.8130084633767791,2.0510158495127015,2.3247155720741524,1.0,0.327233365921587,0.5051995721117766,0.0652196508727931,-0.2819262244585149,-3.14,3.14
411,0.2698664833950802,0.26882166752274606,0.023653070486988764,2.319444520899859,1.8130084633767791,2.0510158495127015,2.3247155720741524,1.0,0.327233365921587,0.5051995721117766,0.06521965087279309,-0.2819262244585149,-3.14,3.14
412,0.2698664833950802,0.26882166752274606,0.023653070486988764,2.319444520899859,1.8130084633767791,2.0510158495127015,2.3247155720741524,1.0,0.327233365921587,0.5051995721117766,0.06521965087279308,-0.2819262244585149,-3.14,3.14
413,0.2698664833950802,0.26882166752274606,0.023653070486988764,2.319444520899859,1.8130084633767791,2.0510158495127015,2.3247155720741524,1.0,0.327233365921587,0.5051995721117766,0.0652196508727931,-0.2819262244585149,-3.14,3.14
414,0.2698664833950802,0.26882166752274606,0.023653070486988764,2.319444520899859,1.8130084633767791,2.0510158495127015,2.3247155720741524,1.0,0.327233365921587,0.5051995721117766,0.06521965087279309,-0.2819262244585149,-3.14,3.14
415,0.2698664833950802,0.26882166752274606,0.023653070486988764,2.319444520899859,1.8130084633767791,2.0510158495127015,2.3247155720741524,1.0,0.327233365921587,0.5051995721117766,0.06521965087279308,-0.2819262244585149,-3.14,3.14
416,0.2698664833950802,0.26882166752274606,0.023653070486988764,2.319444520899859,1.8130084633767791,2.0510158495127015,2.3247155720741524,1.0,0.327233365921587,0.5051995721117766,0.0652196508727931,-0.2819262244585149,-3.14,3.14
417,0.2698664833950802,0.26882166752274606,0.023653070486988764,2.319444520899859,1.8130084633767791,2.0510158495127015,2.3247155720741524,1.0,0.327233365921587,0.5051995721117766,0.06521965087279309,-0.2819262244585149,-3.14,3.14
418,0.2698664833950802,0.26882166752274606,0.023653070486988764,2.319444520899859,1.8130084633767791,2.0510158495127015,2.3247155720741524,1.0,0.327233365921587,0.5051995721117766,0.06521965087279308,-0.2819262244585149,-3.14,3.14
419,0.2698664833950802,0.26882166752274606,0.023653070486988764,2.319444520899859,1.8130084633767791,2.0510158495127015,2.3247155720741524,1.0,0.327233365921587,0.5051995721117766,0.0652196508727931,-0.2819262244585149,-3.14,3.14
420,0.2698664833950802,0.26882166752274606,0.023653070486988764,2.319444520899859,1.8130084633767791,2.0510158495127015,2.3247155720741524,1.0,0.327233365921587,0.5051995721117766,0.06521965087279309,-0.2819262244585149,-3.14,3.14
421,0.2698664833950802,0.26882166752274606,0.023653070486988764,2.319444520899859,1.8130084633767791,2.0510158495127015,2.3247155720741524,1.0,0.327233365921587,0.5051995721117766,0.06521965087279308,-0.2819262244585149,-3.14,3.14
422,0.2698664833950802,0.26882166752274606,0.023653070486988764,2.319444520899859,1.8130084633767791,2.0510158495127015,2.3247155720741524,1.0,0.327233365921587,0.5051995721117766,0.0652196508727931,-0.2819262244585149,-3.14,3.14
423,0.2698664833950802,0.26882166752274606,0.023653070486988764,2.319444520899859,1.8130084633767791,2.0510158495127015,2.3247155720741524,1.0,0.327233365921587,0.5051995721117766,0.06521965087279309,-0.2819262244585149,-3.14,3.14
424,0.2698664833950802,0.26882166752274606,0.023653070486988764,2.319444520899859,1.8130084633767791,2.0510158495127015,2.3247155720741524,1.0,0.327233365921587,0.5051995721117766,0.06521965087279308,-0.2819262244585149,-3.14,3.14
425,0.2698664833950802,0.26882166752274606,0.023653070486988764,2.319444520899859,1.8130084633767791,2.0510158495127015,2.3247155720741524,1.0,0.327233365921587,0.5051995721117766,0.0652196508727931,-0.2819262244585149,-3.14,3.14
426,0.2698664833950802,0.26882166752274606,0.023653070486988764,2.319444520899859,1.8130084633767791,2.0510158495127015,2.3247155720741524,1.0,0.327233365921587,0.5051995721117766,0.06521965087279309,-0.2819262244585149,-3.14,3.14
427,0.2698664833950802,0.26882166752274606,0.023653070486988764,2.319444520899859,1.8130084633767791,2.0510158495127015,2.3247155720741524,1.0,0.327233365921587,0.5051995721117766,0.06521965087279308,-0.2819262244585149,-3.14,3.14
428,0.2698664833950802,0.26882166752274606,0.023653070486988764,2.319444520899859,1.8130084633767791,2.0510158495127015,2.3247155720741524,1.0,0.327233365921587,0.5051995721117766,0.0652196508727931,-0.2819262244585149,-3.14,3.14
429,0.2698664833950802,0.26882166752274606,0.023653070486988764,2.319444520899859,1.8130084633767791,2.0510158495127015,2.3247155720741524,1.0,0.327233365921587,0.5051995721117766,0.06521965087279309,-0.2819262244585149,-3.14,3.14
430,0.2698664833950802,0.26882166752274606,0.023653070486988764,2.319444520899859,1.8130084633767791,2.0510158495127015,2.3247155720741524,1.0,0.327233365921587,0.5051995721117766,0.06521965087279308,-0.2819262244585149,-3.14,3.14
