jkpark150901/flame_robotics_drt/experiment/inspection_ik/session_20260722_143013/fallback/inspection_ik_20260722_143104_dda_rb10_1300e_normalized_fallback.csv
iteration,err_norm,position_error,orientation_error,tcp_x,tcp_y,tcp_z,q0_dda_joint_linear_track,q1_dda_joint_carriage,q2_dda_joint_base,q3_dda_joint_shoulder,q4_dda_joint_elbow,q5_dda_joint_wrist1,q6_dda_joint_wrist2,q7_dda_joint_wrist3
0,3.407026881250766,0.8421686028674534,3.14000085534157,4.45939838249912,2.710124764146672,1.9713147646896778,4.498967741282192,-1.0,-1.571109027871224,0.35582711491597563,-1.925813483325227,-3.14,3.14,-0.0030673735092261456
1,2.337539889180577,0.9018013593914147,2.0702051176919722,4.5833833483483355,2.820196340057684,1.5862810905220726,4.573222370075249,-0.8261738655751093,-1.5704057801281581,0.22571866967317022,-2.4175717989750036,-2.736906181674836,2.041024709989072,-0.22166349638132743
2,1.5896232750010477,0.7774108721450987,1.3498327005298763,4.631211312542435,2.6343913310203675,1.3755199483812253,4.412864892258688,-0.9280146110779404,-1.3750579988108271,0.06247026383026527,-2.867659939057199,-2.0454080579438028,1.2980369590636887,-0.2607390544581903
3,1.1322637582107082,0.6932536250586535,0.8771708072086343,4.590446004499587,2.5333153173934564,1.3404000379786545,4.285256704106468,-1.0,-1.3852835330766888,-0.23436644683102642,-3.0653061700230895,-1.399166040453095,0.8572679731829891,-0.21764786708566858
4,0.8695261788895675,0.6481500773268888,0.5695951121164746,4.545332798338873,2.4972918523827525,1.3541914355624562,4.314496674208334,-1.0,-1.4812577813868661,-0.24985990852193046,-2.9721180143028767,-1.4396029577163325,0.5653611658426545,-0.13042786565217154
5,0.7197140231099658,0.6156464371948246,0.36699872717666315,4.515242474434247,2.4853334340521624,1.3959198261421628,4.2474424716722226,-1.0,-1.5682072607719562,-0.11521909379303649,-3.0611157267079734,-1.5507425680293845,0.3661395297061704,-0.010334913258039855
6,0.6421799916894039,0.5843196196815051,0.26316360786742365,4.423255904826767,2.469642946626535,1.434550772046866,4.1366574731459576,-1.0,-1.6801896207847467,-0.06266644022144299,-3.14,-1.7007364428778984,0.23963028394366162,0.3043927905380326
7,0.6875962016507637,0.5928480113337585,0.34564894533817464,4.30577823549286,2.4657096382885104,1.4533520487782756,4.033466369358743,-1.0,-1.7160352405784354,-0.10336516197618975,-3.14,-1.7565643093053274,0.1721189980839209,0.5883076353143109
8,0.7465034665330409,0.6095921266391668,0.4280090328833341,4.244290576774957,2.4663296256492044,1.4613423993903665,3.9702815616647893,-1.0,-1.7018332967007201,-0.11018696585440164,-3.14,-1.7788568006974526,0.1300256228571265,0.7249197143911132
9,0.7691118118793225,0.6158403724723128,0.4579474930864012,4.225809318277298,2.467965782192681,1.4675925446838263,3.9473159602151937,-1.0,-1.678537541246024,-0.11730089996598617,-3.14,-1.798753996193693,0.10092179357460429,0.7909667198495252
10,0.7716392455161086,0.6155622657368072,0.46281735738129015,4.225510759611378,2.4696571228916557,1.4738512754847335,3.943679402657753,-1.0,-1.657708975468621,-0.1294830075826377,-3.14,-1.8221194751963594,0.07962820738110742,0.835854133362821
11,0.7667736417518508,0.6127325110589588,0.458809487412095,4.231592691633891,2.4711424996514664,1.4802574399916935,3.9481613462855627,-1.0,-1.6410324856497518,-0.14592193877310183,-3.14,-1.8489306698747385,0.06359739665078254,0.8775884283752019
12,0.7592755098191286,0.609047075933224,0.4515087078957021,4.239876587091919,2.4723850556956517,1.4865266738594989,3.9562687040058853,-1.0,-1.627838220744186,-0.1645660920666589,-3.14,-1.8774820792893019,0.051324947242655655,0.9189364745458682
13,0.7509449875117299,0.6052073330152093,0.44293575215720643,4.248754071785994,2.473401406878618,1.4924340705550778,3.966011551064209,-1.0,-1.6173493020106873,-0.18385179836065824,-3.14,-1.9063726332115734,0.04180088719976096,0.9594045539323379
14,0.7425667596995327,0.601519832398617,0.433976805078771,4.257509007478787,2.4742210784790375,1.4978695141918081,3.9763674318706705,-1.0,-1.6089675276653546,-0.2028408685646037,-3.14,-1.9347510806171762,0.0343194848162431,0.9983343616848018
15,0.7345118287110456,0.5981144000072124,0.4250792565796222,4.265804115022816,2.4748758753150035,1.5028007586787278,3.9867683191441623,-1.0,-1.6022422010171924,-0.22102398530167258,-3.14,-1.9621591217848422,0.02837976289032205,1.0353453966230155
16,0.7269540951451947,0.5950349739121188,0.416483873866174,4.2734898503081995,2.4753957581785144,1.5072386158653441,3.996893168620991,-1.0,-1.5968271964857508,-0.23814943510130585,-3.14,-1.988377261483803,0.023620774782543028,1.070288720983729
17,0.7199649265168281,0.5922829240118154,0.40832073889171194,4.28051659703439,2.4758070597847657,1.5112151475785978,4.006565741581225,-1.0,-1.5924528075659454,-0.25411441579164556,-3.14,-2.013324471170006,0.01977812760762274,1.1031587905865703
18,0.7135603402562017,0.5898392862518268,0.400656024137697,4.286888621101434,2.476131947253778,1.5147712996694396,4.015697502240802,-1.0,-1.5889072760802652,-0.26890071419725364,-3.14,-2.036998246079888,0.016654863289704863,1.1340298701502127
19,0.7077264072991016,0.5876764944621375,0.3935173687181555,4.2926383056749255,2.476388560512965,1.517950183456028,4.024253458003454,-1.0,-1.5860237132050916,-0.2825371120670891,-3.14,-2.05943940709864,0.014101915839365814,1.163016575598471
20,0.7024335178386257,0.5857645522734327,0.38690863908306805,4.297811370687239,2.476591466945721,1.5207935764418183,4.0322310053344665,-1.0,-1.5836702978755948,-0.29507735384990297,-3.14,-2.080711419133954,0.012004861206390178,1.1902505478183503
21,0.697644576423027,0.5840741786044884,0.3808189529780609,4.302458391276222,2.4767522198130534,1.5233402317915432,4.03964661463087,-1.0,-1.5817427175621936,-0.3065871836909578,-3.14,-2.1008882086975262,0.010274791666637383,1.2158670515823846
22,0.6933197522834126,0.5825782930804619,0.37522840850382455,4.306630028774489,2.4768799080459925,1.5256251935179264,4.046527405354071,-1.0,-1.580158271259876,-0.3171367269286297,-3.14,-2.1200470077394615,0.008841913541621756,1.2399975439794302
23,0.6894192200050875,0.5812525980104105,0.3701118258235772,4.310374471948222,2.476981646335818,1.5276796602463791,4.052905831046261,-1.0,-1.5788512532964627,-0.3267960613530786,-3.14,-2.138264206309708,0.007650967778055214,1.2627658053994004
24,0.6859047041930558,0.580075680896231,0.36544123815967233,4.313736191260346,2.4770629886820794,1.5295311365933266,4.058816362273953,-1.0,-1.5777693381529736,-0.33563271275899564,-3.14,-2.155613025040018,0.00665789206638623,1.2842861803176153
25,0.6827403026511342,0.5790288753911318,0.36118756583947786,4.316755462716152,2.4771282659137928,1.5312037233302767,4.064293458600699,-1.0,-1.5768707500074348,-0.34371031934867147,-3.14,-2.1721622952485706,0.005827345048812745,1.3046630490144493
26,0.6798928713801008,0.5780960131420906,0.35732173980886284,4.3194683305150035,2.477180855368296,1.5327184622287287,4.069370371976014,-1.0,-1.5761220468651644,-0.3510880070524566,-3.14,-2.187975913495404,0.005130841141130216,1.3239909969305588
27,0.6773321439505348,0.5772631387956733,0.3538154450977335,4.321906807646511,2.4772233934038486,1.5340936891073707,4.0740784839641435,-1.0,-1.5754963851653574,-0.35782019449168256,-3.14,-2.203112703636783,0.0045453263067780645,1.3423553581838237
28,0.6750306921022857,0.5765182261607903,0.3506415976043644,4.324099193603655,2.4772579413643045,1.535345370533326,4.078446982572489,-1.0,-1.5749721594922892,-0.36395665301718905,-3.14,-2.2176265201742424,0.004052078088923249,1.35983293829389
29,0.6729637945643077,0.5758509141203011,0.3477746321583968,4.32607043782519,2.4772861144545097,1.5364874123617336,4.082502751764341,-1.0,-1.5745319349468576,-0.3695427127374742,-3.14,-2.231566488741397,0.0036358480373998928,1.376492800367394
30,0.6711092564043905,0.5752522700739167,0.3451906569360771,4.327842507955777,2.477309181476218,1.5375319355956485,4.08627039085659,-1.0,-1.5741616079048255,-0.3746195462007327,-3.14,-2.244977318330004,0.0032841879823677224,1.3923970479242544
31,0.6694472056453297,0.5747145828397292,0.3428675138942344,4.329434740668812,2.477328141879499,1.5384895191209311,4.08977231001194,-1.0,-1.573849745183168,-0.3792244870600667,-3.14,-2.2578996443593824,0.002986917515804659,1.4076015676908855
32,0.6679598839048193,0.574231183926075,0.34078477413574376,4.33086416407464,2.477343785257874,1.5393694110311331,4.093028867143025,-1.0,-1.573587062814087,-0.38339135736940505,-3.14,-2.270370377329407,0.0027357011166873465,1.4221567141005915
33,0.6666314413456602,0.5737962946772197,0.33892368939090334,4.33214578741669,2.4773567373039453,1.5401797112918394,4.096058524133602,-1.0,-1.5733660143303465,-0.3871507876007527,-3.14,-2.2824230418377716,0.0025237112211985123,1.436107928303619
34,0.6654477419973118,0.5734048962785452,0.3372671151262462,4.333292857587856,2.4773674953424596,1.5409275288761664,4.098878008562393,-1.0,-1.573180465227179,-0.39053052017535206,-3.14,-2.2940880972048827,0.002345359235968275,1.4494962909454305
35,0.6643961827461269,0.5730526195643214,0.3357994165714778,4.33431708407927,2.4773764558448805,1.541619116518608,4.101502472544091,-1.0,-1.5730254355154736,-0.3935556915940596,-3.14,-2.3053932350989617,0.0021960806963581656,1.462359011555119
36,0.6634655274935214,0.572735651765741,0.3345063657931081,4.33522883499416,2.477383935772645,1.5422599860547728,4.103945643841467,-1.0,-1.572896896361164,-0.39624909097876426,-3.14,-2.3163636521932327,0.002072163930281212,1.4747298591943139
37,0.6626457568276534,0.5724506576344885,0.3333750355708047,4.336037307153094,2.4773901891652486,1.5428550070417102,4.1062199666901575,-1.0,-1.5727916099870045,-0.3986313945375742,-3.14,-2.3270222975340213,0.0019706140027053298,1.4866395397454486
38,0.6619279328331718,0.5721947127042816,0.33239369405699987,4.336750673351588,2.4773954200576336,1.5434084910470274,4.108336731237184,-1.0,-1.5727070045071712,-0.4007213764922596,-3.14,-2.337390095290072,0.001889045595071671,1.4981160253051213
39,0.661304078233217,0.5719652467710937,0.3315517028796379,4.337376209672182,2.4773997925570623,1.5439242636883186,4.110306191407797,-1.0,-1.5726410773383406,-0.4025360975863716,-3.14,-2.3474861441108215,0.0018255999650117352,1.5091848408668949
40,0.6607670688222065,0.5717599959640491,0.33083942037441505,4.337920405499749,2.477403438715049,1.5444057262153503,4.112137671570767,-1.0,-1.572592322413737,-0.40409107257723487,-3.14,-2.357327894590749,0.0017788823429776496,1.519869312996185
41,0.6603105380409494,0.5715769620361,0.3302481109234819,4.338389058600161,2.477406464680975,1.544855908164149,4.113839662695587,-1.0,-1.5725596777232622,-0.40540041820383005,-3.14,-2.3669313064147217,0.0017479171358501901,1.5301907846171494
42,0.6599287925224095,0.5714143777257599,0.32976986086833243,4.338787357331649,2.477408955509966,1.5452775123772478,4.11541990887005,-1.0,-1.5725424907980772,-0.4064769830798852,-3.14,-2.3763109867083845,0.0017321191888570087,1.5401687994029745
43,0.6596167374657692,0.5712706772303701,0.32939750110563376,4.33911995178334,2.4774109789100067,1.5456729534772033,4.1168854851298455,-1.0,-1.5725405007235498,-0.4073324608281393,-3.14,-2.385480310978077,0.0017312801619202743,1.5498212586124724
44,0.6593698107572749,0.5711444709912407,0.3291245362276828,4.3393910153845185,2.4774125881457207,1.54604439069863,4.118242867580982,-1.0,-1.572553836163961,-0.4079774875716908,-3.14,-2.3944515278200367,0.0017455698557555116,1.5591645525533586
45,0.6591839248342496,0.5710345241254535,0.3289450799041754,4.339604298304245,2.477413824263829,1.5463937558239118,4.11949799679693,-1.0,-1.5725830297760943,-0.408421724643075,-3.14,-2.4032358483201386,0.0017755531270406688,1.568213668166977
46,0.6590554153741742,0.5709397379521279,0.32885379609644494,4.339763173763418,2.4774147177642387,1.5467227768255039,4.120656335463256,-1.0,-1.5726290503383076,-0.40867392706236144,-3.14,-2.4118435207544002,0.0018222239146122518,1.5769822734991938
47,0.6589809959778772,0.5708591341562985,0.3288458456321606,4.339870678207833,2.4774152898080866,1.5470329976889283,4.1217229212356195,-1.0,-1.5726933549940427,-0.40874199796391747,-3.14,-2.420283890829141,0.0018870589212706661,1.5854827790137505
48,0.6589577181011937,0.570791841214727,0.32891683763491175,4.3399295461377045,2.477415553027629,1.5473257947705634,4.122702415781732,-1.0,-1.5727779652814564,-0.40863302869939067,-3.14,-2.4285654472506306,0.001972094731564552,1.5937263747689836
49,0.6589829355716662,0.5707370827782988,0.3290627852906357,4.339942240252504,2.4774155119809547,1.5476023899279967,4.12359915100045,-1.0,-1.5728855721868125,-0.408353323781835,-3.14,-2.436695851858479,0.002080033684508222,1.6017230413488217
50,0.6590542731066419,0.570694167768437,0.32928006543594057,4.339910977444231,2.4774151632755954,1.547863860542296,4.124417173455722,-1.0,-1.573019677431558,-0.40790840911708115,-3.14,-2.444681952851315,0.0022143857723609904,1.609481531020034
51,0.659169598329333,0.5706624820037199,0.3295653814711299,4.339837751051315,2.4774144953683823,1.5481111464241675,4.125160288129587,-1.0,-1.573184780719007,-0.4073030210259349,-3.14,-2.4525297787132776,0.0023796563381695266,1.617009313747451
52,0.6593269968661892,0.5706414812317384,0.3299157291365912,4.339724349660638,2.4774134880333962,1.548345053451285,4.125832102680215,-1.0,-1.5733866258889428,-0.40654107229564335,-3.14,-2.460244509222015,0.002581592557442134,1.624312480249605
53,0.6595247502130078,0.5706306855054553,0.33032836475642285,4.339572372604544,2.4774121114752914,1.5485662536114586,4.126436073468427,-1.0,-1.5736325230384511,-0.4056255897662682,-3.14,-2.4678304182468214,0.0028275057940178594,1.6313955909503484
54,0.6597613161975198,0.5706296749203097,0.3308007756709327,4.339383242124755,2.477410325051406,1.5487752809121378,4.126975554644651,-1.0,-1.573931768841209,-0.40455861554375655,-3.14,-2.4752907807300804,0.003126692093640234,1.6382614550909027
55,0.6600353120742639,0.5706380868284514,0.33133065279262497,4.339158211937765,2.4774080755532415,1.548972522343315,4.127453851477462,-1.0,-1.5742961936479463,-0.40334106052252194,-3.14,-2.4826277329949877,0.00349097943515427,1.6449108178534861
56,0.6603455006172657,0.5706556147855879,0.3319158656053629,4.338898371590261,2.4774052949867453,1.5491582027254205,4.127874278678751,-1.0,-1.5747408713985334,-0.40197249403491214,-3.14,-2.4898420709131743,0.003935437822502468,1.6513419243105072
57,0.6606907801163576,0.5706820096867543,0.33255444061635325,4.338604645465207,2.477401897782002,1.5493323618076698,4.12824022341176,-1.0,-1.575285036386551,-0.4004508464534804,-3.14,-2.4969329638866826,0.0044792963423131524,1.6575499162165974
58,0.6610701800807844,0.570717083843006,0.33324454549227883,4.338277784469922,2.4773977773556313,1.5494948213716377,4.12855521036155,-1.0,-1.5759532579838884,-0.3987719915075726,-3.14,-2.5038975531953285,0.0051471184364457225,1.6635259995478688
59,0.6614828659443867,0.5707607191857421,0.33398448324249835,4.337918347116814,2.477392801936924,1.5496451393044943,4.128822961653023,-1.0,-1.5767769270981846,-0.3969291606716924,-3.14,-2.5107303899067506,0.0059702894081849435,1.6692562952755536
60,0.6619281585149033,0.570812881410842,0.33477270446600493,4.337526664598905,2.477386809528523,1.5497825466128028,4.129047435725935,-1.0,-1.5777960991980942,-0.3949121217427093,-3.14,-2.5174226489472775,0.006988861427202645,1.674720250995565
61,0.662405577845012,0.5708736427290723,0.33560785180223834,4.337102781126531,2.477379601738873,1.5499058621720538,4.129232813592073,-1.0,-1.5790617041194652,-0.39270602642478747,-3.14,-2.523961031122028,0.008253766999157735,1.6798884455211969
62,0.6629149273055044,0.5709432169350834,0.3364888606719449,4.336646355634258,2.47737093583339,1.5500133787932446,4.1293833737659495,-1.0,-1.5806380464970038,-0.3902897980491946,-3.14,-2.5303262347547166,0.009829326053735692,1.6847195653202744
63,0.6634564425573125,0.5710220114789042,0.33741515580843723,4.336156503341658,2.477360513334257,1.5501027133794207,4.129503152714854,-1.0,-1.5826053372810964,-0.3876338972678641,-3.14,-2.536490849950121,0.011795789354224514,1.6891562858613485
64,0.6640310418186337,0.5711107013037127,0.3383870051829709,4.33563154529808,2.477347961105172,1.5501706146635688,4.129595220568875,-1.0,-1.5850616449222013,-0.38469729348928877,-3.14,-2.5424165230710223,0.01425131054436884,1.6931197980011088
65,0.6646407259658055,0.5712103264769636,0.339406120274656,4.335068622344951,2.4773327957998874,1.5502127268190053,4.129660314336274,-1.0,-1.5881230406166058,-0.38142354192504235,-3.14,-2.5480503122751545,0.017312127099784854,1.6965028913453912
66,0.6652891816025828,0.5713224064537062,0.3404766146799947,4.334463122852254,2.477314353301697,1.550223321422697,4.129694491590981,-1.0,-1.5919197660026587,-0.37773614839698244,-3.14,-2.553320425954577,0.02110878682755877,1.6991620780984802
67,0.6659826186379514,0.5714490432941692,0.3416064238209263,4.333807887108599,2.4772916516558654,1.55019504353311,4.1296854893279615,-1.0,-1.5965850900436402,-0.3735341225526422,-3.14,-2.5581322130319992,0.025775095496697552,1.700910613994859
68,0.6667307941402819,0.5715929529163913,0.342809187887609,4.333092217789739,2.4772631476829057,1.5501187837242745,4.12960780087639,-1.0,-1.6022328219610638,-0.36869003902168834,-3.14,-2.5623665970875926,0.03142575429675639,1.7015168862595955
69,0.667548004474012,0.5717573330706278,0.3441063222967942,4.332300890966789,2.4772263727336705,1.549983893784505,4.12941741737205,-1.0,-1.6089209766206567,-0.3630549777842975,-3.14,-2.565885040915277,0.038120159203637205,1.7007162644760705
70,0.6684535892858866,0.571945498880791,0.3455285065752995,4.331413641449557,2.477177542590624,1.5497790726382445,4.129048808057835,-1.0,-1.61660556951343,-0.35647608594693175,-3.14,-2.5685463599645386,0.045816257969672786,1.6982465892621657
71,0.6694713446142309,0.5721603560793258,0.34711532032852527,4.3304058635613965,2.47711144532094,1.5494942186544878,4.128418146303706,-1.0,-1.6251007390982175,-0.34882982276244745,-3.14,-2.570238141527288,0.054330508402211417,1.6939117882953747
72,0.6706274859377697,0.5724040041692174,0.3489118732194128,4.3292511537272125,2.477022056293496,1.5491231458154031,4.12743568715598,-1.0,-1.6340719737060831,-0.34006401046586016,-3.14,-2.5709162313707443,0.06333055885234225,1.6876592269187527
73,0.6719475758893244,0.5726778251519524,0.3509626726467769,4.327925444015605,2.476904062027967,1.5486662855972007,4.126024875245952,-1.0,-1.6430820293098198,-0.33022897821187414,-3.14,-2.5706338432377454,0.07238027426401822,1.6796333785829722
74,0.6734536731458541,0.5729830988418741,0.3533051015418792,4.326411178642756,2.476754742668886,1.5481319685907058,4.124139567326967,-1.0,-1.6516784529299056,-0.31947713094061664,-3.14,-2.5695410729386086,0.08102640342137235,1.6701688363750031
75,0.675162957184126,0.5733217378390257,0.35596558060332734,4.32469957712232,2.4765751702222225,1.547535421287445,4.121770866146911,-1.0,-1.6594824945333368,-0.308029067737769,-3.14,-2.56785316824112,0.08888719829167105,1.659722233335228
76,0.677087954381355,0.5736966427208823,0.358959447578348,4.3227903030845,2.476370098066599,1.5468959682512715,4.118942509087398,-1.0,-1.6662423658870165,-0.29612610908523795,-3.14,-2.56580609286316,0.09570616336545573,1.6487818482142544
77,0.6792372440127828,0.5741114695408667,0.3622927346872608,4.320689650118867,2.4761468030631746,1.5462338190943004,4.115700628514728,-1.0,-1.6718423413598618,-0.2839921670021739,-3.14,-2.5636206902245013,0.1013621615308117,1.6377965172398874
78,0.6816153652971827,0.5745699182545699,0.36596325967340526,4.3184089115839175,2.4759135931065197,1.5455676102022424,4.112104214108693,-1.0,-1.6762820303535306,-0.27181473828422215,-3.14,-2.561484485626729,0.10584973065721857,1.6271397218676833
79,0.6842215339365778,0.5750747969962534,0.36995993763724955,4.3159637789320735,2.4756785401528743,1.5449131122948165,4.1082190398847285,-1.0,-1.6796442414743131,-0.2597419884406469,-3.14,-2.5595483045014222,0.10924769500794079,1.6171020591070735
80,0.6870477325111167,0.5756271267139559,0.3742610037558061,4.31337455139999,2.475448650065366,1.5442829179409,4.104114645260287,-1.0,-1.6820635072568455,-0.24788835358793743,-3.14,-2.557930738401824,0.11168804692759994,1.6078986378479116
81,0.6900771053659094,0.5762254923277025,0.3788325578765872,4.310666450721644,2.4752294431412576,1.543686702287249,4.099862806248499,-1.0,-1.683700425399428,-0.2363423634472384,-3.14,-2.556724714748004,0.11333032175591987,1.5996811322212487
82,0.6932834065646989,0.5768657621763871,0.38362855829105647,4.307869420790448,2.475024833953692,1.5431316852937946,4.095536164770791,-1.0,-1.6847228678220287,-0.22517320998875265,-3.14,-2.5560030413245323,0.11434263581328687,1.592549224849798
83,0.6966318441089577,0.5775412129003664,0.38859271736418777,4.305017122527261,2.4748371992640514,1.5426230538992831,4.091206342345054,-1.0,-1.6852933557080645,-0.21443483987932582,-3.14,-2.555821857911633,0.11488879159653767,1.5865596663112385
84,0.7000812745362368,0.5782430257350208,0.3936621332734228,4.3021451554968655,2.474667549959781,1.5421642341455626,4.0869414360270975,-1.0,-1.6855613793303574,-0.2041676552012015,-3.14,-2.5562221022953215,0.11512030149944709,1.5817329449625903
85,0.703587416956585,0.5789610663167785,0.3987720857738723,4.299288755365278,2.4745157505154554,1.5417570015867632,4.082803146371516,-1.0,-1.6856594258883248,-0.19439850174011458,-3.14,-2.5572296153451823,0.11517213448337532,1.5780582255994517
86,0.7071065842481956,0.5796848241713624,0.4038612306269699,4.2964803241488205,2.4743807502756683,1.5414014776102594,4.078843944222184,-1.0,-1.68570162874385,-0.1851397920735151,-3.14,-2.558854637649237,0.11516111880054498,1.5754973133066508
87,0.7105993674905019,0.5804043722606849,0.4088764127295266,4.293747165606919,2.4742608051753505,1.5410960841204422,4.075104697604525,-1.0,-1.68578414009164,-0.17638854229915724,-3.14,-2.5610913669653956,0.1151861106070692,1.573988247334952
88,0.7140337560864963,0.5811112143860196,0.41377645028822424,4.291109738279878,2.4741536780359734,1.5408375268896335,4.071613093991835,-1.0,-1.6859865162522423,-0.16812590782525214,-3.14,-2.5639180564627058,0.1153292198802303,1.573448900253932
89,0.7173873182709894,0.5817989187417013,0.4185344827871678,4.288580623696468,2.4740568117251036,1.5406208576890759,4.068383043575008,-1.0,-1.6863735793244774,-0.1603175571179274,-3.14,-2.567297906030756,0.11565755696464974,1.5737807431098163
90,0.7206482696630622,0.58246348296668,0.42313876555700297,4.286164266293508,2.4739674732942794,1.5404396368647628,4.065415076612268,-1.0,-1.686997376305643,-0.1529149787154374,-3.14,-2.5711807836272937,0.116225118501683,1.5748727829983422
91,0.7238154673873584,0.5831034275885376,0.42759206243489106,4.2838574097261235,2.4738828695538864,1.540286190541275,4.062697595094051,-1.0,-1.6878989929121417,-0.1458576201212316,-3.14,-2.5755056478953695,0.1170745655658174,1.5766055949307498
92,0.7268975310728684,0.5837196577591991,0.431909974881798,4.281650061578168,2.473800236050253,1.540151936824115,4.060208739063743,-1.0,-1.6891100909853594,-0.1390756334529956,-3.14,-2.5802034465078023,0.11823875650079928,1.5788553410512025
93,0.7299113781425299,0.5843151588533342,0.4361186228079125,4.279526779436847,2.47371690248475,1.5400277461225016,4.057918594465745,-1.0,-1.690654124843381,-0.13249295608070372,-3.14,-2.585200236542964,0.11974198201782162,1.5814976740953643
94,0.7328804674024539,0.5848945979275314,0.44025206856020915,4.277468081882018,2.4736303384187086,1.5399043012484572,4.055791494531636,-1.0,-1.692547255569532,-0.12603047022187686,-3.14,-2.5904202977397732,0.12160091325536283,1.5844114384256969
95,0.7358329934090765,0.5854638942282181,0.44434978581876344,4.275451831464367,2.473538183635787,1.5397724301218116,4.053788228824573,-1.0,-1.6947990271865314,-0.11960903879180194,-3.14,-2.5957890635243768,0.12382531890159425,1.5874820988146456
96,0.7388001947471001,0.5860298046888566,0.4484543606856994,4.273454493103468,2.473438267716511,1.53962339389868,4.0518680484690055,-1.0,-1.697412898898597,-0.11315228046719855,-3.14,-2.601235755983023,0.1264186389068102,1.5906048386304157
97,0.741814858739127,0.5865995511571742,0.4526095056876909,4.271452224378466,2.473328623163577,1.539449122931946,4.049990423295899,-1.0,-1.7003867451194672,-0.10658900579582417,-3.14,-2.6066956633815663,0.1293785215449352,1.5936872729638087
98,0.7449100398256482,0.5871804993624181,0.4568583870154942,4.269421794723218,2.4732074957934067,1.539242400194389,4.048116555575296,-1.0,-1.7037134394428082,-0.09985527792626456,-3.14,-2.6121120342720343,0.13269743699719883,1.5966517183739417
99,0.7481179654423875,0.5877798874400776,0.4612422164214855,4.267341355740968,2.4730733551252517,1.5389969959597114,4.046210682418489,-1.0,-1.7073816280803409,-0.0928960841047928,-3.14,-2.6174375798288385,0.13636347206001923,1.5994369516705758
100,0.7514690812247363,0.5884045944791088,0.46579903885156004,4.265191096007523,2.472924906254997,1.538707758941471,4.044241206916299,-1.0,-1.711376770902443,-0.0856666115542412,-3.14,-2.6226355802142596,0.14036138514004698,1.601999380837486
101,0.7549911828878888,0.5890609364034571,0.47056264854308066,4.26295381397693,2.472761103355406,1.5383706685967196,4.042181691581001,-1.0,-1.7156824848359418,-0.07813312093568217,-3.14,-2.627680588514755,0.14467395895402982,1.604313549357741
102,0.7587085904968934,0.58975447664292,0.47556158298802537,4.2606154353477725,2.4725811637067965,1.537982851924623,4.040011732480999,-1.0,-1.7202821698502542,-0.07027340968552107,-3.14,-2.6325587241360826,0.1492836349327662,1.606371908158794
103,0.762641338032445,0.5904898417141341,0.48081816996922055,4.2581654893748215,2.4723845802619095,1.5375425666802187,4.037717713972297,-1.0,-1.7251608412280492,-0.06207686128081096,-3.14,-2.6372675513744306,0.15417435718627462,1.608183821379895
104,0.7668043740164797,0.591270536452186,0.4863476331799491,4.255597544392262,2.47217113038712,1.537049151997965,4.035293426498454,-1.0,-1.7303070450739686,-0.05354408674369048,-3.14,-2.6418155499284346,0.15933350671748123,1.609773822320215
105,0.771206794332966,0.5920987596345922,0.492157292217471,4.252909588429578,2.4719408787237525,1.5365029471861607,4.032740517081642,-1.0,-1.735714708451492,-0.044686180544494164,-3.14,-2.6462212014743565,0.16475377976493688,1.6111791982773398
106,0.7758511515085795,0.5929752271360188,0.4982459167558343,4.25010432924166,2.4716941731089257,1.5359051799958943,4.030068737394376,-1.0,-1.7413847786238303,-0.03552363283789222,-3.14,-2.6505117382305734,0.17043486531709243,1.6124470481440458
107,0.780732897737805,0.5938990147390364,0.5046033029362244,4.247189383923345,2.4714316341485416,1.5352578271890682,4.027295962052784,-1.0,-1.7473265385299117,-0.02608496333338654,-3.14,-2.6547216246127716,0.17638480717063137,1.6136310139402168
108,0.7858400110472848,0.5948674336496247,0.5112101203617494,4.244177337403645,2.471154141284525,1.5345634531487433,4.024447974851466,-1.0,-1.7535585413842099,-0.016405170519741927,-3.14,-2.658890871672338,0.18262098936872387,1.6147879263454663
109,0.7911528149785135,0.595875945869147,0.5180380205458988,4.241085676416114,2.4708628209692307,1.5338250370258608,4.0215580658695815,-1.0,-1.7601091736687227,-0.006524124632257501,-3.14,-2.663063315496247,0.18917074853411345,1.6159746151710535
110,0.7966439289593237,0.5969181125254477,0.5250499021509685,4.237936651141457,2.4705590457268514,1.533045805503135,4.018666544577998,-1.0,-1.7670169178652835,0.003514928658569883,-3.14,-2.667285021652333,0.19607167815042037,1.6172451121630538
111,0.802278188787678,0.5979855476412284,0.5322001102426753,4.234757173191881,2.470244456250409,1.5322290959254214,4.015820342111539,-1.0,-1.7743304317231448,0.013666551485464229,-3.14,-2.671603001292616,0.20337173622140103,1.618648416452028
112,0.8080122754383748,0.5990678271998323,0.5394342333229515,4.231578912601303,2.469921022081075,1.5313782819754411,4.013072933729496,-1.0,-1.7821085843719218,0.023883758397763615,-3.14,-2.6760644336994113,0.21112929347965415,1.6202269133054152
113,0.8137937085405613,0.6001522845309938,0.5466880788403212,4.228438795086262,2.4695911599013836,1.5304968000945767,4.0104848471415115,-1.0,-1.7904205943286209,0.03411789085095809,-3.14,-2.680716582486748,0.21941326693950247,1.6220154528722373
114,0.8195588108143776,0.6012236123488246,0.5538853647942467,4.225380118659604,2.4692579325530772,1.5295883192449635,4.008125031226462,-1.0,-1.7993464098996093,0.04431749824069095,-3.14,-2.68560757350567,0.2283034817793224,1.6240410255225979
115,0.8252292265743314,0.6022631905134306,0.5609336483312034,4.222454511251166,2.4689253576887475,1.5286571006028105,4.006073353245108,-1.0,-1.8089774710185251,0.05442601219143978,-3.14,-2.6907881843151973,0.23789140503317924,1.626322925889983
116,0.8307065584978567,0.6032480648701743,0.5677179862068743,4.219724954108537,2.468598864430443,1.5277086002012814,4.004424493113521,-1.0,-1.8194180065298071,0.06437799237201823,-3.14,-2.6963147965823486,0.24828141036189375,1.6288732828487464
117,0.8358646336279651,0.6041495122059369,0.5740917308168793,4.217270124080834,2.468285952810819,1.5267503811499212,4.003293543292292,-1.0,-1.8307870679580531,0.07409366598140327,-3.14,-2.702253709597416,0.2595927797074128,1.6316978471926766
118,0.8405387640674655,0.6049311339395026,0.5798636258238964,4.215190397405117,2.467997139975813,1.5257934305597527,4.002823749911754,-1.0,-1.8432216032787705,0.08347133483549157,-3.14,-2.7086871438105997,0.2719627479965343,1.6347969735710357
119,0.8445110362444095,0.6055464198618518,0.584779838098748,4.213616066893974,2.4677473305264446,1.5248540332547045,4.003197123773878,-1.0,-1.856881075015689,0.09237690675040408,-3.14,-2.715721545400161,0.2855510933535911,1.6381668158960165
120,0.8474899723998955,0.6059357040109292,0.588498481296127,4.212718763910214,2.467557849767819,1.5239564661118308,4.0046492598583345,-1.0,-1.8719545137959899,0.10062917116561955,-3.14,-2.723499370185729,0.3005471532632949,1.6418008986217978
121,0.8490815049544179,0.6060223841924053,0.59055198315168,4.212727979751073,2.467459581144443,1.5231369995571837,4.007490952981649,-1.0,-1.8886716637520653,0.10797815937947439,-3.14,-2.732216668793644,0.3171808947293195,1.6456924871996965
122,0.8487452977519442,0.6057081753891915,0.5902880053809948,4.213956487749971,2.4674980803372155,1.5224501559446246,4.012141834245331,-1.0,-1.907321475219454,0.11407125325355164,-3.14,-2.742151201808383,0.33574122767668513,1.6498387072143597
123,0.8457241250011406,0.6048669991673645,0.5867692047204754,4.216842738178457,2.4677425325688604,1.521979204062051,4.019187178898151,-1.0,-1.9282848131513879,0.11839571431367063,-3.14,-2.753711252222888,0.35660827426049235,1.6542485652337506
124,0.8389192208621641,0.603336942136107,0.578586568444035,4.222028731464245,2.4683029529321034,1.5218553699717645,4.029483603773912,-1.0,-1.952097302314891,0.12017158887044156,-3.14,-2.7675288255474912,0.3803151206072167,1.6589601820351714
125,0.8266463414193895,0.6009102002887263,0.5634705014356497,4.230520542016186,2.469367385518823,1.5222970706158634,4.044379774464899,-1.0,-1.9795842220110937,0.11812813088771329,-3.14,-2.78465902151863,0.407679835279761,1.6640821917677018
126,0.8060956357808051,0.597326731082512,0.5373550560913218,4.244071168386357,2.471296391996767,1.5237022807300644,4.066250346527752,-1.0,-2.0121992227380816,0.10996356215946612,-3.14,-2.807074316596704,0.4401357025737546,1.66990975906334
127,0.771937259213033,0.5923261890384082,0.49161620033384945,4.266302226328614,2.4749274594966417,1.5269144643723545,4.100089812261378,-1.0,-2.053106701387165,0.09073690883695144,-3.14,-2.839182199397403,0.48078297732281505,1.677335741392264
128,0.7120894759869727,0.5863615699003704,0.40170653800323625,4.307323209449866,2.483056027248856,1.5342857955582232,4.160275527809863,-1.0,-2.112483932891291,0.04611185299160607,-3.14,-2.894516293652601,0.5395315096081442,1.6900398832808752
129,0.6991914913892686,0.6461141187596773,0.2664104427708759,4.377927686155126,2.5611139607831075,1.5447197963192376,4.333413564592642,-1.0,-2.2848566006326467,-0.10600788840347229,-3.0061905328942027,-3.063570730025568,0.7083591606551307,1.7464003463828712
130,0.6709379193019454,0.5792408952790966,0.3367305515806067,4.357363348408526,2.4871149091115705,1.5348287260494053,4.222578543774865,-1.0,-2.2161438198711423,0.2457095296946442,-3.14,-3.14,0.6441906375715534,1.6735799936015843
131,0.6639008802080861,0.5950319301457361,0.29293206528322924,4.402326806999963,2.512093038660529,1.5471600077193175,4.301559146761791,-1.0,-2.144002135673503,0.1643538069488577,-3.0467455499154874,-3.14,0.577368221115458,1.6082253816315932
132,0.7114104554991922,0.5824730624371237,0.40689103026612683,4.4460652536960215,2.5027924543920945,1.5518758324540323,4.33326568784677,-1.0,-2.023108139244426,0.28688413786393024,-2.9938803989705054,-3.14,0.46004182732950444,1.5377959249724014
133,0.6998231308023319,0.5697717541884096,0.4051641795851798,4.468278807199259,2.4902940774897404,1.5537483366663327,4.329396656546209,-1.0,-1.9266528130812677,0.3621767992153798,-2.995028815572524,-3.14,0.3688493204544885,1.4559613773257343
134,0.6847693346342931,0.5648895948686722,0.38621256036410934,4.48069337975483,2.4861439048089045,1.5603241809934543,4.331211212973886,-1.0,-1.850378640693706,0.39312962171714944,-2.9783576928896567,-3.14,0.2942511608121854,1.3879118499262812
135,0.6686253927254532,0.5617232836050414,0.36210282423803414,4.487328462146791,2.4840842749244536,1.5692605840602543,4.3328977747338,-1.0,-1.7843528683091958,0.4114551449489887,-2.9548692314707004,-3.14,0.22828033724098157,1.3228365769489892
136,0.6516335591975186,0.5591035927141407,0.33435126743959365,4.490049556455506,2.4827721252893666,1.5794679885374983,4.334146547938866,-1.0,-1.7287296449126877,0.4237176391040349,-2.928018886362308,-3.14,0.17181835971473694,1.2579133712446324
137,0.6345712892854473,0.5567889701341255,0.3041977308203775,4.490091318558381,2.481773686050731,1.5900283759235856,4.3353383871319915,-1.0,-1.6844544961422303,0.431359267896575,-2.9002227627210186,-3.14,0.12604906383372205,1.1945165551207828
138,0.6184868380359291,0.5547759317270309,0.2732801798446242,4.488408539850099,2.480939196082602,1.6001871459837742,4.336785343693904,-1.0,-1.6510121835584417,0.4347900141959669,-2.8732656602374553,-3.14,0.09069147001240924,1.1351543632111847
139,0.6041616097880559,0.5530898771860338,0.24304175987762935,4.485753814543109,2.480220417807421,1.6094380157233938,4.338595199502484,-1.0,-1.6266727049869303,0.4346057237776672,-2.8482975164009603,-3.14,0.06430939937338313,1.0816240395111647
140,0.591956131753876,0.551730870428528,0.2144504638149365,4.482682372482729,2.4796058874309757,1.6175284637590568,4.340738744317831,-1.0,-1.6093688677718385,0.43165230380656583,-2.8259081658402443,-3.14,0.04508665805224034,1.0346380294566175
141,0.5818989576836159,0.5506712826761162,0.1880425523002772,4.479565792390277,2.4790931017304842,1.6244000943900105,4.343124032520965,-1.0,-1.5972449314883912,0.4268164596127392,-2.806282181938086,-3.14,0.03131501747005789,0.9941190850377828
142,0.5738210374361375,0.5498673366471541,0.1640519624622092,4.476625380399141,2.478677559244929,1.6301158951854924,4.345640324718115,-1.0,-1.5888313162459307,0.4208738045621728,-2.789351670636089,-3.14,0.02157514505532966,0.9595619831584695
143,0.5674610335882435,0.5492705899848062,0.14252120250168113,4.473973109514479,2.478350385274537,1.6348012307503565,4.348181722540153,-1.0,-1.5830331820355963,0.41443097926145495,-2.774910954622081,-3.14,0.014758794040507351,0.9302849643810999
144,0.5625326609745116,0.5488354138975429,0.1233774554613284,4.471649132647384,2.4780994864935275,1.6386040920840357,4.35065944108507,-1.0,-1.5790601454572701,0.4079254251471205,-2.7626920612398793,-3.14,0.0100310759500938,0.9055737148854774
145,0.5587626522230227,0.5485226073554211,0.1064816904197056,4.469650931473218,2.477911520342354,1.6416715461986022,4.3530068671231215,-1.0,-1.5763514160462222,0.4016501960664449,-2.752410579200504,-3.14,0.006777703840957139,0.8847541999639135
146,0.5559091881874909,0.5483004152777434,0.09165996899634399,4.467953563822403,2.477773542290924,1.6441375469804778,4.355179808501076,-1.0,-1.5745132967190174,0.3957854461777468,-2.7437916179625863,-3.14,0.004554496545555079,0.8672240212830962
147,0.5537683803448211,0.5481441348040852,0.07872337887740684,4.466522522390612,2.4776740300939446,1.6461179118914102,4.3571538510878876,-1.0,-1.5732714691046494,0.39042816068101505,-2.7365831786868093,-3.14,0.003044710116116735,0.8524612309934907
148,0.5521740162238845,0.5480351083107691,0.06748066391994906,4.465321232114357,2.477603342548006,1.6477094397911645,4.35892036893029,-1.0,-1.5724359819234266,0.385617023912078,-2.7305618622943206,-3.14,0.0020251071836925876,0.8400217522853226
149,0.550993921116967,0.5479595586306362,0.05774610510711603,4.464315001063949,2.4775537800113305,1.6489911905518482,4.360482284247995,-1.0,-1.5718760540401109,0.3813518477603285,-2.7255340781943045,-3.14,0.0013399456771505864,0.8295317081431658
150,0.5501249704302172,0.5479074927894765,0.049344277792651776,4.463472796883694,2.4775194130859632,1.6500267173399996,4.361850231751893,-1.0,-1.571502136745087,0.3776080523607949,-2.721334740237459,-3.14,0.0008815424150175474,0.8206780766318281
151,0.549487904906913,0.5478717670330162,0.042112734183473007,4.462767785333485,2.477495806283308,1.6508665592467189,4.363039429056164,-1.0,-1.5712532399658983,0.3743470526556425,-2.717824681678306,-3.14,0.0005760335012905296,0.8131994147598246
152,0.5490225407190593,0.5478473349994276,0.03590329679892416,4.462177223829102,2.477479718797823,1.651550628667906,4.364067318143298,-1.0,-1.5710880361882644,0.3715234428878557,-2.7148875421592304,-3.14,0.0003731097750987682,0.8068774435011385
153,0.5486836286697938,0.5478306668232584,0.030582418686745792,4.4616820616007615,2.477468827908174,1.6521103246565512,4.364951909268442,-1.0,-1.5709786561429677,0.36908977510591484,-2.7124265748422394,-3.14,0.0002387191277626907,0.8015297701957396
154,0.5484374249663175,0.5478193132812487,0.026030920316339336,4.4612664415698635,2.477461495120737,1.6525703161997942,4.365710700341455,-1.0,-1.5709063899406146,0.36699958792585174,-2.7103616264516934,-3.14,0.00014993998205032667,0.7970037616446214
155,0.5482589357434153,0.5478115860883447,0.02214331955955172,4.46091720370509,2.4774565797002257,1.6529499997499497,4.36636003338985,-1.0,-1.570858727855175,0.3652092001480418,-2.708626418078298,-3.14,9.141759388546782e-05,0.7931714620514648
156,0.5481297521217784,0.5478063275765982,0.01882690951448706,4.4606234348166405,2.4774532960657183,1.6532646642600102,4.366914763033297,-1.0,-1.5708273362244176,0.3636786582657864,-2.707166176176224,-3.14,5.290946293281738e-05,0.7899254084803289
157,0.5480363784964039,0.5478027471623057,0.016000696410888953,4.460376080142768,2.477451108090152,1.6535264077630951,4.367388135212349,-1.0,-1.5708066813284622,0.36237212334194896,-2.705935615941153,-3.14,2.7608258176553646e-05,0.7871751940119653
158,0.5479689593208332,0.5478003065967204,0.013594278986315251,4.460167617307952,2.4774496526233722,1.6537448504624466,4.367791799129071,-1.0,-1.5707930990558265,0.3612579012613763,-2.704897252875517,-3.14,1.1004018751576933e-05,0.7848446435451678
159,0.5479203200940959,0.547798640214577,0.011546727388357231,4.4599917867306,2.4774486852039344,1.65392768535534,4.368135897258844,-1.0,-1.5707841691614637,0.3603082584924179,-2.704020005631366,-3.14,1.1693882039888846e-07,0.7828694876553582
160,0.547885251510423,0.5477974999318006,0.009805501602984781,4.4598433704020595,2.4774480421054648,1.6540811015057146,4.3684291958608314,-1.0,-1.5707782963234302,0.3594991198189916,-2.7032780490954393,-3.14,-7.017224440580349e-06,0.78119544044731
161,0.5478599790550458,0.5477967175437518,0.00832543539745721,4.45971801090766,2.4774476141281276,1.654210108810127,4.368679231591067,-1.0,-1.5707744307937024,0.35880971161646047,-2.7026498776128336,-3.14,-1.1690724330881624e-05,0.7797766055353613
162,0.5478417723803038,0.5477961790055356,0.007067801039494418,4.459612063401532,2.477447328681534,1.6543187872815412,4.3688924592106915,-1.0,-1.5707718827927506,0.35822219109610626,-2.702117541853396,-3.14,-1.4752314163760948e-05,0.7785741494482923
163,0.5478286590479543,0.5477958069498355,0.0059994620467830745,4.459522474361236,2.4774471376363256,1.6544104788518028,4.369074391788132,-1.0,-1.570770199570622,0.35772128601004877,-2.7016660275746402,-3.14,-1.6758689939584913e-05,0.7775551939734247
164,0.547819215598719,0.5477955488351488,0.005092115454529421,4.45944668204769,2.477447009142552,1.6544879355523119,4.369229728992501,-1.0,-1.5707690841929884,0.3572939585955123,-2.701282749498472,-3.14,-1.807457780558981e-05,0.7766918886238524
165,0.5478124155581485,0.5477953689252685,0.0043216211285423255,4.459382534564319,2.4774469221500963,1.6545534346251356,4.369362471713825,-1.0,-1.5707683420128131,0.35692910052137305,-2.7009571381825492,-3.14,-1.8938719301110364e-05,0.7759606320059586
166,0.5478075191526623,0.5477952428670336,0.003667413101653237,4.459328222216543,2.4774468627554533,1.6546088685357523,4.369476022823451,-1.0,-1.570767845457537,0.3566172611504746,-2.700680301886846,-3.14,-1.9507283526961e-05,0.7753414168206221
167,0.5478039934564729,0.547795154025998,0.0031119864346024215,4.459282221526279,2.4774468217752066,1.6546558158784737,4.369573274769271,-1.0,-1.570767510902131,0.35635040872836776,-2.7004447489330907,-3.14,-1.98823782358649e-05,0.7748172779192595
168,0.5478014546672332,0.5477950910095951,0.0026404524001610186,4.4592432487774545,2.4774467931391633,1.654695597665808,4.369656685140174,-1.0,-1.5707672835000066,0.35612172257013724,-2.7002441589438195,-3.14,-2.013074699159349e-05,0.7743738265478437
169,0.5477996264315169,0.5477950459918092,0.002240154640847935,4.459210221382049,2.477446772828846,1.6547293223676622,4.369728341504345,-1.0,-1.5707671272441417,0.3559254135350969,-2.7000731936900633,-3.14,-2.0296015414451183e-05,0.7739988568738984
170,0.5477983097844116,0.547795013578697,0.0019003391525427567,4.459182225683783,2.4774467581775648,1.6547579222273845,4.369790016839579,-1.0,-1.5707670184604656,0.35575656977551195,-2.6999273401514414,-3.14,-2.040670406988719e-05,0.7736820132741805
171,0.5477973614877885,0.547794990038988,0.001611871387741154,4.459158490076862,2.4774467474095454,1.6547821827588,4.369843216802216,-1.0,-1.5707669415507621,0.35561102473232287,-2.6998027798805535,-3.14,-2.0481467087390388e-05,0.7734145087930602
172,0.5477966784214372,0.5477949727813073,0.0013669943199388845,4.459138362524724,2.4774467393367425,1.6548027668668142,4.369889219968944,-1.0,-1.5707668862084034,0.35548524450401797,-2.699696279939154,-3.14,-2.0532514799873458e-05,0.773188886760357
173,0.5477961863454142,0.5477949599981988,0.0011591219321323814,4.459121291730144,2.4774467331594874,1.6548202346919432,4.369929112058677,-1.0,-1.5707668455976118,0.35537623195415075,-2.699605101600657,-3.14,-2.056784881555516e-05,0.7729988188558821
174,0.5477958318091473,0.547794950423133,0.0009826632040489372,4.4591068113419885,2.477446728335393,1.6548350600248687,4.369963815014857,-1.0,-1.570766815162678,0.35528144519811883,-2.6995269237448687,-3.14,-2.059272108248276e-05,0.7728389339820334
175,0.5477955763273785,0.5477949431641899,0.0008328722704106988,4.459094526692434,2.4774467244931127,1.654847643947348,4.369994111709647,-1.0,-1.570766791848876,0.35519872839017375,-2.699459778449256,-3.14,-2.0610586194677215e-05,0.7727046731985643
176,0.5477953921881199,0.5477949375898907,0.0007057209724261477,4.459084103646542,2.477446721375533,1.6548583262134393,4.370020666924045,-1.0,-1.5707667735923747,0.3551262529996892,-2.699401996740187,-3.14,-2.0623722927613035e-05,0.7725921667186434
177,0.5477952594353512,0.5477949332505779,0.0005977905393813952,4.45907525921807,2.4774467188022937,1.654867394777291,4.370044045163085,-1.0,-1.5707667589859096,0.35506246801230845,-2.6993521628338764,-3.14,-2.0633639950374797e-05,0.7724981295890462
178,0.5477951636971992,0.5477949298240945,0.0005061795751109336,4.459067753664319,2.4774467166449967,1.6548750937916623,4.370064725782791,-1.0,-1.570766747059312,0.3550060577127865,-2.699309075490568,-3.14,-2.0641340746362988e-05,0.7724197732008433
179,0.5477950946225992,0.5477949270781126,0.0004284259358842859,4.459061383821176,2.4774467148107417,1.6548816303381018,4.370083115834392,-1.0,-1.5707667371351384,0.3549559059013275,-2.6992717153426105,-3.14,-2.064749669827399e-05,0.7723547302173369
180,0.547795044755873,0.5477949248439157,0.000362440420978091,4.459055977479394,2.477446713231153,1.6548871801005582,4.370099560970416,-1.0,-1.5707667287334346,0.3549110655650372,-2.6992392172495254,-3.14,-2.0652560266764716e-05,0.7723009908770356
181,0.5477950087264983,0.5477949229980765,0.00030645051853301,4.459051388636102,2.477446711855017,1.6548918921555904,4.370114354705335,-1.0,-1.5707667215086896,0.35487073317270607,-2.699210846890354,-3.14,-2.0656839082516234e-05,0.7722568489425208
182,0.5477949826657214,0.5477949214495963,0.00025895268864020444,4.459047493482753,2.477446710643304,1.6548958930216582,4.370127746279206,-1.0,-1.5707667152079028,0.35483422688689586,-2.699185980932618,-3.14,-2.0660544527926156e-05,0.7722208558304774
183,0.5477949637864832,0.5477949201308399,0.00021867191762450108,4.459044187013338,2.4774467095657755,1.6548992900854582,4.370139947335188,-1.0,-1.5707667096425344,0.35480096809470785,-2.699164090223699,-3.14,-2.0663823656575048e-05,0.7721917816816907
184,0.5477949500808996,0.5477949189911138,0.00018452745158852935,4.45904138015549,2.477446708598647,1.654902174503387,4.37015113758998,-1.0,-1.570766704669607,0.35477046575002225,-2.6991447255387517,-3.14,-2.066678022298702e-05,0.7721685823189156
185,0.5477949401023854,0.5477949179920953,0.00015560377467388784,4.459038997342738,2.4774467077229527,1.6549046236600382,4.370161469649091,-1.0,-1.5707667001788588,0.3547423030976449,-2.699127505492747,-3.14,-2.066948858518464e-05,0.7721503712005945
186,0.5477949328087233,0.54779491710456,0.00013112606822206387,4.459036974459215,2.4774467069233896,1.6549067032523757,4.370171073095962,-1.0,-1.5707666960839213,0.35471612641562766,-2.69911210628559,-3.14,-2.0672002936383665e-05,0.7721363956139492
187,0.5477949274490259,0.5477949163060273,0.00011043947949259385,4.4590352570990515,2.477446706187486,1.6549084690572324,4.370180057964458,-1.0,-1.570766692316183,0.3546916354677991,-2.6990982530007246,-3.14,-2.06743634694816e-05,0.7721260164658259
188,0.5477949234823003,0.5477949155790527,9.299160353061393e-05,4.459033799091775,2.4774467055049905,1.6549099684306967,4.370188517687692,-1.0,-1.570766688820463,0.35466857540574354,-2.69908571222078,-3.14,-2.0676600521033074e-05,0.7721186911269899
189,0.5477949205187839,0.5477949149099868,7.831768513830568e-05,4.459032561252695,2.477446704867421,1.6549112415803402,4.370196531602166,-1.0,-1.570766685551912,0.3546467298994215,-2.6990742857601746,-3.14,-2.067873738122098e-05,0.7721139588680778
190,0.547794918277678,0.5477949142880617,6.602802554995927e-05,4.459031510323712,2.4774467042677184,1.6549123226448967,4.370204167074263,-1.0,-1.5707666824737545,0.3546259153094168,-2.69906380534524,-3.14,-2.068079221758249e-05,0.7721114284953655
191,0.5477949165566943,0.547794913704716,5.579708322039237e-05,4.459030618075277,2.477446703699983,1.6549132406106504,4.3702114813060255,-1.0,-1.5707666795556166,0.3546059757423974,-2.699054128098278,-3.14,-2.0682779408769234e-05,0.7721107678538474
192,0.5477949152101138,0.5477949131530941,4.735360675409508e-05,4.459029860544874,2.4774467031592664,1.6549140200893138,4.370218522868583,-1.0,-1.5707666767722621,0.35458677885557544,-2.699045132703852,-3.14,-2.0684710481123008e-05,0.7721116949154314
193,0.5477949141329762,0.5477949126276682,4.047113683393977e-05,4.4590292173911426,2.477446702641406,1.6549146819783795,4.370225333004287,-1.0,-1.5707666741026256,0.35456821229642893,-2.6990367161540916,-3.14,-2.0686594776608236e-05,0.7721139702127594
194,0.5477949132496869,0.5477949121239538,3.4957863740600925e-05,4.459028671345993,2.4774467021428936,1.6549152440217334,4.370231946732439,-1.0,-1.5707666715290567,0.3545501806812901,-2.699028790985473,-3.14,-2.0688439937632652e-05,0.7721173904153696
195,0.5477949125058073,0.547794911638291,3.064557754994064e-05,4.4590282077498,2.4774467016607677,1.6549157212856214,4.370238393788212,-1.0,-1.5707666690367226,0.3545326030310781,-2.6990212829327866,-3.14,-2.0690252263875814e-05,0.7721217828756595
196,0.5477949118621445,0.5477949111676793,2.7378027996578893e-05,4.4590278141570066,2.477446701192524,1.6549161265627537,4.370244699419943,-1.0,-1.5707666666131295,0.35451541059489106,-2.699014128937274,-3.14,-2.0692036980840835e-05,0.7721270009981839
197,0.5477949112904821,0.5477949107096461,2.5001279979063252e-05,4.459027480001473,2.477446700736044,1.654916470715412,4.37025088506613,-1.0,-1.5707666642477354,0.3544985450027003,-2.6990072754554273,-3.14,-2.0693798444959095e-05,0.7721329203079587
198,0.5477949107705143,0.5477949102621458,2.3359546215180194e-05,4.459027196312466,2.4774467002895313,1.6549167629667683,4.370256968930303,-1.0,-1.5707666619316312,0.354481956697315,-2.699000677023057,-3.14,-2.0695540302512845e-05,0.7721394351122219
199,0.5477949102876333,0.5477949098234809,2.2298521021359587e-05,4.459026955473613,2.477446699851467,1.6549170111482379,4.370262966469154,-1.0,-1.5707666596572811,0.3544656036033474,-2.6989942950360852,-3.14,-2.0697265615065087e-05,0.7721464556660549
200,0.5477949098328319,0.5477949093926023,2.170282383250899e-05,4.459026762825487,2.477446699420911,1.654917209785763,4.370268890807022,-1.0,-1.570766657418305,0.3544494499973193,-2.6989880967153392,-3.1399998555426483,-2.0698976959632673e-05,0.7721539057657922
201,0.5477949093994323,0.5477949089692774,2.1446990295274787e-05,4.459026637694667,2.477446698997719,1.6549173390420404,4.370274756701508,-1.0,-1.5707666552121706,0.35443345570914475,-2.6989820452048923,-3.1399992412018425,-2.0700674163139435e-05,0.772161699720681
202,0.5477949089783917,0.5477949085524624,2.133875419149256e-05,4.459026556447165,2.477446698580957,1.6549174231870103,4.370280584823231,-1.0,-1.570766653042291,0.3544175644707345,-2.6989760888833167,-3.139998321476763,-2.0702352386529552e-05,0.77216971749345
203,0.5477949085650958,0.5477949081409208,2.1293628999955014e-05,4.459026503721103,2.477446698169435,1.654917478000143,4.3702863886074095,-1.0,-1.570766650905633,0.35440173971886724,-2.698970194190064,-3.1399972033014567,-2.070401193907677e-05,0.7721778810507322
204,0.5477949081569422,0.5477949077334784,2.127532043059233e-05,4.45902646953168,2.4774466977619984,1.6549175137409617,4.3702921767869976,-1.0,-1.5707666487968115,0.3543859576946987,-2.6989643393058476,-3.139995956189773,-2.07056552674265e-05,0.7721861396646832
205,0.547794907752325,0.5477949073291308,2.1268316237176545e-05,4.459026447389254,2.4774466973576508,1.6549175370801834,4.370297955038785,-1.0,-1.5707666467101074,0.3543702029597422,-2.6989585100445206,-3.1399946253303956,-2.070728542139795e-05,0.7721944603580657
206,0.5477949073501762,0.5477949069270663,2.126611324951652e-05,4.459026433075976,2.4774466969555835,1.6549175523551964,4.370303727053134,-1.0,-1.5707666446403608,0.35435446548210303,-2.698952697182476,-3.139993240099221,-2.0708905332365704e-05,0.7722028216929006
207,0.5477949069497569,0.547794906526653,2.1265935747685644e-05,4.459026423850597,2.477446696555167,1.6549175623862955,4.370309495229217,-1.0,-1.5707666425832802,0.3543387387430897,-2.698946894722494,-3.139991819592833,-2.0710517522196507e-05,0.7722112097326472
208,0.5477949065505444,0.5477949061274133,2.1266603982162423e-05,4.459026417931584,2.4774466961559236,1.6549175690073594,4.370315261126875,-1.0,-1.5707666405354666,0.35432301850687675,-2.698941098765043,-3.1399903762255663,-2.0712124031169776e-05,0.7722196154173226
209,0.5477949061521646,0.5477949057289927,2.126762717551479e-05,4.459026414161155,2.477446695757499,1.654917573410884,4.370321025760317,-1.0,-1.5707666384943144,0.354307302021029,-2.6989353067744717,-3.139988918067813,-2.07137264459492e-05,0.7722280328571254
210,0.5477949057543516,0.5477949053311328,2.1268796479072393e-05,4.459026411786906,2.4774466953596352,1.654917576372319,4.37032678978903,-1.0,-1.570766636457873,0.3542915874970023,-2.698929517101925,-3.1399874503660707,-2.0715325967300235e-05,0.7722364582231547
211,0.547794905356914,0.5477949049336457,2.1270028354352714e-05,4.459026410319896,2.4774466949621443,1.6549175783959307,4.370332553641882,-1.0,-1.5707666344247064,0.35427587377257497,-2.698923728675158,-3.1399859765310785,-2.0716923485860505e-05,0.7722448890262851
212,0.5477949049597163,0.5477949045363981,2.1271291474411335e-05,4.459026409442395,2.477446694564893,1.6549175798096452,4.370338317597794,-1.0,-1.570766632393773,0.3542601600924976,-2.6989179407968575,-3.139984498780176,-2.071851965214504e-05,0.7722533236483734
213,0.5477949045626643,0.5477949041392957,2.1272554519468513e-05,4.45902640894794,2.477446694167787,1.654917580826719,4.370344081838191,-1.0,-1.5707666303643242,0.35424444596596316,-2.6989121530135094,-3.1399830185548874,-2.0720114935387296e-05,0.7722617610375003
214,0.5477949041656904,0.5477949037422711,2.1273838364446036e-05,4.4590264087023765,2.4774466937707587,1.6549175815858403,4.370349846481102,-1.0,-1.5707666283358284,0.3542287310739915,-2.6989063650301346,-3.139981536792383,-2.0721709670941408e-05,0.77227020050985
215,0.5477949037687483,0.5477949033452781,2.1275111695128223e-05,4.459026408618529,2.4774466933737616,1.654917582177205,4.370355611603328,-1.0,-1.5707666263079092,0.35421301520925075,-2.698900576654847,-3.139980054101956,-2.0723304096428687e-05,0.7722786416209122
216,0.5477949033718044,0.5477949029482836,2.127638494960522e-05,4.45902640863976,2.4774466929767636,1.6549175826594729,4.370361377254861,-1.0,-1.5707666242803031,0.3541972982369545,-2.6988947877628027,-3.139978570879743,-2.072489837909915e-05,0.7722870840817514
217,0.5477949029748376,0.5477949025512656,2.1277668563463508e-05,4.459026408729263,2.4774466925797416,1.6549175830707947,4.370367143468257,-1.0,-1.570766622252826,0.35418158006945316,-2.698888998272755,-3.13997708738331,-2.0726492636024762e-05,0.7722955277045727
218,0.5477949025778313,0.5477949021542086,2.1278941664946802e-05,4.459026408863131,2.477446692182681,1.6549175834359842,4.370372910264733,-1.0,-1.57076662022535,0.35416586064972544,-2.6988832081318113,-3.1399756037801327,-2.0728086948680046e-05,0.7723039723673344
219,0.5477949021807752,0.5477949017571014,2.1280214690266046e-05,4.459026409025827,2.47744669178557,1.6549175837711798,4.370378677658128,-1.0,-1.5707666181977868,0.3541501399406501,-2.698877417305519,-3.139974120179121,-2.072968137358776e-05,0.7723124179907422
220,0.5477949017836611,0.5477949013599367,2.1281508506819726e-05,4.4590264092072625,2.4774466913884017,1.654917584086879,4.370384445657489,-1.0,-1.570766616170075,0.3541344179180366,-2.6988716257714174,-3.139972636651108,-2.073127594973122e-05,0.7723208645232924
221,0.5477949013864849,0.5477949009627097,2.1282781378603836e-05,4.459026409400876,2.477446690991171,1.6549175843899087,4.370390214268736,-1.0,-1.570766614142173,0.3541186945660953,-2.6988658335148457,-3.1399711532421732,-2.073287070404491e-05,0.7723293119315493
222,0.5477949009892431,0.5477949005654168,2.128405417426511e-05,4.459026409602409,2.477446690593874,1.6549175846847108,4.370395983495761,-1.0,-1.5707666121140516,0.3541029698744957,-2.698860040526216,-3.1399696699823036,-2.0734465654861355e-05,0.7723377601938226
223,0.5477949005919325,0.5477949001680554,2.1285326893817198e-05,4.459026409809096,2.4774466901965093,1.6549175849741735,4.370401753341136,-1.0,-1.5707666100856914,0.35408724383645374,-2.698854246799241,-3.139968186891022,-2.0736060814900468e-05,0.7723462092960596
224,0.5477949001945528,0.5477948997706249,2.1286609968463118e-05,4.459026410019138,2.4774466897990752,1.6549175852601758,4.370407523806576,-1.0,-1.5707666080570792,0.3540715164474902,-2.698848452329779,-3.1399667039810493,-2.0737656192825207e-05,0.7723546592291716
225,0.5477948997971019,0.5477948993731231,2.1287882535214235e-05,4.459026410231369,2.477446689401569,1.6549175855439409,4.370413294893233,-1.0,-1.5707666060282057,0.35405578770462276,-2.698842657115083,-3.1399652212606854,-2.073925179449222e-05,0.772363109987298
226,0.547794899399579,0.5477948989755494,2.128916545583445e-05,4.459026410445025,2.477446689003992,1.6549175858262624,4.370419066601895,-1.0,-1.5707666039990649,0.3540400576058419,-2.6988368611533162,-3.1399637387353536,-2.0740847623927957e-05,0.7723715615666767
227,0.5477948990019842,0.5477948985779034,2.1290437869839614e-05,4.459026410659621,2.477446688606342,1.654917586107659,4.370424838933118,-1.0,-1.570766601969652,0.3540243261497707,-2.6988310644432296,-3.139962256408609,-2.0742443683847213e-05,0.7723800139649099
228,0.5477948986043166,0.5477948981801851,2.1291710207804035e-05,4.4590264108748325,2.4774466882086204,1.6549175863884666,4.3704306118873015,-1.0,-1.5707665999399645,0.35400859333544205,-2.6988252669839614,-3.1399607742827906,-2.0744039976202206e-05,0.7723884671804869
229,0.547794898206577,0.5477948977823947,2.1293003325861106e-05,4.459026411090451,2.477446687810826,1.6549175866689045,4.3704363854647434,-1.0,-1.5707665979100003,0.353992859162156,-2.6988194687748974,-3.1399592923594475,-2.0745636502152067e-05,0.7723969212124738
230,0.5477948978087644,0.5477948973845308,2.1294285937968144e-05,4.459026411306345,2.4774466874129586,1.6549175869491148,4.3704421596656795,-1.0,-1.570766595879758,0.35397712362938594,-2.6988136698155873,-3.1399578106396153,-2.074723326276441e-05,0.7724053760603116
231,0.5477948974108777,0.5477948969865936,2.129555804602344e-05,4.459026411522425,2.477446687015018,1.6549175872291897,4.3704479344903,-1.0,-1.570766593849237,0.35396138673671756,-2.6988078701056866,-3.139956329123995,-2.0748830258527292e-05,0.7724138317236852
232,0.547794897012919,0.5477948965885834,2.1296830078092827e-05,4.459026411738631,2.4774466866170037,1.6549175875091904,4.370453709938769,-1.0,-1.5707665918184361,0.35394564848381005,-2.698802069644918,-3.139954847813071,-2.0750427489928767e-05,0.7724222882024377
233,0.5477948966148868,0.5477948961905,2.12981124597457e-05,4.459026411954933,2.477446686218917,1.654917587789156,4.370459486011233,-1.0,-1.5707665897873555,0.35392990887037,-2.69879626843305,-3.1399533667071875,-2.075202495724336e-05,0.7724307454965156
234,0.5477948962167808,0.5477948957923434,2.129940518911269e-05,4.4590264121713,2.4774466858207562,1.6549175880691112,4.3704652627078255,-1.0,-1.5707665877559944,0.3539141678961345,-2.6987904664698816,-3.1399518858065947,-2.0753622660684602e-05,0.7724392036059325
235,0.5477948958186021,0.5477948953941134,2.1300687415734177e-05,4.45902641238772,2.4774466854225228,1.6549175883490737,4.370471040028675,-1.0,-1.5707665857243527,0.35389842556086126,-2.698784663755228,-3.139950405111485,-2.0755220600405006e-05,0.7724476625307451
236,0.5477948954203501,0.5477948949958105,2.130195914150673e-05,4.459026412604182,2.4774466850242156,1.6549175886290532,4.370476817973901,-1.0,-1.5707665836924303,0.3538826818643204,-2.698778860288919,-3.1399489246220105,-2.075681877655709e-05,0.7724561222710392
237,0.5477948950220244,0.5477948945974339,2.1303241214407676e-05,4.45902641282068,2.4774466846258356,1.6549175889090575,4.370482596543624,-1.0,-1.570766581660227,0.35386693680629105,-2.698773056070791,-3.1399474443382998,-2.0758417189262865e-05,0.7724645828269184
238,0.5477948946236247,0.5477948941989835,2.1304512787736865e-05,4.459026413037208,2.4774466842273815,1.654917589189091,4.370488375737961,-1.0,-1.5707665796277428,0.3538511903865573,-2.698767251100686,-3.1399459642604635,-2.076001583864435e-05,0.7724730441984986
239,0.5477948942251528,0.5477948938004603,2.1305794706972545e-05,4.459026413253766,2.4774466838288545,1.6549175894691566,4.370494155557026,-1.0,-1.5707665775949773,0.3538354426049071,-2.698761445378449,-3.139944484388603,-2.0761614724732045e-05,0.7724815063859032
240,0.5477948938266072,0.5477948934018633,2.1307066127913178e-05,4.45902641347035,2.4774466834302538,1.6549175897492565,4.370499936000933,-1.0,-1.5707665755619307,0.3538196934611305,-2.6987556389039273,-3.139943004722812,-2.076321384752595e-05,0.772489969389261
241,0.5477948934279879,0.5477948930031931,2.1308347893538833e-05,4.459026413686958,2.4774466830315798,1.6549175900293918,4.370505717069797,-1.0,-1.5707665735286027,0.35380394295501894,-2.6987498316769707,-3.13994152526318,-2.0764813207209088e-05,0.7724984332087043
242,0.5477948930292948,0.5477948926044491,2.130964000198282e-05,4.459026413903593,2.477446682632832,1.6549175903095634,4.370511498763731,-1.0,-1.5707665714949934,0.353788191086365,-2.6987440236974285,-3.1399400460097926,-2.0766412803811957e-05,0.7725068978443672
243,0.5477948926305292,0.547794892205632,2.131093203208466e-05,4.459026414120252,2.477446682234011,1.6549175905897715,4.37051728108285,-1.0,-1.5707665694611028,0.35377243785496176,-2.698738214965151,-3.139938566962735,-2.0768012637365064e-05,0.7725153632963855
244,0.5477948922316886,0.5477948918067409,2.1312203146548173e-05,4.459026414336936,2.4774466818351164,1.6549175908700167,4.370523064027264,-1.0,-1.5707665674269307,0.35375668326060256,-2.6987324054799893,-3.1399370881220903,-2.0769612707959917e-05,0.7725238295648956
245,0.5477948918327756,0.5477948914077766,2.1313474185203677e-05,4.459026414553642,2.4774466814361484,1.6549175911502991,4.370528847597088,-1.0,-1.570766565392477,0.35374092730308115,-2.698726595241794,-3.1399356094879414,-2.0771213015596517e-05,0.7725322966500349
246,0.5477948914337886,0.5477948910087388,2.1314765982890106e-05,4.459026414770372,2.4774466810371067,1.6549175914306193,4.3705346317924345,-1.0,-1.5707665633577417,0.3537251699821915,-2.698720784250416,-3.1399341310603703,-2.0772813560366377e-05,0.7725407645519408
247,0.5477948910347289,0.5477948906096275,2.1316036868728082e-05,4.459026414987127,2.477446680637992,1.6549175917109773,4.370540416613417,-1.0,-1.5707665613227246,0.35370941129772737,-2.698714972505707,-3.1399326528394584,-2.07744143423305e-05,0.7725492332707513
248,0.5477948906355946,0.5477948902104424,2.1317328511119785e-05,4.459026415203904,2.4774466802388027,1.6549175919913723,4.370546202060147,-1.0,-1.5707665592874258,0.3536936512494825,-2.698709160007518,-3.1399311748252874,-2.0776015361458385e-05,0.7725577028066049
249,0.5477948902363868,0.5477948898111835,2.1318609659727255e-05,4.4590264154207055,2.4774466798395403,1.6549175922718056,4.37055198813274,-1.0,-1.5707665572518452,0.3536778898372509,-2.6987033467557,-3.139929697017939,-2.077761661793305e-05,0.7725661731596394
250,0.5477948898371059,0.5477948894118513,2.131989073134832e-05,4.45902641563753,2.477446679440204,1.654917592552276,4.3705577748313065,-1.0,-1.5707665552159829,0.3536621270608265,-2.698697532750104,-3.139928219417494,-2.0779218111784996e-05,0.7725746443299933
251,0.5477948894377509,0.5477948890124454,2.132116131171653e-05,4.459026415854377,2.4774466790407947,1.654917592832785,4.370563562155961,-1.0,-1.5707665531798383,0.3536463629200032,-2.6986917179905814,-3.139926742024034,-2.0780819843075238e-05,0.772583116317805
252,0.5477948890383229,0.5477948886129657,2.1322452643686733e-05,4.459026416071247,2.477446678641311,1.6549175931133313,4.370569350106816,-1.0,-1.570766551143412,0.35363059741457464,-2.6986859024769836,-3.1399252648376406,-2.0782421811834273e-05,0.7725915891232131
253,0.5477948886388206,0.5477948882134126,2.132374389745593e-05,4.459026416288144,2.4774466782417544,1.6549175933939155,4.370575138683987,-1.0,-1.5707665491067035,0.3536148305443349,-2.6986800862091616,-3.139923787858395,-2.07840240180316e-05,0.7726000627463561
254,0.5477948882392447,0.5477948878137855,2.1325014248245995e-05,4.459026416505063,2.4774466778421234,1.6549175936745375,4.370580927887583,-1.0,-1.570766547069713,0.3535990623090775,-2.698674269186966,-3.1399223110863788,-2.0785626461819735e-05,0.7726085371873727
255,0.5477948878395952,0.5477948874140848,2.1326294935143103e-05,4.459026416722003,2.477446677442419,1.6549175939551977,4.370586717717719,-1.0,-1.5707665450324402,0.35358329270859623,-2.6986684514102484,-3.139920834521673,-2.0787229143168174e-05,0.7726170124464014
256,0.5477948874398718,0.5477948870143101,2.132757554513701e-05,4.459026416938969,2.4774466770426407,1.6549175942358954,4.37059250817451,-1.0,-1.5707665429948852,0.3535675217426849,-2.698662632878859,-3.1399193581643594,-2.0788832062259938e-05,0.7726254885235809
257,0.547794887040075,0.5477948866144621,2.1328866488764745e-05,4.4590264171559575,2.477446676642789,1.6549175945166308,4.3705982992580665,-1.0,-1.570766540957048,0.35355174941113693,-2.69865681359265,-3.139917882014519,-2.0790435219064525e-05,0.7726339654190502
258,0.5477948866402037,0.54779488621454,2.1330136534470603e-05,4.4590264173729715,2.477446676242863,1.6549175947974042,4.370604090968503,-1.0,-1.5707665389189285,0.3535359757137462,-2.698650993551471,-3.139916406072233,-2.0792038613673443e-05,0.7726424431329476
259,0.5477948862402596,0.5477948858145442,2.1331427323111388e-05,4.459026417590006,2.4774466758428635,1.6549175950782156,4.370609883305932,-1.0,-1.5707665368805264,0.35352020065030604,-2.698645172755174,-3.1399149303375835,-2.0793642246086692e-05,0.7726509216654123
260,0.5477948858402408,0.5477948854144744,2.133271803364983e-05,4.459026417807066,2.47744667544279,1.6549175953590647,4.370615676270469,-1.0,-1.5707665348418418,0.3535044242206101,-2.6986393512036093,-3.1399134548106518,-2.079524611645679e-05,0.7726594010165829
261,0.5477948854401483,0.5477948850143306,2.13340086661001e-05,4.459026418024149,2.4774466750426427,1.6549175956399518,4.3706214698622246,-1.0,-1.5707665328028746,0.3534886464244517,-2.6986335288966274,-3.1399119794915196,-2.0796850224692227e-05,0.7726678811865982
262,0.5477948850399829,0.5477948846141137,2.133527840570261e-05,4.459026418241255,2.4774466746424215,1.6549175959208766,4.370627264081313,-1.0,-1.570766530763625,0.35347286726162436,-2.6986277058340797,-3.139910504380268,-2.079845457094552e-05,0.7726763621755973
263,0.5477948846397429,0.5477948842138225,2.1336548069742815e-05,4.459026418458385,2.4774466742421266,1.6549175962018394,4.370633058927848,-1.0,-1.5707665287240924,0.35345708673192144,-2.6986218820158165,-3.139909029476979,-2.0800059155277675e-05,0.7726848439837191
264,0.5477948842394287,0.5477948838134572,2.133784887667174e-05,4.459026418675537,2.477446673841758,1.6549175964828404,4.3706388544019426,-1.0,-1.5707665266842772,0.35344130483513614,-2.698616057441688,-3.139907554781734,-2.0801663977719194e-05,0.7726933266111025
265,0.5477948838390411,0.5477948834130184,2.1339149604305154e-05,4.459026418892713,2.477446673441315,1.6549175967638796,4.370644650503711,-1.0,-1.5707665246441793,0.35342552157106183,-2.698610232111546,-3.1399060802946144,-2.0803269038331087e-05,0.7727018100578864
266,0.5477948834385792,0.5477948830125055,2.1340419038025533e-05,4.4590264191099145,2.4774466730407987,1.654917597044956,4.370650447233267,-1.0,-1.5707665226037986,0.3534097369394918,-2.698604406025241,-3.139904606015702,-2.0804874337082847e-05,0.7727102943242102
267,0.5477948830380439,0.5477948826119183,2.1341698800501762e-05,4.459026419327138,2.4774466726402076,1.6549175973260704,4.370656244590722,-1.0,-1.570766520563135,0.3533939509402192,-2.698598579182623,-3.1399031319450788,-2.0806479874157498e-05,0.7727187794102127
268,0.5477948826374341,0.5477948822112576,2.1342978486241186e-05,4.459026419544386,2.477446672239543,1.6549175976072228,4.370662042576191,-1.0,-1.5707665185221882,0.35337816357303725,-2.698592751583542,-3.1399016580828265,-2.0808085649524533e-05,0.7727272653160329
269,0.5477948822367511,0.5477948818105228,2.134427890127445e-05,4.459026419761655,2.4774466718388046,1.6549175978884132,4.370667841189787,-1.0,-1.5707665164809586,0.3533623748377389,-2.6985869232278494,-3.139900184429027,-2.080969166330597e-05,0.77273575204181
270,0.5477948818359935,0.5477948814097141,2.1345558432334472e-05,4.459026419978951,2.477446671437992,1.654917598169642,4.370673640431625,-1.0,-1.5707665144394458,0.35334658473411756,-2.6985810941153954,-3.1398987109837617,-2.0811297915532305e-05,0.7727442395876832
271,0.5477948814351613,0.547794881008831,2.134683788669931e-05,4.459026420196268,2.4774466710371055,1.654917598450908,4.370679440301816,-1.0,-1.5707665123976498,0.3533307932619658,-2.698575264246031,-3.1398972377471126,-2.0812904406264553e-05,0.7727527279537919
272,0.5477948810342557,0.5477948806078737,2.134813806663842e-05,4.45902642041361,2.4774466706361444,1.654917598732213,4.370685240800476,-1.0,-1.5707665103555706,0.35331500042107705,-2.698569433619605,-3.139895764719162,-2.0814511135441702e-05,0.772761217140275
273,0.5477948806332759,0.5477948802068429,2.1349406965905686e-05,4.459026420630974,2.4774466702351097,1.654917599013555,4.370691041927717,-1.0,-1.5707665083132079,0.3532992062112439,-2.6985636022359696,-3.1398942918999904,-2.081611810327728e-05,0.7727697071472722
274,0.5477948802322224,0.5477948798057377,2.1350706989397276e-05,4.459026420848363,2.4774466698340007,1.654917599294935,4.370696843683654,-1.0,-1.570766506270562,0.35328341063225926,-2.6985577700949737,-3.1398928192896807,-2.0817725309801786e-05,0.7727781979749225
275,0.5477948798310946,0.5477948794045584,2.135198613525012e-05,4.459026421065774,2.4774466694328177,1.6549175995763536,4.3707026460684,-1.0,-1.5707665042276326,0.3532676136839161,-2.6985519371964677,-3.139891346888315,-2.081933275501522e-05,0.7727866896233652
276,0.5477948794298922,0.5477948790033051,2.1353275603099845e-05,4.45902642128321,2.4774466690315604,1.65491759985781,4.370708449082069,-1.0,-1.57076650218442,0.35325181536600714,-2.6985461035403024,-3.139889874695975,-2.0820940438978594e-05,0.7727951820927399
277,0.5477948790286163,0.5477948786019775,2.1354554595091764e-05,4.459026421500669,2.477446668630229,1.6549176001393044,4.370714252724775,-1.0,-1.5707665001409234,0.3532360156783252,-2.698540269126328,-3.1398884027127427,-2.082254836172241e-05,0.7728036753831858
278,0.5477948786272666,0.5477948782005762,2.1355854305224837e-05,4.459026421718152,2.477446668228824,1.6549176004208372,4.370720056996632,-1.0,-1.5707664980971434,0.35322021462066294,-2.6985344339543937,-3.1398869309387,-2.0824156523399177e-05,0.7728121694948427
279,0.5477948782258419,0.5477948777991002,2.1357133142788755e-05,4.4590264219356595,2.477446667827344,1.6549176007024076,4.3707258618977525,-1.0,-1.57076649605308,0.35320441219281284,-2.698528598024351,-3.1398854593739287,-2.08257649239784e-05,0.7728206644278498
280,0.5477948778243433,0.5477948773975502,2.1358411903782117e-05,4.459026422153187,2.4774466674257907,1.654917600984016,4.370731667428251,-1.0,-1.5707664940087327,0.3531886083945677,-2.698522761336049,-3.139883988018511,-2.0827373563612595e-05,0.7728291601823467
281,0.5477948774227704,0.547794876995926,2.13597009837134e-05,4.45902642237074,2.4774466670241626,1.6549176012656621,4.370737473588242,-1.0,-1.5707664919641013,0.35317280322572026,-2.698516923889338,-3.1398825168725297,-2.0828982442179744e-05,0.7728376567584728
282,0.5477948770211233,0.5477948765942272,2.136098998585208e-05,4.459026422588317,2.47744666662246,1.654917601547347,4.370743280377839,-1.0,-1.5707664899191864,0.3531569966860629,-2.6985110856840677,-3.139881045936067,-2.0830591559801865e-05,0.7728461541563677
283,0.5477948766194022,0.5477948761924546,2.1362278910212234e-05,4.45902642280592,2.4774466662206835,1.6549176018290697,4.370749087797157,-1.0,-1.5707664878739875,0.353141188775388,-2.6985052467200883,-3.139879575209204,-2.0832200916631473e-05,0.7728546523761712
284,0.5477948762176065,0.5477948757906076,2.1363567756807943e-05,4.459026423023544,2.477446665818833,1.6549176021108305,4.370754895846308,-1.0,-1.5707664858285046,0.35312537949348805,-2.698499406997249,-3.1398781046920234,-2.083381051269907e-05,0.7728631514180229
285,0.5477948758157367,0.5477948753886864,2.136485652565328e-05,4.459026423241191,2.477446665416908,1.654917602392629,4.370760704525407,-1.0,-1.5707664837827378,0.3531095688401555,-2.698493566515401,-3.1398766343846076,-2.083542034794365e-05,0.7728716512820624
286,0.5477948754137926,0.5477948749866907,2.136613482440297e-05,4.4590264234588615,2.4774466650149085,1.6549176026744663,4.3707665138345675,-1.0,-1.5707664817366866,0.3530937568151827,-2.698487725274393,-3.1398751642870386,-2.083703042257874e-05,0.7728801519684294
287,0.5477948750117738,0.5477948745846205,2.1367423438416502e-05,4.459026423676557,2.4774466646128346,1.6549176029563413,4.370772323773905,-1.0,-1.5707664796903513,0.3530779434183619,-2.6984818832740753,-3.139873694399399,-2.0838640736482324e-05,0.7728886534772639
288,0.5477948746096811,0.5477948741824761,2.1368711974721745e-05,4.459026423894274,2.4774466642106865,1.6549176032382542,4.370778134343532,-1.0,-1.5707664776437318,0.3530621286494853,-2.6984760405142976,-3.1398722247217705,-2.0840251289806916e-05,0.7728971558087055
289,0.5477948742075136,0.5477948737802575,2.1370000433332756e-05,4.459026424112018,2.477446663808464,1.6549176035202056,4.370783945543565,-1.0,-1.570766475596828,0.3530463125083452,-2.698470196994909,-3.139870755254236,-2.0841862082674533e-05,0.7729056589628941
290,0.5477948738052723,0.5477948733779646,2.1371299204116665e-05,4.459026424329784,2.4774466634061674,1.6549176038021947,4.370789757374115,-1.0,-1.57076647354964,0.3530304949947336,-2.6984643527157606,-3.1398692859968778,-2.0843473114993665e-05,0.7729141629399695
291,0.5477948734029559,0.5477948729755967,2.1372587506755076e-05,4.459026424547574,2.4774466630037955,1.6549176040842222,4.3707955698352965,-1.0,-1.5707664715021676,0.35301467610844284,-2.6984585076767003,-3.1398678169497782,-2.084508438694733e-05,0.7729226677400716
292,0.5477948730005657,0.5477948725731548,2.1373875731741514e-05,4.459026424765386,2.4774466626013503,1.6549176043662879,4.370801382927225,-1.0,-1.5707664694544106,0.35299885584926505,-2.6984526618775786,-3.13986634811302,-2.0846695898566037e-05,0.7729311733633403
293,0.5477948725981008,0.5477948721706384,2.137515349111544e-05,4.4590264249832225,2.4774466621988296,1.6549176046483913,4.3708071966500155,-1.0,-1.570766467406369,0.3529830342169921,-2.698446815318245,-3.139864879486685,-2.0848307649819277e-05,0.7729396798099156
294,0.5477948721955614,0.5477948717680475,2.1376451948814612e-05,4.459026425201082,2.477446661796235,1.6549176049305336,4.370813011003781,-1.0,-1.5707664653580429,0.35296721121141617,-2.6984409679985486,-3.1398634110708565,-2.084991964073755e-05,0.7729481870799375
295,0.5477948717929478,0.5477948713653823,2.137773994092934e-05,4.459026425418967,2.477446661393566,1.654917605212714,4.3708188259886365,-1.0,-1.570766463309432,0.35295138683232913,-2.6984351199183396,-3.139861942865616,-2.085153187156489e-05,0.7729566951735461
296,0.5477948713902593,0.5477948709626422,2.1379027855448227e-05,4.459026425636873,2.4774466609908226,1.6549176054949317,4.370824641604695,-1.0,-1.5707664612605363,0.3529355610795227,-2.6984292710774667,-3.1398604748710466,-2.0853144342209787e-05,0.7729652040908815
297,0.5477948709874967,0.5477948705598279,2.138032607785173e-05,4.459026425854805,2.4774466605880043,1.6549176057771888,4.3708304578520725,-1.0,-1.570766459211356,0.3529197339527888,-2.6984234214757796,-3.139859007087231,-2.0854757052763747e-05,0.7729737138320837
298,0.5477948705846589,0.5477948701569387,2.1381603451754557e-05,4.459026426072759,2.4774466601851115,1.654917606059483,4.370836274730882,-1.0,-1.5707664571618907,0.35290390545191924,-2.698417571113128,-3.1398575395142516,-2.085637000328778e-05,0.772982224397293
299,0.547794870181747,0.5477948697539751,2.1382891133570035e-05,4.4590264262907375,2.477446659782144,1.6549176063418158,4.370842092241239,-1.0,-1.5707664551121405,0.352888075576706,-2.6984117199893602,-3.1398560721521913,-2.0857983193873393e-05,0.7729907357866493
300,0.547794869778761,0.5477948693509374,2.138418912143604e-05,4.45902642650874,2.4774466593791025,1.6549176066241866,4.370847910383257,-1.0,-1.5707664530621055,0.3528722443269405,-2.6984058681043264,-3.1398546050011324,-2.0859596624490085e-05,0.772999248000293
301,0.5477948693756998,0.5477948689478246,2.138547664756082e-05,4.459026426726764,2.477446658975986,1.6549176069065965,4.370853729157051,-1.0,-1.5707664510117851,0.3528564117024146,-2.698400015457875,-3.139853138061158,-2.086121029525987e-05,0.7730077610383642
302,0.5477948689725637,0.5477948685446371,2.1386753713833823e-05,4.459026426944813,2.4774466585727946,1.6549176071890432,4.370859548562736,-1.0,-1.57076644896118,0.35284057770291993,-2.698394162049856,-3.1398516713323503,-2.0862824206182746e-05,0.7730162749010033
303,0.5477948685693536,0.5477948681413752,2.1388061848999554e-05,4.459026427162888,2.477446658169529,1.6549176074715293,4.370865368600427,-1.0,-1.5707664469102893,0.3528247423282481,-2.6983883078801183,-3.1398502048147927,-2.0864438357289217e-05,0.7730247895883505
304,0.547794868166069,0.5477948677380385,2.13893387609212e-05,4.4590264273809845,2.4774466577661887,1.654917607754053,4.370871189270236,-1.0,-1.5707664448591137,0.35280890557819045,-2.6983824529485108,-3.1398487385085674,-2.08660527487318e-05,0.7730333051005464
305,0.5477948677627088,0.547794867334627,2.1390636357543957e-05,4.459026427599106,2.477446657362773,1.6549176080366153,4.370877010572279,-1.0,-1.5707664428076527,0.3527930674525386,-2.6983765972548825,-3.1398472724137574,-2.086766738063251e-05,0.773041821437731
306,0.5477948673592746,0.5477948669311411,2.13919234956258e-05,4.459026427817249,2.4774466569592835,1.6549176083192156,4.370882832506671,-1.0,-1.5707664407559063,0.35277722795108396,-2.6983707407990827,-3.1398458065304458,-2.0869282252899834e-05,0.773050338600045
307,0.5477948669557654,0.5477948665275804,2.1393220935472584e-05,4.459026428035417,2.4774466565557187,1.6549176086018544,4.370888655073526,-1.0,-1.5707664387038747,0.35276138707361804,-2.69836488358096,-3.139844340858715,-2.087089736559478e-05,0.7730588565876289
308,0.5477948665521813,0.5477948661239447,2.1394518296637998e-05,4.45902642825361,2.4774466561520794,1.6549176088845312,4.37089447827296,-1.0,-1.5707664366515572,0.35274554481993226,-2.698359025600364,-3.1398428753986485,-2.087251271871735e-05,0.7730673754006229
309,0.5477948661485231,0.5477948657202346,2.1395794823235563e-05,4.459026428471824,2.4774466557483654,1.6549176091672466,4.370900302105085,-1.0,-1.5707664345989545,0.3527297011898176,-2.6983531668571428,-3.139841410150329,-2.0874128312420056e-05,0.7730758950391676
310,0.5477948657447897,0.5477948653164494,2.1397092028339487e-05,4.459026428690062,2.4774466553445764,1.65491760945,4.370906126570018,-1.0,-1.570766432546066,0.35271385618306567,-2.698347307351146,-3.139839945113839,-2.0875744146824916e-05,0.7730844155034038
311,0.5477948653409814,0.5477948649125897,2.139837877810501e-05,4.459026428908325,2.477446654940713,1.654917609732792,4.370911951667874,-1.0,-1.5707664304928919,0.3526980097994676,-2.6983414470822216,-3.139838480289262,-2.0877360221901428e-05,0.7730929367934719
312,0.5477948649370986,0.547794864508655,2.139967582657481e-05,4.459026429126611,2.4774466545367746,1.6549176100156222,4.370917777398766,-1.0,-1.570766428439432,0.3526821620388144,-2.698335586050219,-3.139837015676681,-2.0878976537710595e-05,0.7731014589095125
313,0.5477948645331409,0.5477948641046455,2.1400972796434415e-05,4.459026429344921,2.4774466541327613,1.6549176102984902,4.37092360376281,-1.0,-1.5707664263856864,0.35266631290089745,-2.6983297242549873,-3.1398355512761786,-2.088059309428292e-05,0.7731099818516664
314,0.5477948641291082,0.5477948637005612,2.140225931287983e-05,4.459026429563255,2.4774466537286735,1.6549176105813972,4.37092943076012,-1.0,-1.5707664243316548,0.3526504623855078,-2.698323861696374,-3.1398340870878387,-2.088220989174042e-05,0.7731185056200739
315,0.5477948637250009,0.5477948632964018,2.14035561261905e-05,4.459026429781612,2.47744665332451,1.6549176108643424,4.370935258390812,-1.0,-1.5707664222773374,0.3526346104924363,-2.698317998374229,-3.1398326231117437,-2.0883826930052587e-05,0.7731270302148762
316,0.547794863320818,0.5477948628921676,2.140484248736749e-05,4.4590264299999935,2.477446652920272,1.6549176111473258,4.370941086655001,-1.0,-1.570766420222734,0.3526187572214741,-2.6983121342884004,-3.139831159347977,-2.0885444209341437e-05,0.773135555636214
317,0.5477948629165611,0.5477948624878586,2.1406139144185904e-05,4.459026430218399,2.477446652515959,1.6549176114303472,4.3709469155528,-1.0,-1.5707664181678445,0.35260290257241217,-2.698306269438737,-3.139829695796622,-2.0887061729637476e-05,0.7731440818842279
318,0.5477948625122286,0.5477948620834746,2.1407446094774906e-05,4.459026430436827,2.4774466521115714,1.6549176117134072,4.370952745084325,-1.0,-1.5707664161126689,0.35258704654504136,-2.6983004038250873,-3.139828232457761,-2.088867949103221e-05,0.7731526089590589
319,0.5477948621078212,0.5477948616790156,2.1408721850533468e-05,4.459026430655277,2.4774466517071088,1.6549176119965057,4.370958575249691,-1.0,-1.570766414057207,0.3525711891391526,-2.698294537447299,-3.1398267693314783,-2.089029749343413e-05,0.7731611368608478
320,0.5477948617033391,0.5477948612744815,2.141001827240567e-05,4.459026430873754,2.4774466513025706,1.6549176122796425,4.370964406049015,-1.0,-1.570766412001459,0.3525553303545368,-2.6982886703052213,-3.139825306417857,-2.089191573705676e-05,0.7731696655897353
321,0.5477948612987827,0.5477948608698732,2.141131461578154e-05,4.459026431092254,2.4774466508979587,1.6549176125628176,4.3709702374824095,-1.0,-1.5707664099454248,0.35253947019098464,-2.6982828023987024,-3.1398238437169796,-2.089353422196111e-05,0.7731781951458626
322,0.5477948608941504,0.5477948604651889,2.1412610880675334e-05,4.459026431310778,2.4774466504932704,1.6549176128460312,4.37097606954999,-1.0,-1.5707664078891042,0.3525236086482868,-2.6982769337275907,-3.1398223812289303,-2.0895152948147175e-05,0.7731867255293705
323,0.5477948604894435,0.5477948600604302,2.1413896697921217e-05,4.459026431529326,2.477446650088508,1.6549176131292833,4.370981902251873,-1.0,-1.570766405832497,0.35250774572623395,-2.6982710642917347,-3.139820918953792,-2.0896771915614956e-05,0.7731952567404001
324,0.5477948600846609,0.5477948596555958,2.1415182437963653e-05,4.459026431747898,2.47744664968367,1.6549176134125736,4.370987735588171,-1.0,-1.5707664037756033,0.3524918814246168,-2.698265194090983,-3.139819456891648,-2.0898391124486466e-05,0.7732037887790926
325,0.5477948596798038,0.5477948592506868,2.1416478468751635e-05,4.459026431966491,2.4774466492787575,1.654917613695902,4.370993569559001,-1.0,-1.570766401718423,0.35247601574322573,-2.6982593231251832,-3.1398179950425824,-2.0900010574853218e-05,0.7732123216455888
326,0.5477948592748713,0.5477948588457027,2.1417784788417027e-05,4.459026432185111,2.4774466488737694,1.6549176139792696,4.370999404164479,-1.0,-1.5707663996609564,0.35246014868185166,-2.6982534513941836,-3.139816533406678,-2.0901630266684707e-05,0.7732208553400299
327,0.547794858869864,0.5477948584406432,2.1419070295065876e-05,4.4590264324037525,2.477446648468706,1.6549176142626751,4.371005239404718,-1.0,-1.570766397603203,0.3524442802402848,-2.6982475788978335,-3.139815071984018,-2.0903250200133452e-05,0.7732293898625573
328,0.5477948584647809,0.5477948580355088,2.1420366090620602e-05,4.45902643262242,2.4774466480635677,1.654917614546119,4.371011075279834,-1.0,-1.5707663955451627,0.35242841041831585,-2.6982417056359798,-3.139813610774686,-2.090487037519945e-05,0.7732379252133119
329,0.5477948580596238,0.5477948576302991,2.142165144236631e-05,4.4590264328411084,2.477446647658354,1.6549176148296012,4.371016911789942,-1.0,-1.5707663934868357,0.35241253921573484,-2.698235831608471,-3.1398121497787663,-2.0906490791852196e-05,0.773246461392435
330,0.5477948576543912,0.5477948572250149,2.1422957446596394e-05,4.459026433059822,2.4774466472530663,1.6549176151131222,4.371022748935159,-1.0,-1.5707663914282217,0.35239666663233254,-2.6982299568151547,-3.139810688996342,-2.0908111450274716e-05,0.7732549984000677
331,0.5477948572490833,0.5477948568196547,2.1424253007045904e-05,4.45902643327856,2.477446646847702,1.6549176153966816,4.3710285867156,-1.0,-1.5707663893693207,0.35238079266789923,-2.698224081255879,-3.139809228427497,-2.0909732350528012e-05,0.7732635362363514
332,0.5477948568437003,0.54779485641422,2.142554848915544e-05,4.45902643349732,2.4774466464422638,1.6549176156802796,4.371034425131378,-1.0,-1.5707663873101327,0.3523649173222249,-2.698218204930493,-3.1398077680723144,-2.0911353492581584e-05,0.7732720749014275
333,0.5477948564382416,0.5477948560087095,2.1426843892939213e-05,4.459026433716107,2.4774466460367495,1.6549176159639158,4.371040264182611,-1.0,-1.570766385250658,0.3523490405951,-2.6982123278388435,-3.139806307930878,-2.0912974876557443e-05,0.7732806143954373
334,0.5477948560327077,0.5477948556031238,2.142813921841143e-05,4.459026433934914,2.4774466456311597,1.6549176162475905,4.371046103869412,-1.0,-1.5707663831908958,0.35233316248631463,-2.6982064499807787,-3.139804848003271,-2.0914596502455588e-05,0.7732891547185223
335,0.5477948556270988,0.5477948551974632,2.142944482724803e-05,4.459026434153748,2.4774466452254957,1.6549176165313038,4.371051944191899,-1.0,-1.5707663811308465,0.35231728299565895,-2.6982005713561468,-3.139803388289578,-2.0916218370398035e-05,0.7732976958708238
336,0.5477948552214148,0.5477948547917268,2.1430729634477985e-05,4.459026434372604,2.4774466448197554,1.6549176168150554,4.371057785150186,-1.0,-1.5707663790705102,0.35230140212292305,-2.6981946919647952,-3.139801928789882,-2.0917840480323776e-05,0.7733062378524832
337,0.5477948548156549,0.5477948543859152,2.1432024725100718e-05,4.459026434591483,2.47744664441394,1.6549176170988458,4.371063626744388,-1.0,-1.5707663770098863,0.3522855198678971,-2.6981888118065718,-3.139800469504268,-2.091946283238533e-05,0.773314780663642
338,0.5477948544098203,0.5477948539800286,2.143331973746867e-05,4.459026434810388,2.4774466440080496,1.6549176173826747,4.371069468974622,-1.0,-1.570766374948975,0.352269636230371,-2.698182930881324,-3.1397990104328186,-2.0921085426704707e-05,0.773323324304442
339,0.5477948540039105,0.5477948535740664,2.1434625030753613e-05,4.459026435029315,2.4774466436020837,1.654917617666542,4.371075311841003,-1.0,-1.5707663728877763,0.35225375121013475,-2.6981770491889003,-3.139797551575618,-2.09227082631904e-05,0.7733318687750245
340,0.5477948535979247,0.5477948531680289,2.143590952749696e-05,4.45902643524827,2.4774466431960422,1.654917617950448,4.3710811553436475,-1.0,-1.57076637082629,0.3522378648069783,-2.698171166729148,-3.1397960929327495,-2.0924331341994923e-05,0.7733404140755312
341,0.5477948531918638,0.547794852761916,2.1437214663091852e-05,4.459026435467243,2.4774466427899258,1.6549176182343923,4.371086999482668,-1.0,-1.5707663687645164,0.3522219770206911,-2.6981652835019148,-3.1397946345042977,-2.0925954663087776e-05,0.7733489602061039
342,0.5477948527857279,0.5477948523557278,2.143850936195695e-05,4.459026435686243,2.4774466423837334,1.654917618518375,4.371092844258183,-1.0,-1.5707663667024552,0.3522060878510635,-2.698159399507048,-3.1397931762903464,-2.092757822656047e-05,0.773357507166884
343,0.5477948523795161,0.5477948519494641,2.143980398263826e-05,4.459026435905266,2.4774466419774663,1.6549176188023966,4.3710986896703075,-1.0,-1.570766364640106,0.3521901972978852,-2.6981535147443947,-3.1397917182909794,-2.0929202032474005e-05,0.7733660549580132
344,0.547794851973229,0.547794851543125,2.144110888117489e-05,4.459026436124313,2.477446641571123,1.6549176190864567,4.371104535719157,-1.0,-1.5707663625774693,0.35217430536094574,-2.6981476292138034,-3.1397902605062806,-2.09308260809504e-05,0.7733746035796335
345,0.5477948515668662,0.5477948511367103,2.1442392989506147e-05,4.459026436343384,2.477446641164705,1.6549176193705548,4.371110382404848,-1.0,-1.5707663605145445,0.35215841204003506,-2.698141742915121,-3.139788802936334,-2.0932450371989653e-05,0.7733831530318864
346,0.5477948511604285,0.5477948507302202,2.144368737572104e-05,4.459026436562479,2.4774466407582105,1.6549176196546924,4.3711162297274955,-1.0,-1.570766358451332,0.3521425173349426,-2.6981358558481947,-3.1397873455812246,-2.093407490562227e-05,0.7733917033149137
347,0.5477948507539147,0.5477948503236548,2.1445002392103228e-05,4.459026436781598,2.4774466403516415,1.654917619938868,4.371122077687215,-1.0,-1.5707663563878316,0.35212662124545796,-2.6981299680128727,-3.1397858884410352,-2.093569968193976e-05,0.7734002544288575
348,0.5477948503473258,0.5477948499170134,2.144628626730835e-05,4.459026437000739,2.477446639944996,1.6549176202230824,4.371127926284122,-1.0,-1.5707663543240429,0.35211072377137076,-2.6981240794090016,-3.1397844315158503,-2.093732470097262e-05,0.7734088063738596
349,0.5477948499406613,0.547794849510297,2.1447590771454593e-05,4.459026437219908,2.477446639538276,1.6549176205073355,4.371133775518334,-1.0,-1.5707663522599664,0.35209482491247046,-2.6981181900364293,-3.1397829748057537,-2.093894996281237e-05,0.7734173591500619
350,0.5477948495339215,0.5477948491035052,2.14488744917259e-05,4.459026437439098,2.4774466391314807,1.6549176207916267,4.371139625389966,-1.0,-1.5707663501956015,0.35207892466854646,-2.6981122998950027,-3.13978151831083,-2.094057546748951e-05,0.7734259127576064
351,0.5477948491271055,0.5477948486966369,2.145017883846788e-05,4.459026437658312,2.4774466387246084,1.6549176210759569,4.371145475899134,-1.0,-1.5707663481309484,0.35206302303938825,-2.6981064089845685,-3.1397800620311633,-2.094220121503454e-05,0.773434467196635
352,0.5477948487202146,0.5477948482896938,2.145148310589971e-05,4.459026437877551,2.4774466383176614,1.6549176213603258,4.371151327045953,-1.0,-1.5707663460660073,0.35204712002478517,-2.6981005173049746,-3.139778605966838,-2.0943827205569477e-05,0.7734430224672897
353,0.5477948483132473,0.5477948478826745,2.1452766593256133e-05,4.459026438096812,2.4774466379106386,1.6549176216447337,4.37115717883054,-1.0,-1.5707663440007777,0.3520312156245265,-2.698094624856068,-3.1397771501179386,-2.0945453439063817e-05,0.7734515785697126
354,0.5477948479062049,0.5477948474755803,2.1454091402890764e-05,4.459026438316099,2.47744663750354,1.6549176219291792,4.371163031253011,-1.0,-1.5707663419352598,0.3520153098384017,-2.698088731637696,-3.1397756944845483,-2.0947079915639574e-05,0.7734601355040459
355,0.5477948474990867,0.5477948470684098,2.14553747342156e-05,4.459026438535407,2.477446637096366,1.6549176222136641,4.371168884313481,-1.0,-1.5707663398694534,0.3519994026661998,-2.698082837649705,-3.1397742390667522,-2.0948706635327248e-05,0.7734686932704317
356,0.5477948470918929,0.5477948466611637,2.1456678685809286e-05,4.45902643875474,2.477446636689116,1.6549176224981879,4.371174738012067,-1.0,-1.5707663378033583,0.3519834941077102,-2.698076942891942,-3.1397727838646348,-2.0950333598218352e-05,0.773477251869012
357,0.5477948466846237,0.5477948462538422,2.1457982558164874e-05,4.459026438974098,2.477446636281791,1.6549176227827498,4.371180592348886,-1.0,-1.5707663357369748,0.3519675841627218,-2.6980710473642553,-3.13977132887828,-2.0951960804312887e-05,0.7734858112999291
358,0.5477948462772779,0.5477948458464447,2.145926565678643e-05,4.4590264391934795,2.477446635874389,1.6549176230673501,4.371186447324052,-1.0,-1.5707663336703026,0.3519516728310238,-2.6980651510664906,-3.139769874107772,-2.095358825367186e-05,0.7734943715633253
359,0.5477948458698573,0.5477948454389715,2.146056937196632e-05,4.459026439412884,2.4774466354669125,1.6549176233519898,4.371192302937683,-1.0,-1.5707663316033416,0.3519357601124054,-2.6980592539984944,-3.1397684195531963,-2.095521594641728e-05,0.7735029326593428
360,0.5477948454623606,0.5477948450314227,2.14618730079512e-05,4.459026439632313,2.47744663505936,1.6549176236366678,4.371198159189894,-1.0,-1.5707663295360916,0.3519198460066554,-2.6980533561601145,-3.1397669652146365,-2.0956843882579654e-05,0.7735114945881238
361,0.5477948450547878,0.5477948446237981,2.14631765647555e-05,4.459026439851767,2.4774466346517316,1.654917623921385,4.371204016080802,-1.0,-1.570766327468553,0.3519039305135627,-2.6980474575511972,-3.139765511092177,-2.095847206215898e-05,0.7735200573498109
362,0.5477948446471402,0.5477948442160978,2.1464480042393646e-05,4.459026440071245,2.4774466342440276,1.6549176242061407,4.371209873610523,-1.0,-1.5707663254007256,0.3518880136329163,-2.69804155817159,-3.1397640571859027,-2.096010048524677e-05,0.7735286209445463
363,0.5477948442394158,0.5477948438083214,2.1465762752633337e-05,4.459026440290746,2.477446633836247,1.6549176244909347,4.371215731779173,-1.0,-1.5707663233326092,0.3518720953645051,-2.6980356580211393,-3.139762603495898,-2.096172915190403e-05,0.7735371853724726
364,0.5477948438316159,0.5477948434004692,2.1467076416736304e-05,4.45902644051027,2.477446633428391,1.6549176247757678,4.371221590586867,-1.0,-1.5707663212642038,0.35185617570811784,-2.6980297570996914,-3.139761150022247,-2.0963358062222273e-05,0.7735457506337321
365,0.5477948434237405,0.5477948429925417,2.1468379657590405e-05,4.4590264407298195,2.4774466330204596,1.6549176250606392,4.371227450033723,-1.0,-1.5707663191955092,0.3518402546635435,-2.698023855407093,-3.139759696765035,-2.096498721617099e-05,0.7735543167284672
366,0.5477948430157885,0.5477948425845374,2.1469672477093753e-05,4.459026440949391,2.477446632612452,1.6549176253455498,4.371233310119857,-1.0,-1.5707663171265254,0.3518243322305706,-2.698017952943191,-3.139758243724347,-2.0966616613841698e-05,0.7735628836568205
367,0.5477948426077612,0.5477948421764581,2.147098590198718e-05,4.459026441168989,2.4774466322043684,1.6549176256304992,4.371239170845386,-1.0,-1.5707663150572524,0.3518084084089879,-2.698012049707832,-3.139756790900267,-2.09682462553259e-05,0.7735714514189346
368,0.5477948421996581,0.5477948417683024,2.147227856457176e-05,4.459026441388609,2.4774466317962087,1.654917625915487,4.3712450322104255,-1.0,-1.57076631298769,0.3517924831985841,-2.6980061457008624,-3.1397553382928796,-2.0969876140654105e-05,0.7735800200149521
369,0.5477948417914787,0.5477948413600708,2.147357114934084e-05,4.459026441608254,2.4774466313879735,1.6549176262005136,4.371250894215092,-1.0,-1.5707663109178385,0.35177655659914764,-2.6980002409221284,-3.1397538859022696,-2.097150626991782e-05,0.7735885894450155
370,0.5477948413832235,0.5477948409517632,2.1474884335787668e-05,4.459026441827922,2.477446630979662,1.6549176264855794,4.371256756859503,-1.0,-1.5707663088476973,0.3517606286104673,-2.697994335371477,-3.139752433728522,-2.097313664305604e-05,0.7735971597092675
371,0.5477948409748922,0.5477948405433798,2.1476187102833314e-05,4.459026442047615,2.477446630571275,1.6549176267706835,4.371262620143773,-1.0,-1.5707663067772666,0.3517446992323313,-2.697988429048754,-3.1397509817717215,-2.0974767260251782e-05,0.7736057308078509
372,0.5477948405664852,0.5477948401349203,2.14774897908566e-05,4.45902644226733,2.4774466301628113,1.6549176270558268,4.371268484068021,-1.0,-1.5707663047065465,0.3517287684645282,-2.697982521953806,-3.139749530031953,-2.0976398121535553e-05,0.7736143027409084
373,0.5477948401580016,0.5477948397263848,2.1478771724155344e-05,4.459026442487073,2.4774466297542723,1.6549176273410087,4.371274348632363,-1.0,-1.5707663026355367,0.35171283630684663,-2.6979766140864796,-3.1397480785093013,-2.0978029226968357e-05,0.7736228755085827
374,0.5477948397494427,0.547794839317773,2.1480084592664675e-05,4.459026442706837,2.4774466293456565,1.6549176276262294,4.371280213836913,-1.0,-1.5707663005642374,0.35169690275907445,-2.697970705446621,-3.1397466272038512,-2.0979660576550196e-05,0.7736314491110167
375,0.5477948393408072,0.5477948389090858,2.1481387044333886e-05,4.459026442926625,2.477446628936965,1.6549176279114886,4.37128607968179,-1.0,-1.5707662984926483,0.3516809678210004,-2.6979647960340762,-3.139745176115688,-2.098129217037258e-05,0.7736400235483532
376,0.5477948389320964,0.5477948385003221,2.1482679081057634e-05,4.4590264431464375,2.477446628528198,1.6549176281967872,4.371291946167109,-1.0,-1.5707662964207694,0.3516650314924127,-2.6979588858486916,-3.139743725244896,-2.098292400846601e-05,0.7736485988207349
377,0.5477948385233087,0.5477948380914822,2.148400204614067e-05,4.459026443366274,2.4774466281193543,1.6549176284821243,4.371297813292989,-1.0,-1.5707662943486005,0.35164909377309944,-2.6979529748903133,-3.13974227459156,-2.0984556090922e-05,0.773657174928305
378,0.5477948381144453,0.5477948376825665,2.1485293925609022e-05,4.459026443586134,2.477446627710435,1.6549176287675005,4.371303681059545,-1.0,-1.5707662922761416,0.3516331546628489,-2.697947063158787,-3.139740824155766,-2.0986188417832055e-05,0.7736657518712062
379,0.5477948377055055,0.5477948372735743,2.1486596061504425e-05,4.459026443806019,2.477446627301439,1.6549176290529153,4.371309549466894,-1.0,-1.5707662902033928,0.35161721416144914,-2.6979411506539597,-3.1397393739375987,-2.0987820989165676e-05,0.7736743296495817
380,0.5477948372964895,0.5477948368645061,2.1487887785017236e-05,4.459026444025927,2.477446626892367,1.6549176293383692,4.371315418515153,-1.0,-1.570766288130354,0.3516012722686882,-2.6979352373756766,-3.139737923937143,-2.0989453804983868e-05,0.7736829082635743
381,0.5477948368873979,0.5477948364553622,2.1489210429430815e-05,4.459026444245859,2.4774466264832187,1.6549176296238617,4.37132128820444,-1.0,-1.570766286057025,0.35158532898435435,-2.6979293233237844,-3.1397364741544838,-2.099108686537814e-05,0.7736914877133273
382,0.5477948364782302,0.5477948360461415,2.1490512328020556e-05,4.459026444465814,2.4774466260739945,1.654917629909393,4.371327158534869,-1.0,-1.5707662839834058,0.3515693843082354,-2.697923408498128,-3.1397350245897067,-2.0992720170440005e-05,0.7737000679989835
383,0.5477948360689856,0.5477948356368448,2.149180381615371e-05,4.459026444685797,2.477446625664694,1.6549176301949637,4.37133302950656,-1.0,-1.5707662819094963,0.35155343824011953,-2.6979174928985543,-3.1397335752428965,-2.0994353720199967e-05,0.7737086491206862
384,0.5477948356596652,0.547794835227472,2.1493115888621046e-05,4.459026444905801,2.4774466252553173,1.654917630480573,4.371338901119627,-1.0,-1.5707662798352966,0.3515374907797942,-2.697911576524909,-3.139732126114138,-2.0995987514688526e-05,0.7737172310785787
385,0.5477948352502687,0.5477948348180228,2.1494417550660448e-05,4.459026445125828,2.4774466248458644,1.6549176307662206,4.3713447733741875,-1.0,-1.5707662777608065,0.3515215419270475,-2.6979056593770383,-3.139730677203517,-2.0997621554027698e-05,0.773725813872804
386,0.5477948348407948,0.547794834408497,2.1495719133878382e-05,4.459026445345882,2.4774466244363342,1.654917631051908,4.37135064627036,-1.0,-1.570766275686026,0.35150559168166745,-2.6978997414547865,-3.139729228511119,-2.0999255838156473e-05,0.7737343975035051
387,0.547794834431246,0.5477948339988955,2.1497020638289174e-05,4.459026445565958,2.4774466240267294,1.6549176313376337,4.371356519808261,-1.0,-1.5707662736109547,0.35148964004344146,-2.697893822758001,-3.1397277800370285,-2.1000890367196867e-05,0.7737429819708257
388,0.5477948340216207,0.5477948335892174,2.149833239236676e-05,4.459026445786058,2.4774466236170474,1.654917631623399,4.371362393988006,-1.0,-1.570766271535593,0.3514736870121574,-2.697887903286526,-3.1397263317813318,-2.10025251413014e-05,0.7737515672749088
389,0.5477948336119187,0.5477948331794631,2.1499644066410524e-05,4.459026446006182,2.477446623207289,1.6549176319092025,4.371368268809714,-1.0,-1.5707662694599407,0.3514577325876031,-2.697881983040209,-3.139724883744113,-2.1004160160378555e-05,0.773760153415898
390,0.54779483320214,0.5477948327696321,2.1500945333235622e-05,4.459026446226332,2.477446622797454,1.6549176321950456,4.371374144273502,-1.0,-1.5707662673839975,0.3514417767695661,-2.697876062018894,-3.139723435925459,-2.1005795424519846e-05,0.7737687403939363
391,0.547794832792286,0.5477948323597255,2.1502246521311026e-05,4.4590264464465035,2.4774466223875438,1.6549176324809274,4.371380020379485,-1.0,-1.5707662653077636,0.35142581955783375,-2.6978701402224274,-3.1397219883254537,-2.100743093384729e-05,0.7737773282091676
