jkpark150901/flame_robotics_drt/experiment/inspection_ik/session_20260716_113329/success/inspection_ik_20260716_113616_dda_rb10_1300e_raw_success.csv
iteration,err_norm,position_error,orientation_error,tcp_x,tcp_y,tcp_z,q0_dda_joint_linear_track,q1_dda_joint_carriage,q2_dda_joint_base,q3_dda_joint_shoulder,q4_dda_joint_elbow,q5_dda_joint_wrist1,q6_dda_joint_wrist2,q7_dda_joint_wrist3
0,5.637675028898678,4.5563761625737484,2.5935699724176358,0.47255,3.7499999999986655,2.697,0.0,0.0,0.0,0.0,0.0,0.0,0.0,0.0
1,4.071773036001677,3.524229111208551,1.738286554331394,2.0342081813476356,4.211486915390228,2.67187991465471,1.5505860137345817,0.4347483868966318,-0.2738368143268265,0.1825424449580902,-0.08382789169812817,-0.3316996844915718,-0.34176624978061154,-0.38263045801740164
2,2.2239976755211623,1.8516042786741418,1.1341036499804622,3.427432722209267,3.4005486115929786,1.754243541424509,2.3987272308337872,-1.0,-0.6520851395569454,1.6033204306981563,-0.5578694619963677,-1.439891572762633,-0.3883520008489748,-0.6457701167409889
3,1.5839050455357335,1.3751235908852932,0.7458910376660577,3.967734335447252,3.1599793930103224,1.8318691395009121,2.8940011765866154,-1.0,-0.8597177877315558,1.5356107639228211,-0.6622659060790002,-1.642292770787151,-0.476051456246685,-0.5423484096214017
4,1.2540600962293953,1.1448323065527923,0.49117491836601324,4.258343174473048,3.0097409355963745,1.86964505370925,3.189372315603152,-1.0,-0.996336780346565,1.491666691030364,-0.7327272145893572,-1.7583071712438363,-0.570471287774916,-0.46886865028647673
5,1.067159501735136,1.013156558012715,0.3235103368212279,4.408997125785818,2.901132920696341,1.8696488716254311,3.344253514606165,-1.0,-1.1094293018715589,1.4877183973477166,-0.7899909491803656,-1.8453550847826128,-0.6386272220362177,-0.40595621521060615
6,0.9478576462691201,0.9220004581592073,0.21314565413831252,4.48360111549718,2.817496468087774,1.849751291864197,3.420190507888601,-1.0,-1.2044430324032411,1.5084264010468966,-0.8404487245034793,-1.9187807966264248,-0.6856429529734219,-0.34466338930327134
7,0.8613996895941202,0.8491966357670943,0.14056895519510362,4.517893968311863,2.74850920893365,1.823353406716592,3.4556969727166416,-1.0,-1.2857018256346306,1.538484458065966,-0.8849562439158197,-1.9822730390632048,-0.7169052049017692,-0.28276229237212175
8,0.7928497959413066,0.787119637149081,0.09287545038322305,4.531598854014664,2.689074123489801,1.7976551048674727,3.4725287413172676,-1.0,-1.3563501109354792,1.5687159776250288,-0.9234207646654954,-2.037443710679341,-0.7372922734876987,-0.2204158252607165
9,0.7356293764234461,0.7329382122934032,0.0615383005032236,4.535335830469782,2.636778155219076,1.7756623723521028,3.4818569725858057,-1.0,-1.4186181841029377,1.5949488376534773,-0.9560273768335473,-2.0856455310838014,-0.7506549873867387,-0.15852257290156302
10,0.6864785532380611,0.6852095116013285,0.040941428180324424,4.534652443855324,2.5903154172229854,1.758113333735004,3.488941004380685,-1.0,-1.4741256156941989,1.6159110653373316,-0.9832676727652067,-2.1281389657822616,-0.7597648314802574,-0.09801418052153503
11,0.6434992376023633,0.6428959394416068,0.027394961734897038,4.5323356003325905,2.5487971153510633,1.7447022253072821,3.4960001902122526,-1.0,-1.5240957607359278,1.6317378256102186,-1.0057673434408827,-2.1660304998208333,-0.7664900900058778,-0.03961047521026728
12,0.6054227004078672,0.6051321102367654,0.018477450935379208,4.529705246201145,2.511506043026497,1.734743680224893,3.5037900945157885,-1.0,-1.5694825254796225,1.6431286615862117,-1.0241632519520845,-2.2002372327874338,-0.7720256839754007,0.0162220160951942
13,0.571325119948908,0.5711823936573427,0.01260011708662001,4.52732386687712,2.477825410149829,1.7274954228345272,3.5124135894079056,-1.0,-1.611042312659468,1.650923971408017,-1.0390437133237493,-2.2314897503798985,-0.7770989254683931,0.06923412968036463
14,0.5405036254824237,0.5404315707182884,0.008720020173651534,4.52537863726444,2.4472226252747333,1.7222947692968993,3.521718773568034,-1.0,-1.64937806812753,1.6559145394710704,-1.050927054598782,-2.26035471711147,-0.7821280500056914,0.1193383866720977
15,0.512411955511416,0.5123742175682994,0.00615190704064658,4.523882970598028,2.419244576318709,1.7186014668730138,3.5314841048749535,-1.0,-1.6849702295653686,1.6587710619145557,-1.0602590570019623,-2.2872637184048616,-0.7873346631976157,0.1665569593307166
16,0.48662080182585377,0.486600099576923,0.004445011258602444,4.522779717087664,2.3935120691654497,1.7159975693667824,3.5414975592841147,-1.0,-1.718201030284391,1.660031238664662,-1.0674185659031648,-2.3125414599808405,-0.7928194108534982,0.21098060147066916
17,0.4627903345996245,0.4627783406073613,0.0033025205268863876,4.52199161052991,2.3697118012192755,1.7141704848033223,3.5515848651190973,-1.0,-1.749374521298846,1.660111679981629,-1.072725980265894,-2.336430427616975,-0.7986110799853159,0.2527390471766155
18,0.4406499470466016,0.44064257201503026,0.0025290470405826882,4.521444021109449,2.3475870084466974,1.712891804166311,3.561614559707385,-1.0,-1.7787331300689846,1.6593282371023474,-1.0764521496335717,-2.3591111750655847,-0.8046976041968746,0.2919809721493408
19,0.41998287761993774,0.4199780630827896,0.0019963592398562725,4.521073640404089,2.32692806907163,1.7119974198261132,3.571493538258345,-1.0,-1.8064711607287331,1.6579170820895617,-1.078826591482682,-2.3807183823293014,-0.8110452073317761,0.3288611330234355
20,0.400614373396717,0.4006110506233514,0.0016208522945586632,4.520830393938579,2.3075638806911973,1.7113708981831375,3.58115960180322,-1.0,-1.8327456033707707,1.6560533563896727,-1.0800446187869028,-2.401353227896418,-0.8176099746764842,0.36353256057813493
21,0.38240251705673656,0.3824001104329106,0.0013484962685854974,4.520676394806439,2.2893543821923066,1.7109304186769572,3.5905739127197003,-1.0,-1.8576846496186676,1.653866425202823,-1.0802732990615866,-2.4210927302625067,-0.8243446831793465,0.3961421480330272
22,0.36523109311881224,0.3652292795204493,0.00114464328075651,4.520583857910869,2.2721843000661153,1.7106189064275963,3.599714495670721,-1.0,-1.8813943162131452,1.651451791625082,-1.079656323372419,-2.439996688160975,-0.8312027090369973,0.42682842897220946
23,0.34900403052914175,0.34900262032995244,0.0009871421326178057,4.520532882133754,2.255958042261267,1.710396771723606,3.608571083398578,-1.0,-1.903963548933508,1.6488801270525297,-1.0783179296056407,-2.458112766169365,-0.8381401579233813,0.45572070979092744
24,0.3336410706371743,0.3336399473658922,0.0008617779102314368,4.520509481434846,2.240595595354776,1.7102366677489098,3.6171412389724322,-1.0,-1.925468129542447,1.6462039772516446,-1.076366041429862,-2.475480174329696,-0.8451169287571052,0.48293899918989547
25,0.31907439092158285,0.31907347974811473,0.0007593315662375907,4.520503983920228,2.2260292639316446,1.7101197586409307,3.6254275503106057,-1.0,-1.945973652615029,1.6434626721618142,-1.0738947764682143,-2.4921322970139608,-0.8520971471450991,0.5085943747717304
26,0.30524597553869465,0.30524522627242157,0.0006737272316970779,4.52050979682978,2.212201099296259,1.7100330915236273,3.6334356663295804,-1.0,-1.9655377860699395,1.6406858859892723,-1.070986457846715,-2.508098545596879,-0.8590492334315388,0.5327895622212188
27,0.2921055698868427,0.2921049474864767,0.0006008802568762088,4.520522487034994,2.199060883284323,1.709967761777889,3.641172964520283,-1.0,-1.9842119832256369,1.6378962029710291,-1.0677132402737,-2.523405643584147,-0.865945764873086,0.5556195926412393
28,0.2796090918344305,0.27960857092718616,0.0005379827250017906,4.520539113986556,2.186564554248571,1.709917640927344,3.6486476762969455,-1.0,-2.002042776436844,1.635110960979916,-1.0641384393583775,-2.5380785008164053,-0.8727632272313434,0.577172461884354
29,0.2677173997384797,0.26771696134877376,0.00048305756748662747,4.520557755462155,2.1746729825777518,1.7098784995505887,3.655868334695678,-1.0,-2.0190727523744543,1.632343576018849,-1.0603176330274635,-2.5521407932217195,-0.8794817122898818,0.5975297522989892
30,0.25639533880470156,0.2563949683395019,0.0004346770691108149,4.520577175888633,2.163351020912285,1.7098474053208599,3.6628434428977568,-1.0,-2.0353412856628976,1.6296044962546248,-1.05629958738103,-2.565615334076912,-0.8860845945682352,0.6167671994695085
31,0.24561100411975514,0.245610690090204,0.00039178268999371806,4.520596597594711,2.152566769190076,1.7098223114117461,3.6695812897352944,-1.0,-2.0508850896062665,1.6269018929071608,-1.0521270461537995,-2.578524299786427,-0.8925582066689662,0.6349551993332512
32,0.2353351718765479,0.23533490506286134,0.00035356812040518453,4.520615544979567,2.1422910069451295,1.709801775908175,3.6760898598378384,-1.0,-2.065738628947606,1.624242164659792,-1.0478374127706787,-2.5908893560460653,-0.8988915244796961,0.652159257946714
33,0.22554086071281748,0.22554063360276236,0.00031940241683733883,4.520633739532346,2.132496755232929,1.7097847709637999,3.6823768022052095,-1.0,-2.0799344290416077,1.621630309930217,-1.0434633463214567,-2.602731717523555,-0.9050758685681359,0.6684403894396176
34,0.21620299330086393,0.21620279970101444,0.0002887788950367842,4.520651029840054,2.1231589385508087,1.7097705532050198,3.6884494327664825,-1.0,-2.093503307712532,1.6190702052964512,-1.0390332871290748,-2.61407216476606,-0.911104625181536,0.683855468834372
35,0.2072981348290264,0.2072979695875896,0.00026128081257985016,4.520667345382141,2.114254123512331,1.709758575796894,3.6943147548879796,-1.0,-2.1064745498300983,1.6165648169595592,-1.0345719234934283,-2.624931035102406,-0.9169729884808768,0.6984575463718673
36,0.19880429016342172,0.19880414896677773,0.00023655807885341245,4.520682666318904,2.1057603161260556,1.7097484287715208,3.6999794876643826,-1.0,-2.118876039824497,1.6141163640725842,-1.0301006082728663,-2.6353281992154525,-0.9226777245314799,0.7122961293624184
37,0.19070074555134872,0.1907006247704775,0.00021431128260507824,4.520697003922707,2.0976568035730176,1.7097397984859446,3.7054500958426115,-1.0,-2.130734363646301,1.6117264471191188,-1.025637731907538,-2.6452830313453095,-0.9282169568634029,0.7254174367250404
38,0.1829679439445395,0.18296784051608436,0.00019428060620622036,4.520710388020907,2.0899240295789596,1.709732440005198,3.7107328179106895,-1.0,-2.142074888808616,1.6093961505851873,-1.0211990570504978,-2.6548143783935254,-0.9335899729520891,0.7378646304881047
39,0.17558738555399006,0.1755872968860668,0.0001762380098527415,4.520722859013378,2.0825434950030353,1.7097261582079508,3.7158336906265976,-1.0,-2.1529218289382883,1.6071261264285157,-1.0167980189710648,-2.6639405312676816,-0.9387970506643023,0.7496780277030756
40,0.1685415472361894,0.16854147113236623,0.00015998161211325,4.520734462846342,2.0754976772484306,1.7097207947755368,3.720758569354376,-1.0,-2.1632982975655226,1.6049166629486198,-1.0124459951953437,-2.672679200437358,-0.9438393035158001,0.7608952955157126
41,0.1618138158631714,0.16181375046018534,0.00014533155617983112,4.52074524787881,2.068769963650669,1.7097162191506905,3.7255131442253964,-1.0,-2.1732263545846773,1.602767742343793,-1.0081525473537123,-2.681047496718185,-0.9487185434653564,0.7715516315575505
42,0.15538843203485583,0.15538837575099382,0.00013212689822668226,4.520755262949954,2.062344595204055,1.7097123221786876,3.7301029525004634,-1.0,-2.1827270478355456,1.6006790893277205,-1.003925637845828,-2.689061917650072,-0.9534371599053986,0.7816799313582886
43,0.1492504414229866,0.14925039291492828,0.00012022319654440187,4.520764556202083,2.0562066179167835,1.7097090115664428,3.734533387676973,-1.0,-2.1918204515151087,1.5986502125438493,-0.9997718236629894,-2.6967383394057745,-0.9579980134893891,0.791310944122148
44,0.1433856517493977,0.1433856098759249,0.00010949054456935819,4.520773174375803,2.0503418397982642,1.709706208579727,3.73880970593641,-1.0,-2.2005257025799274,1.5966804400729868,-0.9956964294936477,-2.7040920138950897,-0.9624043434499926,0.8004734179405393
45,0.13778059394386102,0.13778055773520548,9.981198657915828e-05,4.520781162398687,2.044736792024405,1.709703845589847,3.7429370305091254,-1.0,-2.2088610358958607,1.594768950018836,-0.9917037020596916,-2.711137570572031,-0.9666596871018962,0.8091942353121085
46,0.13242248643566612,0.13242245506755546,9.108217248839617e-05,4.520788563156143,2.039378693235383,1.7097018642091986,3.746920354477632,-1.0,-2.2168438186004855,1.5929147969359887,-0.987796947475619,-2.71788902237341,-0.9707678102820385,0.8174985396937053
47,0.12729920183828908,0.12729917460994014,8.320617342953182e-05,4.520795417375767,2.0342554162255153,1.7097002138407027,3.750764542466968,-1.0,-2.2244905839375395,1.5911169347069514,-0.9839786532818379,-2.7243597751922377,-0.9747326475522042,0.8254098536988119
48,0.12239923551176535,0.12239921182720231,7.609846057422053e-05,4.520801763583039,2.0293554565100145,1.7096988505232722,3.7544743315937685,-1.0,-2.2318170646807927,1.589374236359656,-0.980250596672512,-2.7305626402999854,-0.9785582510696508,0.8329501894827516
49,0.117711675651462,0.11771165500365803,6.968198831835145e-05,4.520807638102715,2.0246679024174856,1.7096977359934833,3.7580543319719473,-1.0,-2.2388382261705138,1.5876855112313972,-0.9766139403151058,-2.736509849164838,-0.9822487471167043,0.8401401517981201
50,0.11322617466969702,0.11322615662711118,6.388736578863446e-05,4.520813075090216,2.020182406474708,1.7096968369089613,3.761509027006301,-1.0,-2.2455682989264196,1.5860495198202016,-0.9730693170419796,-2.7422130701592318,-0.9858082993669536,0.8469990341629431
51,0.10893292171953241,0.10893290591468364,5.86521327161618e-05,4.520818106583255,2.015889157933131,1.709696124195802,3.7648427736476386,-1.0,-2.252020810766872,1.5844649866141656,-0.9696169045836294,-2.7476834267026096,-0.9892410780513392,0.8535449085532693
52,0.10482261626709623,0.10482260238686823,5.392006129181799e-05,4.5208227625675255,2.011778856343497,1.7096955724935998,3.7680598027346277,-1.0,-2.258208618347733,1.5829306111490904,-0.9662564914084423,-2.752931516439954,-0.9925512342702714,0.8597947090078021
53,0.10088644265676948,0.10088643043418695,4.9640565517026165e-05,4.520827071052314,2.0078426861229977,1.7096951596791081,3.7711642195079556,-1.0,-2.2641439380300747,1.5814450775119973,-0.9629875346352894,-2.757967431110322,-0.995742878776624,0.8657643095123054
54,0.09711604563782841,0.09711603484508875,4.5768139769391725e-05,4.52083105815306,2.0040722920836025,1.709694866454628,3.774160004350838,-1.0,-2.2698383759897776,1.5800070624808333,-0.9598092108930479,-2.7628007768103706,-0.9988200646281963,0.8714685965142241
55,0.09350350683560472,0.0935034972781666,4.2261868368209046e-05,4.520834748178723,2.0004597559046564,1.7096946759906146,3.77705101378533,-1.0,-2.275302957490808,1.5786152424676028,-0.9567204609153194,-2.767440694404701,-1.00178677317651,0.8769215364021137
56,0.09004132215781725,0.0900413136693941,3.9084947630753436e-05,4.520838163722098,1.9969975735404446,1.7096945736143427,3.779840981735179,-1.0,-2.2805481552555813,1.5772682994122975,-0.9537200285792274,-2.7718958798771567,-1.0046469029214111,0.8821362382694143
57,0.0867223801298213,0.08672237256813872,3.620430846688464e-05,4.5208413257517135,1.9936786335564989,1.7096945465381286,3.7825335210522066,-1.0,-2.285583916878627,1.5759649257577586,-0.9508064950241167,-2.776174604454848,-1.0074042608178329,0.887125012267385
58,0.08353994115251276,0.08353993439571272,3.35901855338224e-05,4.520844253704009,1.9904961963884027,1.7096945836217845,3.785132125293361,-1.0,-2.290419691242809,1.5747038286204602,-0.9479783084190999,-2.7802847343697015,-1.0100625556724339,0.8918994238374637
59,0.08048761767484863,0.08048761161844414,3.1215866387059485e-05,4.5208469655748,1.9874438745150873,1.7096946751648474,3.7876401707289538,-1.0,-2.295064453909878,1.5734837332588874,-0.9452338098874548,-2.7842337501509924,-1.0126253933138658,0.8964703440988326
60,0.07755935527014748,0.07755934982444089,2.9057333103533912e-05,4.5208494780091435,1.9845156135357938,1.709694812724816,3.790060918558403,-1.0,-2.2995267314687236,1.5723033859293474,-0.9425712560405703,-2.788028765366922,-1.0150962732614905,0.9008479966525679
61,0.07474941460209071,0.07474940968998273,2.709297476923382e-05,4.520851806388877,1.9817056741366392,1.7096949889581328,3.79239751730755,-1.0,-2.3038146248351152,1.571161556208594,-0.9399888385241468,-2.7916765447542407,-1.0174785866538143,0.9050420010494636
62,0.07205235426303715,0.07205234981817468,2.5303400277864045e-05,4.520853964917308,1.9790086149294241,1.7096951974810983,3.794653005380767,-1.0,-2.307935831505849,1.570057038853313,-0.9374847009343067,-2.7951835216925565,-1.0197756152301147,0.9090614131545455
63,0.06946301446423078,0.0694630104294294,2.367117816191606e-05,4.520855966700562,1.9764192761422499,1.7096954327482392,3.796830313741292,-1.0,-2.31189766677804,1.5689886552582522,-0.935056953420823,-2.798555814994718,-1.0219905311870967,0.9129147626274731
64,0.06697650155464828,0.06697649788055664,2.2180637466918832e-05,4.520857823825284,1.9739327641387276,1.7096956899459874,3.7989322686941587,-1.0,-2.315707083950878,1.567955254567401,-0.9327036852584192,-2.8017992449968445,-1.0241263977572928,0.9166100877245834
65,0.06458817334297547,0.06458816998693938,2.0817706164361883e-05,4.520859547432491,1.9715444367402597,1.7096959648997536,3.800961594747593,-1.0,-2.319370693532541,1.5669557144861013,-0.9304229756347088,-2.8049193489415907,-1.0261861703776836,0.9201549676152858
66,0.06229362519527801,0.06229362212037703,1.9569758025064053e-05,4.520861147787431,1.9692498893239752,1.7096962539927438,3.802920917530476,-1.0,-2.322894781479281,1.5659889418361532,-0.9282129028744575,-2.807921395656308,-1.0281726983360089,0.9235565523929723
67,0.06008867687952572,0.06008867405375031,1.8425440973463048e-05,4.520862634345378,1.9670449416674765,1.7096965540950428,3.804812766745477,-1.0,-2.3262853264970396,1.5650538728908314,-0.9260715522941403,-2.810810399534264,-1.0300887267987455,0.9268215909485731
68,0.057969360127100196,0.057969357522655245,1.73745494754164e-05,4.5208640158134115,1.9649256255105452,1.7096968625016786,3.806639579139475,-1.0,-2.329548016438447,1.564149473522173,-0.923997022857916,-2.8135911338321695,-1.0319368991390745,0.9299564568634122
69,0.05593190688082718,0.05593190447353659,1.640798519167673e-05,4.5208653002082055,1.9628881728033387,1.7096971768785394,3.808403701474927,-1.0,-2.332688263829833,1.5632747391888475,-0.9219874327858728,-2.8162681433012184,-1.0337197594955732,0.9329671724671239
70,0.053972738198768286,0.053972735967565924,1.5517482882635744e-05,4.520866494909951,1.960929004610324,1.709697495215149,3.8101073934878107,-1.0,-2.335711220564001,1.5624286947893617,-0.920040924247429,-2.81884575617181,-1.035439755503101,0.9358594311960794
71,0.052088453783058895,0.05208845170955831,1.4695703160394915e-05,4.520867606712519,1.9590447206392434,1.7096978157834288,3.811752830819669,-1.0,-2.3386217917951115,1.5616103944021924,-0.9181556672568693,-2.8213280955142928,-1.0370992411466053,0.9386386183780578
72,0.050275822103356904,0.050275820171480246,1.3936083464348614e-05,4.520868641870056,1.9572320893646653,1.7096981371016944,3.8133421079130136,-1.0,-2.341424649072193,1.560818920931663,-0.9163298628739371,-2.8237190899995634,-1.038700479696541,0.941309830559758
73,0.048531771084963087,0.04853176928062429,1.3232617088104133e-05,4.520869606140146,1.9554880387161973,1.7096984579032082,3.814877240861014,-1.0,-2.3441242427475673,1.560053385675932,-0.9145617457999734,-2.8260224840843007,-1.040245646691443,0.9438778934851868
74,0.04685337933234044,0.04685337764317587,1.2580075332028603e-05,4.52087050482374,1.9538096473020858,1.709698777108719,3.8163601702038386,-1.0,-2.3467248136959786,1.559312927831302,-0.9128495864491246,-2.8282418476461144,-1.0417368329390677,0.9463473788249588
75,0.045237867859593044,0.045237866274728006,1.1973655592260767e-05,4.520871342802042,1.952194136139761,1.7096990938024723,3.8177927636654188,-1.0,-2.3492304043794605,1.558596713945168,-0.9111916925644624,-2.8303805850940287,-1.043176047512535,0.9487226197490642
76,0.04368259230035276,0.04368259081020378,1.1409074822287906e-05,4.520872124570517,1.9506388608657843,1.7096994072112524,3.8191768188255546,-1.0,-2.3516448692920515,1.557903937328251,-0.9095864104403257,-2.8324419439795667,-1.0445652207221994,0.9510077254287189
77,0.04218503557055138,0.042185034166656143,1.0882561948971085e-05,4.520872854270239,1.9491413043986716,1.7096997166860668,3.82051406572342,-1.0,-2.353971884817388,1.557233817435314,-0.9080321258046699,-2.8344290231333313,-1.0459062070476361,0.9532065945464295
78,0.040742800958592645,0.040742799633460884,1.0390587286792767e-05,4.520873535716729,1.9476990700291061,1.7097000216861375,3.8218061693894274,-1.0,-2.3562149585310306,1.5565855992222652,-0.9065272644085888,-2.8363447803514226,-1.0472007880172343,0.9553229278874197
79,0.03935360561852542,0.03935360436551493,9.930212528923891e-06,4.520874172426479,1.9463098749131544,1.7097003217649096,3.8230547323032886,-1.0,-2.358377437978137,1.5559585524864392,-0.9050702923643357,-2.838192039655347,-1.0484506750255271,0.9573602400799837
80,0.03801527444294909,0.03801527325615521,9.498505564720531e-06,4.520874767641326,1.9449715439452009,1.7097006165578104,3.8242612967768057,-1.0,-2.3604625189557864,1.5553519711958688,-0.9036597162680382,-2.839973498148291,-1.0496575120806235,0.9593218705471905
81,0.03672573429346889,0.036725733167631586,9.093152042705695e-06,4.520875324350834,1.9436820039884344,1.7097009057715455,3.8254273472605944,-1.0,-2.362473253327962,1.5547651728124958,-0.9022940831387823,-2.8416917324897772,-1.0508228784759797,0.961210993727587
82,0.03548300856764618,0.035483007498068896,8.71181577756758e-06,4.520875845312848,1.9424392784418225,1.7097011891747371,3.826554312574451,-1.0,-2.3644125563998593,1.5541974976135278,-0.9009719802017667,-2.8433492050098166,-1.0519482913823361,0.9630306286181427
83,0.03428521208246648,0.03428521106494591,8.352549467092122e-06,4.520876333072318,1.9412414821236013,1.7097014665897263,3.827643568061565,-1.0,-2.366283213876884,1.5536483080144934,-0.8996920345397329,-2.8449482694827584,-1.0530352083569667,0.9647836476886084
84,0.03313054625540988,0.03313054528617487,8.013555771410224e-06,4.520876789978607,1.940086816452364,1.709701737885406,3.8286964376671735,-1.0,-2.368087888432402,1.553116987896981,-0.8984529126338039,-2.8464911765800855,-1.0540850297684858,0.9664727852126951
85,0.03201729456525882,0.032017293640917564,7.693185378283778e-06,4.5208772182013455,1.9389735649078856,1.7097020029709415,3.8297141959425565,-1.0,-2.3698291259070436,1.552602941943555,-0.8972533198121653,-2.847980079020478,-1.0550991011363813,0.9681006450580213
86,0.030943818275755337,0.030943817393251603,7.389954431006333e-06,4.520877619744948,1.937900088754797,1.7097022617902746,3.8306980699755804,-1.0,-2.3715093611611304,1.5521055949819107,-0.8960919996226464,-2.8494170364345335,-1.0560787153851883,0.9696697079735676
87,0.029908552406212888,0.02990855156278413,7.102650636259642e-06,4.5208779964619445,1.9368648230132044,1.709702514317315,3.8316492412492065,-1.0,-2.3731309236006055,1.551624391339962,-0.8949677331431772,-2.850804019960638,-1.057025115013836,0.9711823384104281
88,0.02891000193407555,0.02891000112721945,6.830000509492757e-06,4.520878350065188,1.9358662726612632,1.7097027605517257,3.832568847429562,-1.0,-2.3746960423957053,1.551158794213231,-0.8938793382422631,-2.852142916587578,-1.0579394941812037,0.9726407909089365
89,0.027946738215332813,0.02794673744277794,6.570989704409622e-06,4.520878682139053,1.934903009055602,1.7097030005152358,3.833457984085314,-1.0,-2.3762068514105077,1.5507082850456306,-0.892825668800017,-2.8534355332586485,-1.0588230007093187,0.9740472160827266
90,0.027017395609526363,0.027017394869203647,6.32459069023111e-06,4.520878994149689,1.933973666556335,1.7097032342484135,3.834317706340204,-1.0,-2.377665393860452,1.5502723629244988,-0.8918056138988727,-2.8546836007511764,-1.0596767380059462,0.9754036662279856
91,0.02612066829686445,0.026120667586887414,6.089964390005311e-06,4.520879287454433,1.9330769393441882,1.7097034618078388,3.8351490304606815,-1.0,-2.3790736267139163,1.549850543990524,-0.8908180969918672,-2.8558887773445907,-1.0605017669085712,0.9767121005840239
92,0.025255307275768354,0.025255306594409912,5.866328079728375e-06,4.520879563310418,1.9322115784180474,1.709703683263629,3.8359529353806208,-1.0,-2.38043342485299,1.54944236086304,-0.8898620750552986,-2.857052652289415,-1.0612991074519535,0.9779743902693278
93,0.02442011752982986,0.024420116875507315,5.652943601565109e-06,4.520879822882502,1.9313763887619257,1.70970389869728,3.836730364165165,-1.0,-2.381746585007683,1.5490473620810012,-0.8889365377316052,-2.8581767490888352,-1.0620697405615762,0.9791923229154498
94,0.0236139553538924,0.02361395472515181,5.449100177925559e-06,4.520880067250502,1.930570226671048,1.7097041081997686,3.83748222541573,-1.0,-2.383014829476947,1.548665111559837,-0.8880405064674908,-2.8592625286038142,-1.0628146096754034,0.9803676070194293
95,0.022835725829575385,0.02283572522507518,5.2542601591092256e-06,4.52088029741586,1.9297919972273763,1.709704311869904,3.8382093946182336,-1.0,-2.3842398096490904,1.5482951880642601,-0.8871730336515783,-2.8603113919920675,-1.0635346222964206,0.9815018760338966
96,0.022084380441165872,0.022084379859668688,5.067797074084931e-06,4.520880514307739,1.9290406519155119,1.709704509812882,3.8389127154365816,-1.0,-2.3854231093333897,1.5479371846970178,-0.8863332017552438,-2.861324683490602,-1.0642306514784599,0.982596692212603
97,0.021358914823396646,0.021358914263757176,4.8892615063081504e-06,4.520880718788627,1.928315186370472,1.7097047021390237,3.839593000953438,-1.0,-2.3865662479139944,1.5475907084035025,-0.8855201224797218,-2.862303693050942,-1.0649035372478246,0.9836535502278092
98,0.02065836663312912,0.020658366094285077,4.71823568726861e-06,4.5208809116594875,1.9276146382493768,1.7097048889626785,3.840251034860271,-1.0,-2.3876706833365344,1.5472553794920596,-0.8847329359120818,-2.863249658835599,-1.065554087963208,0.9846738805747655
99,0.01998181353747309,0.019981813018436587,4.554346794492348e-06,4.520881093664478,1.926938085219572,1.709705070401269,3.840887572598628,-1.0,-2.388737814937211,1.5469308311697894,-0.8839708096922544,-2.864163769583852,-1.0661830816163766,0.9856590527774062
100,0.019328371311362058,0.01932837081121384,4.396978934547404e-06,4.520881265495289,1.926284643056208,1.7097052465744544,3.8415033424545557,-1.0,-2.3897689861235394,1.546616709093591,-0.883232938192911,-2.8650471668543793,-1.0667912670760482,0.9866103784083564
101,0.018697192038020064,0.018697191555901098,4.245915858079429e-06,4.520881427795135,1.9256534638427047,1.7097054176034139,3.8420990466080314,-1.0,-2.3907654869153605,1.546312670936157,-0.8825185417136765,-2.8659009471518577,-1.0673793652773356,0.9875291139354028
102,0.01808746240618059,0.018087461941288595,4.1008255508648184e-06,4.520881581162418,1.925043734267978,1.7097055836102164,3.8426753621392225,-1.0,-2.3917285563542023,1.546018385966605,-0.8818268656908753,-2.8667261639441897,-1.0679480703590782,0.9884164634057131
103,0.017498402098310068,0.0174984016498928,3.961411416211674e-06,4.520881726154106,1.9244546740146597,1.7097057447172823,3.843232941993337,-1.0,-2.3926593847885727,1.5457335346454053,-0.8811571799237643,-2.86752382957662,-1.0684980507513104,0.9892735809782786
104,0.01692926226444197,0.016929261831792768,3.8272494689675436e-06,4.520881863288821,1.9238855342329355,1.7097059010469169,3.843772415905772,-1.0,-2.3935591160423093,1.5454578082332486,-0.8805087778179953,-2.8682949170886234,-1.0690299502150493,0.9901015733143126
105,0.01637932407657331,0.01637932365902878,3.6983109082644293e-06,4.520881993049708,1.923335596094944,1.7097060527209091,3.8442943912892162,-1.0,-2.394428849472661,1.5451909084134845,-0.8798809756468632,-2.869040361939078,-1.0695443888365115,0.9909015018346515
106,0.01584789735889582,0.015847896955830228,3.5741670652839524e-06,4.5208821158870505,1.922804169425006,1.709706199860187,3.844799454084298,-1.0,-2.3952696419243797,1.5449325469277562,-0.8792731118307436,-2.8697610636449205,-1.070041963977793,0.9916743848525678
107,0.01533431928942321,0.015334318900246396,3.4547563740359687e-06,4.5208822322207,1.922290591401255,1.7097063425845285,3.845288169575318,-1.0,-2.396082509585703,1.5446824452244399,-0.8786845462349782,-2.8704578873381363,-1.0705232511859715,0.9924211995898193
108,0.014837953168858642,0.014837952793013368,3.339589258604243e-06,4.5208823424423015,1.9217942253245053,1.709706481012311,3.8457610831725515,-1.0,-2.3968684297517604,1.5444403341195152,-0.8781146594863564,-2.871131665245669,-1.0709888050625154,0.9931428840832165
109,0.014358187252815138,0.014358186889774272,3.2287759602114355e-06,4.520882446917345,1.921314459450473,1.7097066152603018,3.8462187211625367,-1.0,-2.3976283425005973,1.544205953469473,-0.877562852308239,-2.8717831980965403,-1.0714391600948059,0.993840338988483
110,0.013894433643730716,0.013894433292994293,3.1218555058454244e-06,4.520882545987072,1.9208507058816908,1.7097067454434853,3.846661591427731,-1.0,-2.3983631522866764,1.5439790518558765,-0.8770285448742806,-2.872413256460216,-1.0718748314515048,0.9945144292877263
111,0.01344612723905382,0.013446126900147815,3.0188737576370937e-06,4.52088263997021,1.9204023995156962,1.7097068716749173,3.847090184136836,-1.0,-2.399073729456455,1.543759386281202,-0.8765111761806393,-2.8730225820200093,-1.072296315743429,0.9951659859063996
112,0.01301272473249606,0.013012724404970066,2.919563031323036e-06,4.520882729164592,1.9199689970462832,1.7097069940656082,3.8475049724070667,-1.0,-2.3997609116903234,1.543546721875577,-0.8760102034364996,-2.8736118887850846,-1.0727040917515198,0.9957958072452389
113,0.012593703665331246,0.012593703348756964,2.82368158149132e-06,4.520882813848655,1.9195499760148025,1.7097071127244265,3.8479064129395595,-1.0,-2.400425505374957,1.543340831614052,-0.8755251014726811,-2.8741818642444152,-1.0730986211234212,0.9964046606322906
114,0.0121885615249216,0.012188561218891917,2.7311027751892255e-06,4.520882894282802,1.9191448339086887,1.7097072277580248,3.8482949466290917,-1.0,-2.401068286909875,1.5431414960440415,-0.875055362168066,-2.8747331704658388,-1.0734803490401224,0.9969932836998024
115,0.011796814887820825,0.011796814591946302,2.642005715441839e-06,4.520882970710674,1.9187530873045613,1.7097073392707818,3.8486709991492094,-1.0,-2.4016900039517806,1.5429485030225798,-0.8746004938935389,-2.8752664451431738,-1.0738497048540425,0.9975623856904312
116,0.011417998604956323,0.011417998318866765,2.555885810613999e-06,4.520883043360335,1.9183742710534117,1.7097074473647622,3.849034981513839,-1.0,-2.402291376600038,1.5427616474630477,-0.8741600209731081,-2.8757823025941844,-1.0742071026998823,0.9981126486969275
117,0.011051665026566812,0.011051664749907857,2.4728745256560184e-06,4.520883112445356,1.9180079375055368,1.7097075521396874,3.8493872906163844,-1.0,-2.4028730985264475,1.5425807310910313,-0.8737334831618527,-2.876281334712011,-1.0745529420794981,0.9986447288391854
118,0.01069738326468908,0.01069738299712266,2.3924602035896414e-06,4.5208831781658105,1.917653655773029,1.7097076536929183,3.8497283097472894,-1.0,-2.403435838052287,1.5424055622089874,-0.8733204351403216,-2.8767641118725367,-1.0748876084220014,0.9991592573822887
119,0.010354738491144681,0.01035473823234725,2.3150094134739387e-06,4.520883240709215,1.9173110110277618,1.7097077521194497,3.850058409090995,-1.0,-2.403980239175421,1.5422359554693936,-0.8729204460249955,-2.877231183800005,-1.0752114736202234,0.9996568417989501
120,0.01002333126908082,0.01002333101874189,2.240135726090677e-06,4.520883300251388,1.9169796038329303,1.7097078475119138,3.8503779462031757,-1.0,-2.4045069225501003,1.5420717316560768,-0.8725330988944177,-2.877683080393081,-1.0755248965446362,1.000138066779523
121,0.009702776916247529,0.009702776674070867,2.167798887958752e-06,4.520883356957247,1.9166590495063318,1.7097079399605886,3.850687266469103,-1.0,-2.4050164864219394,1.5419127174734226,-0.8721579903305868,-2.878120312513409,-1.075828223535766,1.0006034951925578
122,0.009392704898304608,0.00939270466400586,2.0979437930568077e-06,4.520883410981548,1.916348977513669,1.7097080295534128,3.8509867035439473,-1.0,-2.4055095075204016,1.5417587453431716,-0.8717947299752064,-2.8785433727386134,-1.0761217888760861,1.0010536689986909
123,0.00909275825054743,0.00909275802385372,2.030498516189903e-06,4.520883462469569,1.9160490308902782,1.709708116376012,3.851276579775797,-1.0,-2.405986541910987,1.5416096532085235,-0.8714429401003775,-2.8789527360815566,-1.0764059152423284,1.001489110120469
124,0.008802593026534076,0.008802592807183166,1.965033251537372e-06,4.52088351155775,1.9157588656897557,1.7097082005117206,3.8515572066121235,-1.0,-2.406448125809203,1.5414652843452818,-0.8711022551933302,-2.8793488606775934,-1.0766809141391083,1.0019103212705616
125,0.008521877772197478,0.008521877559937555,1.9019859892858572e-06,4.5208835583742815,1.9154781504580711,1.7097082820416172,3.8518288849904083,-1.0,-2.406894776358261,1.5413254871797732,-0.8707723215547827,-2.879732188441433,-1.0769470863147135,1.0023177867406448
126,0.008250293024092996,0.008250292818683044,1.8408815171995142e-06,4.520883603039647,1.9152065657318154,1.709708361044555,3.852091905713599,-1.0,-2.4073269923723473,1.5411901151132925,-0.8704527969105267,-2.8801031456951467,-1.0772047221598664,1.002711973153113
127,0.007987530830533591,0.007987530631741308,1.7820443147235811e-06,4.5208836456671415,1.9149438035593336,1.7097084375971994,3.8523465498110427,-1.0,-2.4077452550472023,1.5410590263528274,-0.8701433500358396,-2.880462143768766,-1.0774541020902295,1.0030933301776308
128,0.007733294294408772,0.007733294102010499,1.7249341164218873e-06,4.520883686363329,1.9146895670435462,1.7097085117740687,3.8525930888855062,-1.0,-2.4081500286396493,1.5409320837478313,-0.8698436603923312,-2.880809579574834,-1.0776954969133892,1.0034622912144224
129,0.00748729713657628,0.007487296950356863,1.6698611165750255e-06,4.520883725228496,1.9144435699053406,1.7097085836475732,3.852831785446877,-1.0,-2.408541761117613,1.5408091546328153,-0.8695534177768361,-2.8811458361581987,-1.0779291681810121,1.0038192740460723
130,0.007249263278776526,0.0072492630985291785,1.6164841201689355e-06,4.520883762357053,1.9142055360664856,1.7097086532880594,3.8530628932330933,-1.0,-2.408920884782095,1.5406901106755444,-0.8692723219819775,-2.881471283222264,-1.0781553685268401,1.0041646814595129
131,0.007018926445061207,0.007018926270586634,1.5648347846062679e-06,4.520883797837905,1.9139751992510594,1.7097087207638515,3.8532866575188507,-1.0,-2.4092878168624803,1.5405748277306273,-0.8690000824680256,-2.8817862776328496,-1.0783743419911531,1.0044989018397663
132,0.0067960297808146745,0.006796029611921286,1.5152363561257574e-06,4.520883831754822,1.9137523026044723,1.7097087861412978,3.8535033154125884,-1.0,-2.40964296008648,1.5404631856982973,-0.8687364180456922,-2.882091163900739,-1.078586324332302,1.0048223097369167
133,0.006580325488469808,0.006580325324972739,1.4668374898822088e-06,4.520883864186756,1.913536598329181,1.7097088494848152,3.8537130961422412,-1.0,-2.4099867032259397,1.5403550683881921,-0.868481056569505,-2.8823862746439546,-1.078791543325883,1.0051352664077045
134,0.006371574479092937,0.0063715743208138985,1.4202299782568046e-06,4.520883895208148,1.913327847336275,1.709708910856932,3.8539162213302283,-1.0,-2.410319421619677,1.540250363387945,-0.8682337346414167,-2.8826719310307123,-1.078990219052098,1.0054381203330494
135,0.006169546039049393,0.006169545885816232,1.3749500959423998e-06,4.520883924889208,1.9131258189121412,1.7097089703183388,3.8541129052581184,-1.0,-2.4106414776744485,1.5401489619364064,-0.8679941973243128,-2.882948443203992,-1.0791825641718154,1.00573120771273
136,0.005974017510997695,0.005974017362644678,1.331300130140406e-06,4.520883953296194,1.9129302903994596,1.7097090279279281,3.854303355121401,-1.0,-2.410953221345088,1.540050758801327,-0.8677621978650898,-2.8832161106885805,-1.0793687841918302,1.0060148529383846
137,0.005784773988522999,0.005784773844890539,1.2891011687447826e-06,4.520883980491647,1.9127410468918358,1.7097090837428446,3.8544877712747607,-1.0,-2.4112549905948,1.5399556521613331,-0.8675374974269882,-2.8834752227814135,-1.0795490777197871,1.0062893690459203
138,0.0056016080237358944,0.005601607884669335,1.2481446022613814e-06,4.520884006534624,1.9125578809413988,1.7097091378185256,3.8546663474682488,-1.0,-2.411547111836537,1.5398635434920362,-0.8673198648308685,-2.8837260589259954,-1.0797236367092173,1.0065550581483647
139,0.005424319347210878,0.005424319212561687,1.208373006148012e-06,4.520884031480918,1.9123805922787422,1.7097091902087498,3.8548392710747232,-1.0,-2.411829900356352,1.539774337456122,-0.8671090763051325,-2.8839688890716317,-1.0798926466951124,1.006812211850128
140,0.00525271459968027,0.005252714469305016,1.1702867696328749e-06,4.520884055383251,1.912208987544616,1.7097092409656787,3.8550067233089025,-1.0,-2.412103660719554,1.5396879417972735,-0.8669049152439977,-2.8842039740181766,-1.0800562870204407,1.0070611116435935
141,0.005086607074907668,0.005086606948667408,1.1330763017893668e-06,4.520884078291472,1.9120428800328,1.7097092901399014,3.855168879438379,-1.0,-2.412368687160458,1.5396042672377854,-0.8667071719738456,-2.8844315657469553,-1.0802147310539942,1.0073020292889023
142,0.004925816473226086,0.004925816350986518,1.0972355480495701e-06,4.520884100252712,1.9118820894436432,1.7097093377804773,3.8553259089869107,-1.0,-2.412625263956491,1.5395232273797335,-0.8665156435273675,-2.8846519077384887,-1.0803681463999317,1.0075352271777447
143,0.0047701686652262916,0.004770168546858121,1.0624851864562467e-06,4.520884121311576,1.9117264416477524,1.709709383934979,3.855477975930303,-1.0,-2.412873665787348,1.5394447386095684,-0.8663301334252465,-2.8848652352776174,-1.0805166950993697,1.0077609586819343
144,0.004619495465126948,0.004619495350505158,1.0289357007523077e-06,4.520884141510269,1.9115757684593608,1.7097094286495322,3.8556252388851675,-1.0,-2.4131141580798916,1.5393687200060084,-0.8661504514651186,-2.885071775746589,-1.0806605338243542,1.007979468487491
145,0.004473634413375188,0.0044736343023796055,9.960398058336434e-07,4.520884160888753,1.9114299074189305,1.7097094719688581,3.8557678512908553,-1.0,-2.413346997339422,1.5392950932511085,-0.865976413517566,-2.8852717489066464,-1.0807998140645356,1.0081909929149218
146,0.0043324285680542965,0.0043324284605670916,9.647854600095315e-07,4.520884179484879,1.9112887015845565,1.7097095139363119,3.855905961584816,-1.0,-2.413572431467931,1.5392237825443928,-0.865807841328903,-2.8854653671686226,-1.080934682306844,1.0083957602263511
147,0.004195726304677589,0.004195726200586576,9.346247780661161e-07,4.520884197334506,1.9111519993317672,1.709709554593924,3.856039713371656,-1.0,-2.4137907000699172,1.5391547145199354,-0.8656445623305228,-2.88565283585303,-1.0810652802084615,1.0085939909201198
148,0.004063381124015969,0.004063381023212725,9.049312144928869e-07,4.5208842144716215,1.9110196541613458,1.7097095939824352,3.856169245586133,-1.0,-2.4140020347463076,1.5390878181662844,-0.8654864094545838,-2.8858343534401,-1.0811917447633625,1.0087858980134305
149,0.003935251467568701,0.0039352513699470485,8.765125971945055e-07,4.520884230928452,1.9108915245148024,1.7097096321413374,3.8562946926503288,-1.0,-2.4142066593770064,1.5390230247491248,-0.8653332209558157,-2.8860101118102124,-1.0813142084626892,1.0089716873135972
150,0.003811200540341406,0.0038112004457998725,8.487123767077071e-07,4.520884246735568,1.9107674735971554,1.7097096691089078,3.856416184625223,-1.0,-2.41440479039257,1.5389602677365815,-0.8651848402392402,-2.8861802964751244,-1.0814327994492117,1.0091515576784187
151,0.003691096140611741,0.0036910960490511664,8.218635459624568e-07,4.5208842619219665,1.9106473692066925,1.7097097049222452,3.856533847356884,-1.0,-2.4145966370354723,1.5388994827270672,-0.865041115693603,-2.8863450868004006,-1.081547641666114,1.0093257012661743
152,0.0035748104963607553,0.0035748104076869154,7.963412532739485e-07,4.520884276515177,1.9105310835714073,1.7097097396173062,3.8566478026174895,-1.0,-2.414782401611412,1.538840607379584,-0.8649019005303212,-2.8865046562194134,-1.0816588550003359,1.009494303775709
153,0.0034622201080879364,0.003462220022207962,7.711260934433897e-07,4.520884290541335,1.9104184931918078,1.709709773228936,3.8567581682413663,-1.0,-2.4149622797310837,1.538783581346389,-0.8647670526277625,-2.886659172439276,-1.081766555420686,1.0096575446770546
154,0.0033532055977109816,0.0033532055145364076,7.46546688668468e-07,4.520884304025265,1.910309478689823,1.7097098057909053,3.8568650582562474,-1.0,-2.4151364605428203,1.53872834620794,-0.864636434380668,-2.8868087976390417,-1.0818708551109413,1.0098155974330112
155,0.0032476515633132353,0.0032476514827569085,7.229751033013146e-07,4.520884316990555,1.910203924663544,1.709709837335938,3.8569685830099245,-1.0,-2.4153051269564902,1.538674845410041,-0.8645099125545497,-2.8869536886605,-1.0819718625981272,1.0099686297120873
156,0.003145446439448301,0.0031454463614279554,7.001960351747852e-07,4.520884329459624,1.910101719547536,1.709709867895748,3.8570688492924696,-1.0,-2.4154684558590174,1.5386230242031063,-0.8643873581448898,-2.8870939971918723,-1.0820696828761724,1.0101168035931807
157,0.0030464823628055873,0.0030464822872399945,6.782893345797813e-07,4.5208843414537885,1.9100027554784955,1.7097098975010654,3.8571659604541955,-1.0,-2.415626618321871,1.538572829583472,-0.8642686462409798,-2.8872298699447074,-1.0821644175251197,1.0102602757623618
158,0.002950655042962949,0.0029506549697745736,6.570043469980061e-07,4.520884352993319,1.90990692816601,1.709709926181667,3.857260016519511,-1.0,-2.4157797798008622,1.538524210236677,-0.8641536558942411,-2.887361448824246,-1.0822561648260682,1.0103991977021025
159,0.002857863638046341,0.002857863567159356,6.36054455352229e-07,4.520884364097509,1.9098141367682127,1.709709953966407,3.857351114296832,-1.0,-2.415928100328558,1.5384771164826492,-0.8640422699908761,-2.8874888710935345,-1.082345019872013,1.0105337158732772
160,0.002768010635067563,0.0027680105664089375,6.161949970762628e-07,4.5208843747847105,1.9097242837721238,1.7097099808832423,3.857439347484686,-1.0,-2.4160717346996226,1.5384315002227245,-0.8639343751287016,-2.8876122695315316,-1.0824310746747416,1.0106639718902457
161,0.0026810017347488587,0.0026810016682485257,5.971629890654735e-07,4.520884385072407,1.9096372748784738,1.709710006959263,3.857524806774162,-1.0,-2.416210832649367,1.5383873148884395,-0.8638298614980237,-2.887731772585457,-1.0825144182679414,1.0107901026893125
162,0.002596745740654122,0.0025967456762430617,5.778884717722412e-07,4.520884394977243,1.9095530188908327,1.709710032220716,3.857607579947824,-1.0,-2.4163455390257913,1.5383445153920312,-0.8637286227664177,-2.88784750451761,-1.0825951368066624,1.0109122406908468
163,0.0025151544524312282,0.002515154390043274,5.599348016994053e-07,4.520884404515076,1.9094714276088562,1.7097100566930323,3.857687751975245,-1.0,-2.416475993955368,1.5383030580785853,-0.8636305559672798,-2.887959585546884,-1.0826733136632773,1.0110305139553255
164,0.0024361425630146276,0.0024361425025859035,5.426150994310781e-07,4.520884413701016,1.9093924157254858,1.7097100804008516,3.8577654051052552,-1.0,-2.416602333002832,1.5382629006797772,-0.8635355613920249,-2.88806813198518,-1.0827490295200697,1.0111450463335558
165,0.0023596275596108945,0.0023596275010795624,5.255696799918592e-07,4.520884422549474,1.9093159007279346,1.7097101033680469,3.8578406189550516,-1.0,-2.4167246873252064,1.5382240022691482,-0.863443542485806,-2.8881732563689337,-1.0828223624585807,1.0112559576113205
166,0.002285529628323303,0.002285529571629468,5.088261091400402e-07,4.520884431074183,1.9092418028023121,1.7097101256177472,3.8579134705962614,-1.0,-2.4168431838202964,1.5381863232188637,-0.8633544057466381,-2.8882750675859317,-1.082893388045838,1.011363363648674
167,0.002213771562255558,0.002213771507340942,4.928659024399934e-07,4.52088443928825,1.9091700447417281,1.7097101471723615,3.8579840346380885,-1.0,-2.416957945269868,1.5381498251579029,-0.8632680606278099,-2.888373670997617,-1.0829621794175814,1.0114673765141131
168,0.0021442786729678376,0.002144278619776456,4.768371582031296e-07,4.52088444720418,1.909100551857749,1.7097101680536002,3.8580523833076317,-1.0,-2.417069090477722,1.5381144709316301,-0.8631844194434765,-2.888469168557052,-1.0830288073586014,1.0115681046138265
169,0.00207697870514147,0.002076978653618333,4.6265645910084733e-07,4.520884454833906,1.9090332518950612,1.709710188282497,3.8581185865274907,-1.0,-2.4171767344028585,1.5380802245627005,-0.8631033972773223,-2.8885616589227063,-1.0830933403802951,1.0116656528162293
170,0.002011801754322102,0.0020118017044147563,4.4753126554731523e-07,4.52088446218882,1.9089680749492166,1.7097102078794302,3.858182711990749,-1.0,-2.41728098828793,1.5380470512132522,-0.8630249118941942,-2.888651237568234,-1.0831558447955474,1.0117601225719663
171,0.0019486801876311122,0.0019486801392896384,4.339283638763771e-07,4.520884469279812,1.9089049533873428,1.7097102268641418,3.858244825233431,-1.0,-2.4173819597831545,1.5380149171483448,-0.862948883654604,-2.888737996888393,-1.0832163847910314,1.0118516120295717
172,0.0018875485673154559,0.0018875485204895496,4.2041349350410664e-07,4.520884476117271,1.9088438217716899,1.709710245255758,3.8583049897045205,-1.0,-2.417479753065874,1.5379837897005966,-0.8628752354320061,-2.8888220263012556,-1.083275022497029,1.0119402161469564
173,0.0018283435770274146,0.0018283435316697862,4.064494877155408e-07,4.520884482711134,1.9087846167859166,1.7097102630728092,3.858363266833634,-1.0,-2.417574468955916,1.537953637235982,-0.8628038925327545,-2.8889034123468442,-1.0833318180548577,1.0120260267988876
174,0.0017710039507325313,0.0017710039067961284,3.942476676500749e-07,4.520884489070898,1.908727277163992,1.7097102803332458,3.858419716096422,-1.0,-2.4176662050269275,1.5379244291207528,-0.8627347826186542,-2.8889822387823383,-1.0833868296819968,1.0121091328806215
175,0.001715470404135345,0.0017154703615765753,3.8223729546012693e-07,4.520884495205646,1.9086717436216274,1.709710297054459,3.8584743950777876,-1.0,-2.4177550557138217,1.5378961356894358,-0.8626678356320173,-2.8890585866739737,-1.0834401137349914,1.0121896204078384
176,0.0016616855685387692,0.0016616855273131413,3.6983709472390795e-07,4.520884501124058,1.9086179587901277,1.7097103132532976,3.858527359532993,-1.0,-2.417841112416496,1.5378687282138832,-0.8626029837231423,-2.889132534485763,-1.0834917247702185,1.0122675726130255
177,0.0016095939270198262,0.0016095938870862314,3.5762786865234566e-07,4.520884506834446,1.9085658671525765,1.709710328946083,3.8585786634467376,-1.0,-2.417924463599954,1.537842178873327,-0.8625401611801338,-2.8892041581651484,-1.0835417156025924,1.0123430700384453
178,0.0015591417528638058,0.0015591417141812276,3.46912346089568e-07,4.520884512344756,1.9085154149822618,1.7097103441486277,3.8586283590902624,-1.0,-2.418005194890971,1.5378164607254128,-0.8624793043609901,-2.8892735312257147,-1.0835901373622832,1.0124161906258218
179,0.0015102770501403396,0.001510277012669344,3.3585511653377704e-07,4.520884517662605,1.9084665502832578,1.7097103588762497,3.8586764970765683,-1.0,-2.4180833891714233,1.5377915476781758,-0.8624203516278772,-2.8893407248270555,-1.0836370395495194,1.0124870098028715
180,0.0014629494963636213,0.0014629494600663857,3.2510495527493244e-07,4.520884522795274,1.908419222733083,1.709710373143789,3.8587231264137967,-1.0,-2.4181591266684186,1.537767414462928,-0.8623632432835225,-2.8894058078519085,-1.0836824700875451,1.0125556005668
181,0.0014171103871435037,0.0014171103519825716,3.153981341200592e-07,4.520884527749746,1.90837338362735,1.7097103869656225,3.8587682945568536,-1.0,-2.41823248504133,1.5377440366080262,-0.862307921509654,-2.8894688469806558,-1.0837264753737956,1.0126220335648768
182,0.001372712582756028,0.0013727125486961596,3.0465496033818946e-07,4.520884532532704,1.9083289858263397,1.7097104003556771,3.8588120474573233,-1.0,-2.4183035394658607,1.5377213904134905,-0.86225433030742,-2.889529906763286,-1.0837691003293553,1.0126863771722048
183,0.0013297104565693403,0.0013297104235760336,2.965293637235831e-07,4.520884537150556,1.9082859837034234,1.7097104133274448,3.858854429611737,-1.0,-2.4183723627152394,1.537699452926447,-0.8622024154397251,-2.889589049688913,-1.0838103884467614,1.0127486975667854
184,0.0012880598452411393,0.0012880598132808713,2.874031889734563e-07,4.520884541609439,1.908244333095262,1.7097104258939946,3.858895484108254,-1.0,-2.4184390252386554,1.5376782019173636,-0.862152124375415,-2.8896463362529357,-1.0838503818362082,1.0128090588019845
185,0.00124771800063647,0.0012477179696764888,2.7717762049642705e-07,4.520884545915243,1.9082039912537239,1.709710438067991,3.8589352526718095,-1.0,-2.418503595237032,1.5376576158570545,-0.8621034062352543,-2.8897018250219255,-1.0838891212702106,1.0128675228764927
186,0.0012086435433883156,0.0012086435133972122,2.690474701712704e-07,4.520884550073608,1.9081649167994452,1.7097104498617,3.8589737757077778,-1.0,-2.418566138736235,1.5376376738944304,-0.862056211739636,-2.889755572696328,-1.0839266462267811,1.0129241498018782
187,0.0011707964180562207,0.0011707963890046288,2.606638622959845e-07,4.520884554089952,1.9081270696769899,1.7097104612870029,3.859011092344208,-1.0,-2.4186267196578095,1.5376183558349639,-0.8620104931579657,-2.88980763417105,-1.0839629949311709,1.0129789976678159
188,0.00113413784981152,0.0011341378216686833,2.5288109106536486e-07,4.5208845579694685,1.9080904111115298,1.7097104723554126,3.859047240472674,-1.0,-2.4186853998873312,1.5375996421198492,-0.8619662042596681,-2.8898580625940116,-1.0839982043962273,1.0130321227050842
189,0.0010986303025935856,0.0010986302753311391,2.439425221643588e-07,4.520884561717138,1.9080549035670087,1.7097104830780812,3.8590822567877927,-1.0,-2.4187422393404616,1.5375815138058362,-0.8619233002667582,-2.8899069094227356,-1.0840323104614134,1.0130835793464072
190,0.0010642374386945427,0.0010642374122852437,2.3654860059004396e-07,4.5208845653377505,1.9080205107057218,1.7097104934658112,3.859116176825451,-1.0,-2.418797296026784,1.53756395254571,-0.861881737807932,-2.8899542244790437,-1.0840653478305382,1.013133420285223
191,0.001030924079712326,0.0010309240541294031,2.2988391847225347e-07,4.5208845688358945,1.9079871973492692,1.7097105035290692,3.859149034999785,-1.0,-2.418850626111506,1.537546940569402,-0.8618414748741225,-2.8900000560019254,-1.0840973501082423,1.0131816965324538
192,0.0009986561688200962,0.0009986561440378063,2.2302015940987762e-07,4.520884572215983,1.9079549294408271,1.7097105132779933,3.859180864638959,-1.0,-2.418902283975096,1.5375304606657039,-0.861802470775475,-2.8900444506986456,-1.0841283498352787,1.0132284574713515
193,0.000967400734313088,0.000967400710306027,2.149076029934881e-07,4.520884575482248,1.9079236740086927,1.709710522722405,3.859211698019778,-1.0,-2.418952322270932,1.5375144961645721,-0.8617646860996957,-2.8900874537941506,-1.084158378522636,1.0132737509104848
194,0.0009371258543794986,0.0009371258311232005,2.0861625671386756e-07,4.5208845786387615,1.9078933991310567,1.709710531871819,3.859241566401179,-1.0,-2.4190007919810324,1.5374990309199978,-0.8617280826717281,-2.8901291090788344,-1.0841874666845377,1.0133176231349386
195,0.0009078006230563284,0.0009078006005272556,1.99920056238752e-07,4.520884581689431,1.9078640739019588,1.7097105407354534,3.8592705000566325,-1.0,-2.419047742469933,1.5374840492934265,-0.8616926235147156,-2.890169458954723,-1.0842156438703596,1.0133601189557893
196,0.000879395117327463,0.0008793950955032313,1.9542689693874154e-07,4.520884584638018,1.9078356683983855,1.709710549322236,3.8592985283054952,-1.0,-2.4190932215367793,1.53746953613771,-0.8616582728122073,-2.890208544480128,-1.0842429386955033,1.0134012817579148
197,0.0008518803653197188,0.0008518803441782709,1.9082797281243975e-07,4.520884587488133,1.9078081536484655,1.7097105576408183,3.8593256795433497,-1.0,-2.4191372754656917,1.5374554767815694,-0.8616249958715658,-2.890246405412827,-1.0842693788712572,1.0134411535462027
198,0.0008252283155624746,0.0008252282950819892,1.8250120749944311e-07,4.520884590243246,1.9077815016007298,1.709710565699579,3.85935198127136,-1.0,-2.4191799490744677,1.5374418570145576,-0.8615927590885418,-2.8902830802518205,-1.0842949912336843,1.0134797749902105
199,0.0007994118072727226,0.0007994117874329032,1.7756782901008428e-07,4.5208845929066985,1.9077556850943984,1.7097105735066367,3.859377460124685,-1.0,-2.4192212857616746,1.5374286630725007,-0.861561529912972,-2.890318606277709,-1.0843198017715654,1.0135171854673335
200,0.0007744045416269328,0.0007744045224071929,1.7377590819732272e-07,4.520884595481705,1.9077306778306489,1.7097105810698543,3.859402141899965,-1.0,-2.4192613275521953,1.537415881623405,-0.8615312768155706,-2.890353019591751,-1.0843438356534334,1.013553423104535
201,0.0007501810539835974,0.0007501810353649163,1.659323085197815e-07,4.520884597971352,1.9077064543448425,1.7097105883968509,3.8594260515819307,-1.0,-2.4193001151412696,1.5374034997538126,-0.8615019692557738,-2.8903863551536313,-1.0843671172537275,1.0135885248186858
202,0.000726716687037163,0.0007267166690003728,1.6186804311275822e-07,4.520884600378615,1.907682989979675,1.7097105954950071,3.859449213369154,-1.0,-2.4193376879370945,1.5373915049555955,-0.8614735776506054,-2.8904186468179947,-1.0843896701780962,1.0136225263555645
203,0.0007039875648432054,0.0007039875473706567,1.5628469708117136e-07,4.52088460270635,1.9076602608592046,1.7097106023714717,3.8594716506989646,-1.0,-2.4193740841020244,1.5373798851131666,-0.8614460733445315,-2.8904499273697857,-1.0844115172878808,1.0136554623275646
204,0.0006819705677206521,0.0006819705507941776,1.5196262340524166e-07,4.520884604957314,1.907638243863751,1.7097106090331702,3.859493386271575,-1.0,-2.419409340592423,1.5373686284911003,-0.8614194285802702,-2.8904802285584292,-1.0844326807238025,1.013687366250153
205,0.0006606433079652786,0.0006606432915680834,1.4751396978812924e-07,4.5208846071341595,1.9076169166056123,1.7097106154868127,3.85951444207342,-1.0,-2.4194434931972117,1.5373577237221465,-0.8613936164705279,-2.890509581130897,-1.0844531819288854,1.0137182705771253
206,0.0006399841063724285,0.000639984090487931,1.4136482746161737e-07,4.520884609239436,1.9075962574055854,1.7097106217388995,3.859534839399755,-1.0,-2.4194765765751596,1.5373471597956267,-0.8613686109706312,-2.8905380148636985,-1.0844730416706343,1.0137482067346955
207,0.0006199719695293923,0.0006199719541411812,1.3657139822709094e-07,4.520884611275603,1.9075762452702587,1.7097106277957261,3.8595545988765276,-1.0,-2.419508624290957,1.5373369260461989,-0.861344386852025,-2.8905655585938277,-1.0844922800624983,1.0137772051544651
208,0.0006005865678485539,0.000600586552941435,1.332800374925012e-07,4.520884613245026,1.907556859870047,1.7097106336633938,3.859573740481546,-1.0,-2.4195396688501143,1.5373270121429772,-0.8613209196766103,-2.8905922402487034,-1.0845109165846403,1.0138052953053076
209,0.0005818082143274953,0.0005818081998865349,1.2990531157078375e-07,4.520884615149987,1.907538081517949,1.709710639347811,3.8595922835649734,-1.0,-2.4195697417327233,1.5373174080790026,-0.8612981857718951,-2.89061808687514,-1.0845289701040368,1.0138325057242044
210,0.000563617844001978,0.0005636178300123336,1.2467205919833125e-07,4.52088461699268,1.9075198911490017,1.7097106448547017,3.8596102468691638,-1.0,-2.4195988734261267,1.5373081041610415,-0.8612761622069298,-2.890643124667374,-1.0845464588939298,1.0138588640460722
211,0.0005459969940648029,0.0005459969805119273,1.1920928955078133e-07,4.5208846187752245,1.907502270300399,1.7097106501896127,3.859627648547865,-1.0,-2.4196270934565223,1.5372990909997124,-0.8612548267690052,-2.890667378994188,-1.0845634006526526,1.0138843970326126
212,0.0005289277846409687,0.0005289277715121453,1.1920928955078133e-07,4.5208846204996584,1.9074852010922687,1.7097106553579156,3.859644506184808,-1.0,-2.419654430419544,1.5372903594999239,-0.8612341579410865,-2.8906908744251525,-1.0845798125218498,1.0139091306002181
213,0.0005123929001894545,0.0005123928874706493,1.1542389828584848e-07,4.520884622167951,1.9074686662090694,1.7097106603648151,3.859660836811704,-1.0,-2.4196809120098544,1.5372819008516168,-0.8612141348799605,-2.89071363475602,-1.0845957111041125,1.0139330898469685
214,0.0004963755714997537,0.0004963755591785543,1.1151007970493862e-07,4.520884623781993,1.907452648881593,1.7097106652153529,3.859676656925663,-1.0,-2.4197065650497795,1.5372737065207984,-0.8611947373950731,-2.8907356830333013,-1.0846111124800464,1.013956299078745
215,0.00048085955829069247,0.00048085954635456954,1.0536712127723512e-07,4.5208846253436175,1.9074371328695592,1.709710669914414,3.8596919825060647,-1.0,-2.4197314155170164,1.5372657682408617,-0.8611759459280358,-2.8907570415780452,-1.0846260322247923,1.0139787818344963
216,0.00046582913235831627,0.0004658291207951463,1.0323827311807144e-07,4.520884626854582,1.907422102444765,1.7097106744667283,3.859706829030883,-1.0,-2.4197554885714503,1.5372580780041796,-0.8611577415327781,-2.8907777320088566,-1.0846404854240184,1.0140005609106815
217,0.0004512690612802079,0.00045126905007839826,9.884312124119404e-08,4.520884628316589,1.9074075423747896,1.7097106788768812,3.8597212114924995,-1.0,-2.4197788085811016,1.537250628053963,-0.861140105856327,-2.890797775264167,-1.0846544866893986,1.014021658384919
218,0.0004371645926450105,0.0004371645817931627,9.424321830774487e-08,4.520884629731276,1.9073934379072224,1.7097106831493127,3.8597351444130044,-1.0,-2.4198013991472433,1.5372434108763808,-0.8611230211201932,-2.8908171916237957,-1.0846680501735966,1.0140420956388692
219,0.00042350143879034137,0.00042350142827787346,9.424321830774487e-08,4.520884631100221,1.9073797747544026,1.7097106872883248,3.8597486418590194,-1.0,-2.4198232831287054,1.5372364191929238,-0.8611064701023433,-2.890836000729811,-1.0846811895847701,1.0140618933803742
220,0.00041026576203968156,0.0004102657518554813,8.940696716308596e-08,4.520884632424955,1.9073665390786538,1.7097106912980837,3.8597617174560455,-1.0,-2.419844482665399,1.537229645953014,-0.8610904361197412,-2.8908542216067277,-1.084693918200612,1.014081071664882
221,0.0003974441604062132,0.0003974441505404429,8.688795409866128e-08,4.520884633706944,1.9073537174779913,1.7097106951826277,3.8597743844023533,-1.0,-2.4198650192010867,1.537223084326845,-0.86107490301144,-2.8908718726810507,-1.0847062488819423,1.0140996499161783
222,0.0003850236537714505,0.00038502364421333466,8.429369702178808e-08,4.520884634947611,1.9073412969722963,1.7097106989458675,3.859786655482436,-1.0,-2.4198849135054186,1.5372167276984505,-0.861059855122206,-2.890888971800198,-1.0847181940858681,1.0141176469464463
223,0.00037299167049360625,0.00037299166123422605,7.884953353001449e-08,4.520884636148325,1.9073292649899294,1.7097107025915916,3.859798543080033,-1.0,-2.419904185695265,1.5372105696589895,-0.8610452772866589,-2.8909055362508127,-1.0847297658785215,1.0141350809756822
224,0.000361336034462964,0.0003613360254934826,7.884953353001449e-08,4.5208846373104095,1.9073176093547817,1.709710706123471,3.859810059190741,-1.0,-2.419922855255364,1.5372046040002456,-0.8610311548139119,-2.8909215827764907,-1.0847409759473932,1.0141519696504822
225,0.0003500449525618626,0.00035004494387201786,7.300048299977716e-08,4.520884638435142,1.9073063182737346,1.709710709545061,3.8598212154342253,-1.0,-2.4199409410583064,1.5371988247083301,-0.8610174734726947,-2.890937127594942,-1.0847518356132722,1.0141683300622266
226,0.00033910700253259073,0.00033910699411410504,7.300048299977716e-08,4.520884639523751,1.9072953803245332,1.7097107128598061,3.8598320230660432,-1.0,-2.419958461383885,1.5371932259575836,-0.8610042194769454,-2.890952186414601,-1.084762355841807,1.014184178764678
227,0.0003285111212330927,0.0003285111130778846,6.989264130329237e-08,4.520884640577432,1.907284784444036,1.709710716071044,3.859842492989097,-1.0,-2.4199754339378217,1.5371878021046703,-0.8609913794718553,-2.8909667744507117,-1.0847725472546967,1.014199531791012
228,0.00031824659327421237,0.0003182465853740098,6.989264130329237e-08,4.520884641597329,1.9072745199168541,1.7097107191820065,3.8598526357647165,-1.0,-2.4199918758698975,1.5371825476828596,-0.8609789405203537,-2.8909809064408925,-1.0847824201405287,1.0142144046703052
229,0.0003083030400149102,0.00030830303236111325,6.664001874625058e-08,4.520884642584552,1.907264576364347,1.709710722195826,3.8598624616233996,-1.0,-2.4200078037915054,1.5371774573964847,-0.8609668900900161,-2.890994596660208,-1.0847919844652696,1.0142288124434888
230,0.00029867040891311215,0.00029867040149854655,6.664001874625058e-08,4.520884643540176,1.9072549437339743,1.7097107251155363,3.859871980475207,-1.0,-2.42002323379264,1.53717252611558,-0.8609552160403863,-2.891007858935763,-1.084801249882425,1.0142427696787952
231,0.00028933896321538315,0.00028933895603240807,5.960464477539064e-08,4.520884644465232,1.9072456122889827,1.7097107279440766,3.8598812019198294,-1.0,-2.4200381814583487,1.5371677488706839,-0.8609439066106951,-2.891020706660827,-1.0848102257428758,1.014256290486707
232,0.0002802992719832268,0.00028029926502462895,5.960464477539064e-08,4.520884645360721,1.9072365725984346,1.7097107306842934,3.8598901352563395,-1.0,-2.4200526618846556,1.537163120847807,-0.8609329504079668,-2.8910331528085105,-1.0848189211044015,1.0142693885344285
233,0.00027154220042649696,0.0002715421936855941,5.960464477539064e-08,4.520884646227609,1.9072278155275408,1.7097107333389463,3.8598987894926315,-1.0,-2.420066689693982,1.537158637383558,-0.8609223363954979,-2.8910452099450077,-1.084827344740904,1.0142820770598944
234,0.0002630589005572648,0.0002630588940265092,5.960464477539064e-08,4.520884647066827,1.907219332228313,1.709710735910707,3.859907173354566,-1.0,-2.420080279050073,1.537154293960424,-0.860912053881699,-2.8910568902424174,-1.0848355051513365,1.0142943688853299
235,0.0002548408021314839,0.00025484079580486487,5.960464477539064e-08,4.520884647879276,1.9072111141305093,1.7097107384021646,3.8599152952948237,-1.0,-2.4200934436724495,1.5371500862021978,-0.8609020925092868,-2.891068205491155,-1.084843410568351,1.0143062764303787
236,0.0002468796038908561,0.00024687959776188934,5.16191365590357e-08,4.520884648665828,1.907203152932871,1.7097107408158254,3.8599231635014815,-1.0,-2.4201061968504036,1.537146009869551,-0.8608924422448154,-2.891079167111972,-1.084851068966671,1.0143178117248106
237,0.00023916726507255574,0.00023916725913489305,5.16191365590357e-08,4.520884649427325,1.907195440594636,1.7097107431541207,3.8599307859063168,-1.0,-2.420118551456547,1.5371420608557431,-0.8608830933685365,-2.8910897861675937,-1.0848584880711996,1.0143289864208254
238,0.0002316959971968612,0.0002316959914449495,4.712160915387242e-08,4.520884650164579,1.907187969327326,1.7097107454194036,3.8599381701928492,-1.0,-2.4201305199599292,1.5371382351824692,-0.8608740364645783,-2.8911000733739853,-1.0848656753648718,1.014339811804964
239,0.00022445825611463633,0.00022445825054236818,4.712160915387242e-08,4.520884650878376,1.9071807315867912,1.7097107476139537,3.859945323804131,-1.0,-2.420142114438741,1.5371345289958367,-0.8608652624114321,-2.891110039111266,-1.0848726380962572,1.014350298809639
240,0.00021744673430539683,0.00021744672890707559,4.2146848510894035e-08,4.520884651569473,1.9071737200655123,1.7097107497399802,3.859952253950289,-1.0,-2.4201533465926124,1.5371309385624667,-0.8608567623727382,-2.89111969343427,-1.084879383286923,1.014360458024299
241,0.00021065435342345327,0.00021065434819413258,4.712160915387242e-08,4.5208846522386095,1.9071669276851446,1.709710751799623,3.859958967615835,-1.0,-2.420164227754524,1.5371274602657214,-0.86084852778836,-2.8911290460827805,-1.0848859177385635,1.0143702997062387
242,0.00020407425707831244,0.00020407425201173472,3.6500241499888574e-08,4.520884652886492,1.9071603475892966,1.7097107537949559,3.859965471566733,-1.0,-2.420174768902338,1.5371240906020471,-0.8608405503657393,-2.891138106491432,-1.0848922480399064,1.0143798337910632
243,0.0001976998038463515,0.00019769979893835278,4.2146848510894035e-08,4.520884653513804,1.9071539731365472,1.709710755727986,3.8599717723572606,-1.0,-2.4201849806699665,1.5371208261774336,-0.8608328220715219,-2.8911468837993053,-1.0848983805733983,1.0143890699028217
244,0.00019152456050371846,0.0001915245557490384,3.6500241499888574e-08,4.520884654121211,1.9071477978936717,1.7097107576006592,3.859977876336641,-1.0,-2.4201948733581817,1.5371176637039836,-0.8608253351234466,-2.8911553868592166,-1.084904321521681,1.0143980173638172
245,0.00018554229547449317,0.00018554229086799575,4.2146848510894035e-08,4.520884654709356,1.9071418156290947,1.7097107594148602,3.859983789655472,-1.0,-2.4202044569450902,1.5371145999965914,-0.860818081982488,-2.891163624246711,-1.0849100768738629,1.0144066852041067
246,0.00017974697248217597,0.00017974696801965946,2.9802322387695312e-08,4.520884655278856,1.9071360203065408,1.7097107611724154,3.8599895182719526,-1.0,-2.420213741096272,1.537111631969724,-0.8608110553452458,-2.8911716042687745,-1.0849156524315924,1.0144150821706996
247,0.00017413274441172288,0.00017413274008871695,3.6500241499888574e-08,4.520884655830312,1.9071304060788952,1.7097107628750934,3.859995067957913,-1.0,-2.4202227351745984,1.5371087566343051,-0.8608042481365731,-2.8911793349722696,-1.0849210538149403,1.014423216736463
248,0.00016869394735669885,0.00016869394316886861,2.9802322387695312e-08,4.520884656364303,1.9071249672822517,1.7097107645246077,3.8600004443046534,-1.0,-2.420231448249743,1.5371059710946957,-0.8607976535024354,-2.8911868241521033,-1.0849262864680957,1.014431097108746
249,0.00016342509486048996,0.00016342509080299005,2.9802322387695312e-08,4.520884656881391,1.9071196984301535,1.7097107661226187,3.8600056527286015,-1.0,-2.4202398891073877,1.5371032725457694,-0.8607912648029938,-2.8911940793591397,-1.0849313556648834,1.0144387312377305
250,0.0001583208723346261,0.00015832086840403996,2.9802322387695312e-08,4.5208846573821155,1.9071145942080139,1.7097107676707344,3.8600106984767915,-1.0,-2.420248066258143,1.5371006582700801,-0.8607850756059047,-2.8912011079078592,-1.0849362665141067,1.0144461268245173
251,0.00015337613166347037,0.00015337612785559998,2.9802322387695312e-08,4.520884657867003,1.9071096494677167,1.7097107691705133,3.8600155866321693,-1.0,-2.4202559879461805,1.5370981256351184,-0.8607790796798295,-2.8912079168837805,-1.0849410239647226,1.0144532913289563
252,0.00014858588596843302,0.00014858588227939469,2.9802322387695312e-08,4.520884658336559,1.9071048592223838,1.7097107706234642,3.860020322118734,-1.0,-2.4202636621575997,1.5370956720906537,-0.8607732709881478,-2.8912145131506435,-1.0849456328108535,1.0144602319772291
253,0.0001439453045425366,0.00014394530096867623,2.1073424255447017e-08,4.520884658791275,1.9071002186413089,1.7097107720310494,3.8600249097065147,-1.0,-2.4202710966285252,1.5370932951661593,-0.8607676436828676,-2.8912209033573695,-1.084950097696642,1.0144669557691914
254,0.00013944970794811806,0.0001394497044861461,2.9802322387695312e-08,4.5208846592316245,1.9070957230450547,1.709710773394686,3.8600293540163926,-1.0,-2.4202782988529523,1.5370909924683198,-0.8607621920987264,-2.8912270939448006,-1.0849544231209505,1.0144734694854833
255,0.00013509456326368652,0.00013509455990975776,0.0,4.520884659658067,1.9070913679006996,1.7097107747157456,3.8600336595247726,-1.0,-2.420285276090342,1.5370887616786149,-0.8607569107474763,-2.891233091152227,-1.084958613441916,1.0144797796944156
256,0.00013087547948622034,0.00013087547623639263,2.9802322387695312e-08,4.520884660071048,1.9070871488172405,1.7097107759955585,3.8600378305681042,-1.0,-2.4202920353729795,1.5370866005509793,-0.8607517943123492,-2.8912389010237063,-1.0849626728813602,1.0144858927586373
257,0.00012678820306959358,0.0001267881999216507,2.9802322387695312e-08,4.520884660470997,1.9070830615411334,1.7097107772354119,3.860041871347266,-1.0,-2.4202985835130995,1.5370845069095376,-0.8607468376426947,-2.891244529414188,-1.08496660552906,1.0144918148415936
258,0.0001228286136198526,0.00012282861057063025,2.1073424255447017e-08,4.520884660858324,1.9070791019519835,1.709710778436554,3.860045785931808,-1.0,-2.4203049271097865,1.5370824786464075,-0.8607420357487862,-2.891249981995442,-1.084970415346886,1.0144975519137793
259,0.00011899271970981967,0.00011899271675527276,2.1073424255447017e-08,4.520884661233438,1.907075266058363,1.7097107796001931,3.8600495782640634,-1.0,-2.4203110725556587,1.5370805137195738,-0.8607373837967891,-2.891255264261801,-1.0849741061728078,1.0145031097587955
260,0.00011527665483265102,0.0001152766519709316,2.1073424255447017e-08,4.520884661596725,1.9070715499937674,1.7097107807275007,3.86005325216313,-1.0,-2.4203170260433406,1.5370786101508285,-0.8607328771038875,-2.8912603815357234,-1.084977681724776,1.0145084939792146
261,0.00011167667348728208,0.00011167667071439706,2.1073424255447017e-08,4.5208846619485605,1.9070679500126937,1.7097107818196113,3.8600568113287284,-1.0,-2.4203227935717337,1.5370767660237752,-0.8607285111335624,-2.891265338973179,-1.084981145604482,1.0145137100022605
262,0.00010818914737644814,0.00010818914469004294,2.1073424255447017e-08,4.5208846622893075,1.9070644624868465,1.7097107828776237,3.860060259344935,-1.0,-2.420328380952087,1.5370749794818959,-0.8607242814910183,-2.8912701415688677,-1.0849845013009978,1.01451876308531
263,0.00010481056173690586,0.00010481055913454257,0.0,4.520884662619324,1.9070610839014626,1.7097107839026022,3.860063599683806,-1.0,-2.4203337938138776,1.5370732487266792,-0.860720183918753,-2.8912747941612715,-1.084987752194303,1.0145236583212205
264,0.00010153751177454025,0.00010153750925372067,2.9802322387695312e-08,4.520884662938948,1.907057810851748,1.7097107848955788,3.860066835708875,-1.0,-2.42033903761051,1.537071572015806,-0.8607162142922663,-2.89127930143755,-1.0849909015587016,1.0145284006434898
265,9.836669922052257e-05,9.836669677841817e-05,0.0,4.520884663248507,1.9070546400394337,1.7097107858575527,3.8600699706785555,-1.0,-2.420344117624829,1.537069947661393,-0.860712368615902,-2.891283667938281,-1.0849939525661292,1.014532994831254
