jkpark150901/flame_robotics_drt/experiment/inspection_ik/session_20260716_113329/success/inspection_ik_20260716_113638_rb20_1900es_raw_success.csv
iteration,err_norm,position_error,orientation_error,tcp_x,tcp_y,tcp_z,q0_rt_joint_linear_track,q1_rt_joint_carriage,q2_rt_base,q3_rt_shoulder,q4_rt_elbow,q5_rt_wrist1,q6_rt_wrist2,q7_rt_wrist3
0,10.135604471125355,6.144633906863796,3.1395745522005774,0.267,-3.2807478955731993e-13,2.541,0.0,0.0,0.0,0.0,0.0,0.0,0.0,0.0
1,7.363373051736788,5.588735044486013,2.2781892266939097,0.628310242779549,2.4024769325233777,1.762990136800462,0.0,1.0,-0.27575141472760883,0.9719594927871258,0.0005101408116471529,-0.3492961679280123,-0.9709392111638313,-0.3492961679280123
2,5.370776558586769,4.499333238030029,1.7105379654451522,1.8244138616841004,2.3652495381815557,0.4321679448374773,0.5457666743672194,1.0,-0.6717608869260567,1.758131673352268,-0.014758368363661487,-0.5987208132037696,-1.724930987650207,-0.7501914246374388
3,3.555351682482195,3.1920529560591038,1.1541963714575136,3.235127800817222,1.9550424465520668,0.13464249799738703,1.676998811364999,1.0,-0.9738879234619338,1.9496247517434393,-0.06972666673845584,-0.8370990106841416,-1.822641261694791,-1.1414267143976413
4,2.303339888946812,2.1367342570502026,0.7442952890470871,4.313957140616021,1.742244885171914,0.29858613247838306,2.5661214196660542,1.0,-1.144291932578319,1.8648042685514628,-0.10531568181104642,-0.9161555014533522,-1.6871704159315133,-1.3120711639466056
5,1.4982997847989432,1.4080799496716856,0.4813151899734971,4.988921811097992,1.6007340883896997,0.5769861560700206,3.1275661991516723,1.0,-1.2451878161520713,1.7125477349940537,-0.12386645059568926,-0.9372634591906425,-1.5410172118662817,-1.3472064865835074
6,0.9794528502715845,0.9258763684379928,0.31157462885798604,5.401819634507068,1.5038985527609061,0.820441777680726,3.5021834237854947,1.0,-1.3041135407506506,1.579086588133977,-0.13398486476027768,-0.9572891827071915,-1.4257215994083399,-1.3448055695778098
7,0.6433364828487597,0.6102534909341266,0.20164155413918983,5.658904538320229,1.4441943546324685,1.003386789075026,3.7607361793330796,1.0,-1.3366728359630062,1.4766404775020496,-0.1381368205444363,-0.9798567859599818,-1.3410206584548992,-1.3327030853037958
8,0.42548909243134436,0.4048186283488366,0.13050336693521714,5.822150707936457,1.4114095832233475,1.1328476926839035,3.940269538885768,1.0,-1.3528012927534143,1.4019765638045114,-0.13873638033230112,-1.001751056048333,-1.2803774796511258,-1.319916805285538
9,0.284766063362674,0.27189954480949996,0.08450316079230784,5.927314067273029,1.396278537085081,1.2216532982094002,4.064297722608635,1.0,-1.3589324520986572,1.3492418885688402,-0.13764883219206403,-1.020736216749753,-1.2372103428341201,-1.3096384398668495
10,0.19431631213977232,0.18643249488933625,0.05475457394282,5.995661947246327,1.3919935977056985,1.2814435819935097,4.149323134168616,1.0,-1.3592110685634404,1.3128285633505046,-0.13601158682641667,-1.0360619680292018,-1.2062977810451188,-1.3025875085911363
11,0.13634294046604223,0.13163668473013368,0.03550326739359126,6.040295002751823,1.3939796289813524,1.3212170082032308,4.207236274450799,1.0,-1.356274332815482,1.2881024001248782,-0.13439265968688044,-1.0478951898495381,-1.1838788456128155,-1.2984098934211574
12,0.0989860166368605,0.09626776140897735,0.023034652362636836,6.0695069169850555,1.3992908270573026,1.3474651585957143,4.24653442952711,1.0,-1.3517704271637259,1.2715137859635226,-0.1330142932490323,-1.0567913271585199,-1.1673677259201554,-1.2964036617027301
13,0.07442849147443295,0.07291076730818641,0.014952605762114572,6.088641381923372,1.406088026560883,1.3646963583076028,4.273178858835963,1.0,-1.3467018700080065,1.2604773833109737,-0.13192368784640512,-1.0633815274843554,-1.1550183131325693,-1.2958692622400234
14,0.057681066246282754,0.056857734076118396,0.009710406795255276,6.101175760863077,1.413263517830201,1.3759691533715857,4.29127738672958,1.0,-1.3416530093439936,1.2531754206171293,-0.13109434425500802,-1.06823111871405,-1.145651206740234,-1.2962416871548599
15,0.045705812307971126,0.04526833208713921,0.00630840158509862,6.109384294441503,1.4201848721019987,1.3833274740471717,4.303621931532977,1.0,-1.336941197830813,1.2483607950535784,-0.1304772059116698,-1.0717957793676796,-1.1384605246977082,-1.2971130314499788
16,0.036733486018421926,0.036503977822448866,0.0040997006640549555,6.1147576115613305,1.4265224527112672,1.3881238377305005,4.312092779803415,1.0,-1.3327170805458077,1.2451921563560628,-0.13002296917727688,-1.0744228408994778,-1.1328857950753715,-1.298210703210632
17,0.029756728652290756,0.029637122313778425,0.0026652509492609486,6.118273374253932,1.4321343340935964,1.39124751711696,4.317949814051502,1.0,-1.3290305532507947,1.243108253747766,-0.1296899867156799,-1.0763688630027695,-1.1285293328844748,-1.2993642482383274
18,0.024194967888530722,0.024132795240239736,0.0017333695027117548,6.120572734831842,1.4369905162858188,1.3932807871477606,4.322035634830417,1.0,-1.3258735028039206,1.2417374582286493,-0.12944576197792798,-1.0778200789147145,-1.1251032781496448,-1.3004745674360603
19,0.019696660169787654,0.019664344272575757,0.0011278111855473276,6.122075968789014,1.4411239189509897,1.3946039011810478,4.324914128121692,1.0,-1.323206943887411,1.240834873403477,-0.12926598654546814,-1.0789105036792987,-1.1223954029802734,-1.3014897330543014
20,0.016032105742231056,0.01601528541485504,0.0007341930294251877,6.123058404151239,1.4445994345320146,1.3954647705550927,4.3269636498882775,1.0,-1.3209777959261177,1.2402395960371422,-0.12913290015150639,-1.0797363050107849,-1.1202466971347267,-1.3023875480548444
21,0.013038412435567534,0.013029638014255631,0.00047825692165680424,6.1237003024286425,1.4474949773511483,1.3960248590903745,4.328439149351717,1.0,-1.3191288892808415,1.2398460887793967,-0.12903369078836874,-1.080366582844078,-1.118536381473304,-1.3031636292639008
22,0.010591950996217134,0.010587361189480893,0.0003117824048931286,6.124119616594587,1.44989035754715,1.3963892632060269,4.329513389655499,1.0,-1.3176046280465263,1.2395851845022954,-0.12895916945538807,-1.0808512012146678,-1.1171716674563177,-1.3038235845994133
23,0.008594509920330657,0.008592101510402397,0.00020345075631878086,6.124393489525488,1.4518611528248486,1.3966263659049847,4.330304246397337,1.0,-1.3163539276572205,1.2394115579360903,-0.12890275251671132,-1.0812263743297261,-1.116080604432221,-1.3043780553131548
24,0.006966039969507788,0.00696477177081009,0.00013291719859147484,6.124572351917583,1.4534756934444437,1.3967806536410523,4.330892787770128,1.0,-1.3153314894895254,1.2392954948045796,-0.1288597118506967,-1.081518610406313,-1.1152069780308365,-1.3048396874932706
25,0.005640511472102287,0.005639841046069162,8.696336059336684e-05,6.124689159973589,1.4547939257472355,1.3968810646341667,4.331335268497,1.0,-1.314498098200812,1.239217497509751,-0.1288266353981723,-1.0817474832933378,-1.114506601101671,-1.3052213647266253
26,0.004563248332865762,0.004562892329432945,5.699940946470723e-05,6.124765444054198,1.4558673600416105,1.396946422733894,4.33167110884329,1.0,-1.3138203763708254,1.2391647549831135,-0.128801044431913,-1.081927579227868,-1.1139445707978843,-1.3055352435875638
27,0.003688993117434242,0.0036888030995623324,3.744210832684898e-05,6.1248152666960065,1.4567396024421428,1.396988972849214,4.33192822334323,1.0,-1.313270265831425,1.2391288342758566,-0.12878112402330322,-1.082069867691934,-1.1134932099587107,-1.3057922862475921
28,0.0029803725134190766,0.0029802704789524278,2.466152531903738e-05,6.124847811181759,1.4574471630899222,1.3970166806994764,4.332126596907069,1.0,-1.3128243980014755,1.2391041714744762,-0.12876553377225938,-1.082182671528136,-1.1131305024957454,-1.3060020908302434
29,0.0024066186808967727,0.0024065635015171095,1.6296884368956164e-05,6.124869073705265,1.4580203577696444,1.3970347286182194,4.332280698748192,1.0,-1.312463447216303,1.2390870850476885,-0.12875327483227386,-1.082272358174748,-1.1128388915811134,-1.306172892115635
30,0.0019424818686526381,0.0019424517767670836,1.0812248061218743e-05,6.1248829691295406,1.4584841990720019,1.3970464884215346,4.332401122879276,1.0,-1.312171518207209,1.239075130475133,-0.12874359619355907,-1.0823438362824518,-1.112604348343434,-1.3063116529090844
31,0.001567301922987442,0.0015672853486460984,7.207881281720302e-06,6.124892053328272,1.4588592225278174,1.3970541541655594,4.33249571160592,1.0,-1.3119355926195153,1.239066677790378,-0.12873592828860375,-1.082400915835839,-1.1124156449181226,-1.3064241974671476
32,0.0012642183193985667,0.0012642090827143747,4.832619109432316e-06,6.124897994940554,1.4591622230729298,1.397059153708248,4.332570331602001,1.0,-1.3117450438166556,1.2390606347481825,-0.12872983563031798,-1.0824465718918332,-1.112263783615527,-1.306515358296994
33,0.0010195024160554464,0.0010194971973123367,3.2620952846961166e-06,6.124901883408764,1.4594068947766237,1.397062416412718,4.3326294150868305,1.0,-1.3115912202936713,1.239056265164822,-0.12872498275106126,-1.0824831396969585,-1.1121415464899485,-1.3065891202038107
34,0.0008219970291850435,0.000821994033202836,2.2192226876181703e-06,6.12490443008504,1.4596043765699456,1.397064547286989,4.332676341060102,1.0,-1.3114670932714425,1.239053069500964,-0.12872110948504653,-1.0825124604918357,-1.1120431385018672,-1.3066487532251727
35,0.0006626492357494451,0.0006626474841809786,1.523712042709047e-06,6.124906099511528,1.4597637117228022,1.3970659402685257,4.332713706763852,1.0,-1.3113669618247865,1.239050706188734,-0.1287180128585719,-1.082535991520834,-1.1119639039142555,-1.306696930773658
36,0.0005341232042931776,0.0005341221590905931,1.0564072057465866e-06,6.1249071951123994,1.4598922309517888,1.3970668519255862,4.3327435231367035,1.0,-1.311286208171136,1.2390489396624653,-0.12871553369112293,-1.0825548897872563,-1.1119001003041957,-1.3067358320366345
37,0.00043048097093569687,0.00043048033305861325,7.408739861641131e-07,6.124907915126183,1.4599958695047301,1.397067449410262,4.33276735713062,1.0,-1.3112210958583042,1.2390476059178595,-0.12871354658533643,-1.082570076349395,-1.111848718104421,-1.3067672291889394
38,0.00034692035366261777,0.0003469199548781038,5.264139691786736e-07,6.124908389113236,1.4600794281177472,1.3970678416615878,4.332786436493775,1.0,-1.3111686041371549,1.239046589598757,-0.12871195237848476,-1.0825822860463619,-1.1118073362557614,-1.3067925607329267
39,0.0002795605337079783,0.00027956027805116503,3.7814907850174894e-07,6.124908701785027,1.4601467868376012,1.3970680997116642,4.33280172775247,1.0,-1.3111262925454372,1.2390458086827665,-0.12871067239989273,-1.082592106208307,-1.1117740065852597,-1.306812992592433
40,0.0002252671410034506,0.000225266972875769,2.755707801715581e-07,6.124908908558921,1.4602010796207054,1.3970682699020234,4.332813994841561,1.0,-1.3110921905215138,1.239045204190151,-0.1287096440667001,-1.0826000069634218,-1.1117471610904004,-1.3068294686423176
41,0.00018150990243993176,0.0001815097890674196,2.0322474385776937e-07,6.124909045712726,1.4602448365175904,1.3970683824869092,4.3328238436048,1.0,-1.3110647076332438,1.2390447332246948,-0.12870881748125346,-1.0826063650821511,-1.1117255375247508,-1.306842752271022
42,0.00014624701385329843,0.00014624693554906727,1.504943510645939e-07,6.124909137014687,1.4602800992120488,1.397068457234669,4.332831755863207,1.0,-1.3110425607084755,1.2390443642337117,-0.1287081527851896,-1.0826114828147475,-1.1117081196292353,-1.3068534604215851
43,0.00011783136586889221,0.00011783131056624594,1.1348386266624797e-07,6.124909198053089,1.4603085147479633,1.3970685070755169,4.332838115699507,1.0,-1.311024714773111,1.2390440737531585,-0.1287076180901937,-1.0826156028254406,-1.11169408909861,-1.3068620913790687
44,9.493458983450053e-05,9.493454997817431e-05,8.940696716308596e-08,6.124909239064301,1.4603314114580959,1.3970685404776912,4.33284322987597,1.0,-1.311010335237427,1.2390438441522358,-0.128707187851769,-1.0826189200665626,-1.1116827869608636,-1.3068690473934115
