jkpark150901/flame_robotics_drt/experiment/inspection_ik/session_20260716_113329/success/inspection_ik_20260716_113650_dda_rb10_1300e_normalized_success.csv
iteration,err_norm,position_error,orientation_error,tcp_x,tcp_y,tcp_z,q0_dda_joint_linear_track,q1_dda_joint_carriage,q2_dda_joint_base,q3_dda_joint_shoulder,q4_dda_joint_elbow,q5_dda_joint_wrist1,q6_dda_joint_wrist2,q7_dda_joint_wrist3
0,7.898508566680148,6.045285364713399,2.5930377847078816,0.47255,3.7499999999986655,2.697,0.0,0.0,0.0,0.0,0.0,0.0,0.0,0.0
1,5.563998219830392,4.617055833169375,1.9083324275559201,2.6839914957547664,4.974420659682629,1.864870108735437,1.9742359633371656,0.12101974621029876,-0.21439298711237664,1.0775588948012698,0.3464814010768546,-0.33382516501907394,-0.40083146988443447,-0.4736092818622521
2,4.003564978806962,3.595621936992076,1.25633245080958,4.445627466903358,5.075827153166436,1.860482963930955,3.318248588975095,0.5164563770473936,-0.636176065186373,1.2386521694779826,0.035152719829779466,-0.2617545186675445,-0.36005669343428676,-0.016753339643295062
3,2.6555590611018274,2.456888302333426,0.8420701761005994,5.419440412176298,4.259952645603146,1.5509797721273004,3.935469025271031,0.24173671602809715,-1.159788900550916,1.3208280178160718,0.28080175544651176,0.09649480484309553,-0.3070540264833709,-0.479486001806858
4,1.8216380801555916,1.681277745406751,0.636830199519644,5.806978777448039,3.543365999983642,1.381202741936697,4.329357809001954,0.0034637908710034304,-1.5317472476153293,1.3091659047186934,0.5104684955934122,0.44197239879197125,-0.472358613657334,-0.9279984738220062
5,1.2548315416434086,1.1593246899484104,0.4572880490882401,5.961451001150554,3.0228895743459425,1.331674586434615,4.638814579859524,-0.07903939255624197,-1.9059710801474576,1.3294491924184513,0.5512269913744023,0.5490408195359905,-0.7323124561690028,-1.0797185967875615
6,0.8566342956264947,0.7970977458657352,0.3063315552060294,6.031700391918964,2.66072447959552,1.3581883266267234,4.924966921631929,-0.14241865241132226,-2.206528491235037,1.3314778039123614,0.5156141713079081,0.5947968040772751,-0.9543456513337821,-1.1389253143623832
7,0.5826279742046382,0.5449994536738816,0.2036173522244753,6.068572345609348,2.415123211691793,1.411376238863885,5.174275464314448,-0.20850761918941269,-2.431794206080021,1.3189644392569417,0.46039869524364146,0.648871525068408,-1.1152762407824863,-1.2010359143033724
8,0.39376600973932296,0.3696522077666545,0.13494297686802315,6.090680151672858,2.2485852252909595,1.4631441013615993,5.37300828568335,-0.27581259353855636,-2.594336936983116,1.307927193107985,0.4020867113486939,0.6991849752081908,-1.2250132074894446,-1.2594703307822763
9,0.26341901991829764,0.24786560688271428,0.08895412453757491,6.1044951268159435,2.1347995985552677,1.5046884879590403,5.515167991763739,-0.33936561637186846,-2.704012915615816,1.3013446564348417,0.35041363568615114,0.7389201040152764,-1.294389326839216,-1.305009531142651
10,0.1743506902991363,0.16429464331496066,0.05829195065299593,6.112840564805159,2.0574265204474846,1.5352809053932934,5.606749088501276,-0.39307425210192887,-2.772406675818852,1.297339119095228,0.3106710696269436,0.767163941079437,-1.3345982870595847,-1.3352322980109108
11,0.11452065585402496,0.10800971966819357,0.03804600207063168,6.117677869936569,2.0056110066068875,1.5567678649717773,5.662256044817977,-0.4339761070507664,-2.8131317869722743,1.2943787479245854,0.28303928230512837,0.7860780491759604,-1.3567439933034637,-1.3534891205824375
12,0.07488870347316028,0.07066818352665173,0.024780518217618674,6.120450018279866,1.971375930986987,1.5714336782991594,5.695497584262593,-0.46303332789778967,-2.8372934006249264,1.2920421500592354,0.2647870741309263,0.7984359425598958,-1.3689469529592508,-1.3642321212184019
13,0.04885250065128002,0.04611427907937672,0.016124349818000455,6.122060030090034,1.9489328880931336,1.5812670881219915,5.7156565634946395,-0.48288848857128036,-2.851875669346378,1.2902634518968628,0.2529544445770202,0.8064522427098498,-1.3758663910460716,-1.3706173994580109
14,0.031824398580828604,0.030046811743438158,0.010486814830758326,6.123016826553466,1.934278400255758,1.5877870588756597,5.728101203472615,-0.49617457830399636,-2.860855803314327,1.2889742524263725,0.24531809557753426,0.8116465471848182,-1.3799263492632659,-1.3744909461599726
15,0.020715009105611436,0.01956059114246537,0.006818607849948199,6.123598724288269,1.9247285577543418,1.5920795733646032,5.735903492660941,-0.5049626381383745,-2.866479032046442,1.2880740656580447,0.24038822902322732,0.8150140585435436,-1.3823803104937886,-1.3768870982072916
16,0.013477204289576309,0.012727301269370057,0.004432897013947123,6.123959525716902,1.9185116799147475,1.5948928701873617,5.74085238217895,-0.5107368602853081,-2.8700434847391185,1.2874611125724686,0.237200730943404,0.8171988947273974,-1.3838976733475232,-1.3783923216452258
17,0.008765657618310298,0.008278445801214304,0.0028816734305526018,6.124186552221227,1.9144668254919646,1.5967313539750643,5.744017154622532,-0.5145157589770257,-2.872322138799262,1.2870505271354198,0.23513665378976412,0.8186173103604845,-1.384851356197854,-1.3793484870021917
18,0.005700165244407584,0.005383590632588242,0.0018731864145057253,6.124330922594632,1.9118359936650495,1.5979305555890884,5.746052289492216,-0.5169827995289626,-2.873787168335381,1.2867783972024234,0.23379844382988835,0.8195385841440174,-1.3854575727482887,-1.3799605974374138
19,0.0037062813879502874,0.003500567423751401,0.0012175992537901824,6.124423406821912,1.9101251906465504,1.5987118231889597,5.74736587741204,-0.518590939532931,-2.8747326757469818,1.2865992646875781,0.23293008345670338,0.820137150720061,-1.3858458782653449,-1.3803545151805787
20,0.002409661316596098,0.0022759800672147116,0.0007914430663879066,6.124482948342528,1.909012803102792,1.5992204128662644,5.7482158279257,-0.5196381909687017,-2.8753444223462004,1.2864818700276273,0.23236626833368307,0.8205261326550402,-1.3860958755660902,-1.3806089062089417
21,0.0015665784904682026,0.0014797045448568262,0.0005144342319725917,6.124521409072585,1.908289566192254,1.5995513266548094,5.748766674297981,-0.520319759106961,-2.875740875389913,1.2864051557950198,0.2320000419608492,0.8207789508135779,-1.3862573715945878,-1.3807735718567602
22,0.0010184376465246863,0.0009619808033787487,0.000334377279584438,6.12454630749044,1.907819363558294,1.5997665647506383,5.749124051766995,-0.5207631581626159,-2.875998079807597,1.286355118317619,0.23176209522082908,0.8209432849650137,-1.3863619280601458,-1.380880321031787
23,0.0006620758562148793,0.0006253857626597839,0.00021734094308324233,6.124562449408519,1.9075136766907919,1.5999065333222933,5.749356071072898,-0.5210515405254601,-2.8761650617181744,1.2863225203575486,0.23160746753132969,0.821050110256115,-1.3864297187443122,-1.380949593115381
24,0.00043040294635050765,0.00040655865541794535,0.00014126838229643727,6.124572924326115,1.9073149481157885,1.599997541743657,5.749506772322943,-0.5212390703940337,-2.8762735190031177,1.286301300380737,0.23150697227836473,0.8211195547456669,-1.3864737134659848,-1.3809945746411885
25,0.0002797943518446037,0.000264298259780272,9.182215958164707e-05,6.1245797259917465,1.9071857552369522,1.6000567106343393,5.749604684588057,-0.5213610045634219,-2.876343984600046,1.2862874940528488,0.23144165365265168,0.8211647000803336,-1.3865022827504705,-1.3810237955752347
26,0.00018188638806887215,0.0001718156481724125,5.968283576986206e-05,6.124584144294528,1.9071017679757876,1.6000951768796436,5.749668311425147,-0.5214402820824219,-2.876389775539355,1.2862785142306805,0.23139919656460115,0.8211940492203491,-1.3865208425312154,-1.3810427833391126
27,0.00011823875881706376,0.00011169388183171174,3.879279140143863e-05,6.12458701514123,1.9070471688045845,1.6001201831896057,5.749709663524991,-0.5214918233355487,-2.8764195357922557,1.2862726748889926,0.2313715985718084,0.8212131294110958,-1.3865329028839268,-1.3810551238042708
28,7.686320542509021e-05,7.260974701313296e-05,2.52146141077322e-05,6.124588880828917,1.9070116746164762,1.6001364390014259,5.749736541089966,-0.5215253312269217,-2.876438879032392,1.2862688782497025,0.23135365892087356,0.821225533737506,-1.3865407411704525,-1.3810631450157353
