jkpark150901/flame_robotics_drt/experiment/inspection_ik/session_20260722_142108/success/inspection_ik_20260722_142142_rb20_1900es_normalized_success.csv
iteration,err_norm,position_error,orientation_error,tcp_x,tcp_y,tcp_z,q0_rt_joint_linear_track,q1_rt_joint_carriage,q2_rt_base,q3_rt_shoulder,q4_rt_elbow,q5_rt_wrist1,q6_rt_wrist2,q7_rt_wrist3
0,10.022443795330217,6.233474021911501,3.096473694388685,0.267,-3.2807478955731993e-13,2.541,0.0,0.0,0.0,0.0,0.0,0.0,0.0,0.0
1,7.727313348929275,5.373712322072789,2.6165276731003098,0.6786169180815664,1.8894843088832143,0.5384139309154826,0.0,0.18922765337629688,-0.26436812934222326,1.6815885578701224,0.030436118334903797,-0.389370630414381,-1.6207163212003148,-0.389370630414381
2,5.96633744784968,4.427975051603546,2.4369668333792402,1.6296287401639633,1.3969405307540745,1.0763095891483832,3.21905579273871,1.0,1.3924481992818682,1.4362923000444385,-0.134792837896541,0.1201684197908689,-0.4086332290075292,-2.5579886524060287
3,3.9433080923406054,3.2378389209941525,1.726732567872723,2.7896827525678285,2.493813160206008,1.3221788539189903,3.4146663180571477,1.0,0.5165522660458508,1.4314963646602457,-0.4123858342704087,-0.8552483594494251,-0.4946002935695048,-1.7945745799144992
4,2.659678990820783,2.2978980326193463,1.173932002130183,3.7697260008371756,2.4019902412290266,1.7058568181122502,3.2397167304957426,1.0,-0.22551608375702925,1.2217696281805561,-0.4698006856334317,-0.6580752803187958,-0.8332517175994981,-1.7334947956268172
5,1.7618418260132305,1.5575050193336186,0.7851927046347285,4.577209110206931,2.286835483678264,1.8554729142192774,3.9339685626512964,1.0,-0.297586965928059,1.0705079824862966,-0.34420528423642155,-0.228954244297234,-0.7709600816323661,-2.199457586887478
6,1.1359623832609378,1.0235665855448177,0.48388749188212404,5.123264154113588,2.201268740019865,1.770832624049465,4.198824762969966,1.0,-0.4876293343982637,1.1502454613195103,-0.3881606152815696,0.09958080168823258,-0.905678689185387,-2.4125316119887743
7,0.7303974863168327,0.6655431350428728,0.2987315233084405,5.455954984945139,2.14705217949276,1.6341969806739687,4.322601932137082,1.0,-0.6174604058695876,1.2493287711755985,-0.4073478266397042,0.2683545073779885,-1.0504084594449807,-2.4774738208160585
8,0.47208603357121764,0.43272421910480535,0.18816256805701706,5.6566245983000245,2.115334684862886,1.517686080590863,4.401012390644807,1.0,-0.6870874875311794,1.3254966542727207,-0.4131694608128794,0.35774874849330185,-1.1551991994628352,-2.496193604727796
9,0.30605809013367413,0.2814565784395677,0.12007689782358473,5.780863777049473,2.0981743403751607,1.4323982062579992,4.4560865574843165,1.0,-0.7236700933401261,1.3780985401251116,-0.41411597580081055,0.40973999716709253,-1.2260914066844715,-2.5016840414655777
10,0.19869888581033154,0.183069572499788,0.07720594142576381,5.859268235472455,2.0891858201205764,1.3734027799976485,4.494836583173645,1.0,-0.7433635972025681,1.4132448155050963,-0.4135754083605427,0.44164659125155853,-1.273257846126589,-2.5030745165612154
11,0.1290840292223403,0.1190629198694926,0.0498565471573376,5.909321543225211,2.084599922396315,1.3336687211158482,4.521709899074694,1.0,-0.7542306866577557,1.4364063682532042,-0.4127234857333232,0.46173719325454626,-1.3044567150399202,-2.5032664645460354
12,0.08388935650072188,0.07743007337712844,0.03227740429807342,5.94149682496002,2.082354312415168,1.307287981056719,4.540108145922303,1.0,-0.7603333236603901,1.451562846260116,-0.4119340596341882,0.47453319014150425,-1.3250416806792136,-2.5032030771066114
13,0.054532733110918816,0.05035659349514641,0.020928501571895172,5.962266694838783,2.081339915033962,1.2899169242988378,4.552591394566978,1.0,-0.7637914876722138,1.4614407487905152,-0.4112993500404031,0.48272171445310746,-1.3386081663379399,-2.503157418692443
14,0.035458589691176,0.03275392417915075,0.013582594311244756,5.975708855195062,2.0809611103157915,1.278534953904748,4.561013489640888,1.0,-0.7657516108864777,1.4678621725425853,-0.4108182612271394,0.4879701114444078,-1.3475455276335198,-2.5031784779710304
15,0.023063010043030116,0.02130975699424704,0.008820193433168975,5.984422604010556,2.0808979598756765,1.271099743882511,4.56667722662469,1.0,-0.7668525582724887,1.4720296168604636,-0.4104639223191472,0.49133434049951,-1.353433587417131,-2.503250820413803
16,0.015006111327129205,0.013869174821402978,0.005729678773877953,5.990076927947987,2.0809796114161463,1.2662518417686848,4.570479959785564,1.0,-0.7674585377618579,1.4747310635232505,-0.41020685570606125,0.49348934483987966,-1.3573140863893578,-2.5033489486061202
17,0.00976816961842692,0.00903089945278001,0.0037228977842164697,5.993748340425666,2.081116467290784,1.2630946119157564,4.573031954142436,1.0,-0.7677803227221962,1.4764806585032308,-0.4100219196138361,0.4948682051243989,-1.3598729586028437,-2.5034529231907596
18,0.006361997472765621,0.005884035283060883,0.0024193256265686715,5.9961331854383975,2.081263335759604,1.2610399472934166,4.574745015423583,1.0,-0.767940819388064,1.4776129677802397,-0.40988952469616563,0.49574918637211995,-1.361561549117791,-2.5035506166219728
19,0.004146282841430283,0.0038365870976806156,0.0015723422521496926,5.997682704842088,2.0813991397673317,1.2597034218627399,4.575895775802364,1.0,-0.768011739908856,1.4783453143962726,-0.4097950277899769,0.49631110462318406,-1.3626767887650888,-2.503636101072909
20,0.0027043778324109097,0.0025038570339361837,0.0010219389913304158,5.998689643245204,2.0815156445099703,1.2588342818485025,4.576669619866357,1.0,-0.768034668420299,1.4788186922712472,-0.4097277123149043,0.49666881173312494,-1.3634140530686987,-2.5037074858441537
21,0.0017655717600649906,0.0016358610550078533,0.0006642305552593572,5.999344056352916,2.0816111876153256,1.2582691818084142,4.577190657559101,1.0,-0.7680333963829938,1.479124493914567,-0.4096798250950573,0.49689601222840335,-1.3639019470846299,-2.50376517490779
22,0.0011539546528754792,0.0010701454805597187,0.00043174064914037433,5.999769388268656,2.0816872216351663,1.2579018036442096,4.577541968285829,1.0,-0.7680212332421128,1.4793219193045652,-0.40964579365448234,0.49703995224294584,-1.3642251732201753,-2.5038106885687497
23,0.0007552015554638067,0.0007011250812190475,0.0002806296653522203,6.000045840814266,2.081746447778846,1.257662982888944,4.577779192459544,1.0,-0.7680053641445365,1.4794492933058567,-0.40962162866194607,0.49713087760895264,-1.3644395581512663,-2.503845947166359
24,0.0004949972493592492,0.0004601618174124006,0.00018240991971711745,6.000225530613962,2.0817918484590168,1.2575077395716507,4.577939626418344,1.0,-0.7679894481161127,1.4795314136003208,-0.40960448136286215,0.49718812170001925,-1.364581926856893,-2.503872875442469
25,0.0003250218905829172,0.00030262344455572054,0.00011856761737515788,6.000342327822037,2.0818262219070065,1.257406827545095,4.578048298548943,1.0,-0.7679751598202454,1.479584317084932,-0.4095923210010657,0.4972240213697602,-1.364676592216927,-2.503893209651316
26,0.00021384766083883697,0.000199476892009615,7.707004458600804e-05,6.000418245904318,2.081851990851384,1.2573412331942924,4.578122026497974,1.0,-0.7679630955757333,1.4796183696156082,-0.40958370178655845,0.49724643364692744,-1.3647396220375494,-2.503908423879201
27,0.00014102520171523916,0.0001318273853661946,5.009639198134923e-05,6.0004675928427655,2.0818711548443347,1.2572985962490515,4.578172126807248,1.0,-0.7679532976368765,1.479640267799792,-0.409577595432829,0.4972603514932231,-1.364781646302266,-2.5039197213284163
28,9.324185880607432e-05,8.737091611612362e-05,3.256328904862418e-05,6.000499668569296,2.0818853126295447,1.2572708819788883,4.578206225750615,1.0,-0.7679455507133693,1.4796543353120335,-0.40957327120857345,0.4972689399169775,-1.364809705316195,-2.503928057435829
