jkpark150901/flame_robotics_drt/experiment/inspection_ik/session_20260722_142108/success/inspection_ik_20260722_142159_dda_rb10_1300e_normalized_success.csv
iteration,err_norm,position_error,orientation_error,tcp_x,tcp_y,tcp_z,q0_dda_joint_linear_track,q1_dda_joint_carriage,q2_dda_joint_base,q3_dda_joint_shoulder,q4_dda_joint_elbow,q5_dda_joint_wrist1,q6_dda_joint_wrist2,q7_dda_joint_wrist3
0,2.6820049102567354,1.672826274200969,2.0943951007944817,4.427772733754823,1.813508166213355,1.7220274116157788,3.99570023408164,-1.0,0.07563597527362015,-1.3937028440056685,0.29516005463071254,2.146979223246679,1.5330053913050994,-1.6363302229969428
1,1.7442261855855303,1.081551943140463,1.3678875573133926,5.018544089210354,1.7832770923286736,1.6860001368426232,4.4582239754511725,-1.0,0.18856173802657153,-1.39759735784163,0.01817370690153519,1.699582497997436,1.4286610270886064,-1.7066092794331558
2,1.1440251895878322,0.697809226165454,0.9060702603201134,5.398966523475855,1.781124986847984,1.6214763337707492,4.703494756317445,-0.9856256597463957,0.29292415072410366,-1.4242072176776837,-0.14282624170820948,1.412784935928982,1.2723151383539437,-1.6405335245642527
3,0.7532696384761417,0.4524239516125636,0.602024380009565,5.643183316336415,1.7953033375077732,1.5831534084576384,4.852037918910745,-0.9695282926879913,0.36673900463379594,-1.4184218810780116,-0.2597185154744651,1.190739820028781,1.1982650301813187,-1.4959115672370544
4,0.492216631720319,0.2941707468971448,0.3945549552605382,5.801662125632824,1.8053301429503272,1.57071687111308,4.958739278360547,-0.9584366085602699,0.4085456588991616,-1.3939971648469283,-0.3417460527491812,1.020609651525231,1.2017347296791943,-1.3675234055876673
5,0.3200762916392548,0.19139263780086027,0.2565239572553727,5.904648352333809,1.8102445139974779,1.5704640730800699,5.035339333488874,-0.9523145934679589,0.43165633616652244,-1.3692707680698029,-0.3935208507105281,0.9045198979219498,1.2329835842041803,-1.2842956224149764
6,0.20791009637504024,0.1245065758866001,0.1665001076335962,5.971504144305562,1.8123631847871173,1.573914756801184,5.087932307934622,-0.9493831710605102,0.4452561506325686,-1.350192859966981,-0.42481726752978816,0.829013380582,1.264717124546133,-1.2348909606699268
7,0.1350532282535248,0.08097704569253705,0.10808168721592355,6.014886124627509,1.8132083419921996,1.577700210389953,5.123116553778755,-0.9480449249186633,0.45361075501473613,-1.3367311568819253,-0.4438084195110071,0.7802778523566424,1.289556268974337,-1.20560200292528
8,0.08774367626685597,0.05265659375461901,0.07018658362194719,6.043040861758527,1.8135132795692714,1.5808087276364835,5.146361335826309,-0.9474365365596386,0.4588557341746838,-1.3275755681775856,-0.45552059399691125,0.748777239937473,1.3072900733063242,-1.1879008532878996
9,0.05701594171084737,0.034236314259890877,0.045592523374026764,6.0613196839732915,1.8136025194214818,1.5831009659820667,5.16161872253203,-0.9471556392397051,0.46218864563761697,-1.3214617118733414,-0.46285614285444265,0.7283743570651252,1.3194354863749598,-1.17698676135569
10,0.03705315718272719,0.02225779885631879,0.029623036765508745,6.073190845690078,1.8136128076967424,1.5847050032479,5.171596500163783,-0.947022314986355,0.4643227341325207,-1.3174207461063667,-0.4675052797533541,0.7151405781755895,1.3275771034723913,-1.1701482082202028
11,0.024081637736045523,0.014469417680282301,0.019249955175342445,6.080902622562678,1.8135988485985324,1.5857956253847816,5.178107136498632,-0.946956665180769,0.46569611943638006,-1.314766204724413,-0.4704766421379756,0.7065494530737205,1.3329697325419954,-1.1658124198281752
12,0.0156519145752643,0.009405942272292819,0.012510419609168197,6.085913333565602,1.81358091376583,1.5865247650775023,5.182349545896927,-0.9469229184242144,0.4665829486896639,-1.3130290289541922,-0.47238660837103424,0.7009694325171273,1.3365164086865584,-1.163040625079975
13,0.010173309263991487,0.006114232355842592,0.008130951334709534,6.0891694653109525,1.8135654733690079,1.5870072537015145,5.18511152734397,-0.9469047658674785,0.46715688976047887,-1.3118949152787875,-0.47361903233675157,0.6973440694155465,1.3388389950588397,-1.161258659860568
14,0.0066124991915042656,0.003974421529738779,0.005284800514409001,6.091285600801753,1.8135538281710801,1.5873244896310843,5.1869086793051675,-0.9468945675155883,0.4675288909674167,-1.3111556425709678,-0.47441628532586005,0.6949882308212337,1.340355892782537,-1.1601087191318074
15,0.004298080872896642,0.0025834550534568398,0.003435004907502921,6.092660943175946,1.8135455761247485,1.5875322284523758,5.188077617364248,-0.9468886152435915,0.46777024236079157,-1.3106742209462865,-0.474932887703337,0.6934571869009497,1.3413449089037441,-1.159364779951385
16,0.0027937474158312814,0.001679285835121227,0.0022327166467429405,6.0935548561047375,1.8135399231331926,1.587667912427786,5.188837762376844,-0.9468850319917803,0.46792693063229723,-1.3103609133867344,-0.47526800035264877,0.692462102801118,1.3419890479788386,-1.1588827054782884
17,0.0018159422447856692,0.0010915564685210041,0.0014512583149412757,6.094135875716119,1.8135361263616132,1.587756386648318,5.189331999630806,-0.9468828233899129,0.4680286976808927,-1.310157097597886,-0.47548553823672435,0.6918153312654364,1.3424082790265386,-1.1585699828907539
18,0.001180370757266486,0.0007095228754980309,0.000943319887782071,6.094513529354375,1.8135336067656258,1.587814015316483,5.189653315177907,-0.9468814385519033,0.4680948123780465,-1.3100245447045784,-0.4756268182952839,0.6913949395865199,1.342681008515202,-1.1583669761447926
19,0.000767248125816682,0.00046119617050783385,0.000613162113627507,6.0947590009937676,1.8135319472056386,1.5878515263244057,5.1898621968029275,-0.9468805597362916,0.4681377726652778,-1.3099383529677897,-0.4757186004645746,0.691121686490974,1.342858380302288,-1.1582351318468596
20,0.0004987166532091994,0.0002997812009230666,0.00039855931953579213,6.094918556604475,1.8135308592908794,1.5878759315821385,5.189997981460629,-0.9468799974411031,0.46816569086176174,-1.3098823135794422,-0.47577823822773213,0.6909440709037317,1.3429737137314257,-1.1581494788995856
21,0.00032416962627669014,0.00019486000759626478,0.0002590666387098577,6.095022267613903,1.8135301482736579,1.587891805395023,5.190086246648392,-0.9468796356737453,0.4681838351841012,-1.309845881032321,-0.47581699432573754,0.6908286192129116,1.3430486984593013,-1.1580938234176774
22,0.00021071285925628868,0.0001266603799813987,0.0001683955353496909,6.095089679884991,1.813529684486483,1.5879021281781207,5.19014362136888,-0.9468794020655128,0.46819562795209396,-1.3098221964815333,-0.4758421823992494,0.6907535742382807,1.3430974463691012,-1.1580576550692603
23,0.0001369651053210389,8.233011013473149e-05,0.00010945863371402956,6.09513349802233,1.8135293823446805,1.58790884028544,5.190180916038774,-0.9468792508494808,0.468203292822428,-1.3098067997893172,-0.47585855333116917,0.6907047939579585,1.343129135973213,-1.1580341487168835
24,8.902847729346985e-05,5.351511969333712e-05,7.114914534157507e-05,6.0951619799528665,1.8135291856696616,1.5879132043006505,5.190205158110699,-0.9468791528109046,0.4682082748142688,-1.309796791011812,-0.4758691939567149,0.6906730860309058,1.3431497357777524,-1.158018870766006
