jkpark150901/flame_robotics_drt/experiment/inspection_ik/session_20260721_142344/fallback/inspection_ik_20260721_142502_rb20_1900es_normalized_fallback.csv
iteration,err_norm,position_error,orientation_error,tcp_x,tcp_y,tcp_z,q0_rt_joint_linear_track,q1_rt_joint_carriage,q2_rt_base,q3_rt_shoulder,q4_rt_elbow,q5_rt_wrist1,q6_rt_wrist2,q7_rt_wrist3
0,5.3366273009318475,3.2600933119958175,3.1415833993328346,0.267,-3.2807478955731993e-13,2.541,0.0,0.0,0.0,0.0,0.0,0.0,0.0,0.0
1,4.65414527346011,3.0646138189832532,2.6650589193959893,0.794322016455688,-0.16068550239404503,2.5328985278571627,0.4928660993281918,-0.010946115005089274,0.23357115224425037,-0.0955125125073242,5.067125238088082e-07,0.24080208138292813,0.09551352593237183,0.24080208138292813
2,3.832105294162116,2.9090088541533894,1.8387612419187689,0.13300232981509477,1.0017232486683396,0.5110012872965473,0.0,1.0,3.14,-3.14,3.14,-3.14,3.14,-1.8505165465978675
3,7.05079758966731,4.904096186286229,2.644005739081116,0.7582185449635094,-1.5997884843484247,-0.7042589849861215,0.6261134431331339,-1.0,3.14,3.14,-0.9133654575481427,2.84534747545228,3.14,3.14
4,4.313278657786211,3.933569086746479,1.2179100520337465,1.7797189155344983,-0.5942488332185825,-0.8304650957688136,1.3255809257235334,-1.0,2.4418346595394174,3.14,0.6830998101315351,2.6479579938591646,3.14,3.14
5,4.870540057208785,4.159783290905981,1.5845732740344336,1.4071974813374537,-0.655776400705707,-0.9914009487653415,1.272223126413485,-0.7624131021291504,3.1233612576435914,3.14,0.14385197519409176,2.9415943093031838,3.14,2.8456563455412844
6,4.4279775231104965,3.2235283263347148,2.3802360712690076,1.0391767525155038,-0.2136933897052536,0.2917193732776126,1.4751983350879063,-0.30627814295503863,1.3678831468301755,3.14,-2.1975052259725087,2.070977499069593,1.9836883663510014,3.14
7,3.8882315673118604,2.484752412221645,2.5116168937967545,2.0172823518756675,0.7208479319485872,-0.12401543821567873,2.036466975392143,-0.000537550941420939,0.35494546534001525,3.14,-1.6895293688625674,2.4958457327247734,2.8590399494089285,3.14
8,3.2459289430947624,1.975250959403471,2.2458400540643946,2.8158759750623843,1.3719352194209613,0.04954201808150137,3.020393167498918,0.17171311378385498,0.34611736861518094,2.52550794396006,-1.0852527394344433,2.23288601770724,2.737064345349989,3.14
9,3.013464096210438,1.6528450505975898,2.2577731356261195,3.4034347041783084,1.6391814586447573,0.5955652182919753,3.8354488783574556,0.22311373958069494,0.42227290917361204,1.9511415480139347,-0.693108607360106,2.190908941464729,2.502023628980475,3.14
10,2.9814795134743974,1.527923819825894,2.3107492990750647,3.7338299276381064,1.7300136779397355,1.2222198230109433,4.130668990043852,0.2995396403825417,0.39398562629284534,1.3479618833430709,-0.22677094912639384,2.1863350466962226,2.4339652164493932,3.14
11,3.030505634187532,1.444877244114051,2.4184373094613227,3.7299441957720214,1.704356306529045,1.7747329464632668,3.820107169237062,0.5391342832040407,0.252081680101232,0.6893734978231554,0.32996901511555254,2.285809269050159,2.517489429553029,3.14
12,3.5736373268605957,1.4769265737852424,2.915897274670107,3.6060938509856792,1.5809986623955223,2.2286964083657788,3.61401896070332,1.0,0.3667345929899124,0.40102239454655253,0.05296587846515938,2.634586481062322,2.151648778437755,3.14
13,4.024978490791648,2.1934495678441834,3.1259993304697167,2.6693695920508307,0.1876874914054339,2.220864031143325,2.4578161668521163,1.0,-0.06808969287170463,-0.3328725917236005,-0.13491229752485787,3.14,1.4686429862492552,3.14
14,3.622652958014552,1.5872543886141164,3.0471319158864656,2.3244727961446356,0.8522107219142554,2.3531088608702886,2.052063625911245,0.8486173453016181,-0.348832216811735,0.05337853408807647,0.06045894533215018,3.14,2.0869573680227105,3.14
15,2.9047416074714563,1.7931327135897044,2.1590834028384167,2.443911494157591,0.9500128174959465,0.5757762460469744,2.1184438405045345,1.0,0.6021302367715031,0.9779345611060155,-3.14,2.285230261774278,-0.08245810236208362,3.14
16,2.355169011926141,1.814707826660521,1.4434879225568968,2.1274364791605436,0.6714199997752164,1.024968228672621,1.579334445003122,1.0,0.7910140702229267,0.5286344271792467,-2.464569635324956,1.9898647474286915,0.4899611752483506,2.8547525722478
17,1.8238983334889454,1.4461673910427022,1.0276754926426204,1.879114889617255,1.0078083190446585,1.4330270334560358,1.2948064406002389,1.0,1.6169214776940928,0.6058130847294396,-1.9861403447422337,2.5084274110505542,1.575731335644049,2.089954366669596
18,1.474501840915356,1.2134020909717165,0.7951478519951842,1.9899981684186605,1.178721424758501,1.7506494408014903,1.3983366792150942,1.0,2.0524273315093824,0.3862156294264899,-1.51881659748011,2.169321130602009,2.1473942574135725,2.065831817223234
19,1.035966535189954,0.8599888509382322,0.5625169770657169,2.1060037920664056,1.5174239754854624,1.8270555430216162,1.3540076605580644,1.0,2.3415480537893676,-0.032621018460337714,-1.1082714178120838,1.918911009179506,2.4238748312025393,1.9341033845102003
20,0.7582873837098874,0.6326918062587117,0.4117364986941542,2.19945834415761,1.7312409538662794,1.8536294410288372,1.513484809190384,1.0,2.549526296259992,-0.2166030312179877,-0.8788989585001228,1.6515340440933775,2.641199720970612,1.6713618015221692
21,0.5720865848906388,0.48877633017555694,0.29462057357092086,2.2771950176963864,1.8583153050992938,1.8474777322673457,1.6732322559402117,1.0,2.6828997539099753,-0.3176547751809648,-0.7675865674655337,1.3732792117651182,2.745643241627646,1.3814198190521336
22,0.44839568369416055,0.4032845675010867,0.19485046412685292,2.3335266359419067,1.9295611045528056,1.8291980480933474,1.7376042479636915,1.0,2.718638914538781,-0.39543868820541095,-0.6942028431634105,1.1720292344157954,2.7430616630076377,1.1424253279590686
23,0.35879473966040804,0.33541782913151397,0.1268891348556422,2.368105526654891,1.9887872928435284,1.8074201129972371,1.7666053650576488,1.0,2.736216016800277,-0.46789448372568737,-0.6234886878051268,1.055818634464563,2.722721603962118,0.9967537293379175
24,0.29374397892076115,0.2817097194537764,0.082994428070297,2.388353321489888,2.0375424381584972,1.7884621214052816,1.7926932467375984,1.0,2.757332561404471,-0.5264703982705895,-0.5627889850237316,0.9720682630983645,2.710633839940578,0.8959199813455144
25,0.24687905589617162,0.2407811992189464,0.05442800928411203,2.400397223114694,2.075670413384464,1.7738685041798268,1.8160411644573367,1.0,2.7777639276439503,-0.5731834775151622,-0.5104916583464794,0.9047855242245966,2.702941139471503,0.8185166297424633
26,0.2128692454957255,0.2098337326776975,0.03577026179413579,2.4076925434228595,2.105082111519165,1.7632636421117125,1.8366663376221601,1.0,2.796142544552328,-0.6108118446025221,-0.4648228124853787,0.8478357223146518,2.697243588050641,0.7556429899746817
27,0.1877687247044692,0.1862809804214886,0.023564229266348956,2.41218183040377,2.127821628598759,1.7558031162129046,1.8549659661318787,1.0,2.8123897786745573,-0.6415636411944008,-0.42456459522381795,0.7982230443957742,2.692449266828818,0.7027879966096867
28,0.16883032877160073,0.168109438145834,0.015571269936202161,2.414981805820617,2.1455766391763187,1.7506601233284802,1.8714018219940876,1.0,2.8267961854679022,-0.6670823154245223,-0.3888428997693244,0.7542391904175993,2.6880865903061086,0.6573254632606198
29,0.1541972739937882,0.15385013568037992,0.010333142918777394,2.4167487636960945,2.159628853039768,1.7471634452931781,1.8863733821608293,1.0,2.8397026190366708,-0.6885740512410156,-0.35698680486305573,0.7147886252460389,2.683962257053728,0.6175709442513234
30,0.14262611155527374,0.1424589995786254,0.006897687231009699,2.417875788694894,2.1709196888743674,1.7448102074721843,1.900189897192734,1.0,2.8514047710947437,-0.7069238420839832,-0.3284574372785586,0.6791039007049878,2.680004796462365,0.5823680315395401
31,0.13328024961491702,0.13319927281829982,0.004642501528208407,2.418602039439792,2.180131951421102,1.7432393806351656,1.9130788224077309,1.0,2.862135237019935,-0.7227847928308014,-0.3028104210609513,0.6466122712583403,2.676193837042464,0.5508832165524843
32,0.12558922499493375,0.12554940847121496,0.0031604376127862778,2.419074902578514,2.187759825077685,1.7421982878314857,1.925203703970563,1.0,2.872070044072499,-0.7366434195744456,-0.27967378367811874,0.6168671690158763,2.6725284218881304,0.5224935721031975
33,0.11915690243019546,0.11913684772483223,0.0021849263349350855,2.4193861722526346,2.19416239976472,1.741512980086485,1.9366815159054551,1.0,2.8813407410259333,-0.7488664091987469,-0.25873338088323433,0.5895098205793234,2.669013177676138,0.4967202846420994
34,0.11370258942574718,0.11369213308493344,0.0015412140480071293,2.4195935288001293,2.199602669043112,1.7410650671136196,1.9475965367964692,1.0,2.8900457999032674,-0.759733811222359,-0.23972235756054736,0.5642459457771615,2.6656526536318514,0.4731868988750191
35,0.10902326327076207,0.10901756069927347,0.0011145429232209986,2.4197334985371253,2.20427530269931,1.7407746462163882,1.958010551691168,1.0,2.898259709909706,-0.7694625452790509,-0.22241303979928415,0.5408305613166814,2.6624493536975185,0.451591849867315
36,0.10496909856768362,0.1049658184304781,0.0008294514919587856,2.4198293766950583,2.208326217385504,1.7405881426585814,1.9679700152981672,1.0,2.9060397369405346,-0.7782230790138875,-0.20661045945198483,0.5190574541962161,2.6594033758257707,0.43168972406888956
37,0.10142737329073834,0.10142537526261666,0.0006363633920480579,2.4198961224924775,2.2118663148214583,1.7404698292067358,1.9775109463315748,1.0,2.9134307772065213,-0.7861513143137207,-0.19214707227184735,0.498751530806501,2.6565126885919454,0.4132780900050765
38,0.0983117066037679,0.098310419377974,0.000502886268494623,2.4199434094489627,2.2149811287930157,1.7403959944060325,1.986662216407293,1.0,2.9204687832377463,-0.7933571147416593,-0.17887840036423058,0.47976304820745413,2.6537736033948636,0.3961880089673246
39,0.09555474117174702,0.09555386914059151,0.00040807959251640486,2.419977539624737,2.2177376208600723,1.7403509720735282,1.9954477387104934,1.0,2.9271831653462224,-0.7999304740158464,-0.16667941564770775,0.46196314432616076,2.651181251540173,0.38027704834984644
40,0.09310308792680648,0.09310247185765194,0.000338580376025588,2.4200026521675477,2.22018899323776,1.740324457955031,2.0038879179684765,1.0,2.9335984745259043,-0.8059460210741447,-0.15544152880964046,0.44524030457661967,2.648729993801087,0.36542403934646694
41,0.0909137810471765,0.09091333107618534,0.00028594542592958627,2.4200214904252824,2.222378121867899,1.7403097067165334,2.012000611188825,1.0,2.939735587443114,-0.8114663455175053,-0.1450700778284322,0.4294975272053485,2.646413744128758,0.35152507691408713
42,0.08895175612791838,0.08895141893877506,0.00024484975104765126,2.4200358913103464,2.2243400266404145,1.7403023261518207,2.0198017673237096,1.0,2.945612548212142,-0.8165444805957904,-0.13548223048979774,0.41465002386547173,2.644226212200842,0.3384904215404661
43,0.08718803103830478,0.08718777338388284,0.00021190488444948637,2.420047099022836,2.2261036667088443,1.7402994740270261,2.027305857431656,1.0,2.951245173674835,-0.8212257795457806,-0.1266052305689521,0.4006233383105553,2.642161077731065,0.3262420670635501
44,0.08559837543825184,0.0855981756057269,0.00018491254848222315,2.4200559671959057,2.227693259906987,1.7402993250346146,2.034526168529642,1.0,2.9566474951546384,-0.8255493510106663,-0.11837492943272479,0.3873517965398187,2.6402121109479118,0.3147118081928429
45,0.08416232418723382,0.08416216741087557,0.0001624072221360204,2.4200630898541178,2.229129264138584,1.7403007182048502,2.0414750087543876,1.0,2.96183208637796,-0.8295491707235342,-0.11073455470132974,0.3747772226049844,2.6383732523244454,0.30383968832544683
46,0.08286243560912414,0.08286231150078177,0.00014338054965243663,2.4200688867595437,2.2304291166197587,1.7403029244501764,2.0481638546229712,1.0,2.966810311387781,-0.8332549529028418,-0.10363367581994386,0.3628478691678751,2.636638662387773,0.29357274058464705
47,0.08168372615421704,0.08168362720009559,0.0001271158070220262,2.420073659402696,2.2316077979872584,1.7403054938277198,2.0546034602127423,1.0,2.971592515529879,-0.8366928412677065,-0.09702733324378995,0.3515175228394446,2.6350027501106266,0.2838639576578811
48,0.0806132336660545,0.08061315430864173,0.0001130876249321579,2.4200776280113243,2.232678268400348,1.7403081555429276,2.060803940981952,1.0,2.976188175339747,-0.8398859630688511,-0.09087530366080192,0.3407447525784016,2.6334601863345597,0.2746714421222517
49,0.07963967555987912,0.07963961161411108,0.00010090010113760252,2.420080956220622,2.2336518090217377,1.7403107527447064,2.066774840386776,1.0,2.9806060182655845,-0.842854877877633,-0.08514147843914327,0.33049227576265994,2.6320059069961763,0.26595770057255547
50,0.07875317792074377,0.07875312618897383,9.024767690990349e-05,2.4200837676764997,2.2345382927249267,1.7403132002034711,2.0725251845286903,1.0,2.984854119856183,-0.8456179445930403,-0.07979333644061802,0.3207264214822324,2.630635109617012,0.2576890533708894
51,0.07794505825966518,0.07794501626957137,8.088967404573324e-05,2.420086157330099,2.2353464012202453,1.7403154569928216,2.0780635282047206,1.0,2.98893998379951,-0.8481916241931711,-0.07480149561294365,0.31141667448805366,2.6293432455240393,0.24983513813583139
52,0.07720764937401955,0.07720761519529312,7.263320617822736e-05,2.420088199212636,2.2360838011191575,1.7403175089752008,2.083397994551674,1.0,2.9928706086676624,-0.8505907314702147,-0.07013933047458853,0.3025352863153998,2.6281260095305785,0.24236848981024323
53,0.07653415507981894,0.0765341271929885,6.532145263570644e-05,2.4200899518571326,2.2367572881515674,1.740319357669302,2.088536309728003,1.0,2.9966525441721816,-0.8528286458606401,-0.06578264483085698,0.2940569425638549,2.626979328269436,0.2352641837246539
54,0.0759185309479121,0.07591850814864605,5.882531539343259e-05,2.420091462132036,2.2373729063946017,1.7403210132529832,2.0934858336050732,1.0,3.000291939004115,-0.8549174891785032,-0.0617093908906856,0.2859584772932097,2.6258993479828097,0.2284995308131077
55,0.07535538487550322,0.07535536620364011,5.303737546643837e-05,2.420092767991727,2.237936047676085,1.7403224902316974,2.0982535871418486,1.0,3.0037945818213214,-0.85686827634503,-0.05789942745918791,0.2782186270890284,2.6248824222980676,0.22205381625714551
56,0.07483989355790724,0.0748398782440889,4.7867456352850366e-05,2.420093900479776,2.2384515350845375,1.7403238048135905,2.1028462769287453,1.0,3.00716593658171,-0.8586910439177664,-0.05433431111916816,0.27081781864213467,2.62392510032489,0.21590807448707522
57,0.07436773183039382,0.07436771925546627,4.323923122446098e-05,2.420094885210142,2.2389236936137964,1.7403249733681894,2.107270317266553,1.0,3.010411173158725,-0.8603949602419588,-0.050997115333710256,0.2637379847346846,2.6230241152748164,0.21004489477113453
58,0.073935012521045,0.07393500218484055,3.908762900721712e-05,2.4200957434787895,2.239356410300009,1.740326011565556,2.1115318500690203,1.0,3.013535193983074,-0.8619884202934436,-0.0478722732412474,0.25696240438024903,2.6221763737122403,0.20444825265572128
59,0.07353823495851146,0.07353822645564209,3.535686034059696e-05,2.4200964931099738,2.2397531857061708,1.7403269339365064,2.115636762826662,1.0,3.01654265731136,-0.8634791276975504,-0.04494544060687311,0.25047556356461803,2.621378945484007,0.19910336334522333
60,0.07317424065994849,0.07317423366088996,3.199880642542112e-05,2.4200971491093437,2.2401171782282967,1.7403277536880668,2.119590704834415,1.0,3.0194379976134655,-0.8648741659501771,-0.04220337596579868,0.2442630336081581,2.6206290543341564,0.19399655377433037
61,0.07284017501646103,0.07284016925266164,2.8971781681700512e-05,2.4200977241743282,2.2404512424054475,1.7403284826690273,2.1233991018606986,1.0,3.0222254434865228,-0.86618006050457,-0.03963383546859354,0.23831136464352323,2.619924069184584,0.1891151506639101
62,0.07253345401954951,0.07253344927165672,2.623948516873993e-05,2.4200982290976563,2.2407579621897518,1.7403291314196927,2.127067169416374,1.0,3.024909033437212,-0.867402833097959,-0.0372254803309509,0.23260799209355143,2.6192614960469314,0.18444738229019708
63,0.07225173524889934,0.07225173133738366,2.377020604295672e-05,2.4200986730897127,2.2410396799558843,1.740329709265087,2.13059992476668,1.0,3.027492629821361,-0.8685480494593942,-0.03496779511766722,0.22714115435858262,2.6186389705225728,0.17998229205659177
64,0.07199289248136163,0.07199288925902271,2.1536091058306117e-05,2.4200990640385163,2.241298521889933,1.7403302244269627,2.1340021978161436,1.0,3.029979931186942,-0.8696208613514568,-0.03285101536308485,0.22189982019250004,2.6180542508438847,0.17570966225361936
65,0.07175499339212221,0.07175499073807634,1.9512670882509403e-05,2.4200994087211387,2.241536420286534,1.74033068414012,2.1372786409848423,1.0,3.0323744832313224,-0.870626043744582,-0.03086606325801483,0.21687362447240902,2.617505211409432,0.17161994663790478
66,0.07153627990824783,0.07153627772308765,1.767834224799464e-05,2.4200997129769304,2.2417551331939807,1.7403310947649204,2.140433738183815,1.0,3.0346796885542355,-0.8715680277963636,-0.029004490323945534,0.21205281125596892,2.616989836767132,0.1677042106650689
67,0.07133515084691429,0.07133514904878654,1.601397226921467e-05,2.4200999818504103,2.241956261774942,1.7403314618917791,2.143471812987631,1.0,3.036898815363239,-0.8724509302039084,-0.027258426155525962,0.20742818317942308,2.616506216002129,0.1639540783819106
68,0.07115014652931956,0.07115014505075565,1.450257379197102e-05,2.4201002197098207,2.2421412656916866,1.7403317904358167,2.146397036092969,1.0,3.039035005267405,-0.8732785794107855,-0.025620532447110465,0.20299105638353374,2.616052537489429,0.16036168512621213
69,0.07097993510946597,0.07097993389480185,1.3129064651655812e-05,2.4201004303460367,2.242311476776627,1.7403320847212098,2.149213432143528,1.0,3.041091280277048,-0.8740545390780252,-0.02408396163283177,0.19873322026817164,2.615627083974984,0.15691963530288194
70,0.07082330039657175,0.07082329939984125,1.187993615974595e-05,2.420100617055459,2.2424681112093636,1.7403323485555842,2.1519248859935742,1.0,3.0430705491118206,-0.8747821291683165,-0.02264231956574282,0.19464690147266878,2.615228227952604,0.15362096460684216
71,0.07067913098274967,0.07067913016597098,1.0743230858745518e-05,2.420100782709805,2.242612280388559,1.7403325852951665,2.1545351484750097,1.0,3.044975612906145,-0.8754644449419172,-0.02128963174291866,0.1907247315610713,2.6148544273076815,0.15045910614928426
72,0.07054641051493313,0.07054640984670371,9.708195146741696e-06,2.420100929815095,2.2427450006596583,1.7403327979016,2.1570478417259373,1.0,3.046809170389342,-0.8761043741201482,-0.020020312652429297,0.18695971796142485,2.6145042212021,0.1474278600172201
73,0.0704242089728682,0.07042420842721062,8.765100639202202e-06,2.4201010605616755,2.2428672020366123,1.7403329889913675,2.159466464132329,1.0,3.0485738226077226,-0.8767046124363138,-0.018829137876750966,0.18334521776811558,2.614176226177848,0.14452136585877245
74,0.07031167483417236,0.07031167438959106,7.905427649666088e-06,2.420101176866802,2.2429797360365775,1.7403331608787256,2.1617943949285596,1.0,3.050272077247093,-0.8772676777633807,-0.017711218637112624,0.17987491406765263,2.6138691324597154,0.1417340781401142
75,0.0702080280236854,0.07020802766238739,7.121383263571185e-06,2.420101280410983,2.2430833827303793,1.740333315612993,2.164034898497227,1.0,3.0519063526064385,-0.8777959229818377,-0.016661978505852007,0.1765427944924233,2.6135817004400166,0.1390607437658021
76,0.07011255355796205,0.0701125532652171,6.405870374735635e-06,2.42010137266909,2.2431788570978606,1.7403334550109428,2.1661911284038244,1.0,3.0534789812668306,-0.8782915477291185,-0.015677132050204344,0.17334313174497196,2.6133127573305606,0.1364963817936476
77,0.07002459580743299,0.07002459557104813,5.752736045337712e-06,2.420101454937065,2.243266814765591,1.7403335806849665,2.1682661311974503,1.0,3.0549922134937213,-0.8787566091531709,-0.014752665202028928,0.1702704658681662,2.6130611939690938,0.1340362650092071
78,0.06994355330863421,0.06994355311851283,5.156189360967322e-06,2.420101528354899,2.2433478571945416,1.740333694067586,2.170262850004771,1.0,3.056448220405665,-0.8791930317767022,-0.013884817174594987,0.1673195880649732,2.612825961769179,0.13167590315427305
79,0.0698688740673643,0.06986887391515084,4.611036662186619e-06,2.4201015939264376,2.2434225363768294,1.7403337964328212,2.172184127940939,1.0,3.057849096938018,-0.8796026165648915,-0.013070063770359389,0.16448552589612966,2.612606069803984,0.12941102762909396
80,0.06980005130093052,0.06980005117971078,4.112936442693035e-06,2.420101652536516,2.24349135909341,1.7403338889148303,2.1740327113579916,1.0,3.0591968646262577,-0.8799870492775805,-0.01230510194325538,0.16176352970528604,2.6124005820157503,0.1272375775100235
81,0.06973661957383104,0.06973661947788769,3.65737762473451e-06,2.4201017049657803,2.2435547907783304,1.7403339725242148,2.175811252948474,1.0,3.060493474230153,-0.8803479081768426,-0.011586835495842435,0.15914906013969743,2.6122086145437993,0.12515168674337285
82,0.06967815128667103,0.06967815121127595,3.240788455447713e-06,2.4201017519035513,2.243613259029773,1.740334048162287,2.17752231471954,1.0,3.0617408082170527,-0.8806866711521373,-0.01091236180615121,0.15663777665061768,2.612029333164877,0.1231496723928383
83,0.06962425348270698,0.06962425342395581,2.859703271214424e-06,2.4201017939590117,2.243667156803462,1.7403341166335788,2.179168370850621,1.0,3.0629406831199812,-0.8810047223177659,-0.010278959491538496,0.15422552687155094,2.6118619508404035,0.12122802383233208
84,0.0695745649405361,0.0695745648952069,2.511099896592e-06,2.4201018316709324,2.243716845319947,1.7403341786568325,2.1807518104458454,1.0,3.064094851783993,-0.8813033581308835,-0.009684076927634361,0.15190833678471727,2.6117057253658476,0.1193833927886617
85,0.06952875352490516,0.06952875349034299,2.191838742280075e-06,2.420101865516166,2.243762656713764,1.7403342348746564,2.182274940190722,1.0,3.0652050055123037,-0.8815837930727456,-0.009125321549769028,0.14968240159673285,2.611559957117982,0.11761258414952967
86,0.06948651377072741,0.06948651374474482,1.8997665668319738e-06,2.420101895917049,2.243804896449401,1.7403342858620368,2.1837399869211764,1.0,3.066272776122051,-0.8818471649310321,-0.00860044987231516,0.14754407725380106,2.6114239868962072,0.1159125474619735
87,0.06944756467806369,0.06944756465886509,1.6326124578480551e-06,2.4201019232478878,2.2438438455262886,1.7403343321338347,2.1851491001117735,1.0,3.0672997379180895,-0.8820945397169101,-0.008107358168362994,0.14548987253483675,2.6112971938544933,0.11428036905482365
88,0.06941164769821777,0.06941164768432834,1.3882892964903178e-06,2.4201019478406236,2.2438797624927003,1.7403343741514112,2.1865043542888953,1.0,3.068287409591995,-0.8823269162468583,-0.007644073758201028,0.14351644166805158,2.6111789935207663,0.11271326472617546
89,0.06937852489311726,0.06937852488332999,1.1651526571706367e-06,2.4201019699898136,2.24391288528635,1.7403344123284756,2.187807751373735,1.0,3.069237256052395,-0.882545230416116,-0.007208746860347718,0.14162057742275377,2.6110688359008054,0.11120857294339108
90,0.06934797725204157,0.06934797724537288,9.613270232850273e-07,2.4201019899569847,2.2439434329176544,1.740334447036269,2.1890612229591824,1.0,3.070150690191831,-0.8827503591878575,-0.0067996429634728265,0.13979920463356624,2.6109662036638857,0.10976374850888046
91,0.06931980315135122,0.06931980314699938,7.765778434750861e-07,2.4201020079744717,2.24397160701,1.7403344786081447,2.190266632524037,1.0,3.0710290745945956,-0.8829431243197936,-0.006415135681561467,0.13804937411905122,2.610870610407549,0.108376356649962
92,0.06929381694427957,0.06929381694159605,6.09309920676386e-07,2.4201020242487874,2.2439975932099374,1.7403345073436418,2.1914257775874204,1.0,3.0718737231893263,-0.8831242958477815,-0.006053700058188993,0.1363682569609225,2.6107815989989946,0.10704406749555265
93,0.06926984766918258,0.06926984766764203,4.616955931433977e-07,2.420102038963586,2.2440215624789306,1.7403345335120861,2.192540391805807,1.0,3.072685902849591,-0.8832945953441876,-0.0057139062888626494,0.1347531391137148,2.610698739990665,0.10576465090636972
94,0.06924773786570938,0.06924773786489201,3.3651559921015107e-07,2.4201020522822776,2.244043672277175,1.740334557355799,2.193612147014722,1.0,3.073466834945233,-0.8834546989671067,-0.005394413833102716,0.13320141631801752,2.610621630107668,0.10453597162879644
95,0.06922734248941846,0.0692273424889895,2.421152116249794e-07,2.420102064350333,2.244064067648982,1.7403345790929445,2.1946426552168283,1.0,3.0742176968468486,-0.8836052403151156,-0.005093965890338932,0.13171058929322893,2.6105498908047284,0.1033559847456354
96,0.06920852791623391,0.06920852791592788,2.0647654623614315e-07,2.4201020752973186,2.244082882218318,1.7403345989200634,2.1956334705178886,1.0,3.0749396233854482,-0.8837468131009641,-0.004811384215822981,0.1302782591882967,2.6104831668904036,0.1022227313996931
97,0.0691911710289513,0.06919117102856105,2.3276357876976346e-07,2.4201020852386876,2.244100239102294,1.7403346170143288,2.196586091011877,1.0,3.0756337082690868,-0.8838799736564786,-0.004545564254652047,0.12890212327111908,2.6104211252163263,0.10113433476854894
98,0.06917515837873768,0.06917515837810298,2.965293637235831e-07,2.4201020942773654,2.2441162517496633,1.740334633535554,2.1975019606163566,1.0,3.076301005458007,-0.8840052432799529,-0.004295470573683273,0.12757997083923203,2.6103634534292697,0.10008899627100182
99,0.06916038541519734,0.06916038541419557,3.722308873175641e-07,2.4201021025051617,2.2441310247107555,1.7403346486279843,2.198382470859123,1.0,3.076942530499676,-0.8841231104364062,-0.004060132572632139,0.12630967933612655,2.6103098587838547,0.09908499198758663
100,0.0691467557791859,0.06914675577772829,4.4802714521804554e-07,2.420102110003999,2.2441446543446553,1.740334662421894,2.1992289626170005,1.0,3.0775592618249332,-0.8842340328202821,-0.003838640457004043,0.12508921065906056,2.61026006701374,0.09812066927924219
101,0.06913418065306587,0.06913418065108685,5.230286352272166e-07,2.4201021168470205,2.2441572294689536,1.7403346750350137,2.2000427278076327,1.0,3.0781521420063447,-0.8843384392894461,-0.0036301414567349003,0.12391660764557638,2.610213821259165,0.09719444358971778
102,0.06912257816355061,0.06912257816100618,5.926842034265886e-07,2.4201021230995554,2.2441688319568946,1.7403346865738012,2.200825011035035,1.0,3.0787220789797676,-0.8844367316786895,-0.003433836275524609,0.12278999072712321,2.6101708810487336,0.09630479541864426
103,0.06911187283277606,0.06911187282963861,6.583548198454058e-07,2.420102128819992,2.2441795372863074,1.7403346971345808,2.201577011189663,1.0,3.079269947230046,-0.8845292865003546,-0.003248975756855408,0.12170755473924133,2.6101310213333644,0.0954502674533923
104,0.06910199507354622,0.06910199506980137,7.192801467268127e-07,2.420102134060532,2.2441894150443575,1.7403347068045614,2.202299883003709,1.0,3.0797965889416945,-0.8846164565391696,-0.003074857753608435,0.12066756587870059,2.6100940315703474,0.09462946184890839
105,0.06909288072511362,0.06909288072075712,7.75433291867853e-07,2.4201021388678736,2.2441985293917672,1.740334715662744,2.202994738562354,1.0,3.080302815115384,-0.8846985723478927,-0.0029108241890305284,0.11966835879882116,2.6100597148554985,0.09384103764567504
106,0.0690844706261375,0.06908447062117395,8.277859933573929e-07,2.4201021432838137,2.2442069394898545,1.74033472378074,2.2036626487716733,1.0,3.0807894066509998,-0.8847759436499181,-0.0027562582975800575,0.11870833383494316,2.6100278871014178,0.09308370831679569
107,0.06907671022176579,0.06907671021620504,8.765125971945055e-07,2.4201021473457818,2.244214699893454,1.7403347312234978,2.204304644783915,1.0,3.0812571153980133,-0.8848488606545984,-0.0026105820348905576,0.11778595435267566,2.6099983762599095,0.09235623943597286
108,0.06906954920204651,0.06906954919590372,9.20983382485091e-07,2.420102151087315,2.2442218609125004,1.7403347380499596,2.2049217193808746,1.0,3.081706665173896,-0.8849175952906548,-0.0024732536467507154,0.11689974421214497,2.609971021586656,0.09165744645883533
109,0.0690629411691115,0.06906294116240491,9.620197052699086e-07,2.4201021545384767,2.2442284689448493,1.740334744313647,2.2055148283160895,1.0,3.0821387527512747,-0.8849824023627093,-0.0023437653876101413,0.11604828534199065,2.6099456729462798,0.09098619261068923
110,0.06905684333078506,0.06905684332353625,1.0002664593958324e-06,2.420102157726239,2.2442345667826635,1.740334750063184,2.2060848916166096,1.0,3.0825540488145213,-0.885043520635653,-0.002221641379687655,0.11523021541733172,2.6099221901559777,0.09034138687432432
111,0.06905121621848949,0.06905121621072181,1.0356039019760388e-06,2.420102160674808,2.2442401938945107,1.7403347553427782,2.206632794845085,1.0,3.0829531988864654,-0.8851011738512659,-0.0021064356042870733,0.1144442256363493,2.6099004423659506,0.08972198207200756
112,0.06904602342746217,0.06904602341919881,1.0679050008755785e-06,2.4201021634059274,2.244245386685146,1.7403347601926342,2.207159390322953,1.0,3.083336824225901,-0.8851555716812406,-0.0019977300174214407,0.11368905859051778,2.609880307474909,0.08912697303625103
113,0.06904123137750405,0.06904123136877016,1.0978424821135274e-06,2.420102165939134,2.2442501787347595,1.7403347646493434,2.2076654983155035,1.0,3.0837055226965666,-0.885206910620493,-0.0018951327823053697,0.11296350622385751,2.609861671578978,0.08855539486434712
114,0.06903680909259947,0.06903680908341986,1.1258022050574483e-06,2.4201021682919994,2.244254601019361,1.7403347687462238,2.2081519081796097,1.0,3.08405986960826,-0.885255374824421,-0.001798276611711649,0.11226640787689758,2.6098444284523845,0.08800632125203753
115,0.06903272799789424,0.06903272798829257,1.1511568972962518e-06,2.4201021704803423,2.2442586821138004,1.7403347725136296,2.2086193794749396,1.0,3.0844004185307567,-0.8853011368935405,-0.0017068172135923088,0.11159664841131721,2.609828479058354,0.08747886290201552
116,0.06902896173264103,0.06902896172264203,1.1746425732980663e-06,2.4201021725184044,2.2442624483788185,1.740334775979228,2.209068643039448,1.0,3.0847277020811963,-0.885344358608725,-0.0016204318337475299,0.11095315641149114,2.6098137310887073,0.08697216600326707
117,0.06902548597784462,0.06902548596747136,1.1963693089288618e-06,2.4201021744190223,2.2442659241334075,1.7403347791682515,2.2095004020299833,1.0,3.085042232685589,-0.8853851916200818,-0.001538817889686007,0.11033490245939934,2.6098000985306853,0.08648541077753392
118,0.06902227829743059,0.06902227828670592,1.2164313573813326e-06,2.4201021761937778,2.244269131813638,1.7403347821037225,2.2099153329288237,1.0,3.0853445033151035,-0.8854237780923141,-0.0014616916901560716,0.10974089747957173,2.6097875012596092,0.0860178100894328
119,0.06901931799185683,0.06901931798080196,1.2349098536432968e-06,2.4201021778531233,2.2442720921190493,1.740334784806658,2.2103140865169753,1.0,3.0856349881977856,-0.8854602513092494,-0.0013887872351507284,0.1091701911509343,2.609775864656009,0.08556860811699572
120,0.06901658596319306,0.06901658595183045,1.2520522795678005e-06,2.4201021794065065,2.2442748241475674,1.740334787296252,2.210697288815067,1.0,3.085914143506355,-0.8854947362400538,-0.0013198550914865638,0.10862187038260214,2.6097651192459277,0.08513707907960774
121,0.06901406459075268,0.06901406457910103,1.2679128280987784e-06,2.42010218086247,2.2442773455198792,1.7403347895900443,2.2110655419926677,1.0,3.086182408022723,-0.8855273500695013,-0.0012546613393435398,0.1080950578508268,2.6097552003631534,0.08472252602050886
122,0.06901173761643346,0.0690117376045114,1.2821927526176231e-06,2.4201021822287463,2.244279672494084,1.7403347917040672,2.2114194252468558,1.0,3.0864402037798677,-0.8855582026945266,-0.0011929865854190618,0.10758891059445837,2.6097460478321834,0.08432427964120581
123,0.06900959003901866,0.06900959002684527,1.2959727588391556e-06,2.420102183512341,2.2442818200713957,1.740334793652984,2.2117594956508717,1.0,3.0866879366816953,-0.8855873971891535,-0.0011346250386047479,0.1071026186664208,2.6097376056707797,0.08394169718529994
124,0.06900760801672377,0.06900760800431507,1.308420385033891e-06,2.4201021847196102,2.244283802093599,1.7403347954502122,2.21208628897367,1.0,3.0869259971015137,-0.8856150302397713,-0.0010793836443326954,0.10663540383882829,2.6097298218110234,0.08357416136938707
125,0.06900577877732667,0.06900577876469977,1.3197415963105044e-06,2.4201021858563236,2.2442856313329127,1.7403347971080299,2.212400320471185,1.0,3.0871547604597342,-0.8856411925526074,-0.001027081273964271,0.10618651835948997,2.609722647837826,0.08322107935882288
126,0.0690040905353185,0.06900409052248736,1.3302990270058686e-06,2.4201021869277253,2.244287319574847,1.740334798637683,2.212702085650118,1.0,3.087374587781403,-0.8856659692351357,-0.0009775479658083815,0.1057552437576623,2.6097160387439047,0.08288188178627377
127,0.06900253241547506,0.0690025324024539,1.340276409493121e-06,2.4201021879385864,2.2442888776946237,1.740334800049473,2.212992061005048,1.0,3.0875858262341693,-0.8856894401530581,-0.0009306242145578914,0.10534088969701126,2.609709952700272,0.08255602181109148
128,0.06900109438239603,0.06900109436919805,1.349357536157683e-06,2.4201021888932535,2.2442903157276426,1.7403348013528401,2.2132707047296463,1.0,3.0877888096472725,-0.885711680264392,-0.0008861603061229158,0.10494279287384374,2.6097043508413478,0.08224297421765688
129,0.06899976717550765,0.06899976716214588,1.3573968217393883e-06,2.4201021897956894,2.244291642934476,1.740334802556439,2.2135384574027737,1.0,3.0879838590121307,-0.8857327599321094,-0.0008440156950207408,0.10456031595875821,2.6096991970638266,0.08194223455094081
130,0.06899854224912287,0.06899854223560915,1.3652261401471195e-06,2.4201021906495166,2.2442928678608105,1.7403348036682067,2.2137957426502277,1.0,3.088171282965097,-0.8857527452166811,-0.0008040584216513313,0.10419284657994976,2.609694457838497,0.08165331828762218
131,0.0689974117171457,0.06899741170348986,1.3725255655849407e-06,2.4201021914580374,2.244293998392743,1.740334804695426,2.2140429677828863,1.0,3.088351378252946,-0.8857716981497992,-0.0007661645669485558,0.1038397963464842,2.6096901020342367,0.08137576004119164
132,0.06899636830207373,0.0689963682882864,1.3791425183019047e-06,2.4201021922242867,2.244295041807774,1.7403348056447792,2.2142805244119925,1.0,3.088524430181629,-0.8857896769904737,-0.0007302177420472048,0.10350059990993214,2.609686100753453,0.08110911279955052
133,0.06899540528795454,0.06899540527404498,1.3850867794302916e-06,2.4201021929510373,2.2442960048218557,1.7403348065224018,2.214508789042289,1.0,3.088690713048842,-0.8858067364646239,-0.0006961086107517463,0.10317471406282208,2.6096824271782793,0.0808529471936885
134,0.06899451647698865,0.06899451646296538,1.390686344542627e-06,2.4201021936408353,2.2442968936327876,1.7403348073339275,2.2147281236437335,1.0,3.088850490560923,-0.8858229279892164,-0.0006637344427240015,0.10286161687244327,2.6096790564268644,0.08060685079609875
135,0.06899369614949209,0.06899369613536374,1.3961044165936305e-06,2.420102194296023,2.2442977139602527,1.740334808084534,2.214938876202465,1.0,3.0890040162345938,-0.8858382998819391,-0.0006329986954369702,0.10256080684858725,2.609675965419146,0.08037042744765059
136,0.06899293902696839,0.06899293901274199,1.4007091522217942e-06,2.420102194918754,2.244298471082748,1.7403348087789754,2.215141381251716,1.0,3.0891515337840465,-0.8858528975573374,-0.0006038106230609932,0.10227180214388037,2.609673132751513,0.08014329661170613
137,0.0689922402380317,0.06899224022371604,1.405298799616492e-06,2.42010219551101,2.244299169871657,1.7403348094216249,2.2153359603833223,1.0,3.089293277493857,-0.8858667637102785,-0.0005760849105601306,0.10199413978541509,2.609670538579803,0.07992509275432305
138,0.06899159528697354,0.06899159527257336,1.4092433950350127e-06,2.4201021960746227,2.2442998148226914,1.7403348100165028,2.2155229227404822,1.0,3.089429472578204,-0.8858799384875629,-0.0005497413313850473,0.10172737493644289,2.6096681645101265,0.07971546474944306
139,0.0689910000247565,0.06899100001027793,1.4131769799625465e-06,2.4201021966112832,2.2443004100848865,1.740334810567305,2.2157025654923928,1.0,3.0895603355268606,-0.8858924596484431,-0.0005247044272482876,0.10147108018694095,2.6096659934970035,0.07951407530801463
140,0.06899045062225354,0.06899045060770279,1.4166294996620565e-06,2.420102197122555,2.2443009594873686,1.7403348110774342,2.2158751742913743,1.0,3.0896860744383967,-0.8859043627147672,-0.0005009032085609028,0.1012248448719162,2.6096640097483674,0.07932060043004979
141,0.06898994354556467,0.06898994353094753,1.4199172555890794e-06,2.420102197609888,2.2443014665640377,1.7403348115500188,2.216041023713085,1.0,3.0898068893410446,-0.8859156811114176,-0.0004782708742003615,0.1009882744163551,2.6096621986369897,0.07913472887865967
142,0.06898947553322739,0.06898947551854764,1.4230413897412217e-06,2.420102198074626,2.2443019345763577,1.740334811987941,2.216200377680404,1.0,3.0899229725016433,-0.8859264462976714,-0.00045674454936160886,0.10076098970577228,2.609660546617913,0.07895616167515646
143,0.06898904357519874,0.06898904356046243,1.4256915211517815e-06,2.4201021985180167,2.244302366534369,1.740334812393852,2.216353489871548,1.0,3.09003450872308,-0.8859366878900748,-0.0004362650403218801,0.10054262648135415,2.6096590411515113,0.07878461161435193
144,0.0689886448934626,0.06898864487867319,1.4281812703020875e-06,2.420102198941223,2.2443027652160894,1.7403348127701959,2.2165006041129702,1.0,3.090141675630629,-0.8859464337773789,-0.00041677660502530047,0.10033283475873306,2.609657670631805,0.07861980279922029
145,0.06898827692412465,0.06898827690928554,1.430511474609497e-06,2.4201021993453247,2.2443031331854133,1.740334813119221,2.2166419547575757,1.0,3.090244643947582,-0.8859557102280543,-0.0003982267384597404,0.10013127826946701,2.6096564243196982,0.0784614701941305
146,0.06898793730090144,0.06898793728601679,1.4326829125550917e-06,2.4201021997313306,2.244303472808623,1.7403348134430012,2.2167777670487685,1.0,3.090343577760543,-0.8859645419908676,-0.0003805659718671121,0.09993763392433651,2.6096552922808063,0.07830935919588822
147,0.06898762383988133,0.06898762382495403,1.4348510643496221e-06,2.4201022001001813,2.2443037862696307,1.7403348137434465,2.2169082574708336,1.0,3.090438634774754,-0.8859729523889714,-0.0003637476848871443,0.09975159129760552,2.6096542653275785,0.07816322522186056
148,0.06898733452545644,0.06898733451049012,1.4365523165459711e-06,2.420102200452758,2.2443040755840435,1.740334814022318,2.2170336340861407,1.0,3.0905299665598163,-0.8859809634079325,-0.00034772792979273785,0.09957285213142746,2.6096533349654307,0.07802283331448819
149,0.06898706749734974,0.06898706748234706,1.4384059332093282e-06,2.4201022007898847,2.244304342612139,1.7403348142812394,2.217154096859638,1.0,3.0906177187861408,-0.8859885957780901,-0.0003324652670294838,0.09940112985960924,2.6096524933426215,0.07788795776151931
150,0.06898682103863629,0.06898682102359932,1.4401029859007136e-06,2.420102201112333,2.244304589070843,1.7403348145217077,2.2172698379710964,1.0,3.0907020314524676,-0.8859958690516193,-0.000317920611322406,0.09923614914997822,2.6096517332036226,0.07775838173132907
151,0.0689865935646898,0.06898659354962178,1.4414899974987003e-06,2.420102201420828,2.2443048165447794,1.7403348147451039,2.217381042115543,1.0,3.0907830391047755,-0.8860028016746423,-0.0003040570876596895,0.09907764546462539,2.6096510478457517,0.07763389692271373
152,0.0689863836129884,0.06898638359789164,1.4428756757868832e-06,2.420102201716049,2.2443050264964715,1.740334814952701,2.2174878867923127,1.0,3.0908608710468934,-0.8860094110547125,-0.0002908398965100748,0.09892536463732762,2.609650431078844,0.07751430322857616
153,0.06898618983369914,0.06898618981857511,1.4441062736018623e-06,2.420102201998637,2.2443052202757525,1.7403348151456755,2.217590542583134,1.0,3.0909356515431172,-0.8860157136239746,-0.0002782361876681902,0.09877906246747983,2.609649877187764,0.07739940841294328
154,0.06898601098099083,0.06898601096584148,1.4453358236531253e-06,2.420102202269194,2.244305399128453,1.7403348153251117,2.2176891734196458,1.0,3.0910075000131245,-0.886021724898283,-0.00026621494216634144,0.0986385043298915,2.6096493808975616,0.07728902780077868
155,0.06898584590502008,0.0689858458898481,1.4464108225549232e-06,2.420102202528287,2.244305564204416,1.7403348154920113,2.2177839368407337,1.0,3.0910765312194672,-0.886027459532544,-0.0002547468617242052,0.09850346479983048,2.609648937341093,0.0771829839800775
156,0.06898569354453354,0.06898569352934016,1.447485023091072e-06,2.4201022027764525,2.244305716564895,1.7403348156472997,2.21787498424006,1.0,3.091142855447919,-0.8860329313725277,-0.00024380426524333454,0.098373727292719,2.6096485420289395,0.07708110651575101
157,0.06898555292003991,0.06898555290482723,1.4484051323203955e-06,2.420102203014195,2.2443058571893815,1.7403348157918297,2.2179624611041486,1.0,3.091206578680935,-0.8860381535033828,-0.00023336099188658464,0.09824908371791051,2.6096481908214653,0.0769832316748286
158,0.06898542312750905,0.06898542311227723,1.4493246574150195e-06,2.4201022032419925,2.2443059869819066,1.740334815926391,2.2180465072413753,1.0,3.0912678027644884,-0.8860431382950673,-0.0002233923103106459,0.09812933414599899,2.6096478799028717,0.07688920216252526
159,0.06898530333255398,0.06898530331730546,1.4500904829149162e-06,2.4201022034602975,2.2443061067768553,1.7403348160517114,2.2181272570021977,1.0,3.0913266255685183,-0.8860478974449002,-0.00021387483365052247,0.0980142864891324,2.6096476057571065,0.07679886686874018
160,0.06898519276507123,0.06898519274980693,1.4510089399791844e-06,2.4201022036695377,2.244306217344332,1.7403348161684646,2.2182048394909515,1.0,3.0913831411412342,-0.8860524420174203,-0.00020478643987947612,0.09790375619382387,2.6096473651454986,0.07671208062457063
161,0.06898509071428087,0.06898509069900163,1.4514679505690323e-06,2.420102203870118,2.2443063193951174,1.7403348162772734,2.2182793787695303,1.0,3.0914374398575055,-0.8860567824817288,-0.00019610619719268594,0.09779756594577343,2.6096471550860065,0.07662870396844197
162,0.06898499652415731,0.06898499650886447,1.4522326458175763e-06,2.4201022040624243,2.2443064135852357,1.740334816378712,2.2183509940532473,1.0,3.091489608561553,-0.8860609287464816,-0.0001878142940876425,0.09769554538623139,2.6096469728339584,0.0765486029214708
163,0.0689849095892138,0.06898490957390857,1.452844112221858e-06,2.4201022042468185,2.244306500520174,1.7403348164733126,2.2184197998991744,1.0,3.0915397307041594,-0.8860648901926814,-0.00017989197383320413,0.09759753083945369,2.6096468158641883,0.0764716487716941
164,0.06898482935060496,0.06898482933528753,1.4533025431916335e-06,2.42010220442365,2.2443065807587788,1.7403348165615677,2.218485906387242,1.0,3.0915878864746054,-0.8860686757044183,-0.00017232147304219262,0.09750336505081728,2.609646681854465,0.07639771786681225
165,0.06898475529253154,0.06898475527720321,1.454066273625972e-06,2.420102204593246,2.2443066548168478,1.7403348166439319,2.2185494192943658,1.0,3.091634152927524,-0.8860722936976876,-0.00016508596407996761,0.09741289693517811,2.6096465686701253,0.07632669141510702
166,0.06898468693893084,0.06898468692359323,1.4542189715810926e-06,2.420102204755918,2.2443067231704434,1.7403348167208248,2.2186104402618727,1.0,3.091678604104872,-0.886075752147414,-0.00015816950105825,0.09732598133507417,2.6096464743498298,0.07625845529421096
167,0.06898462385041006,0.06898462383506278,1.454982220975783e-06,2.4201022049119665,2.2443067862589605,1.7403348167926371,2.2186690669564686,1.0,3.0917213111531963,-0.8860790586127957,-0.00015155696918244855,0.09724247878838815,2.609646397092354,0.07619289986741637
168,0.06898456562142162,0.06898456560606553,1.4551348228138423e-06,2.420102205061674,2.2443068444879453,1.74033481685973,2.2187253932249997,1.0,3.0917623424363807,-0.8860822202610815,-0.00014523403723313208,0.09716225530510093,2.6096463352443515,0.07612991980722472
169,0.06898451187765618,0.06898451186229193,1.4555925323369252e-06,2.42010220520531,2.244306898231707,1.7403348169224346,2.218779509243238,1.0,3.0918017636440336,-0.8860852438898791,-0.00013918711297962761,0.09708518215278168,2.609646287289014,0.0760694139258505
170,0.06898446227363951,0.06898446225826763,1.4558975920766966e-06,2.4201022053431327,2.2443069478357205,1.7403348169810613,2.218831501658919,1.0,3.0918396378956934,-0.8860881359480904,-0.00013340330133425923,0.09701113565047303,2.6096462518355645,0.07601128501240331
171,0.0689844164905048,0.06898441647512585,1.456202587909534e-06,2.4201022054753856,2.244306993618852,1.740334817035897,2.2188814537292525,1.0,3.0918760258410023,-0.8860909025555656,-0.00012787036507159685,0.09693999697064383,2.6096462276095282,0.07595543967648447
172,0.0689843742339481,0.06898437421856331,1.456507519875584e-06,2.4201022056023036,2.244307035875405,1.7403348170872046,2.21892944545311,1.0,3.091910985756005,-0.8860935495215554,-0.0001225766879458005,0.09687165194889465,2.6096462134437224,0.07590178819794417
173,0.06898433523233652,0.06898433521694525,1.4568123880149512e-06,2.4201022057241097,2.244307074877014,1.7403348171352304,2.2189755536981,1.0,3.0919445736357214,-0.8860960823620398,-0.00011751124005174735,0.09680599090111297,2.609646208269913,0.07585024438255547
174,0.06898429923495615,0.06898429921955927,1.4571171923676988e-06,2.4201022058410167,2.2443071108743915,1.7403348171802022,2.2190198523227176,1.0,3.0919768432831307,-0.8860985063160077,-0.0001126635452858891,0.09674290844778763,2.6096462111110945,0.07580072542337159
175,0.06898426601040673,0.06898426599500468,1.457574279384442e-06,2.4201022059532287,2.244307144098938,1.7403348172223303,2.219062412293763,1.0,3.092007846394711,-0.886100826360752,-0.0001080236507714813,0.09668230334520247,2.6096462210743425,0.07575315176754178
176,0.0689842353451119,0.06898423532970516,1.457726609873376e-06,2.4201022060609394,2.2443071747642303,1.7403348172618107,2.2191033017992083,1.0,3.0920376326426577,-0.8861030472262454,-0.00010358209812258287,0.09662407832324078,2.6096462373442035,0.07570744698837019
177,0.06898420704194404,0.06898420702653348,1.45787892444564e-06,2.4201022061643354,2.244307203067395,1.7403348172988233,2.219142586356683,1.0,3.092066249753916,-0.8861051734086545,-9.932989642902945e-05,0.09656813992954222,2.609646259176577,0.07566353766241081
178,0.06898418091896213,0.06898418090354624,1.45787892444564e-06,2.4201022062635937,2.2443072291903756,1.7403348173335382,2.2191803289177505,1.0,3.092093743586144,-0.8861072091830473,-9.525849685288509e-05,0.0965143983797636,2.609646285893061,0.07562135325139951
179,0.0689841568082364,0.06898415679281689,1.4581835058601082e-06,2.4201022063588837,2.244307253301099,1.7403348173661097,2.2192165899681373,1.0,3.0921201582007245,-0.8861091586153474,-9.13597687337205e-05,0.09646276741370555,2.6096463168757182,0.07558082598883258
180,0.06898413455477168,0.06898413453934892,1.4584880236677217e-06,2.4201022064503688,2.244307275554561,1.7403348173966837,2.2192514276240654,1.0,3.0921455359329446,-0.8861110255735791,-8.762597710615958e-05,0.0964131641570757,2.6096463515622452,0.07554189077100838
181,0.06898411401551396,0.06898411400008783,1.4587924779083135e-06,2.420102206538203,2.2443072960938166,1.7403348174253928,2.2192848977248416,1.0,3.0921699174594424,-0.8861128137384516,-8.404976154184449e-05,0.09636550898866736,2.6096463894415005,0.07550448505235588
182,0.068984095058424,0.06898409504299437,1.4587924779083135e-06,2.420102206622536,2.244307315050905,1.7403348174523625,2.219317053921849,1.0,3.092193341863035,-0.8861145266133218,-8.062411623057759e-05,0.09631972541274314,2.6096464300493754,0.07546854874488139
183,0.06898407756163624,0.06898407754620375,1.4587924779083135e-06,2.4201022067035107,2.2443073325476908,1.7403348174777091,2.219347947764074,1.0,3.0922158466950243,-0.8861161675335772,-7.734237122358865e-05,0.09627573993641876,2.609646472964981,0.07543402412157085
184,0.06898406141266922,0.06898406139723394,1.4589446812034127e-06,2.4201022067812628,2.244307348696656,1.7403348175015398,2.2193776287803058,1.0,3.0922374680350755,-0.8861177396754734,-7.419817476591749e-05,0.0962334819518523,2.6096465178071244,0.07540085572359188
185,0.06898404650770425,0.06898404649226707,1.4590968686216752e-06,2.420102206855921,2.2443073636016186,1.7403348175239541,2.219406144558138,1.0,3.0922582405487677,-0.8861192460644597,-7.11854766494283e-05,0.09619288362305076,2.6096465642310545,0.07536899027114596
186,0.06898403275092312,0.06898403273548333,1.4590968686216752e-06,2.420102206927614,2.2443073773583984,1.7403348175450448,2.2194335408198933,1.0,3.092278197542902,-0.8861206895830279,-6.829851252288263e-05,0.0961538797771134,2.60964661192546,0.075338376577827
187,0.06898402005388506,0.06898402003844321,1.4592490401680682e-06,2.420102206996458,2.2443073900554347,1.7403348175648992,2.2194598614955874,1.0,3.0922973710186556,-0.88612207297811,-6.553178909979533e-05,0.09611640779973746,2.609646660609699,0.07530896546834748
188,0.06898400833496132,0.06898400831951736,1.4594011958475566e-06,2.4201022070625706,2.244307401774357,1.7403348175835962,2.219485148793056,1.0,3.092315791722665,-0.8861233988680566,-6.288007020837071e-05,0.09608040753482106,2.60964671003124,0.07528070969950076
189,0.06898399751881053,0.06898399750336423,1.4594011958475566e-06,2.42010220712606,2.2443074125905067,1.740334817601211,2.2195094432653413,1.0,3.092333489196115,-0.8861246697492179,-6.0338363631762055e-05,0.09604582118800106,2.6096467599633044,0.07525356388423071
190,0.06898398753589507,0.06898398752044699,1.459553335665103e-06,2.4201022071870306,2.2443074225734208,1.740334817617813,2.2195327838754575,1.0,3.09235049182192,-0.8861258880021561,-5.790190868904462e-05,0.09601259323397385,2.6096468102026917,0.07522748441868772
191,0.06898397832203247,0.06898397830658275,1.459553335665103e-06,2.4201022072455864,2.244307431787282,1.7403348176334672,2.219555208058626,1.0,3.092366826870056,-0.8861270558975071,-5.55661645131642e-05,0.0959806703274491,2.609646860567774,0.07520242941215226
192,0.06898396981798517,0.06898396980253443,1.4597054596256666e-06,2.4201022073018224,2.2443074402913274,1.7403348176482334,2.2195767517820832,1.0,3.092382520541135,-0.8861281756015177,-5.332679898211932e-05,0.09595000121759532,2.60964691089665,0.07517835861971373
193,0.06898396196907777,0.0689839619536249,1.4597054596256666e-06,2.420102207355831,2.2443074481402343,1.7403348176621678,2.219597449602558,1.0,3.0923975980082683,-0.8861292491812739,-5.117967826420304e-05,0.09592053666584094,2.60964696104544,0.0751552333775965
194,0.06898395472484349,0.06898395470938959,1.4597054596256666e-06,2.4201022074077034,2.244307455384467,1.7403348176753217,2.2196173347215007,1.0,3.092412083457304,-0.8861302786096412,-4.9120856939609995e-05,0.09589222936689804,2.6096470108867202,0.07513301654102807
195,0.06898394803870765,0.06898394802325197,1.459857567734205e-06,2.420102207457523,2.2443074620706023,1.740334817687745,2.2196364390381587,1.0,3.092426000125489,-0.8861312657699342,-4.714656866446967e-05,0.09586503387288386,2.6096470603080797,0.07511167242454993
196,0.0689839418676782,0.06898394185222158,1.459857567734205e-06,2.4201022075053724,2.2443074682416304,1.7403348176994824,2.2196547932005806,1.0,3.0924393703386217,-0.8861322124603306,-4.5253217344084044e-05,0.09583890652041835,2.6096471092107896,0.07509116674467495
197,0.06898393617207857,0.06898393615662121,1.4600096599956724e-06,2.4201022075513303,2.2443074739372286,1.7403348177105757,2.2196724266546246,1.0,3.0924522155467558,-0.8861331203980469,-4.343736878543807e-05,0.09581380536058078,2.609647157508583,0.07507146656479868
198,0.06898393091528583,0.06898393089982684,1.460161736415021e-06,2.4201022075954723,2.244307479194021,1.7403348177210654,2.2196893676910547,1.0,3.092464556358506,-0.8861339912232868,-4.1695742799982e-05,0.0957896900916141,2.6096472051265285,0.07505254024227621
199,0.06898392606349696,0.06898392604803705,1.4600096599956724e-06,2.4201022076378704,2.244307484045809,1.7403348177309872,2.2197056434907956,1.0,3.092476412574016,-0.8861348265029797,-4.002520573044874e-05,0.0957665219942689,2.6096472519999994,0.07503435737757917
200,0.0689839215855154,0.068983921570055,1.4603137969972001e-06,2.420102207678592,2.244307488523789,1.7403348177403757,2.2197212801684203,1.0,3.0924878032166356,-0.8861356277343178,-3.8422763376354214e-05,0.09574426386968385,2.6096472980737224,0.07501688876545129
201,0.06898391745254555,0.06898391743708376,1.460161736415021e-06,2.420102207717709,2.2443074926567586,1.7403348177492632,2.2197363028139363,1.0,3.0924987465633618,-0.8861363963481064,-3.688555429542892e-05,0.09572287997970326,2.609647343300905,0.07500010634798372
202,0.06898391363801083,0.06898391362254853,1.460161736415021e-06,2.4201022077552796,2.244307496471292,1.7403348177576794,2.219750735532936,1.0,3.092509260174088,-0.8861371337119377,-3.54108434582863e-05,0.09570233598953524,2.609647387642434,0.07498398316953421
203,0.06898391011738088,0.06898391010191786,1.4603137969972001e-06,2.4201022077913668,2.2443074999919213,1.7403348177656528,2.2197646014851826,1.0,3.092519360919708,-0.8861378411331969,-3.3996016236168833e-05,0.09568259891266105,2.609647431066142,0.07496849333341893
204,0.06898390686801549,0.06898390685255161,1.4603137969972001e-06,2.420102207826033,2.244307503241286,1.7403348177732085,2.2197779229216827,1.0,3.092529065009126,-0.8861385198619124,-3.263857270261973e-05,0.09566363705790472,2.6096474735461324,0.07495361196030562
205,0.06898390386901726,0.06898390385355316,1.4603137969972001e-06,2.420102207859329,2.244307506240283,1.7403348177803715,2.2197907212203063,1.0,3.0925383880152038,-0.8861391710934571,-3.133612223085814e-05,0.0956454199785798,2.6096475150621594,0.07493931514824193
206,0.06898390110110043,0.06898390108563571,1.4603137969972001e-06,2.420102207891313,2.244307509008199,1.7403348177871645,2.219803016920021,1.0,3.092547344899697,-0.8861397959711108,-3.0086378370100103e-05,0.09562791842363229,2.609647555599063,0.07492557993425537
207,0.06898389854646324,0.06898389853099705,1.4603137969972001e-06,2.4201022079220356,2.2443075115628366,1.7403348177936095,2.2198148297537794,1.0,3.0925559500372133,-0.8861403955884916,-2.888715398478435e-05,0.09561110429069947,2.60964759514625,0.07491238425746129
208,0.06898389618867459,0.0689838961732081,1.4606178706698341e-06,2.420102207951548,2.2443075139206243,1.7403348177997249,2.219826178680121,1.0,3.0925642172382344,-0.886140970991862,-2.7736356641824827e-05,0.09559495058101185,2.6096476336972185,0.07489970692362141
209,0.06898389401256937,0.06898389399710278,1.4604658417471562e-06,2.420102207979895,2.2443075160967285,1.7403348178055316,2.21983708191354,1.0,3.0925721597712355,-0.886141523182318,-2.6631984232258844e-05,0.09557943135606418,2.6096476712491232,0.07488752757109461
210,0.06898389200415314,0.06898389198868558,1.4604658417471562e-06,2.420102208007126,2.2443075181051446,1.7403348178110456,2.2198475569536615,1.0,3.0925797903839403,-0.8861420531178698,-2.5572120813724393e-05,0.09556452169598756,2.6096477078023796,0.0748758266381263
211,0.06898389015050697,0.06898389013503888,1.4606178706698341e-06,2.420102208033285,2.2443075199587903,1.7403348178162836,2.2198576206132765,1.0,3.092587121323743,-0.8861425617154147,-2.4554932661797916e-05,0.09555019765955451,2.609647743360299,0.0748645853314224
212,0.06898388843970593,0.0689838884242375,1.4603137969972001e-06,2.4201022080584123,2.2443075216695907,1.7403348178212616,2.2198672890452773,1.0,3.0925941643573305,-0.8861430498526144,-2.357866451824282e-05,0.09553643624575424,2.609647777928759,0.07485378559595879
213,0.06898388686074611,0.06898388684527738,1.4606178706698341e-06,2.4201022080825503,2.24430752324855,1.7403348178259934,2.219876577768542,1.0,3.092600930789536,-0.8861435183696772,-2.2641636025927227e-05,0.09552321535687597,2.6096478115159014,0.07484341008597699
214,0.068983885403471,0.06898388538800174,1.4606178706698341e-06,2.420102208105737,2.2443075247058246,1.7403348178304925,2.2198855016928007,1.0,3.092607431481456,-0.8861439680710529,-2.174223833952504e-05,0.095510513763041,2.6096478441318554,0.07483344213711929
215,0.06898388405850417,0.06898388404303497,1.4606178706698341e-06,2.4201022081280112,2.2443075260507905,1.7403348178347715,2.2198940751425313,1.0,3.092613676867854,-0.8861443997270444,-2.0878930902891304e-05,0.09549831106812712,2.609647875788489,0.07482386573965899
216,0.06898388281719506,0.06898388280172489,1.4606178706698341e-06,2.4201022081494084,2.2443075272921,1.7403348178388436,2.219902311879917,1.0,3.0926196769738867,-0.8861448140753405,-2.0050238384044695e-05,0.09548658767703036,2.6096479064991795,0.07481466551278242
217,0.06898388167155448,0.06898388165608454,1.4606178706698341e-06,2.420102208169962,2.2443075284377394,1.740334817842719,2.2199102251269034,1.0,3.092625441431172,-0.8861452118224744,-1.9254747758842532e-05,0.09547532476421197,2.6096479362786074,0.07480582667988145
218,0.06898388061421525,0.0689838805987447,1.4606178706698341e-06,2.420102208189706,2.2443075294950785,1.7403348178464084,2.2199178275863964,1.0,3.0926309794932276,-0.886145593645211,-1.849110553603514e-05,0.09546450424348002,2.609647965142567,0.07479733504481698
219,0.06898387963837105,0.06898387962290016,1.4606178706698341e-06,2.420102208208675,2.2443075304709224,1.7403348178499214,2.2199251314626234,1.0,3.0926363000503057,-0.8861459601918676,-1.775801511537594e-05,0.09545410873895703,2.6096479931077985,0.07478917696911469
220,0.06898387873774416,0.06898387872227325,1.4606178706698341e-06,2.420102208226896,2.2443075313715486,1.740334817853268,2.219932148480698,1.0,3.0926414116436463,-0.8861463120835726,-1.7054234273025946e-05,0.09544412155718732,2.6096480201918304,0.07478133935005696
221,0.06898387790653918,0.06898387789106818,1.4606178706698341e-06,2.4201022082444,2.244307532202753,1.740334817856456,2.219938889905423,1.0,3.0926463224791707,-0.8861466499154623,-1.637857276586425e-05,0.09543452666033986,2.6096480464128424,0.07477380959963606
222,0.06898387713940789,0.06898387712393632,1.4606178706698341e-06,2.4201022082612154,2.2443075329698843,1.7403348178594946,2.2199453665593487,1.0,3.0926510404406393,-0.8861469742578219,-1.5729890049659976e-05,0.09542530864046231,2.609648071789538,0.0747665756243333
223,0.06898387643141125,0.06898387641593942,1.4607698837701748e-06,2.420102208277369,2.2443075336778806,1.7403348178623919,2.219951588840128,1.0,3.092655573102293,-0.8861472856571735,-1.5107093105066057e-05,0.09541645269474613,2.6096480963410325,0.07475962580569337
224,0.06898387577799373,0.06898387576252199,1.4606178706698341e-06,2.420102208292887,2.2443075343312975,1.7403348178651532,2.219957566737192,1.0,3.092659927741,-0.886147584637312,-1.450913436559343e-05,0.09540794460176312,2.6096481200867494,0.0747529489816618
225,0.06898387517495035,0.06898387515947851,1.4606178706698341e-06,2.420102208307794,2.2443075349343404,1.7403348178677878,2.219963309847766,1.0,3.0926641113479243,-0.8861478717002922,-1.3935009742029276e-05,0.09539977069863426,2.6096481430463294,0.07474653442865528
226,0.06898387461839932,0.06898387460292721,1.4607698837701748e-06,2.420102208322116,2.2443075354908912,1.7403348178703004,2.219968827392266,1.0,3.0926681306397397,-0.8861481473273711,-1.3383756739086049e-05,0.09539191785909544,2.6096481652395482,0.07474037184433692
227,0.06898387410475895,0.06898387408928604,1.4606178706698341e-06,2.4201022083358734,2.244307536004532,1.7403348178726987,2.219974128229083,1.0,3.0926719920694015,-0.8861484119799061,-1.2854452659259648e-05,0.09538437347242396,2.6096481866862424,0.0747344513310677
228,0.06898387363071859,0.06898387361524655,1.4606178706698341e-06,2.42010220834909,2.244307536478571,1.7403348178749871,2.2199792208687947,1.0,3.092675701836497,-0.886148666100212,-1.2346212889077223e-05,0.09537712542319295,2.609648207406246,0.07472876338000871
229,0.0689838731932316,0.06898387317775918,1.4606178706698341e-06,2.4201022083617865,2.244307536916058,1.7403348178771718,2.2199841134878144,1.0,3.0926792658971896,-0.886148910112378,-1.1858189264424976e-05,0.09537016207181996,2.6096482274193296,0.0747232988558472
230,0.06898387278947929,0.06898387277400618,1.4606178706698341e-06,2.4201022083739843,2.2443075373198105,1.7403348178792581,2.219988813941508,1.0,3.0926826899737727,-0.8861491444230482,-1.1389568510140259e-05,0.09536347223587999,2.6096482467451505,0.07471804898212352
231,0.06898387241686098,0.06898387240138784,1.460921881053118e-06,2.420102208385701,2.2443075376924284,1.7403348178812503,2.219993329776794,1.0,3.092685979563851,-0.8861493694221665,-1.0939570750752793e-05,0.09535704517215168,2.6096482654032074,0.07471300532713372
232,0.06898387207297867,0.06898387205750475,1.4606178706698341e-06,2.4201022083969583,2.244307538036311,1.740334817883153,2.2199976682442535,1.0,3.0926891399491576,-0.8861495854836872,-1.0507448088665044e-05,0.0953508705593689,2.6096482834127994,0.0747081597903867
233,0.06898387175561663,0.0689838717401427,1.460921881053118e-06,2.420102208407772,2.244307538353673,1.7403348178849711,2.220001836309759,1.0,3.09269217620403,-0.8861497929662538,-1.0092483246351564e-05,0.09534493848164928,2.6096483007929923,0.07470350458959288
234,0.06898387146273063,0.06898387144725708,1.4607698837701748e-06,2.420102208418161,2.244307538646558,1.7403348178867084,2.2200058406656535,1.0,3.0926950932035493,-0.8861499922138483,-9.693988269877746e-06,0.09533923941257362,2.609648317562587,0.07469903224816439
235,0.0689838711924349,0.0689838711769614,1.4607698837701748e-06,2.4201022084281414,2.2443075389168534,1.740334817888369,2.220009687741485,1.0,3.092697895631364,-0.8861501835564092,-9.31130328980687e-06,0.09533376419989034,2.609648333740094,0.07469473558320609
236,0.06898387094298906,0.06898387092751529,1.4607698837701748e-06,2.4201022084377297,2.244307539166299,1.7403348178899565,2.2200133837143254,1.0,3.0927005879872023,-0.8861503673104247,-8.943795337924516e-06,0.0953285040508205,2.609648349343713,0.07469060769397842
237,0.06898387071278567,0.06898387069731113,1.4606178706698341e-06,2.4201022084469397,2.244307539396503,1.7403348178914735,2.22001693451868,1.0,3.092703174594095,-0.8861505437794972,-8.590857216356347e-06,0.09532345051794008,2.609648364391309,0.07468664195081368
238,0.06898387050034051,0.06898387048486655,1.4607698837701748e-06,2.420102208455789,2.2443075396089474,1.7403348178929252,2.2200203458560117,1.0,3.09270565960531,-0.8861507132548838,-8.251906416345382e-06,0.09531859548561643,2.6096483789004012,0.07468283198446747
239,0.06898387030428457,0.06898387028881109,1.460921881053118e-06,2.42010220846429,2.2443075398050025,1.7403348178943128,2.2200236232038884,1.0,3.0927080470110186,-0.8861508760160143,-7.926384085247492e-06,0.09531393115697728,2.609648392888148,0.07467917167588861
240,0.06898387012335722,0.06898387010788311,1.4607698837701748e-06,2.420102208472457,2.2443075399859302,1.7403348178956408,2.220026771824774,1.0,3.092710340644698,-0.8861510323309831,-7.613754038450737e-06,0.09530945004139173,2.6096484063713365,0.0746756551463909
241,0.06898386995638918,0.06898386994091509,1.4606178706698341e-06,2.4201022084803028,2.244307540152898,1.7403348178969107,2.2200297967744738,1.0,3.092712544189283,-0.8861511824570237,-7.313501814739145e-06,0.09530514494244252,2.6096484193663736,0.07467227674821103
242,0.06898386980230617,0.06898386978683142,1.460921881053118e-06,2.4201022084878394,2.2443075403069814,1.7403348178981262,2.220032702910247,1.0,3.092714661183077,-0.8861513266409586,-7.025133772877991e-06,0.09530100894637099,2.6096484318892808,0.07466903105543736
243,0.06898386966011243,0.06898386964463826,1.4606178706698341e-06,2.4201022084950807,2.2443075404491744,1.7403348178992886,2.2200354948986036,1.0,3.0927166950254295,-0.8861514651196326,-6.748176227247209e-06,0.09529703541097541,2.609648443955689,0.07466591285529506
244,0.06898386952889524,0.06898386951342034,1.460921881053118e-06,2.4201022085020365,2.244307540580392,1.7403348179004021,2.2200381772227917,1.0,3.0927186489821925,-0.8861515981203255,-6.482174621180799e-06,0.09529321795494562,2.6096484555808375,0.07466291713977363
245,0.06898386940780507,0.06898386939232987,1.4607698837701748e-06,2.4201022085087205,2.2443075407014823,1.7403348179014677,2.220040754189995,1.0,3.0927205261909623,-0.8861517258611485,-6.226692736220137e-06,0.09528955044761632,2.60964846677957,0.07466003909758338
246,0.06898386929606158,0.06898386928058661,1.4607698837701748e-06,2.4201022085151407,2.2443075408132254,1.7403348179024876,2.2200432299382427,1.0,3.0927223296661146,-0.8861518485514218,-5.9813119347341795e-06,0.09528602699912263,2.609648477566337,0.07465727410642761
247,0.068983869192946,0.06898386917747067,1.4606178706698341e-06,2.4201022085213086,2.244307540916341,1.7403348179034646,2.2200456084430558,1.0,3.092724062303644,-0.8861519663920371,-5.745630435769277e-06,0.09528264195094292,2.609648487955195,0.074654617725579
248,0.06898386909778957,0.06898386908231549,1.4607698837701748e-06,2.4201022085272337,2.244307541011496,1.7403348179043994,2.2200478935238244,1.0,3.0927257268858104,-0.8861520795758046,-5.519262621425246e-06,0.095279389866812,2.60964849795981,0.07465206568874684
249,0.06898386900998232,0.06898386899450733,1.4607698837701748e-06,2.420102208532926,2.244307541099304,1.740334817905295,2.2200500888499395,1.0,3.0927273260856056,-0.8861521882877844,-5.301838373094243e-06,0.09527626552399203,2.6096485075934606,0.07464961389722495
250,0.06898386892895676,0.0689838689134813,1.4607698837701748e-06,2.420102208538396,2.24430754118033,1.7403348179061533,2.2200521979466834,1.0,3.0927288624710454,-0.886152292705605,-5.093002435930524e-06,0.09527326390488587,2.6096485168690418,0.07464725841330873
251,0.06898386885418693,0.06898386883871205,1.4606178706698341e-06,2.4201022085436494,2.244307541255099,1.7403348179069755,2.220054224200886,1.0,3.0927303385092886,-0.8861523929997671,-4.892413810338559e-06,0.09527038018897967,2.609648525799069,0.0746449954539705
252,0.06898386878519357,0.06898386876971863,1.4607698837701748e-06,2.4201022085486965,2.2443075413240923,1.740334817907763,2.220056170866366,1.0,3.0927317565706005,-0.8861524893339353,-4.699745169080179e-06,0.09526760974510257,2.6096485343956846,0.07464282138478402
253,0.0689838687215295,0.0689838687060543,1.460921881053118e-06,2.4201022085535464,2.2443075413877565,1.7403348179085176,2.2200580410691493,1.0,3.0927331189321556,-0.8861525818652166,-4.514682299036076e-06,0.0952649481239894,2.609648542670662,0.07464073271408661
254,0.06898386866278385,0.0689838686473087,1.4606178706698341e-06,2.4201022085582045,2.244307541446502,1.7403348179092402,2.220059837812489,1.0,3.092734427781694,-0.8861526707444284,-4.33692356692008e-06,0.09526239105113614,2.6096485506354132,0.07463872608737143
255,0.06898386860857768,0.06898386859310258,1.460921881053118e-06,2.4201022085626804,2.244307541500708,1.7403348179099332,2.2200615639816883,1.0,3.0927356852210335,-0.8861527561163541,-4.1661794066698956e-06,0.09525993441993595,2.6096485583009943,0.0746367982818999
256,0.0689838685585604,0.06898386854308512,1.460921881053118e-06,2.4201022085669806,2.244307541550725,1.740334817910597,2.220063222348729,1.0,3.0927368932694423,-0.886152838119989,-4.002171829025237e-06,0.09525757428508445,2.609648565678113,0.0746349462015254
257,0.06898386851240831,0.06898386849693347,1.460921881053118e-06,2.4201022085711106,2.2443075415968767,1.7403348179112337,2.2200648155767237,1.0,3.0927380538668836,-0.8861529168887747,-3.844633951188625e-06,0.09525530685624434,2.6096485727771372,0.07463316687172075
258,0.06898386846982509,0.06898386845434963,1.460921881053118e-06,2.4201022085750794,2.2443075416394604,1.7403348179118436,2.2200663462241916,1.0,3.0927391688771264,-0.8861529925508251,-3.693309546614597e-06,0.09525312849195856,2.6096485796080997,0.07463145743480078
259,0.06898386843053371,0.06898386841505827,1.460921881053118e-06,2.4201022085788906,2.2443075416787517,1.740334817912428,2.220067816749164,1.0,3.0927402400907407,-0.8861530652291414,-3.5479526132382074e-06,0.09525103569380271,2.6096485861807066,0.0746298151453325
260,0.06898386839428,0.06898386837880494,1.460921881053118e-06,2.4201022085825548,2.244307541715005,1.740334817912989,2.2200692295131326,1.0,3.0927412692279694,-0.8861531350418196,-3.4083269593497387e-06,0.09524902510076708,2.6096485925043464,0.07462823736572591
261,0.06898386836083069,0.06898386834535514,1.460921881053118e-06,2.420102208586073,2.2443075417484546,1.7403348179135267,2.2200705867848374,1.0,3.092742257941493,-0.886153202102249,-3.274205807367263e-06,0.09524709348385907,2.609648598588096,0.07462672156199744
262,0.0689838683299684,0.06898386831449306,1.460921881053118e-06,2.4201022085894537,2.2443075417793166,1.740334817914042,2.2200718907439136,1.0,3.09274320781908,-0.8861532665193016,-3.145371413528154e-06,0.09524523774091828,2.6096486044407294,0.07462526529970058
263,0.06898386830149462,0.06898386828601885,1.460921881053118e-06,2.4201022085927013,2.2443075418077907,1.7403348179145364,2.220073143484388,1.0,3.092744120386139,-0.8861533283975146,-3.021614703499557e-06,0.09524345489163437,2.609648610070726,0.0746238662400156
264,0.06898386827522243,0.06898386825974732,1.460921881053118e-06,2.420102208595821,2.244307541834062,1.7403348179150104,2.220074347018042,1.0,3.0927449971081646,-0.8861533878372656,-2.902734922931687e-06,0.09524174207276133,2.6096486154862766,0.07462252213599346
265,0.06898386825098432,0.06898386823550928,1.460921881053118e-06,2.420102208598818,2.2443075418583,1.7403348179154652,2.2200755032776414,1.0,3.092745839393093,-0.8861534449349392,-2.7885393024468663e-06,0.09524009653351931,2.609648620695294,0.07462123082894692
266,0.06898386822862228,0.06898386821314709,1.4607698837701748e-06,2.4201022086016977,2.244307541880662,1.7403348179159015,2.220076614120039,1.0,3.092746648593561,-0.8861534997830883,-2.6788427365457146e-06,0.09523851563117704,2.6096486257054172,0.0746199902449834
267,0.06898386820799275,0.06898386819251683,1.460921881053118e-06,2.420102208604465,2.2443075419012923,1.7403348179163198,2.220077681329157,1.0,3.092747426009079,-0.8861535524705882,-2.573467475416276e-06,0.09523699682680792,2.609648630524023,0.07461879839167437
268,0.0689838681889598,0.06898386817348443,1.460921881053118e-06,2.420102208607122,2.2443075419203247,1.7403348179167206,2.22007870661885,1.0,3.0927481728881148,-0.8861536030827833,-2.4722428296003156e-06,0.09523553768121285,2.609648635158231,0.07461765335485519
269,0.06898386817140187,0.06898386815592594,1.460921881053118e-06,2.420102208609676,2.244307541937883,1.7403348179171056,2.2200796916356587,1.0,3.0927488904301024,-0.8861536517016299,-2.3750048866970152e-06,0.09523413585100303,2.609648639614911,0.07461655329555097
270,0.06898386815520342,0.0689838681397277,1.460921881053118e-06,2.4201022086121284,2.244307541954081,1.7403348179174756,2.220080637961451,1.0,3.0927495797873643,-0.8861536984058316,-2.281596239638883e-06,0.09523278908483657,2.6096486439006923,0.07461549644702287
271,0.06898386814026058,0.06898386812478537,1.460921881053118e-06,2.4201022086144857,2.2443075419690235,1.7403348179178293,2.2200815471159654,1.0,3.092750242066963,-0.8861537432709699,-2.19186572603658e-06,0.09523149521980327,2.609648648021971,0.07461448111193086
272,0.06898386812647649,0.06898386811100077,1.460921881053118e-06,2.4201022086167496,2.244307541982808,1.7403348179181692,2.2200824205592466,1.0,3.0927508783324784,-0.886153786369628,-2.1056681784668337e-06,0.09523025217795074,2.6096486519849145,0.07461350565960727
273,0.06898386811376167,0.06898386809828509,1.460921881053118e-06,2.4201022086189248,2.2443075419955236,1.7403348179184954,2.220083259693994,1.0,3.092751489605716,-0.8861538277715127,-2.022864184105821e-06,0.09522905796294777,2.6096486557954712,0.07461256852343824
274,0.06898386810203148,0.06898386808655575,1.460921881053118e-06,2.420102208621015,2.244307542007253,1.7403348179188087,2.2200840658678116,1.0,3.092752076868347,-0.8861538675435677,-1.9433198551264313e-06,0.09522791065687805,2.609648659459376,0.07461166819834734
275,0.06898386809121147,0.06898386807573634,1.460921881053118e-06,2.420102208623022,2.2443075420180723,1.7403348179191085,2.220084840375373,1.0,3.092752641063485,-0.8861539057500852,-1.86690660774324e-06,0.09522680841716029,2.609648662982158,0.0746108032383785
276,0.06898386808123233,0.06898386806575671,1.4606178706698341e-06,2.4201022086249506,2.244307542028052,1.740334817919397,2.220085584460499,1.0,3.0927531830971997,-0.8861539424528107,-1.7935009503474856e-06,0.09522574947358922,2.6096486663691474,0.07460997225437374
277,0.06898386807202747,0.06898386805655157,1.460921881053118e-06,2.420102208626804,2.244307542037257,1.7403348179196736,2.220086299318158,1.0,3.0927537038399726,-0.8861539777110452,-1.7229842807473052e-06,0.0952247321254925,2.60964866962548,0.07460917391174186
278,0.06898386806353812,0.06898386804806186,1.460921881053118e-06,2.4201022086285833,2.2443075420457466,1.740334817919939,2.22008698609638,1.0,3.0927542041280947,-0.8861540115817429,-1.6552426906105813e-06,0.09522375473899962,2.609648672756106,0.07460840692831522
279,0.06898386805570639,0.06898386804023074,1.460921881053118e-06,2.420102208630294,2.2443075420535776,1.7403348179201938,2.2200876458981034,1.0,3.0927546847650085,-0.8861540441196044,-1.5901667788529037e-06,0.09522281574441814,2.6096486757657944,0.07460767007229048
280,0.0689838680484846,0.06898386803300892,1.4607698837701748e-06,2.4201022086319366,2.2443075420607994,1.7403348179204383,2.2200882797829453,1.0,3.092755146522599,-0.8861540753771665,-1.5276514718201581e-06,0.09522191363371255,2.6096486786591404,0.07460696216025012
281,0.0689838680418242,0.06898386802634797,1.460921881053118e-06,2.420102208633516,2.2443075420674603,1.740334817920673,2.220088888768903,1.0,3.0927555901424326,-0.8861541054048883,-1.4675958512037216e-06,0.09522104695808276,2.60964868144057,0.074606282055262
282,0.06898386803568148,0.06898386802020573,1.460921881053118e-06,2.420102208635032,2.2443075420736025,1.7403348179208986,2.220089473833988,1.0,3.0927560163369496,-0.8861541342512337,-1.4099029883194249e-06,0.09522021432563703,2.609648684114347,0.07460562866505313
283,0.06898386803001615,0.06898386801454044,1.460921881053118e-06,2.42010220863649,2.2443075420792677,1.7403348179211142,2.2200900359177975,1.0,3.0927564257906046,-0.8861541619627519,-1.3544797859894816e-06,0.09521941439915704,2.609648686684577,0.0746050009402558
284,0.06898386802479294,0.06898386800931658,1.460921881053118e-06,2.420102208637889,2.2443075420844916,1.740334817921322,2.220090575923023,1.0,3.09275681916097,-0.8861541885841515,-1.3012368257243796e-06,0.09521864589394997,2.6096486891552146,0.07460439787272174
285,0.06898386801997564,0.06898386800449995,1.460921881053118e-06,2.420102208639234,2.244307542089308,1.740334817921522,2.220091094716899,1.0,3.0927571970797874,-0.8861542141583755,-1.2500882217870965e-06,0.0952179075757857,2.609648691530067,0.07460381849390352
286,0.06898386801553365,0.06898386800005768,1.460921881053118e-06,2.4201022086405257,2.2443075420937504,1.7403348179217126,2.2200915931325964,1.0,3.0927575601539865,-0.8861542387266709,-1.200951480835621e-06,0.09521719825891439,2.6096486938128,0.07460326187329859
287,0.06898386801143838,0.06898386799596226,1.4607698837701748e-06,2.4201022086417665,2.2443075420978458,1.7403348179218965,2.2200920719705604,1.0,3.092757908966657,-0.8861542623286548,-1.1537473670865844e-06,0.0952165168041623,2.6096486960069427,0.07460272711695498
288,0.06898386800766167,0.06898386799218569,1.460921881053118e-06,2.4201022086429584,2.2443075421016223,1.740334817922073,2.220092531999796,1.0,3.092758244077985,-0.8861542850023814,-1.1083997733622323e-06,0.0952158621171024,2.609648698115893,0.07460221336603572
289,0.06898386800418112,0.06898386798870487,1.460921881053118e-06,2.420102208644103,2.244307542105103,1.7403348179222418,2.2200929739591015,1.0,3.0927585660261534,-0.8861543067844018,-1.0648355965718242e-06,0.09521523314629646,2.609648700142921,0.07460171979543923
290,0.06898386800096953,0.06898386798549408,1.460921881053118e-06,2.420102208645204,2.244307542108314,1.7403348179224047,2.220093398558258,1.0,3.0927588753282063,-0.8861543277098248,-1.022984618973423e-06,0.09521462888160691,2.609648702091174,0.07460124561247443
291,0.068983867998011,0.06898386798253507,1.460921881053118e-06,2.420102208646261,2.244307542111273,1.7403348179225606,2.220093806479164,1.0,3.0927591724808785,-0.8861543478123742,-9.827793934125633e-07,0.09521404835257403,2.609648703963682,0.07460079005558738
292,0.06898386799528262,0.06898386797980656,1.460921881053118e-06,2.420102208647277,2.2443075421140013,1.7403348179227103,2.220094198376937,1.0,3.0927594579613933,-0.8861543671244427,-9.441551338494414e-07,0.09521349062685794,2.60964870576336,0.07460035239313845
293,0.06898386799276944,0.068983867977293,1.460921881053118e-06,2.4201022086482533,2.244307542116515,1.7403348179228546,2.22009457488096,1.0,3.0927597322282296,-0.8861543856771454,-9.070496097676608e-07,0.09521295480874091,2.609648707493014,0.07459993192222705
294,0.06898386799045135,0.06898386797497481,1.4606178706698341e-06,2.42010220864919,2.244307542118833,1.7403348179229925,2.220094936595896,1.0,3.092759995721858,-0.8861544035003707,-8.714030451356076e-07,0.0952124400376891,2.609648709155343,0.07459952796756299
295,0.06898386798831557,0.06898386797283917,1.460921881053118e-06,2.420102208650091,2.2443075421209686,1.7403348179231255,2.2200952841026558,1.0,3.0927602488654466,-0.8861544206228276,-8.37158020910029e-07,0.09521194548697039,2.609648710752944,0.07459913988038167
296,0.06898386798634581,0.06898386797086961,1.460921881053118e-06,2.420102208650957,2.244307542122938,1.7403348179232527,2.220095617959333,1.0,3.0927604920655427,-0.8861544370720938,-8.042593821074939e-07,0.09521147036232658,2.6096487122883163,0.07459876703740222
297,0.06898386798453095,0.06898386796905459,1.460921881053118e-06,2.4201022086517883,2.244307542124753,1.7403348179233749,2.2200959387021,1.0,3.0927607257127248,-0.8861544528746597,-7.726541478918743e-07,0.09521101390069812,2.609648713763864,0.0745984088398266
298,0.06898386798285931,0.06898386796738301,1.4607698837701748e-06,2.4201022086525854,2.2443075421264247,1.7403348179234923,2.220096246846069,1.0,3.0927609501822295,-0.8861544680559712,-7.422914259094222e-07,0.09521057536899843,2.6096487151819,0.07459806471237783
299,0.0689838679813184,0.068983867965842,1.460921881053118e-06,2.4201022086533537,2.2443075421279657,1.7403348179236053,2.220096542886119,1.0,3.092761165834554,-0.8861544826404716,-7.131223295331065e-07,0.0952101540629366,2.6096487165446485,0.07459773410237605
300,0.06898386797989908,0.06898386796442267,1.460921881053118e-06,2.420102208654091,2.244307542129385,1.7403348179237135,2.2200968272976893,1.0,3.092761373016036,-0.8861544966516413,-6.850998984623208e-07,0.0952097493058862,2.6096487178542502,0.0745974164788508
301,0.0689838679785903,0.06898386796311436,1.4607698837701748e-06,2.420102208654799,2.2443075421306933,1.7403348179238174,2.2200971005375454,1.0,3.0927615720594095,-0.8861545101120347,-6.581790227923505e-07,0.09520936044779882,2.609648719112763,0.07459711133168848
302,0.06898386797738525,0.06898386796190908,1.460921881053118e-06,2.42010220865548,2.2443075421318985,1.7403348179239173,2.2200973630445104,1.0,3.0927617632843374,-0.8861545230433184,-6.32316369863461e-07,0.09520898686415996,2.609648720322167,0.07459681817081286
303,0.06898386797627498,0.06898386796079883,1.460921881053118e-06,2.4201022086561337,2.2443075421330088,1.7403348179240132,2.2200976152401717,1.0,3.0927619469979284,-0.8861545354663053,-6.074703138285982e-07,0.09520862795498615,2.6096487214843664,0.0745965365253982
304,0.0689838679752528,0.06898386795977653,1.460921881053118e-06,2.4201022086567616,2.244307542134031,1.7403348179241054,2.220097857529556,1.0,3.0927621234952265,-0.8861545474009882,-5.8360086856121e-07,0.09520828314386127,2.6096487226011917,0.07459626594311293
305,0.06898386797431018,0.06898386795883416,1.460921881053118e-06,2.4201022086573643,2.2443075421349734,1.7403348179241938,2.2200980903017813,1.0,3.0927622930596876,-0.8861545588665729,-5.606696226067931e-07,0.095207951877011,2.6096487236744044,0.07459600598939332
306,0.06898386797344347,0.06898386795796727,1.4607698837701748e-06,2.4201022086579447,2.2443075421358403,1.7403348179242786,2.2200983139306816,1.0,3.092762455963633,-0.8861545698815088,-5.386396772190947e-07,0.09520763362241325,2.6096487247056976,0.07459575624674548
307,0.0689838679726447,0.06898386795716833,1.4610738625235997e-06,2.4201022086585016,2.244307542136639,1.7403348179243603,2.2200985287754054,1.0,3.0927626124686878,-0.8861545804635187,-5.174755865124852e-07,0.09520732786894373,2.6096487256967,0.0745955163140747
308,0.06898386797190882,0.06898386795643291,1.460921881053118e-06,2.420102208659035,2.2443075421373746,1.7403348179244384,2.2200987351809953,1.0,3.0927627628262,-0.8861545906296276,-4.971433001956802e-07,0.09520703412555531,2.6096487266489774,0.07459528580604155
309,0.0689838679712316,0.06898386795575566,1.460921881053118e-06,2.420102208659549,2.244307542138052,1.740334817924514,2.2200989334789414,1.0,3.092762907277645,-0.8861546003961904,-4.776101085207695e-07,0.09520675192048937,2.609648727564035,0.07459506435244301
310,0.06898386797060867,0.06898386795513214,1.460921881053118e-06,2.4201022086600434,2.2443075421386753,1.740334817924586,2.220099123987711,1.0,3.0927630460550133,-0.8861546097789184,-4.588445892874114e-07,0.09520648080051773,2.6096487284433216,0.07459485159761749
311,0.06898386797003535,0.06898386795455881,1.460921881053118e-06,2.420102208660518,2.2443075421392487,1.7403348179246556,2.220099307013263,1.0,3.0927631793811825,-0.8861546187929038,-4.40816557298736e-07,0.09520622033021525,2.609648729288228,0.07459464719987409
312,0.068983867969508,0.06898386795403122,1.460921881053118e-06,2.4201022086609734,2.2443075421397762,1.7403348179247224,2.220099482849539,1.0,3.092763307470276,-0.8861546274526454,-4.2349701525853333e-07,0.0952059700912603,2.6096487301000932,0.07459445083094364
313,0.06898386796902033,0.06898386795354448,1.460921881053118e-06,2.4201022086614112,2.244307542140263,1.7403348179247864,2.2200996517789333,1.0,3.0927634305280063,-0.8861546357720712,-4.068581071163371e-07,0.09520572968176316,2.6096487308802034,0.07459426217545159
314,0.06898386796857464,0.0689838679530986,1.460921881053118e-06,2.420102208661832,2.244307542140709,1.7403348179248486,2.220099814072749,1.0,3.0927635487520053,-0.8861546437645609,-3.9087307303300065e-07,0.0952054987156202,2.609648731629796,0.07459408093041127
315,0.06898386796816214,0.06898386795268603,1.460921881053118e-06,2.420102208662236,2.2443075421411214,1.740334817924907,2.220099969991632,1.0,3.092763662332143,-0.8861546514429682,-3.7551620629086314e-07,0.09520527682189414,2.6096487323500597,0.0745939068047376
316,0.06898386796778402,0.06898386795230765,1.4606178706698341e-06,2.4201022086626236,2.2443075421414997,1.7403348179249638,2.22010011978599,1.0,3.09276377145083,-0.8861546588196404,-3.607628115155611e-07,0.09520506364421806,2.6096487330421376,0.07459373951877926
317,0.06898386796743541,0.06898386795195949,1.460921881053118e-06,2.4201022086629966,2.244307542141848,1.7403348179250184,2.220100263696395,1.0,3.0927638762833123,-0.8861546659064393,-3.465891649263144e-07,0.09520485884022338,2.6096487337071292,0.07459357880386994
318,0.06898386796711649,0.06898386795164017,1.460921881053118e-06,2.4201022086633555,2.244307542142167,1.7403348179250704,2.220100401953969,1.0,3.092763976997953,-0.8861546727147602,-3.329724761838267e-07,0.09520466208098968,2.6096487343460906,0.07459342440189647
319,0.06898386796682185,0.06898386795134573,1.460921881053118e-06,2.4201022086636996,2.2443075421424616,1.7403348179251215,2.220100534780756,1.0,3.0927640737565008,-0.8861546792555499,-3.19890851614651e-07,0.09520447305051656,2.6096487349600372,0.0745932760648845
320,0.06898386796655144,0.06898386795107526,1.460921881053118e-06,2.42010220866403,2.244307542142732,1.7403348179251694,2.220100662390078,1.0,3.092764166714352,-0.886154685539325,-3.0732325855274087e-07,0.09520429144521633,2.6096487355499454,0.07459313355460029
321,0.06898386796630236,0.06898386795082613,1.460921881053118e-06,2.4201022086643484,2.2443075421429812,1.7403348179252156,2.220100784986877,1.0,3.0927642560207977,-0.8861546915761876,-2.952494917704838e-07,0.09520411697342619,2.6096487361167533,0.07459299664216791
322,0.06898386796607474,0.0689838679505983,1.460921881053118e-06,2.4201022086646535,2.244307542143209,1.74033481792526,2.2201009027680456,1.0,3.092764341819266,-0.8861546973758431,-2.8365014081339643e-07,0.09520394935493996,2.609648736661363,0.07459286510770181
323,0.06898386796586478,0.06898386795038867,1.4607698837701748e-06,2.4201022086649466,2.2443075421434187,1.740334817925303,2.2201010159227432,1.0,3.0927644242475507,-0.8861547029476149,-2.72506558623588e-07,0.095203788320558,2.6096487371846413,0.07459273873995366
324,0.06898386796567088,0.06898386795019504,1.4607698837701748e-06,2.420102208665228,2.2443075421436123,1.7403348179253444,2.2201011246326976,1.0,3.0927645034380333,-0.8861547083004598,-2.6180083154731407e-07,0.0952036336116549,2.6096487376874213,0.07459261733597299
325,0.06898386796549422,0.06898386795001873,1.460921881053118e-06,2.4201022086654986,2.2443075421437886,1.7403348179253835,2.2201012290724993,1.0,3.092764579517895,-0.8861547134429827,-2.5151575035676795e-07,0.09520348497976405,2.609648738170504,0.07459250070078124
326,0.06898386796533179,0.06898386794985575,1.460921881053118e-06,2.420102208665759,2.2443075421439516,1.7403348179254217,2.2201013294098804,1.0,3.092764652609321,-0.8861547183834494,-2.4163478258351725e-07,0.09520334218617878,2.6096487386346587,0.07459238864705882
327,0.06898386796518269,0.06898386794970653,1.460921881053118e-06,2.420102208666009,2.2443075421441008,1.7403348179254583,2.2201014258059844,1.0,3.092764722829698,-0.8861547231298011,-2.3214204590811966e-07,0.09520320500156877,2.6096487390806256,0.074592280994844
328,0.06898386796504592,0.06898386794956975,1.4610738625235997e-06,2.420102208666249,2.2443075421442376,1.740334817925493,2.2201015184156256,1.0,3.092764790291801,-0.8861547276896669,-2.2302228265929946e-07,0.09520307320561194,2.6096487395091157,0.07459217757124408
329,0.06898386796492034,0.0689838679494445,1.4607698837701748e-06,2.420102208666479,2.244307542144363,1.7403348179255271,2.220101607387537,1.0,3.092764855103976,-0.8861547320703754,-2.1426083485455878e-07,0.09520294658664043,2.6096487399208126,0.0745920782101576
330,0.06898386796480482,0.06898386794932859,1.460921881053118e-06,2.4201022086667012,2.2443075421444787,1.7403348179255593,2.220101692864609,1.0,3.092764917370312,-0.8861547362789678,-2.0584362102904926e-07,0.09520282494130086,2.6096487403163726,0.07459198275200773
331,0.06898386796469946,0.06898386794922289,1.460921881053118e-06,2.420102208666914,2.2443075421445844,1.7403348179255902,2.2201017749841196,1.0,3.092764977190811,-0.8861547403222075,-1.9775711324746422e-07,0.09520270807422744,2.6096487406964273,0.07459189104348571
332,0.06898386796460297,0.06898386794912696,1.4610738625235997e-06,2.4201022086671182,2.2443075421446803,1.74033481792562,2.2201018538779547,1.0,3.0927650346615447,-0.8861547442065928,-1.899883155915316e-07,0.09520259579772851,2.6096487410615827,0.07459180293730487
333,0.06898386796451314,0.06898386794903724,1.460921881053118e-06,2.420102208667314,2.24430754214477,1.7403348179256488,2.2201019296728193,1.0,3.0927650898748134,-0.8861547479383661,-1.8252474292203723e-07,0.09520248793148499,2.609648741412422,0.07459171829196405
334,0.06898386796443289,0.06898386794895642,1.4607698837701748e-06,2.4201022086675033,2.244307542144851,1.7403348179256757,2.2201020024904414,1.0,3.0927651429192897,-0.8861547515235247,-1.7535440092199011e-07,0.09520238430226083,2.6096487417495062,0.07459163697152034
335,0.06898386796435801,0.06898386794888137,1.460921881053118e-06,2.420102208667685,2.244307542144926,1.7403348179257025,2.220102072447768,1.0,3.0927651938801652,-0.8861547549678296,-1.6846576692143663e-07,0.09520228474362459,2.6096487420733725,0.07459155884537058
336,0.06898386796429025,0.0689838679488143,1.460921881053118e-06,2.420102208667859,2.244307542144993,1.7403348179257279,2.220102139657152,1.0,3.092765242839284,-0.8861547582768158,-1.618477710921283e-07,0.0952021890956824,2.609648742384539,0.07459148378804185
337,0.06898386796422729,0.06898386794875122,1.460921881053118e-06,2.420102208668026,2.244307542145056,1.7403348179257525,2.2201022042265333,1.0,3.092765289875275,-0.8861547614558007,-1.5548977891570544e-07,0.09520209720482109,2.6096487426835027,0.07459141167898987
338,0.06898386796417087,0.06898386794869438,1.460921881053118e-06,2.4201022086681867,2.244307542145113,1.7403348179257756,2.2201022662596115,1.0,3.0927653350636795,-0.8861547645098928,-1.4938157363662927e-07,0.09520200892346135,2.609648742970742,0.0745913424024053
339,0.06898386796411922,0.06898386794864197,1.460921881053118e-06,2.420102208668341,2.2443075421451653,1.740334817925798,2.2201023258560135,1.0,3.092765378477071,-0.8861547674439992,-1.4351334037754793e-07,0.09520192410982095,2.6096487432467144,0.07459127584702788
340,0.06898386796407119,0.0689838679485949,1.4610738625235997e-06,2.420102208668489,2.2443075421452123,1.7403348179258196,2.220102383111452,1.0,3.0927654201851724,-0.8861547702628345,-1.3787564981998957e-07,0.0952018426276868,2.6096487435118627,0.07459121190596765
341,0.0689838679640279,0.06898386794855181,1.460921881053118e-06,2.420102208668632,2.2443075421452554,1.7403348179258402,2.2201024381178813,1.0,3.092765460254968,-0.8861547729709283,-1.3245944342928877e-07,0.09520176434619637,2.6096487437666105,0.0745911504765334
342,0.06898386796398732,0.0689838679485114,1.460921881053118e-06,2.420102208668769,2.244307542145296,1.7403348179258602,2.2201024909636424,1.0,3.092765498750811,-0.8861547755726314,-1.2725601855368656e-07,0.09520168913962734,2.609648744011365,0.0745910914600676
343,0.06898386796395203,0.06898386794847587,1.460921881053118e-06,2.420102208668901,2.2443075421453313,1.7403348179258797,2.220102541733607,1.0,3.092765535734526,-0.8861547780721245,-1.2225701474356563e-07,0.09520161688719594,2.6096487442465177,0.07459103476178802
344,0.06898386796391873,0.06898386794844255,1.460921881053118e-06,2.4201022086690265,2.2443075421453647,1.7403348179258977,2.220102590509313,1.0,3.0927655712655104,-0.8861547804734236,-1.174544000211174e-07,0.0952015474728627,2.609648744472445,0.07459098029063556
345,0.06898386796388813,0.06898386794841235,1.4607698837701748e-06,2.420102208669149,2.244307542145395,1.7403348179259155,2.220102637369095,1.0,3.0927656054008272,-0.8861547827803863,-1.1284045815662075e-07,0.09520148078514636,2.6096487446895082,0.07459092795912793
346,0.06898386796386155,0.06898386794838526,1.460921881053118e-06,2.420102208669265,2.244307542145422,1.7403348179259328,2.2201026823882115,1.0,3.0927656381952993,-0.8861547849967193,-1.0840777607054697e-07,0.09520141671694442,2.6096487448980548,0.07459087768321909
347,0.06898386796383667,0.0689838679483604,1.460921881053118e-06,2.420102208669377,2.244307542145447,1.740334817925949,2.2201027256389643,1.0,3.092765669701595,-0.8861547871259838,-1.0414923212407574e-07,0.09520135516536174,2.6096487450984185,0.07459082938216458
348,0.0689838679638135,0.06898386794833729,1.460921881053118e-06,2.420102208669485,2.24430754214547,1.740334817925965,2.220102767190815,1.0,3.092765699970314,-0.8861547891716004,-1.0005798444011439e-07,0.09520129603154466,2.60964874529092,0.07459078297839138
349,0.06898386796379333,0.06898386794831732,1.460921881053118e-06,2.4201022086695887,2.24430754214549,1.7403348179259799,2.220102807110497,1.0,3.092765729050069,-0.8861547911368557,-9.61274601089152e-08,0.09520123922052258,2.609648745475868,0.07459073839737362
350,0.06898386796377574,0.0689838679482991,1.460921881053118e-06,2.420102208669688,2.244307542145508,1.7403348179259943,2.220102845462122,1.0,3.0927657569875633,-0.8861547930249069,-9.235134448901566e-08,0.09520118464105543,2.6096487456535584,0.07459069556751292
351,0.0689838679637582,0.06898386794828178,1.460921881053118e-06,2.4201022086697836,2.2443075421455254,1.740334817926008,2.2201028823072835,1.0,3.092765783827664,-0.886154794838787,-8.872357119831772e-08,0.09520113220548698,2.609648745824275,0.07459065442002318
352,0.0689838679637428,0.06898386794826711,1.4610738625235997e-06,2.4201022086698747,2.24430754214554,1.7403348179260214,2.2201029177051566,1.0,3.092765809613478,-0.8861547965814104,-8.523831202128273e-08,0.09520108182960432,2.6096487459882924,0.07459061488882036
353,0.06898386796372875,0.06898386794825245,1.460921881053118e-06,2.420102208669963,2.2443075421455547,1.7403348179260347,2.2201029517125903,1.0,3.0927658343864173,-0.8861547982555765,-8.188996794475133e-08,0.09520103343250233,2.6096487461458726,0.07459057691041619
354,0.06898386796371718,0.06898386794824048,1.4610738625235997e-06,2.4201022086700474,2.2443075421455667,1.7403348179260465,2.220102984384202,1.0,3.0927658581862683,-0.886154799863975,-7.867315987347791e-08,0.09520098693645387,2.609648746297268,0.07459054042381619
355,0.06898386796370522,0.06898386794822892,1.460921881053118e-06,2.4201022086701287,2.2443075421455783,1.7403348179260583,2.2201030157724633,1.0,3.0927658810512537,-0.8861548014091895,-7.558272006249441e-08,0.09520094226678502,2.6096487464427214,0.07459050537042183
356,0.06898386796369543,0.06898386794821915,1.460921881053118e-06,2.420102208670207,2.244307542145588,1.7403348179260698,2.220103045927784,1.0,3.092765903018096,-0.8861548028937023,-7.261368397652142e-08,0.09520089935175498,2.6096487465824656,0.0745904716939363
357,0.0689838679636859,0.06898386794820982,1.4607698837701748e-06,2.420102208670282,2.2443075421455974,1.7403348179260802,2.2201030748985953,1.0,3.092765924122074,-0.8861548043198982,-6.976128194729444e-08,0.09520085812244103,2.6096487467167244,0.0745904393402742
358,0.06898386796367792,0.06898386794820183,1.4607698837701748e-06,2.4201022086703534,2.2443075421456053,1.7403348179260913,2.2201031027314237,1.0,3.0927659443970814,-0.8861548056900681,-6.702093189469534e-08,0.0952008185126276,2.6096487468457132,0.07459040825747448
359,0.06898386796367105,0.06898386794819517,1.460921881053118e-06,2.420102208670424,2.244307542145612,1.7403348179261013,2.2201031294709708,1.0,3.09276596387568,-0.8861548070064136,-6.438823170090802e-08,0.0952007804587004,2.609648746969639,0.07459037839561741
360,0.06898386796366464,0.0689838679481885,1.460921881053118e-06,2.4201022086704906,2.2443075421456187,1.740334817926111,2.2201031551601798,1.0,3.0927659825891536,-0.8861548082710488,-6.185895226327415e-08,0.0952007438995435,2.6096487470886998,0.07459034970674379
361,0.06898386796365909,0.06898386794818272,1.460921881053118e-06,2.4201022086705537,2.2443075421456244,1.7403348179261207,2.220103179840309,1.0,3.0927660005675564,-0.8861548094860052,-5.942903053952304e-08,0.095200708776442,2.609648747203087,0.07459032214477854
362,0.06898386796365391,0.06898386794817739,1.460921881053118e-06,2.420102208670616,2.2443075421456298,1.7403348179261295,2.220103203550995,1.0,3.092766017839762,-0.8861548106532348,-5.709456322975957e-08,0.09520067503298721,2.6096487473129835,0.07459029566545636
363,0.06898386796364915,0.06898386794817339,1.460921881053118e-06,2.4201022086706745,2.2443075421456338,1.7403348179261382,2.2201032263303184,1.0,3.09276603443351,-0.8861548117746122,-5.4851800366941994e-08,0.09520064261498606,2.6096487474185657,0.07459027022625057
364,0.06898386796364438,0.0689838679481685,1.460921881053118e-06,2.420102208670732,2.2443075421456387,1.7403348179261464,2.220103248214863,1.0,3.09276605037545,-0.886154812851939,-5.269713930009069e-08,0.09520061147037438,2.609648747520003,0.07459024578630512
365,0.06898386796364081,0.06898386794816451,1.460921881053118e-06,2.420102208670786,2.2443075421456427,1.7403348179261542,2.2201032692397757,1.0,3.0927660656911864,-0.8861548138869456,-5.062711899015655e-08,0.09520058154913304,2.609648747617458,0.07459022230636873
366,0.06898386796363819,0.06898386794816184,1.460921881053118e-06,2.4201022086708393,2.2443075421456453,1.7403348179261617,2.2201032894388235,1.0,3.092766080405316,-0.8861548148812944,-4.863841426013431e-08,0.09520055280320765,2.6096487477110872,0.07459019974873192
367,0.06898386796363593,0.06898386794815962,1.460921881053118e-06,2.420102208670889,2.2443075421456475,1.7403348179261688,2.220103308844446,1.0,3.0927660945414694,-0.8861548158365827,-4.6727830800134446e-08,0.09520052518643134,2.60964874780104,0.07459017807716639
368,0.06898386796363372,0.06898386794815739,1.460921881053118e-06,2.4201022086709365,2.2443075421456498,1.7403348179261762,2.2201033274878097,1.0,3.0927661081223508,-0.886154816754345,-4.48922995509488e-08,0.09520049865445093,2.6096487478874613,0.07459015725686709
369,0.06898386796363098,0.06898386794815473,1.4607698837701748e-06,2.4201022086709836,2.2443075421456524,1.740334817926183,2.2201033453988566,1.0,3.092766121169771,-0.8861548176360556,-4.31288721933636e-08,0.0952004731646553,2.6096487479704895,0.074590137254396
370,0.06898386796363039,0.06898386794815384,1.460921881053118e-06,2.420102208671027,2.2443075421456533,1.7403348179261893,2.220103362606352,1.0,3.0927661337046843,-0.8861548184831307,-4.143471614179263e-08,0.095200448676107,2.6096487480502577,0.0745901180376285
371,0.06898386796362851,0.06898386794815206,1.4607698837701748e-06,2.4201022086710706,2.244307542145655,1.7403348179261957,2.2201033791379317,1.0,3.0927661457472224,-0.8861548192969307,-3.9807110155603747e-08,0.0952004251494768,2.6096487481268937,0.07459009957570194
372,0.06898386796362745,0.06898386794815073,1.4607698837701748e-06,2.420102208671113,2.2443075421456564,1.7403348179262017,2.220103395020146,1.0,3.0927661573167256,-0.886154820078763,-3.824343988181285e-08,0.09520040254698016,2.609648748200521,0.07459008183896584
373,0.06898386796362643,0.06898386794815028,1.460921881053118e-06,2.420102208671151,2.244307542145657,1.7403348179262077,2.2201034102785013,1.0,3.0927661684317753,-0.8861548208298833,-3.6741193801947584e-08,0.09520038083231681,2.609648748271257,0.0745900647989345
374,0.0689838679636262,0.06898386794815028,1.460921881053118e-06,2.42010220867119,2.244307542145657,1.740334817926213,2.2201034249375042,1.0,3.0927661791102223,-0.8861548215514983,-3.5297958770928356e-08,0.0952003599706125,2.609648748339216,0.07459004842824123
375,0.0689838679636246,0.06898386794814851,1.460921881053118e-06,2.4201022086712265,2.2443075421456586,1.7403348179262181,2.2201034390206966,1.0,3.0927661893692164,-0.8861548222447668,-3.391141677227154e-08,0.09520033992836259,2.609648748404506,0.07459003270059407
376,0.06898386796362477,0.06898386794814851,1.4610738625235997e-06,2.420102208671262,2.2443075421456586,1.7403348179262232,2.220103452550697,1.0,3.092766199225234,-0.8861548229108025,-3.2579340628552014e-08,0.09520032067337873,2.609648748467232,0.07459001759073405
377,0.0689838679636241,0.06898386794814806,1.460921881053118e-06,2.420102208671295,2.244307542145659,1.7403348179262286,2.220103465549234,1.0,3.092766208694105,-0.8861548235506751,-3.129959078710974e-08,0.09520030217473684,2.6096487485274955,0.07459000307439424
378,0.06898386796362421,0.06898386794814806,1.460921881053118e-06,2.4201022086713273,2.244307542145659,1.740334817926233,2.220103478037185,1.0,3.0927662177910347,-0.8861548241654126,-3.007011164439276e-08,0.09520028440272754,2.6096487485853923,0.07458998912826101
379,0.06898386796362435,0.06898386794814805,1.460921881053118e-06,2.4201022086713584,2.244307542145659,1.7403348179262375,2.2201034900346053,1.0,3.0927662265306344,-0.886154824756002,-2.888892842698683e-08,0.09520026732880857,2.609648748641016,0.07458997572993648
380,0.06898386796362395,0.0689838679481476,1.460921881053118e-06,2.4201022086713886,2.2443075421456595,1.7403348179262417,2.220103501560763,1.0,3.09276623492694,-0.8861548253233923,-2.7754143943005725e-08,0.09520025092555866,2.609648748694455,0.07458996285790252
