jkpark150901/flame_robotics_drt/experiment/inspection_ik/session_20260722_143013/collision/inspection_ik_20260722_143059_dda_rb10_1300e_normalized_success_collision.csv
iteration,err_norm,position_error,orientation_error,tcp_x,tcp_y,tcp_z,q0_dda_joint_linear_track,q1_dda_joint_carriage,q2_dda_joint_base,q3_dda_joint_shoulder,q4_dda_joint_elbow,q5_dda_joint_wrist1,q6_dda_joint_wrist2,q7_dda_joint_wrist3
0,0.7186582631844621,0.7186582630682192,1.2897314409558461e-05,2.413839929921815,1.9297337240280754,1.6549126932376907,1.4178257360301596,-1.0,0.6991133712760167,-0.9026650305508078,-0.676056903005778,-1.5628547621549813,2.269913067110342,-1.5707836489446312
1,0.46732096090692526,0.46732096081270214,9.380585736190223e-06,2.6652746429098717,1.9391970353738888,1.6548816830125679,1.6548318466046446,-1.0,0.7153615852576544,-0.9151579394387142,-0.653027431858665,-1.573395169350195,2.2861592483537434,-1.5707867676895442
2,0.3040034267029194,0.30400342662542523,6.863727830990896e-06,2.8287755373723837,1.9427183365486624,1.6548784918876294,1.8113475156493273,-1.0,0.7225261449059756,-0.9234898051602596,-0.6375806649231763,-1.5805131599464985,2.29332286700345,-1.570789293433418
3,0.1978910897247279,0.19789108966118188,5.0148994050799865e-06,2.935068570190164,1.9431622699466815,1.6548838837844335,1.9146294144374714,-1.0,0.7249323145294654,-0.9291159758399246,-0.6271110769021115,-1.5853589663233547,2.29572864481201,-1.5707912301090738
4,0.12893899179562007,0.12893899174398402,3.6489898299322787e-06,3.0041633360178372,1.942122773861371,1.6548907877780479,1.9828217651787796,-1.0,0.7249193355477831,-0.9329582325415049,-0.6199435498155557,-1.588686037009251,2.295715537869142,-1.5707926679909983
5,0.08412094225104261,0.08412094220952,2.64293003723816e-06,3.04907632035402,1.9404780789809655,1.6548968770810601,2.0279052959253807,-1.0,0.7237736620242176,-0.9356076504518493,-0.6149932361623817,-1.5909882661539971,2.294569852949387,-1.5707937149285842
6,0.05497609465145546,0.054976094618391945,1.906533551402614e-06,3.078270669162943,1.9386970732510371,1.654901615620201,2.057764243891202,-1.0,0.7221971642433956,-0.937449460532151,-0.6115483048457597,-1.592592363591264,2.2929933870536203,-1.5707944682487478
7,0.0360103047808237,0.0360103047547181,1.3709068298340917e-06,3.097247818834598,1.9370145700065635,1.6549050889303016,2.077581634580151,-1.0,0.7205600290941746,-0.9387386527708029,-0.609135396810246,-1.5937167884920165,2.291356292878692,-1.5707950064681566
8,0.023656349700878154,0.023656349680408494,9.839280855190662e-07,3.1095836807261183,1.9355334395091182,1.654907551600591,2.0907654956236406,-1.0,0.7190437663660957,-0.9396463139023875,-0.6074358959216755,-1.594509140590727,2.2898400660803726,-1.5707953894264528
9,0.015598251781816525,0.015598251765853416,7.052516678690599e-07,3.117602555800445,1.9342844457106076,1.654909263045512,2.0995588641635634,-1.0,0.7177240951809795,-0.9402885692541143,-0.6062330685468722,-1.5950700814433538,2.288520421446524,-1.5707956613030802
10,0.010332413650531,0.010332413638133071,5.057621821307337e-07,3.1228152378579614,1.9332611142219827,1.6549104374686958,2.1054400991323736,-1.0,0.7166193971618479,-0.9407450115365876,-0.6053781446668309,-1.5954688279025833,2.2874157406617304,-1.5707958541174731
11,0.006882638660410277,0.006882638650811851,3.6317281743747017e-07,3.1262037666798297,1.9324397251745955,1.6549112368361083,2.1093852360831207,-1.0,0.7157189078818484,-0.941070645252295,-0.6047682116711831,-1.5957533170735627,2.286515261014175,-1.5707959908234352
12,0.0046151040491015155,0.004615104041688022,2.606638622959845e-07,3.1284064994430922,1.9317904446875356,1.6549117780826224,2.1120399184404777,-1.0,0.7149988368111065,-0.9413037499105007,-0.6043316034321535,-1.5959569566577885,2.285795194034699,-1.5707960877702274
13,0.003118238691264375,0.0031182386855506815,1.8730469182098736e-07,3.1298383970052495,1.9312832203148118,1.654912143368899,2.1138321466880243,-1.0,0.7144312886240247,-0.9414711263632947,-0.6040181241654136,-1.5961031568267003,2.285227646246823,-1.5707961565598887
14,0.0021247389555406676,0.0021247389511449702,1.3493575361575816e-07,3.1307692063879236,1.930890633769892,1.6549123894477435,2.115046299410131,-1.0,0.713988929442722,-0.9415916372887284,-0.6037924377632283,-1.5962084019802147,2.2847852852279975,-1.570796205409138
15,0.0014609380592952694,0.0014609380559203863,9.65705618025044e-08,3.1313742792349957,1.9305890334963731,1.6549125550897283,2.115871796582724,-1.0,0.7136471843114314,-0.9416786196792786,-0.6036295569865598,-1.5962843502393986,2.284443537075428,-1.5707962401316422
16,0.0010139308504210388,0.0010139308478352034,6.664001874625058e-08,3.131767604976781,1.9303587369656654,1.6549126665878753,2.116435142909436,-1.0,0.7133850457875001,-0.9417415422736568,-0.6035117414949415,-1.5963392788471107,2.284181395057685,-1.570796264839677
17,0.000710225875918176,0.0007102258739416199,4.2146848510894035e-08,3.1320232837911335,1.93018376669656,1.6549127416876854,2.116821064305807,-1.0,0.7131851392435287,-0.9417871522948104,-0.6034263503207389,-1.5963790855837503,2.2839814849954108,-1.5707962824425248
18,0.000501885151653073,0.0005018851501456601,3.6500241499888574e-08,3.1321894852363865,1.930051385666259,1.6549127923290745,2.1170864763948405,-1.0,0.7130334236335386,-0.9418202737109117,-0.6033643463580378,-1.596407986471812,2.2838297661011553,-1.570796294999354
19,0.00035753145572882487,0.00035753145458151914,0.0,3.132297522266534,1.92995157832972,1.6549128265311508,2.1172697347194283,-1.0,0.7129187436201929,-0.9418443659072085,-0.6033192494774418,-1.5964290043165588,2.283715083167045,-1.570796303968623
20,0.0002565217361905809,0.0002565217353195357,0.0,3.132367749966192,1.929876552667742,1.6549128496750276,2.1173967738522226,-1.0,0.7128323507855711,-0.9418619165527192,-0.6032864002630127,-1.5964443123373628,2.28362868782143,-1.5707963103842002
21,0.00018517929081443606,0.0001851792901543819,0.0,3.1324134001394293,1.9298202977103234,1.6549128653711165,2.117485191353606,-1.0,0.7127674535497929,-0.9418747190634272,-0.6032624400137527,-1.596455476871308,2.283563788480424,-1.5707963149796909
22,0.00013436218805057943,0.00013436218755139944,0.0,3.1324430740536497,1.9297782080936359,1.6549128760428646,2.1175469714367865,-1.0,0.7127188219465104,-0.9418840693314563,-0.6032449420639935,-1.5964636294439245,2.2835151551459414,-1.570796318276213
23,9.78959802561312e-05,9.789597987906081e-05,0.0,3.132462362884875,1.929746775119737,1.6549128833184836,2.1175903063458876,-1.0,0.712682454865595,-0.9418909057136604,-0.6032321494584619,-1.5964695891914318,2.2834787866631303,-1.570796320644386
