jkpark150901/flame_robotics_drt/experiment/inspection_ik/session_20260722_143013/collision/inspection_ik_20260722_143102_dda_rb10_1300e_normalized_fallback_collision.csv
iteration,err_norm,position_error,orientation_error,tcp_x,tcp_y,tcp_z,q0_dda_joint_linear_track,q1_dda_joint_carriage,q2_dda_joint_base,q3_dda_joint_shoulder,q4_dda_joint_elbow,q5_dda_joint_wrist1,q6_dda_joint_wrist2,q7_dda_joint_wrist3
0,2.8586630044296513,1.3383509351968108,2.5259096602236646,3.124189356228844,1.8562561377334899,1.6747991437903604,2.98783289952403,-1.0,-0.23128253690520872,-0.8029256564987394,-0.839338893667408,-3.14,1.685661827897065,-1.36960809209353
1,2.5058078832788095,0.884898624969634,2.3421390119546293,3.5757275442337098,1.8635331441911018,1.569804089101373,3.382918768257412,-1.0,-0.14787958616395286,-0.8686339029377868,-0.9582422595317628,-3.14,1.856253672075976,-1.5065299101982212
2,2.219925275538691,0.5973850537239678,2.1334644748360616,3.8809066377527586,1.9078605586165462,1.4706229407540188,3.7190051673994615,-1.0,-0.1853284399906716,-0.905014562175107,-1.1402643681966935,-3.14,1.908344668677454,-1.5921730486841568
3,2.0120739543695625,0.4386958068548492,1.9574822536361158,4.089435561935952,1.970248240570398,1.41099027840922,3.967677698955623,-1.0,-0.24663533212465924,-0.9080398364968212,-1.3201971212745107,-3.14,1.938013205285971,-1.660627025906842
4,1.8768641969900568,0.3711621302000198,1.8323097181055497,4.236818544763215,2.036047576845724,1.3907727880604652,4.150600623300969,-1.0,-0.31302948951679777,-0.8781530271709187,-1.48203858429548,-3.14,1.964804270261731,-1.7237204073978631
5,1.8057638383183396,0.35899215215292957,1.7608628495134002,4.343912885762899,2.0959942692426594,1.3986654550637283,4.2862908598958755,-1.0,-0.3777776006375141,-0.8232285980470171,-1.6170806186519469,-3.14,1.9901575111165553,-1.7881272751171102
6,1.7885236527320771,0.3728308664410921,1.7387504575660335,4.423327347086275,2.145841271984052,1.4228185138002898,4.3883715426599466,-1.0,-0.4378401490372177,-0.7534451622189785,-1.720142373998754,-3.14,2.011127983682537,-1.8547189627544531
7,1.8137674097523537,0.39469072081780754,1.7579482845846768,4.482766345019154,2.184194770290234,1.454621567261768,4.466989942733641,-1.0,-0.49237773905400745,-0.6785365581913209,-1.7889288910769023,-3.14,2.025907236412316,-1.9208369428402055
8,1.8697695935915253,0.41522446984699235,1.808780672235713,4.526656850766459,2.210944981613445,1.4887856885223663,4.529486958108459,-1.0,-0.5418092070176814,-0.6073132469504158,-1.8232420736268489,-3.14,2.0347864580328503,-1.9832841036125406
9,1.9450715043143032,0.4297905214968522,1.880943703078149,4.557317704201752,2.2266469984983064,1.5222703203086883,4.580528733140818,-1.0,-0.5865594216449479,-0.5474226882805521,-1.824928235835823,-3.14,2.038920011828707,-2.0402733759596723
10,2.029117183254284,0.43640196863743325,1.9643271617359102,4.575985838216339,2.2324203257203834,1.553192789887733,4.622121524047076,-1.0,-0.6259866063057479,-0.5043288353719798,-1.7984841605276907,-3.14,2.038826832925835,-2.09201013586365
11,2.1130096811279167,0.4347277613042956,2.0499697985348146,4.583641866062344,2.229823378015449,1.5801046691082137,4.653893701864117,-1.0,-0.6580825438616802,-0.48001325897159675,-1.7512984449443691,-3.14,2.0336050129573082,-2.1401264954516956
12,2.189798551879528,0.4253373221400612,2.1305713478675257,4.581520501255436,2.220489341642735,1.6017129155584515,4.673903505467018,-1.0,-0.6800736343288537,-0.4727485124150967,-1.6927599741548196,-3.14,2.020950004222701,-2.1862845644628135
13,2.2538899714372786,0.40913365197990953,2.2000630381075323,4.571285696302618,2.20576419832033,1.6168958640900248,4.679797433706927,-1.0,-0.6893742104463781,-0.478432666747442,-1.6325334378495717,-3.14,1.9976356252569367,-2.2306150405352145
14,2.3001847658647825,0.38715390634175173,2.252800941907473,4.555009439665707,2.1866471229792723,1.6248099535510556,4.669820130716162,-1.0,-0.6841706442473182,-0.49251733974520606,-1.5789181814576039,-3.14,1.9602234372159097,-2.2708413972589963
15,2.323881559424253,0.36074495823176445,2.283364070687546,4.535126091731141,2.164067924492548,1.6250178504832469,4.643364513593223,-1.0,-0.6634630858184435,-0.5113525052436708,-1.5379019663996456,-3.14,1.9059647527568095,-2.302467741156983
16,2.32132459593312,0.3319454254984574,2.2874072005468022,4.514385811824266,2.139342009693186,1.6176648196754844,4.601140025753638,-1.0,-0.6269107403202507,-0.5325722230928838,-1.5129066052390965,-3.14,1.833802272194257,-2.3198154433851434
17,2.291592998613574,0.30378073507962416,2.2633140821930757,4.495641949952901,2.1145573864926073,1.6037009119549246,4.54509645355521,-1.0,-0.5747549212220201,-0.5547574677414272,-1.5049073813859277,-3.14,1.7451822028651043,-2.317497180524176
18,2.2379785252507,0.2800932325721311,2.213795169031773,4.481284621593801,2.092604889369957,1.5850450092235904,4.478046847659235,-1.0,-0.5077808903776089,-0.5767725966803002,-1.5126569583223195,-3.14,1.644246071558025,-2.2918686496419456
19,2.168268171605319,0.2646402951688477,2.1462834888913074,4.472413700446234,2.076682305072967,1.564485872466173,4.402970844981444,-1.0,-0.427233478988509,-0.5972252321642272,-1.5329248776889777,-3.14,1.5370826795233414,-2.2419208130420274
20,2.0933221964537427,0.25970466784286483,2.0715486661946922,4.46825707966911,2.0694265195302863,1.545168676808135,4.322342361764571,-1.0,-0.33480024415640774,-0.614455046139101,-1.5608209881451156,-3.14,1.4302573325336763,-2.1692339870978365
21,2.0246380880849046,0.2652103166875952,2.001210967204748,4.466375787796477,2.072101070953658,1.5298171509558505,4.237972961072438,-1.0,-0.2328244718628485,-0.6270634632923084,-1.5903565830748385,-3.14,1.329458999364601,-2.0771122105672553
22,1.9721686933437086,0.2791850536634129,1.9454791738158965,4.463643890706523,2.084230282880357,1.5201244965663203,4.151394256727348,-1.0,-0.12461690991771936,-0.6344840298963005,-1.6153652812378927,-3.14,1.2390273698182235,-1.9695117541632299
23,1.9430330176850918,0.298978549747838,1.9118123701968603,4.457412981750693,2.103791313221156,1.5166312487443983,4.064314762266581,-1.0,-0.014503304269290002,-0.6371092073581924,-1.6306477427414068,-3.14,1.1622820594271035,-1.8503876763491234
24,1.9409725558744206,0.32204782075837995,1.9043780250342273,4.446290899117417,2.127769272827489,1.519012327963771,3.9788912007813266,-1.0,0.09248461552503154,-0.6359722015108583,-1.6329165445232263,-3.14,1.1020353932104026,-1.7235410362713652
25,1.966245827775521,0.34600863036144297,1.9239778970631995,4.430400574186123,2.15273705152946,1.5264747356697796,3.8979634601229236,-1.0,0.1909958967539185,-0.6322313195510176,-1.62126204233221,-3.14,1.0609492304542332,-1.592638582589286
26,2.015744355608884,0.3683330636360884,1.9681944536136602,4.411279821311052,2.175232589520438,1.5380479972643075,3.8253398870545694,-1.0,0.2756313757994189,-0.6266537973047451,-1.597192669890781,-3.14,1.041762823157904,-1.4612751450178614
27,2.083168882589065,0.38608283915208214,2.031565936323527,4.391596470270517,2.1919378848656104,1.55270910667709,3.765950731749838,-1.0,0.34118816731918045,-0.6193187498175554,-1.5642847336430612,-3.14,1.04740533024502,-1.3332669693288022
28,2.1592376939202214,0.39593322210352433,2.1057159509567933,4.374752822699308,2.1998331704660643,1.5693618727876992,3.725637767280773,-1.0,0.38300502049753143,-0.6098053077747343,-1.5273451905287707,-3.14,1.0809087786472376,-1.2132404897914424
29,2.232118284830813,0.39464498113996094,2.179580782869207,4.364346737351448,2.1965301590331663,1.5866969449252242,3.7105229049884603,-1.0,0.3973583044267599,-0.5979331338717818,-1.4912484658295795,-3.14,1.1450595748235146,-1.1071213976725514
30,2.288377112362647,0.3800048628917141,2.240037232628058,4.363379941546248,2.1808706041402783,1.6029654537890967,3.7260644538152317,-1.0,0.38172353578880996,-0.5847137779850633,-1.4600873994878525,-3.14,1.241789773935802,-1.0218976378570206
31,2.314634446474146,0.3520630644711143,2.2732328805997852,4.373135864001862,2.1536900075723864,1.615771934156663,3.7758973097236552,-1.0,0.3347410908136418,-0.5729167493406616,-1.437215626128153,-3.14,1.371390975761695,-0.9644552026489278
32,2.3000475184513958,0.3142832544796282,2.2669586593082607,4.392001075742114,2.1185339140333816,1.6221862762943355,3.8606178977574293,-1.0,0.2558590171416308,-0.5667479429257968,-1.4258137822395165,-3.14,1.531782533939016,-0.9400856013900925
33,2.239801927193856,0.2740574309063294,2.214456355044278,4.415260649257304,2.082068032239836,1.6196754922499241,3.9772503581459553,-1.0,0.14476780095772096,-0.5704524577472522,-1.4285690382121903,-3.14,1.718252525842739,-0.9515845553581765
34,2.139054167640081,0.242163255984277,2.119014495748893,4.437212495193138,2.0537465317601065,1.6079599097893833,4.120741469126559,-1.0,0.0006874223617368558,-0.5863473662356857,-1.4452267932936753,-3.14,1.9242640654697594,-0.999266782326759
35,2.014841349639996,0.23103118821197113,1.9962352323432169,4.455225594232801,2.04439551604917,1.5905076198941284,4.287733975747284,-1.0,-0.17837637135290832,-0.614027423142448,-1.468489266916596,-3.14,2.1437260934559124,-1.081693652848124
36,1.8941639513152386,0.25213802288679477,1.8714213573671186,4.4726640689695785,2.064788290939534,1.5737601519100874,4.479905502420759,-1.0,-0.3952924024211121,-0.652443899422613,-1.4806488154021566,-3.14,2.373531322570038,-1.1977709998977215
37,1.8116704594725541,0.3172195458492078,1.7749260029945024,4.498990510521547,2.1272502332140943,1.5646499153000553,4.704276497921434,-1.0,-0.6521051333054779,-0.7030137775464982,-1.4544064332477817,-3.14,2.613425617515198,-1.3506672742709642
38,1.8090589117415583,0.4508841671292374,1.7354968787563214,4.551200739707705,2.2544089989690983,1.5698908116059915,4.972533751412774,-1.0,-0.9533615462903475,-0.7694499705456339,-1.3599503905399826,-3.14,2.8650045040073713,-1.5471612094368756
39,1.9041987979148702,0.7178485793482438,1.7286928497188216,4.662944171172607,2.5015383508112263,1.6020733006588814,5.294171771615242,-1.0,-1.3264052626464566,-0.8492588984278802,-1.1771000077707272,-3.14,3.14,-1.747496939015404
40,1.9347731676609508,1.1408201935066768,1.5031461217499056,4.85124946786112,2.8807512082240208,1.6795296874901047,5.545485855906779,-1.0,-1.7602025307907,-0.8618327781211303,-0.9679358870161873,-3.14,3.14,-1.4897120859590132
41,1.9338240782189127,1.331898107670995,1.3397583896839047,4.886861312024715,3.0580852519435933,1.79198992400919,5.413943733620121,-1.0,-2.0222022564729207,-0.6057927024176682,-1.2064590508424657,-3.14,3.14,-1.3031615959942104
42,1.843043018556548,1.3008053806136193,1.248764376434175,4.803745238268362,3.0364893588300044,1.8659030751265044,5.085855827065279,-1.0,-2.178266732551452,-0.2065735814610533,-1.6562460797227727,-3.14,3.14,-1.166940865601964
43,1.701891701443846,1.133598519520036,1.227452704975899,4.655676331641618,2.8938864655089294,1.8687746152971911,4.68658197502552,-1.0,-2.275428721793008,0.27847713047969164,-2.1104258787662302,-3.14,3.14,-1.0320031924416728
44,1.589881990464684,0.9562765537644092,1.2468313995143767,4.517576605641509,2.738411653964172,1.8231954985805412,4.3641885918118195,-1.0,-2.3093929257290466,0.7690833476789232,-2.370099523466204,-3.14,3.14,-0.8525983991891983
45,1.5400871917456538,0.8463673795596531,1.2749458172303678,4.436322756770333,2.6401843525515227,1.7674362119801268,4.16327719783527,-1.0,-2.2468921743164723,1.1579424098616786,-2.449258390234046,-3.14,3.14,-0.6544669444435154
46,1.5423135088134579,0.8014532263033597,1.3100048490421758,4.395987838907479,2.6027844226917423,1.711267841567748,4.021257607666962,-1.0,-2.0951827044442726,1.4514324339410825,-2.459636692988755,-3.14,3.14,-0.45469419595177646
47,1.6014159320655772,0.817821736699504,1.3659251176674874,4.381426907486433,2.623320562608269,1.6706166166006546,3.9085215854487663,-1.0,-1.8722125939617937,1.6603189664114746,-2.41936118956779,-3.14,3.14,-0.2501085279385671
48,1.7148315043674174,0.899032301673037,1.4361954861984267,4.381318375286545,2.7057113265796113,1.6654022384213711,3.832593657183645,-1.0,-1.5832279529386952,1.745701564159305,-2.3403951366449656,-3.14,3.14,-0.060755925251888415
49,1.7823715824275586,0.9986554830411256,1.4282741321944397,4.414388862824883,2.8030552403995355,1.7139976286079677,3.9041686597060483,-1.0,-1.2741303420799572,1.607243718632483,-2.3305792924702544,-3.14,3.14,0.02898380362047223
50,1.6748878623576013,0.9836347036976391,1.302555548445926,4.512562311684353,2.776491298041842,1.7805382230097755,4.149799408059071,-1.0,-1.1647543775627753,1.2282477483249739,-2.377167360874183,-3.0693521387267464,3.14,-0.013681848239767723
51,1.5429734224468767,0.9391920896730167,1.1786977331591675,4.565473833179945,2.7119268817172095,1.839633411108861,4.353212010043227,-1.0,-1.209831272896713,0.8279338287288898,-2.3047259835618834,-3.0193797796702713,3.14,-0.057930111741027905
52,1.4569862745753128,0.905188639090819,1.1025440379794693,4.581502364974687,2.6668097278057603,1.8636200777529424,4.530485989833983,-1.0,-1.2978560540665782,0.47887165788310593,-2.179908810553865,-2.986352301655609,3.14,-0.09667978214813064
53,1.4210241332525455,0.8977566770137095,1.0649388340006198,4.579319842821283,2.6564776791704636,1.8719392749967012,4.682056853811968,-1.0,-1.3975943045939707,0.20186894026339802,-2.0118928930755926,-2.987520804646443,3.14,-0.11829735821381258
54,1.425117845816836,0.9193161546738439,1.0512679932622482,4.568356066090256,2.676443841497039,1.8850602711850515,4.7803183005005465,-1.0,-1.4897186007729653,0.03291720123971856,-1.8498549232767236,-3.022129160361761,3.14,-0.11750260930896102
55,1.4458108528737716,0.9506524968008546,1.0489080861268156,4.5489940221271,2.7052625966608517,1.904418180982645,4.809849571570619,-1.0,-1.5604136147364256,-0.032786389450406295,-1.749825213441065,-3.059002293580694,3.14,-0.1080456418723633
56,1.46505339054803,0.9758995794569099,1.0497826728049777,4.52434800692846,2.7270165613209647,1.924606397680449,4.787893372159351,-1.0,-1.6074398570825505,-0.027981174490809706,-1.7156726299208858,-3.0833253066325947,3.14,-0.09819452542828855
57,1.4770339517557305,0.9910377402811121,1.0507219834122887,4.499580156726495,2.738071084130997,1.9420820287298026,4.7369930420951425,-1.0,-1.6349577399847535,0.020167122243909288,-1.728488982316739,-3.096853214228864,3.14,-0.08828970592258928
58,1.481957445541789,0.9973093712353147,1.051055900541873,4.478072601400832,2.740380507077673,1.9552122840313397,4.672475013046696,-1.0,-1.6478477226518178,0.09422752625197137,-1.7696843791590515,-3.1050891517234787,3.14,-0.07683751286435608
59,1.4817959497047215,0.9973074348596828,1.0508834163091123,4.4612167666275,2.7371137351279247,1.9638209532456574,4.603824388698074,-1.0,-1.6499907819690816,0.18240814440116665,-1.8243162061660767,-3.1130125120397363,3.14,-0.06257819633156725
60,1.478710695057542,0.9936686665917981,1.0504267717110567,4.449216026437724,2.731126091196077,1.9686956113420608,4.537570886017229,-1.0,-1.6441292784671397,0.27516544048394836,-1.8806134787396651,-3.1238700053664092,3.14,-0.04513409996434891
61,1.4745357312893161,0.9886207306753672,1.0498810514033095,4.441739648787067,2.7245626506790814,1.9710442130445858,4.478876572198982,-1.0,-1.6322374607309673,0.36354831801097126,-1.93008016481469,-3.138546231752387,3.14,-0.025393649830040863
62,1.4701443966779821,0.9830344855640621,1.0496066253810907,4.438179700570245,2.7187819897352252,1.9701963257991681,4.431874160994785,-1.0,-1.6160588660656736,0.4392062970102595,-1.9680046730744927,-3.14,3.14,-0.005511564322839977
63,1.4666527687213005,0.9780114681265321,1.049904661958721,4.4381255072778325,2.713910120277757,1.9688148000635348,4.400043783284945,-1.0,-1.5947031359940984,0.4945727943008126,-1.992668292300713,-3.14,3.14,0.013534474789621533
64,1.4642356877819047,0.9740710070252802,1.0504664077709012,4.441225786436882,2.7100737674234314,1.967924552588418,4.386823601261024,-1.0,-1.5709605838035228,0.5222766369426265,-2.0040447922863986,-3.14,3.14,0.028188300545430128
65,1.462282224860598,0.9709516567436426,1.0507746299511989,4.446819864217272,2.7068577319951643,1.9677372804175197,4.393060280859448,-1.0,-1.5490365532193069,0.5195226301591626,-2.003566544164757,-3.14,3.14,0.03547932970624368
66,1.4602248247994472,0.9682375198515096,1.0505641882666188,4.453842752439161,2.7039080407499316,1.9678963880664548,4.416189678027885,-1.0,-1.5331571239165231,0.48940680553098775,-1.99284310236743,-3.14,3.14,0.034461122155540085
67,1.458202491816021,0.9658576024113795,1.0501459335126946,4.460919853650367,2.7015283572037605,1.967439355937722,4.450504680410681,-1.0,-1.5260887152187033,0.44032414117034857,-1.9735368029749525,-3.136008015810018,3.14,0.02651863744418933
68,1.4568141148401001,0.9644546840801745,1.0496751907629067,4.466824674236994,2.700395863306955,1.9664436098229672,4.488595611081731,-1.0,-1.5274613972392033,0.38358288750444763,-1.9480503978094783,-3.129529816096674,3.14,0.015222498206638582
69,1.4566369418369645,0.9646806870474218,1.0492546703710457,4.470769439991083,2.7009702899601997,1.9655704444202775,4.523687027201173,-1.0,-1.5350134930211754,0.32972370841719006,-1.9200848659545011,-3.1238619617104644,3.14,0.003951574631676863
70,1.4577840041729075,0.9665717093009731,1.0489740167571036,4.472479586033141,2.703112674477244,1.9653074455077548,4.551058546758474,-1.0,-1.545943726942526,0.28618436080430865,-1.8940785310160209,-3.1203629431347797,3.14,-0.005351637323703404
71,1.4598645917392739,0.9695654269533588,1.0488466689765592,4.472125171740351,2.706161187955823,1.9657996126261592,4.568471645267789,-1.0,-1.5576866424398366,0.25663506348647436,-1.8738057491225852,-3.1189665113574088,3.14,-0.01200555212780096
72,1.462263911686721,0.9728676835664222,1.0488266967558393,4.470184812924631,2.709308341932145,1.966899008433213,4.575897963186893,-1.0,-1.56837120495376,0.24151257301841084,-1.8613271562839648,-3.11906432753657,3.14,-0.016063651772236717
73,1.464440207364269,0.9758071594300932,1.0488540737964143,4.467277715094487,2.7119305448312403,1.9683197363399938,4.574790899151657,-1.0,-1.5769144923552763,0.23914480756105522,-1.8568536411117844,-3.120113088105451,3.14,-0.017865272400286313
74,1.4660699338336887,0.9779952513508718,1.0488849054558573,4.464009032231321,2.713713608522793,1.9697767566185207,4.5673093764498205,-1.0,-1.582884993131253,0.24681066220833228,-1.8592430913496625,-3.121817693956248,3.14,-0.017812541284976977
75,1.46705059259822,0.9793178703448358,1.0488985848989185,4.460869394087806,2.7146165253545087,1.9710621408221414,4.555751630709209,-1.0,-1.5862977931827693,0.2614608307381737,-1.8666484466597328,-3.1240631174074793,3.14,-0.016311428792065128
76,1.4674357355538008,0.979851753043376,1.0488921996315255,4.458196044525579,2.714771380580386,1.972064790753107,4.542231706806584,-1.0,-1.587437279038023,0.28013189495508717,-1.8770498227750854,-3.1267833941103196,3.14,-0.013777092216949493
77,1.467359826591872,0.9797721386812102,1.0488721443208469,4.456177267350115,2.714385857191897,1.9727556428088113,4.528523297398755,-1.0,-1.5867345501071755,0.3001763643868011,-1.888607626730639,-3.129866230005396,3.14,-0.010641519523667223
78,1.4669792654504135,0.9792811248414123,1.0488473917256658,4.454877412967384,2.7136741819491705,1.9731592290846045,4.515992547370079,-1.0,-1.584690398420098,0.319403617224176,-1.8998569810913866,-3.133121682346432,3.14,-0.0073395309325420665
79,1.466435990697556,0.978563489668738,1.0488253160659675,4.45426706282337,2.7128189838511743,1.9733260822294598,4.505574589549691,-1.0,-1.5818244424468968,0.3361745117963137,-1.90978028950992,-3.13630693769643,3.14,-0.004272703657673375
80,1.4658412015430535,0.9777667480112899,1.0488098002673483,4.454251252055453,2.7119574442279033,1.9733133304623256,4.497777795727429,-1.0,-1.5786344039805567,0.3494548335286538,-1.9177946355115463,-3.1391823733461366,3.14,-0.001763567103899351
81,1.4652234068023449,0.9769257141933344,1.0488066020830389,4.454692518690936,2.711182810959797,1.9729909503123568,4.492714560171268,-1.0,-1.5755580825157491,0.3588174854636246,-1.9236889855694768,-3.14,3.14,-1.6853617694160194e-05
82,1.4646399093764035,0.9761206261412457,1.048812741583391,4.455453176035419,2.7104852097380867,1.9725827801552918,4.490197100549248,-1.0,-1.5726512223609184,0.364330793018356,-1.927465427475974,-3.14,3.14,0.001118946431664999
83,1.4641436729645145,0.9754337430501179,1.0488186915629703,4.456413469805304,2.7098963924755726,1.9722207443255115,4.489991251481812,-1.0,-1.5701393662692837,0.36619322531065523,-1.9292272778181156,-3.14,3.14,0.0016326496358698818
84,1.4637685684119255,0.9749173313092052,1.0488197973590716,4.457448957592037,2.7094676114648415,1.9719159488717697,4.491682030137425,-1.0,-1.5683111249379191,0.3649256357265781,-1.9292454222570756,-3.14,3.14,0.0014836849118961468
85,1.463536108044983,0.974602304791269,1.0488154412518853,4.458434119678284,2.7092297091988207,1.9716741093407768,4.4946454433521135,-1.0,-1.5673252851308797,0.3614096089990968,-1.927952628951767,-3.14,3.14,0.0007563626617033385
86,1.4634524577027899,0.974495019603723,1.0488079002363118,4.459260929057626,2.7091886554613573,1.9714978797491767,4.4981623030023625,-1.0,-1.56719260579166,0.35671497896939014,-1.9258782790388582,-3.14,3.14,-0.000373330463749488
87,1.4635052248818161,0.9745751336585187,1.0488002440638988,4.459854209036857,2.7093228755110053,1.9713871412538344,4.501540792200363,-1.0,-1.5677891505077814,0.35190952658564895,-1.923572270491568,-3.14,3.14,-0.0016845251629763404
88,1.4636634203207795,0.9747976026945173,1.0487946514483677,4.460180363827559,2.7095857533062855,1.9713375096195866,4.5042219861045885,-1.0,-1.568894903533249,0.34789162382511096,-1.9215268589069874,-3.14,3.14,-0.0029583717472990347
89,1.4638824521146656,0.9751004121525808,1.048791822710451,4.460248050820694,2.709914457850121,1.9713388458383097,4.5058490752298805,-1.0,-1.5702450727129598,0.34527587545733796,-1.920109947604042,-3.14,3.14,-0.004014681258442939
90,1.4641131270051426,0.975416640674369,1.0487913359378869,4.460101497373883,2.710242913681075,1.9713754971974544,4.506292140293728,-1.0,-1.5715805703531243,0.3443444569602235,-1.919523453102916,-3.14,3.14,-0.004733695525839689
91,1.464311580814594,0.9756872256804066,1.0487923774803314,4.459808747371652,2.7105147427748424,1.9714287320866273,4.505631590148382,-1.0,-1.5726877750283255,0.3450600838748159,-1.9197944850123378,-3.14,3.14,-0.0050635059178155166
92,1.4644469208848634,0.97587067372899,1.0487943198902485,4.4594478018370465,2.7106923817163224,1.9714804641823938,4.504111124139579,-1.0,-1.5734230611748932,0.34712564042925353,-1.9207981267109149,-3.14,3.14,-0.005016309546787196
93,1.4645047410453425,0.9759475686971283,1.0487968999719433,4.4590934207562904,2.71076059285814,1.9715167521858752,4.5020739863352945,-1.0,-1.5737221135491581,0.35007164914140915,-1.9223029645928205,-3.14,3.14,-0.004657033068172169
94,1.4644864619198648,0.9759198243274406,1.0488000455395148,4.458806588326998,2.7107247918337705,1.9715298553908112,4.499895351481261,-1.0,-1.5735965161758934,0.35335389148102203,-1.924026895374678,-3.14,3.14,-0.004087114860982837
95,1.4644057407138515,0.9758061389769009,1.0488035800577151,4.458627714206431,2.710605973858455,1.9715184253022844,4.49792093437732,-1.0,-1.5731207899925017,0.35644662047189557,-1.9256912670954416,-3.14,3.14,-0.0034256087734352092
96,1.4642836310587088,0.9756356462466724,1.048807050063497,4.458573848400394,2.7104342999149447,1.9714861975978948,4.4964189284252445,-1.0,-1.5724129222755066,0.3589200526187326,-1.9270645967704614,-3.14,3.14,-0.002789737252064074
97,1.4641438820452626,0.9754414792234727,1.048809795468999,4.458639629393225,2.7102429192514075,1.9714399706076522,4.495549728490973,-1.0,-1.5716113193850274,0.36049385789346633,-1.9279911692688483,-3.14,3.14,-0.002277345118147253
98,1.4640091214512532,0.9752552926626605,1.0488112067070672,4.458801315429473,2.710062853690505,1.9713876373937176,4.495355424776384,-1.0,-1.5708512877921748,0.3610617099018649,-1.9284034265119516,-3.14,3.14,-0.0019538225951469938
99,1.4638980749852155,0.9751031337360062,1.0488109966213965,4.45902298283316,2.709919166255405,1.9713367183319497,4.495768489112199,-1.0,-1.5702443410432891,0.3606860327151407,-1.9283195662981765,-3.14,3.14,-0.0018455277288707524
100,1.463823687234268,0.9750026793561725,1.048809323571324,4.459263781314427,2.709828378819318,1.9712934605468884,4.496636439550537,-1.0,-1.569863379280975,0.35956663150283374,-1.927829191287797,-3.14,3.14,-0.0019404954723133189
101,1.4637920436229974,0.9749617956822272,1.0488067111263475,4.459485052659249,2.7097971394428777,1.9712623354577277,4.4977569745910655,-1.0,-1.5697358136816313,0.35799102016897455,-1.9270705750562822,-3.14,3.14,-0.0021956439037696613
102,1.4638021559732988,0.9749784552251455,1.048803831961445,4.459656208450811,2.709822250013728,1.971245748363573,4.498916697314383,-1.0,-1.5698451277617675,0.35627686700666605,-1.9262035478235278,-3.14,3.14,-0.002548344695273211
103,1.463846736625063,0.9750420491623047,1.0488012806664644,4.459758548302558,2.709892129388332,1.9712439007704678,4.499926529369487,-1.0,-1.5701396427712615,0.3547173396725664,-1.925382260794118,-3.14,3.14,-0.002929567121267459
104,1.4639139446765088,0.9751359503901486,1.0487994343706033,4.459786634629413,2.7099895421522597,1.9712548737312139,4.500648273399393,-1.0,-1.570545937834869,0.3535382337121808,-1.9247319593838181,-3.14,3.14,-0.0032759559080703026
105,1.463989818932493,0.9752408877378782,1.0487984296983144,4.459747318311674,2.710095088952394,1.9712750227807856,4.501009113327942,-1.0,-1.5709838291428446,0.35287231307784805,-1.924333112174491,-3.14,3.14,-0.0035389523147726512
106,1.4640608862105293,0.9753384583370478,1.0487982221058396,4.459656914870851,2.7101907292386347,1.971299684396584,4.501003476873668,-1.0,-1.571380066322459,0.3527523479339574,-1.924214772550891,-3.14,3.14,-0.0036900395529561765
107,1.4641163835680964,0.975414074192227,1.0487986693111289,4.459537279167427,2.7102626203779203,1.971324063374238,4.500683968053683,-1.0,-1.571678708282797,0.3531208977105152,-1.9243572043825912,-3.14,3.14,-0.0037220578904061767
108,1.464149677256964,0.9754588290897851,1.0487995935714949,4.459411590626801,2.710302795946003,1.9713440879127004,4.500144590443773,-1.0,-1.5718471399723501,0.3538525487820856,-1.9247020853277264,-3.14,3.14,-0.0036471298939644405
109,1.4641587177212938,0.9754700894418403,1.0488008084273557,4.459300566201533,2.7103095498495087,1.9713570291152829,4.499500117465455,-1.0,-1.5718775969288623,0.35478320439913474,-1.925167450317866,-3.14,3.14,-0.0034920647993365145
110,1.4641456234171275,0.9754509254810776,1.0488021224285364,4.459219621641232,2.710286701122243,1.9713617696848644,4.4988653555306275,-1.0,-1.5717847360391959,0.35574095104666054,-1.9256641495820377,-3.14,3.14,-0.003292255105928684
111,1.4641156520017975,0.9754087097491375,1.0488033423277954,4.45917726485738,2.710242098421524,1.9713587220397086,4.498337420691857,-1.0,-1.5716002181750315,0.3565736966090719,-1.926110903198014,-3.14,3.14,-0.0030851118513784627
112,1.464075869709096,0.9753532866493936,1.0488042906481247,4.459174775879629,2.7101857692980946,1.9713494869406365,4.497983227897111,-1.0,-1.5713654995032476,0.3571699345003278,-1.926445804083445,-3.14,3.14,-0.0029040317831566702
113,1.46403379339711,0.9752950853049969,1.0488048363835774,4.459207034301262,2.710128066901051,1.9713363821193661,4.497833337470374,-1.0,-1.5711241051756768,0.3574704433453643,-1.9266330801113616,-3.14,3.14,-0.0027737361425816767
114,1.4639962026254716,0.9752434594920927,1.0488049247285123,4.4592642109066185,2.7100780726051217,1.9713219586801358,4.497882239130558,-1.0,-1.5709145927260468,0.35747031713334393,-1.926664853420408,-3.14,3.14,-0.002707554374214266
115,1.4639682428651322,0.9752054396671519,1.0488045897101546,4.4593339522328295,2.710042420156495,1.9713085838497815,4.498094192663774,-1.0,-1.570765197972043,0.35721224807100865,-1.9265584009915642,-3.14,3.14,-0.0027068686730710003
116,1.463952884277488,0.9751849972487939,1.048803942033222,4.459403659229788,2.710024631510671,1.9712981280870636,4.4984130009456855,-1.0,-1.5706908046938914,0.3567732413021203,-1.9263499741394954,-3.14,3.14,-0.002762550516657116
117,1.4639507594820838,0.975182851552928,1.0488031366834383,4.459462494118637,2.710024990950414,1.9712917684139166,4.498773665758483,-1.0,-1.5706924397309137,0.3562477334399772,-1.9260865680307038,-3.14,3.14,-0.002857892839207802
118,1.4639603649262196,0.9751967857196256,1.0488023332413405,4.459502835691538,2.7100409206776215,1.9712899090339888,4.499113824518105,-1.0,-1.5707590505591578,0.35573030137268036,-1.925817149135115,-3.14,3.14,-0.002972342896565122
119,1.4639785661891693,0.9752223745790822,1.048801662613934,4.459521025925028,2.7100677551314023,1.9712922159218078,4.4993831707232195,-1.0,-1.570870964422995,0.35530079198370057,-1.9255847528063088,-3.14,3.14,-0.003085302412942534
120,1.4640013030534544,0.9752539714911234,1.0488012083406073,4.4595173859214166,2.7100997537249856,1.9712977546451858,4.499549633999974,-1.0,-1.5710042242208777,0.35501390709989156,-1.9254205712705381,-3.14,3.14,-0.003179367153989117
121,1.46402435969801,0.9752857677545516,1.0488010031445174,4.459495601272094,2.7101311602807354,1.9713052073035253,4.49960179940457,-1.0,-1.5711349688952763,0.35489425034959116,-1.925340709874748,-3.14,3.14,-0.0032425775997936912
122,1.4640440619078445,0.9753127400467169,1.0488010360987947,4.459461665313238,2.7101571248172553,1.9713131296680864,4.499547732601033,-1.0,-1.5712431511287819,0.3549368084452508,-1.925345776099725,-3.14,3.14,-0.003269485590727071
123,1.4640577899556368,0.9753313402976901,1.0488012643861122,4.459422612315298,2.710174348738125,1.9713202010995403,4.49941092767069,-1.0,-1.5713151087267152,0.3551119816266894,-1.9254229796973659,-3.14,3.14,-0.003261058643616838
124,1.4640642444362968,0.9753398473880608,1.048801625342037,4.459385271014199,2.7101813838525546,1.9713254228750268,4.499224437535497,-1.0,-1.571344766603185,0.3553737063191614,-1.9255500523912747,-3.14,3.14,-0.0032236137835606085
125,1.4640634576068912,0.9753383725083442,1.0488020471859216,4.459355230311743,2.7101785887628527,1.971328234926668,4.499024365987159,-1.0,-1.571333492386815,0.35566896192912667,-1.9257000970385703,-3.14,3.14,-0.0031670841677349055
126,1.4640565897970659,0.9753285718795405,1.048802458677415,4.459336146561012,2.7101678051965585,1.9713285415063482,4.498843819117886,-1.0,-1.571288826804422,0.35594699960836357,-1.9258464595706493,-3.14,3.14,-0.003102973796615924
127,1.4640455800459382,0.9753131604298044,1.0488027981627557,4.459329449745669,2.7101518521369,1.9713266559874336,4.4987081811587375,-1.0,-1.5712224434177928,0.35616691468118145,-1.9259668538023356,-3.14,3.14,-0.0030423526019580315
128,1.46403273045879,0.9752953351345837,1.0488030215704527,4.459334436515631,2.710133946260864,1.9713231884956406,4.49863225411863,-1.0,-1.5711477559225422,0.3563026293473379,-1.9260462071220996,-3.14,3.14,-0.0029941931337247206
129,1.4640202985374686,0.9752782108917974,1.04880310795571,4.459348680926593,2.7101171483650566,1.9713189053205846,4.498619441736487,-1.0,-1.571077587414242,0.35634487449500113,-1.926077975826886,-3.14,3.14,-0.002964261179852307
130,1.464010156773804,0.975264351875179,1.0488030610575563,4.459368655020908,2.710103914284023,1.971314587296691,4.498662820931597,-1.0,-1.571022252911369,0.35630027574526263,-1.9260639510694402,-3.14,3.14,-0.0029546607461824934
131,1.4640035593028584,0.9752554539774528,1.0488029062089095,4.459390434037669,2.7100958014845444,1.9713109084272549,4.498747674022024,-1.0,-1.5709882980886796,0.3561880841215571,-1.926012802054603,-3.14,3.14,-0.0029640177171665083
132,1.4640010347401269,0.9752522042160202,1.0488026833358188,4.459410364911668,2.710093353330761,1.9713083487451621,4.498854884970697,-1.0,-1.5709780034876535,0.3560353882755193,-1.9259377586677373,-3.14,3.14,-0.0029881859373942455
133,1.464002404353653,0.9752543142415567,1.0488024379417429,4.459425598768891,2.7100961548941394,1.9713071484160278,4.498964547847038,-1.0,-1.570989627880293,0.35587177144837107,-1.9258539103812582,-3.14,3.14,-0.0030212905119773544
134,1.4640069069152783,0.9752607000710026,1.0488022123602836,4.459434422868256,2.7101030297559756,1.9713073038822742,4.499059191081841,-1.0,-1.5710182497546215,0.3557243318037319,-1.9257755923646032,-3.14,3.14,-0.0030568944484390256
135,1.4640133976997374,0.9752697614696954,1.0488020391147164,4.459436367870631,2.710112329302209,1.9713086013669505,4.499126164504113,-1.0,-1.5710569893587245,0.3556137983835659,-1.925714253462616,-3.14,3.14,-0.0030890859707272387
136,1.4640205810839977,0.9752797043653431,1.0488019372898045,4.459432105182563,2.710122257029619,1.971310678395996,4.499158932554152,-1.0,-1.571098363698219,0.3555521969280658,-1.9256770731179353,-3.14,3.14,-0.003113326789353643
137,1.464027235362161,0.9752888495684362,1.0488019118781426,4.459423180259064,2.710131171590673,1.971313100665205,4.499157226732237,-1.0,-1.5711355417964035,0.35554220937345715,-1.9256664407648523,-3.14,3.14,-0.0031269636151346905
138,1.4640323946671805,0.9752958803823691,1.0488019554501635,4.459411647115251,2.710137822903432,1.971315440271597,4.49912619693479,-1.0,-1.5711633178213222,0.355578083631844,-1.9256802593328841,-3.14,3.14,-0.0031293726667838335
139,1.4640354645946319,0.9752999979594896,1.048802051296929,4.459399675443613,2.7101414928348984,1.971317342471018,4.499074838116122,-1.0,-1.5711786911948205,0.3556477287601246,-1.9257129090434912,-3.14,3.14,-0.0031217682117804803
140,1.4640362624156378,0.9753009727228937,1.0488021772816307,4.459389195670073,2.7101420317126927,1.9713185715151675,4.499014041639624,-1.0,-1.5711810204721415,0.3557354993207309,-1.925756626045215,-3.14,3.14,-0.0031067531088484262
141,1.4640349865406321,0.975299098804498,1.0488023098136505,4.459381631863499,2.710139800183434,1.9713190309263144,4.4989546283408615,-1.0,-1.5711717885345762,0.355825137716875,-1.9258030200069804,-3.14,3.14,-0.0030877174357861734
142,1.4640321306578379,0.9752950730118846,1.0488024274921188,4.459377751513479,2.710135539664183,1.9713187586129246,4.498905671683342,-1.0,-1.571154070960205,0.3559023950381302,-1.9258444729543045,-3.14,3.14,-0.003068199481266725
143,1.464028364344789,0.9752898284978382,1.0488025140305837,4.459377638883286,2.710130202280747,1.9713179014203175,4.498873330406863,-1.0,-1.5711318318914758,0.355956968731941,-1.9258752179064307,-3.14,3.14,-0.003051313307790425
144,1.4640244037270291,0.9752843557179282,1.048802560129783,4.459380778546285,2.7101247726693485,1.9713166763563612,4.498860300138535,-1.0,-1.571109180772696,0.3559835520297227,-1.925891975258296,-3.14,3.14,-0.0030393225923570763
145,1.4640208935918273,0.9752795402281653,1.0488025640821173,4.459386220547042,2.7101201103045174,1.97131532665252,4.498865882141069,-1.0,-1.571089710877232,0.35598195647858427,-1.9258941112846502,-3.14,3.14,-0.0030334069256378847
146,1.4640183173676076,0.9752760398696886,1.0488025310906068,4.459392789988872,2.710116833625606,1.9713140802485576,4.498886571790637,-1.0,-1.571076011239262,0.35595641848780224,-1.925883362262038,-3.14,3.14,-0.003033630398498428
147,1.4640169447787368,0.975274214618383,1.0488024715235196,4.459399302150813,2.7101152578419963,1.9713131166722107,4.498917002025003,-1.0,-1.5710694040200195,0.35591431267886414,-1.9258632286415183,-3.14,3.14,-0.0030390891732418185
148,1.4640168199329207,0.9752741125041526,1.0488023985241135,4.459404748801636,2.7101153885022295,1.971312546099726,4.49895104454533,-1.0,-1.5710699168935052,0.3558645565608666,-1.9258381799614908,-3.14,3.14,-0.0030481897383261305
149,1.4640177861013344,0.9752755059876067,1.0488023254849919,4.45940843066378,2.7101169641219567,1.971312402032237,4.498982874423,-1.0,-1.5710764617943498,0.3558159995970861,-1.9258128207893896,-3.14,3.14,-0.00305899568320512
150,1.4640195383352126,0.9752779661900097,1.0488022638563286,4.459410022904939,2.710119534508717,1.9713126468187547,4.499007836758947,-1.0,-1.571087162901245,0.35577605093232634,-1.925791153097749,-3.14,3.14,-0.0030695788449813617
151,1.4640216919174143,0.9752809581942479,1.0488022216154747,4.459409572866618,2.710122557648363,1.9713131874433816,4.499023007824978,-1.0,-1.5710997613006183,0.3557497266333646,-1.9257760366440952,-3.14,3.14,-0.003078319193795885
152,1.4640238537512373,0.975283939592116,1.0488022025405843,4.459407439970358,2.7101254973990025,1.9713138977645523,4.499027406248382,-1.0,-1.571112022049196,0.35573920582756435,-1.9257689038677048,-3.14,3.14,-0.003084113904186885
153,1.4640256850501752,0.9752864463571256,1.0488022062607123,4.4594041953949635,2.710127906520263,1.9713146428734836,4.499021870935517,-1.0,-1.5711220796254952,0.35574389271548684,-1.925769738077715,-3.14,3.14,-0.003086475987177717
154,1.4640269466632974,0.9752881543163016,1.0488022289345529,4.4594005029156385,2.7101294840290553,1.971315301453879,4.49900867218028,-1.0,-1.5711286766127537,0.35576090280886236,-1.9257772811900928,-3.14,3.14,-0.0030855229041932687
155,1.4640275223455617,0.975288910001214,1.048802264347288,4.4593970021928575,2.7101301014973296,1.9713157828791021,4.498990954591513,-1.0,-1.571131273622354,0.3557858372221982,-1.925789406018818,-3.14,3.14,-0.0030818726177924242
156,1.4640274194580762,0.9752887303908825,1.048802305198909,4.4593942123782755,2.7101297985977313,1.9713160370681582,4.49897212262697,-1.0,-1.5711300316761105,0.35581368339244185,-1.9258035715410722,-3.14,3.14,-0.003076476394712147
157,1.4640267502329163,0.9752877760408806,1.0488023443717411,4.459392468186749,2.7101287530112854,1.9713160565641235,4.498955272674887,-1.0,-1.5711256879174877,0.35583968392281823,-1.9258172781816645,-3.14,3.14,-0.0030704233186400706
158,1.464025699339337,0.975286305624628,1.0488023759983611,4.459391893793734,2.7101272330902813,1.971315871624922,4.49894275360033,-1.0,-1.5711193591186516,0.35586004266951393,-1.9258284520102678,-3.14,3.14,-0.003064750927756212
159,1.4640244847890322,0.9752846216520182,1.048802396198754,4.459392413265244,2.7101255431364346,1.9713155401145959,4.498935906063885,-1.0,-1.571112313785034,0.35587238103537594,-1.9258357080132729,-3.14,3.14,-0.003060290612095518
160,1.4640233192225633,0.9752830170842319,1.0488024034152188,4.459393790723079,2.71012397086687,1.9713151345376654,4.498934995974545,-1.0,-1.5711057527904937,0.3558759086127844,-1.9258384685771486,-3.14,3.14,-0.003057566990445607
161,1.4640223775351173,0.9752817310185321,1.0488023983404848,4.459395689778917,2.7101227449184635,1.9713147286544699,4.498939325030579,-1.0,-1.5711006315399194,0.35587132188448556,-1.9258369392709414,-3.14,3.14,-0.0030567593809322823
162,1.4640217749630915,0.9752809190396262,1.04880238349936,4.459397740246071,2.710122007565577,1.9713143858160984,4.4989474760980945,-1.0,-1.5710975455561937,0.35586048517822916,-1.925831965927068,-3.14,3.14,-0.0030577226405218774
163,1.4640215575527862,0.9752806407693044,1.0488023625950236,4.459399600693437,2.710121804741199,1.9713141505773084,4.498957636091374,-1.0,-1.571096688416762,0.3558459744318303,-1.9258248120895065,-3.14,3.14,-0.0030600557404405378
164,1.4640217047495876,0.9752808641262886,1.0488023397577437,4.459401007666157,2.710122092479123,1.9713140444172748,4.498967934998071,-1.0,-1.5710978784032656,0.35583057440084404,-1.9258169027740624,-3.14,3.14,-0.0030632006074739404
165,1.4640221420053217,0.9752814832842941,1.0488023188323394,4.45940180577264,2.710122756469267,1.971314065650525,4.498976745825661,-1.0,-1.5711006399911631,0.3558168144212809,-1.925809579256046,-3.14,3.14,-0.0030665514917631595
166,1.4640227600360844,0.9752823456056912,1.0488023028145035,4.459401956644778,2.7101236398368416,1.9713141929551674,4.498982904153954,-1.0,-1.571104319684221,0.35580660977597156,-1.9258039015860655,-3.14,3.14,-0.0030695562757824756
167,1.4640234367920426,0.97528328208596,1.0488022935042198,4.459401528360983,2.710124573652023,1.971314391466217,4.498985824388426,-1.0,-1.5711082132281557,0.355801049710687,-1.9258005229210045,-3.14,3.14,-0.0030717950447886094
168,1.4640240583233148,0.9752841360574607,1.048802291397947,4.459400669749716,2.7101254050155212,1.9713146201276572,4.498985509195686,-1.0,-1.5711116827189755,0.3558003444123048,-1.925799645149048,-3.14,3.14,-0.003073026883847228
169,1.4640245354317296,0.9752847859088216,1.0488022957996392,4.459399575727569,2.710126018667772,1.9713148389790383,4.498982465786942,-1.0,-1.5711142467558918,0.3558039166895139,-1.9258010512475363,-3.14,3.14,-0.003073202112979095
170,1.4640248140968593,0.9752851591114438,1.0488023051000432,4.459398450353577,2.7101263496565444,1.9713150152446912,4.498977555320259,-1.0,-1.5711156333949525,0.3558106035351269,-1.9258041984629444,-3.14,3.14,-0.003072442957523242
171,1.4640248789268062,0.9752852365905912,1.0488023171563676,4.45939747368991,2.7101263863494696,1.9713151274389797,4.498971808401595,-1.0,-1.5711157929200998,0.3558189205484631,-1.9258083491472529,-3.14,3.14,-0.003071000142564265
172,1.4640247500851709,0.9752850481282717,1.0488023296999585,4.459396777100818,2.7101261646924995,1.9713151671239186,4.498966240273932,-1.0,-1.571114874137035,0.35582733906248154,-1.9258127134842573,-3.14,3.14,-0.003069195587796821
173,1.4640244751030214,0.9752846607908741,1.048802340706035,4.459396429648154,2.710125755856358,1.9713151383769076,4.498961694569695,-1.0,-1.5711131730542465,0.35583453094737694,-1.9258165801386071,-3.14,3.14,-0.003067362103799666
174,1.4640241175826683,0.975284163180144,1.0488023486743,4.459396436134135,2.7101252501397273,1.9713150553782786,4.4989587359565535,-1.0,-1.5711110658625718,0.35583954747775504,-1.9258194161489854,-3.14,3.14,-0.0030657899179187906
175,1.4640237449976665,0.9752836485582377,1.0488023527893842,4.459396745447671,2.710124740171798,1.9713149387644588,4.498957601504491,-1.0,-1.5711089388868538,0.35584191368768997,-1.92582092483835,-3.14,3.14,-0.003064687406677392
176,1.4640234176191032,0.9752831996379082,1.04880235295242,4.459397266453929,2.710124306131985,1.9713148114924874,4.4989582100538055,-1.0,-1.5711071268648467,0.3558416354456761,-1.9258210586561118,-3.14,3.14,-0.0030641601554156177
177,1.464023180133661,0.9752828771723461,1.0488023496961438,4.459397887880784,2.7101240050041038,1.9713146949303497,4.498960219918,-1.0,-1.5711058680067642,0.3558391304896096,-1.9258199913325065,-3.14,3.14,-0.003064209024180164
178,1.464023056877967,0.9752827135847897,1.0488023440127097,4.4593984985337976,2.71012386496846,1.9713146057497992,4.49896311908015,-1.0,-1.5711052804772838,0.35583510494009374,-1.9258180594489605,-3.14,3.14,-0.0030647448349790767
179,1.4640230509204792,0.9752827119180097,1.0488023371334254,4.459399004638571,2.7101238850796774,1.9713145539912682,4.498966329209277,-1.0,-1.5711053609423071,0.3558304022793012,-1.925815686867143,-3.14,3.14,-0.0030656150359106922
180,1.4640231465907243,0.9752828495157739,1.0488023303020124,4.459399342010246,2.710124039534021,1.97131454243604,4.498969305306049,-1.0,-1.571106002286476,0.3558258522651741,-1.9258133062316314,-3.14,3.14,-0.003066636483368746
181,1.464023314575022,0.9752830851938454,1.048802324578182,4.4593994818825395,2.7101242852126752,1.971314567198804,4.498971616042259,-1.0,-1.571107025022456,0.35582214337443124,-1.9258112902084765,-3.14,3.14,-0.003067628357368466
182,1.4640235184214452,0.9752833682888342,1.0488023206981598,4.459399430383719,2.7101245708612387,1.971314619276254,4.498972994986201,-1.0,-1.5711082155499052,0.3558197353544686,-1.9258099018135377,-3.14,3.14,-0.003068440052561595
183,1.4640237212395322,0.9752836479071199,1.0488023190058393,4.459399222640561,2.7101248462411442,1.9713146866756448,4.498973358839991,-1.0,-1.5711093643214253,0.3558188198543234,-1.9258092688830946,-3.14,3.14,-0.003068970403479264
184,1.4640238915209145,0.9752838809013932,1.0488023194550489,4.459398913191137,2.7101250698278045,1.9713147567094498,4.498972794513375,-1.0,-1.5711102979712719,0.3558193284705227,-1.9258093832561287,-3.14,3.14,-0.003069176471724903
185,1.4640240072958979,0.9752840375090284,1.0488023216722606,4.459398564725448,2.7101252140586842,1.971314818074329,4.498971521464545,-1.0,-1.5711109012477624,0.35582098023725756,-1.9258101212988785,-3.14,3.14,-0.003069072002910441
186,1.4640240582122481,0.9752841041026685,1.0488023250612648,4.459398237147961,2.7101252676585617,1.9713148624199819,4.4989698386875805,-1.0,-1.5711111267712308,0.3558233555640694,-1.9258112795467393,-3.14,3.14,-0.003068717257304433
187,1.4640240455058615,0.9752840830324961,1.0488023289275699,4.459397978623383,2.71012523509296,1.9713148852347675,4.498968066793326,-1.0,-1.571110992819307,0.35582598133856963,-1.925812617759648,-3.14,3.14,-0.0030682030221669833
188,1.464023980166757,0.9752839899969584,1.0488023326004743,4.459397819722135,2.7101251336421726,1.9713148860064194,4.498966494916374,-1.0,-1.571110571180466,0.35582841233406154,-1.9258139016209261,-3.14,3.14,-0.0030676321236034008
189,1.4640238798426122,0.9752838497027029,1.0488023355342233,4.459397771140278,2.7101249888899135,1.971314867735505,4.49896534004963,-1.0,-1.5711099683769965,0.35583029674237293,-1.9258149384660572,-3.14,3.14,-0.0030671016762997667
190,1.4640237651420829,0.9752836907335309,1.0488023373754856,4.459397824843595,2.7101248295553004,1.9713148359694845,4.498964723392781,-1.0,-1.5711093041255506,0.3558314178529478,-1.9258156014527352,-3.14,3.14,-0.003066688736383728
191,1.4640236559997608,0.9752835405410677,1.0488023379913562,4.4593979579726275,2.71012468256753,1.9713147975762206,4.498964664997278,-1.0,-1.5711086907870935,0.35583170875018977,-1.9258158400373129,-3.14,3.14,-0.0030664411148451877
192,1.464023568661034,0.9752834213213868,1.0488023374590145,4.459398138508534,2.71012456911718,1.9713147594853115,4.498965094954064,-1.0,-1.5711082168729933,0.3558312415538667,-1.9258156770617796,-3.14,3.14,-0.0030663740551519726
193,1.4640235136693731,0.9752833472953748,1.0488023360240146,4.4593983315663674,2.710124502161825,1.9713147275981344,4.49896587703702,-1.0,-1.5711079366073581,0.3558301964842756,-1.9258151948013367,-3.14,3.14,-0.0030664724639134686
194,1.464023495028092,0.975283323618387,1.0488023340381218,4.4593985052449385,2.710124485569261,1.9713147060126495,4.4989668393495625,-1.0,-1.571107866317672,0.3558288184352619,-1.9258145137122964,-3.14,3.14,-0.0030666975606116476
195,1.4640235105011898,0.9752833468587747,1.0488023318893207,4.459398635183018,2.7101245148003357,1.9713146966392638,4.498967806200368,-1.0,-1.571107987250786,0.35582736960075145,-1.9258137682296756,-3.14,3.14,-0.0030669962829996144
196,1.464023552845248,0.9752834067486824,1.048802329936076,4.459398707293943,2.7101245788070774,1.971314699212308,4.4989686260594315,-1.0,-1.5711082534653773,0.355826086107051,-1.9258130838087806,-3.14,3.14,-0.003067311590018389
197,1.4640236116484913,0.9752834887539614,1.0488023284555328,4.4593987185096395,2.710124662678041,1.9713147116394034,4.498969191786142,-1.0,-1.5711086028504393,0.35582514485236316,-1.9258125586175505,-3.14,3.14,-0.0030675919270724875
198,1.4640236754041274,0.9752835769462626,1.048802327611785,4.459398675699727,2.710124750512305,1.9713147305864536,4.49896945106632,-1.0,-1.5711089691075193,0.3558246442838996,-1.9258122520786454,-3.14,3.14,-0.0030677984950016426
199,1.4640237334612163,0.9752836566862856,1.0488023274463067,4.459398593192683,2.7101248280411863,1.971314752173684,4.498969406815367,-1.0,-1.5711092926901573,0.355824600139498,-1.9258121810800881,-3.14,3.14,-0.0030679094993235965
200,1.464023777565837,0.9752837167260604,1.0488023278888676,4.45939848948387,2.7101248846241033,1.9713147726583937,4.498969108905116,-1.0,-1.5711095291408854,0.3558249546997516,-1.925812323360505,-3.14,3.14,-0.0030679211442125806
201,1.4640238028099783,0.9752837504843448,1.0488023287843247,4.459398383759297,2.7101249143956556,1.9713147889997102,4.498968639733822,-1.0,-1.5711096538931975,0.35582559619404225,-1.9258126265250743,-3.14,3.14,-0.0030678456770092608
202,1.4640238079238506,0.9752837564131005,1.0488023299288427,4.459398292803677,2.7101249165050065,1.9713147992338675,4.498968096762832,-1.0,-1.5711096632896118,0.35582638389456556,-1.9258130204879775,-3.14,3.14,-0.003067707205972467
203,1.464023794958984,0.9752837375265484,1.048802331108579,4.459398228720938,2.7101248945387555,1.9713148026282243,4.498967575174637,-1.0,-1.5711095721926647,0.3558271741770995,-1.9258134309143964,-3.14,3.14,-0.0030675362591076065
204,1.464023768497856,0.9752837002848916,1.048802332134453,4.4593981977078885,2.7101248553330026,1.9713147996213112,4.498967153341401,-1.0,-1.5711094090439477,0.3558278433447911,-1.925813791422718,-3.14,3.14,-0.0030673641113398067
205,1.4640237345804414,0.9752836530983052,1.0488023328681426,4.459398199923324,2.7101248074465,1.9713147915885707,4.498966882973834,-1.0,-1.57110920950346,0.35582830411141386,-1.9258140528181806,-3.14,3.14,-0.00306721779806418
206,1.464023699555314,0.9752836047384268,1.0488023332364909,4.459398230317938,2.710124759581147,1.9713147804950493,4.498966784825211,-1.0,-1.5711090098628027,0.35582851406927524,-1.9258141883372413,-3.14,3.14,-0.0030671164960897252
207,1.464023669045239,0.9752835629183273,1.0488023332337097,4.459398280159521,2.7101247192037556,1.971314768505264,4.498966849834664,-1.0,-1.5711088412921277,0.3558284759548101,-1.9258141946490057,-3.14,3.14,-0.0030670696432419397
208,1.4640236471724644,0.9752835332386909,1.0488023329127572,4.45939833891703,2.7101246915556474,1.9713147576171868,4.4989670447614145,-1.0,-1.571108725700638,0.3558282308313803,-1.9258140890580808,-3.14,3.14,-0.003067076844015242
209,1.464023636127819,0.9752835186128053,1.0488023323687594,4.459398396158683,2.7101246791497298,1.9713147493740373,4.498967320795022,-1.0,-1.571108673628289,0.3558278462556893,-1.9258139038830517,-3.14,3.14,-0.003067129323209659
210,1.4640236361022059,0.9752835191923155,1.0488023317181925,4.459398443165906,2.710124681764531,1.9713147446878372,4.498967623376685,-1.0,-1.5711086842102253,0.3558274019846391,-1.9258136792876392,-3.14,3.14,-0.003067212481577483
211,1.4640236455398805,0.975283532734453,1.0488023310776768,4.4593984740514445,2.7101246968657975,1.9713147437864293,4.4989679015274335,-1.0,-1.5711087469261231,0.3558269758014094,-1.925813455902286,-3.14,3.14,-0.0030673089986323664
212,1.4640236616284619,0.9752835552909539,1.0488023305457517,4.459398486277357,2.710124720329343,1.971314746274761,4.498968115297223,-1.0,-1.5711088446087735,0.3558266316559215,-1.9258132684172973,-3.14,3.14,-0.003067401920916851
213,1.4640236809157072,0.9752835820656381,1.0488023301900555,4.459398480576993,2.710124747309732,1.9713147512846931,4.498968240438396,-1.0,-1.5711089570641195,0.3558264116429123,-1.9258131410098793,-3.14,3.14,-0.003067477255818043
214,1.46402369993885,0.9752836082829318,1.048802330041147,4.4593984603774715,2.710124773098559,1.9713147576774426,4.498968269967052,-1.0,-1.5711090646512254,0.3558263325263043,-1.9258130850591562,-3.14,3.14,-0.0030675257361281066
215,1.4640237157665006,0.9752836299302405,1.0488023300929883,4.459398430883536,2.7101247938398654,1.9713147642596114,4.498968212809198,-1.0,-1.5711091512691517,0.35582638670871364,-1.9258130991819262,-3.14,3.14,-0.0030675435973713996
216,1.464023726380914,0.9752836442761648,1.04880233030907,4.459398398013673,2.7101248070112396,1.971314769977164,4.4989680901556435,-1.0,-1.5711092063685603,0.355826546865545,-1.9258131712550708,-3.14,3.14,-0.003067532386346478
217,1.4640237308635524,0.9752836501154104,1.0488023306324221,4.459398367375428,2.7101248116287047,1.9713147740602004,4.498967930418824,-1.0,-1.5711092258121837,0.3558267730017246,-1.9258132818277733,-3.14,3.14,-0.003067497967903386
218,1.4640237293828333,0.9752836477408573,1.048802330997401,4.459398343434318,2.7101248081825,1.9713147761028893,4.4989677637765215,-1.0,-1.5711092116128293,0.35582702048686815,-1.9258134081942961,-3.14,3.14,-0.00306744899844982
219,1.464023723013978,0.9752836386857756,1.048802331341157,4.459398328978594,2.7101247983518855,1.9713147760752703,4.498967617212434,-1.0,-1.5711091707487017,0.35582724767642493,-1.9258135283981939,-3.14,3.14,-0.003067395179889129
220,1.4640237134428447,0.9752836253089551,1.048802331613048,4.45939832492154,2.710124784574762,1.9713147742747186,4.498967510757241,-1.0,-1.5711091133715225,0.35582742198806444,-1.9258136245527744,-3.14,3.14,-0.003067345597554462
221,1.4640237026163958,0.9752836103097379,1.0488023317808146,4.4593983304243325,2.710124769559827,1.9713147712331955,4.498967455346831,-1.0,-1.5711090507730423,0.3558275237036922,-1.9258136850564036,-3.14,3.14,-0.003067307389629019
222,1.464023692401897,0.9752835962585534,1.0488023318330126,4.459398343274991,2.7101247558255217,1.9713147676010272,4.498967452403042,-1.0,-1.5711089934614786,0.355827547225702,-1.9258137055133784,-3.14,3.14,-0.0030672849087778177
223,1.4640236843067955,0.9752835852140304,1.0488023317778532,4.459398360427926,2.7101247453339425,1.9713147640286566,4.498967494958493,-1.0,-1.5711089496325112,0.3558274999517548,-1.9258136883998969,-3.14,3.14,-0.003067279437162861
224,1.4640236792944075,0.9752835784741756,1.0488023316391408,4.4593983785972515,2.7101247392633896,1.971314761065121,4.498967569931435,-1.0,-1.5711089242176062,0.3558273992807916,-1.925813641704889,-3.14,3.14,-0.0030672894209827924
225,1.4640236777105995,0.9752835764814747,1.048802331450351,4.459398394803584,2.710124737935427,1.9713147590867255,4.498967661032787,-1.0,-1.571108918576462,0.3558272684820439,-1.925813576902925,-3.14,3.14,-0.0030673111143977414
226,1.4640236793172199,0.9752835788749404,1.048802331248035,4.459398406795627,2.710124740885974,1.9713147582627715,4.498967751762229,-1.0,-1.5711089307904056,0.35582713223267204,-1.9258135066700968,-3.14,3.14,-0.0030673394743978262
227,1.4640236834119282,0.9752835846601762,1.048802331065682,4.459398413298443,2.710124747048935,1.971314758558431,4.498967828013145,-1.0,-1.5711089564258855,0.35582701256733806,-1.9258134427357079,-3.14,3.14,-0.0030673691314386663
228,1.4640236890035074,0.9752835924542231,1.0488023309289243,4.45939841407422,2.710124755007791,1.9713147597690817,4.498967879935277,-1.0,-1.5711089895823636,0.35582692581352227,-1.9258133941858133,-3.14,3.14,-0.00306739527363595
229,1.464023695007448,0.9752836007563872,1.0488023308526495,4.4593984098125645,2.7101247632662666,1.9713147615762705,4.498967902869455,-1.0,-1.571109024020812,0.35582688085132014,-1.9258133664194061,-3.14,3.14,-0.003067414318771716
230,1.4640237004284007,0.9752836081991045,1.0488023308401988,4.459398401891615,2.7101247704931284,1.9713147636135255,4.498967897339898,-1.0,-1.5711090541852946,0.3558268787818155,-1.9258133608277588,-3.14,3.14,-0.003067424299270369
231,1.4640237045028932,0.9752836137425179,1.048802330884481,4.459398392065505,2.7101247757065767,1.9713147655303458,4.498967868238673,-1.0,-1.5711090759733297,0.35582691385639076,-1.925813375144605,-3.14,3.14,-0.0030674249406999615
232,1.4640237067856547,0.9752836167903738,1.0488023309705543,4.459398382137376,2.7101247783780047,1.9713147670446391,4.49896782344396,-1.0,-1.5711090871703848,0.35582697534345137,-1.9258134043175494,-3.14,3.14,-0.003067417464930614
233,1.4640237071740616,0.975283617220276,1.0488023310790702,4.459398373671053,2.7101247784503397,1.9713147679770622,4.498967772167886,-1.0,-1.5711090875282292,0.35582704990855607,-1.9258134416909325,-3.14,3.14,-0.003067404187643445
234,1.4640237058756511,0.9752836153357141,1.0488023311899175,4.459398367780874,2.7101247762802028,1.9713147682644674,4.498967723330058,-1.0,-1.5711090785253383,0.3558271240638302,-1.9258134802714602,-3.14,3.14,-0.003067388002113727
235,1.4640237033318282,0.9752836117584129,1.048802331285468,4.459398365021397,2.710124772523695,1.9713147679533063,4.498967684206973,-1.0,-1.5711090628917423,0.3558271862946024,-1.9258135138673744,-3.14,3.14,-0.003067371845927394
236,1.4640237001158733,0.9752836072862583,1.0488023313529746,4.459398365380107,2.710124767991613,1.9713147671768683,4.498967659529039,-1.0,-1.5711090440058169,0.35582722857707416,-1.925813537941278,-3.14,3.14,-0.003067358236268078
237,1.4640236968248117,0.9752836027438448,1.0488023313858719,4.459398368359637,2.710124763501018,1.9713147661221857,4.498967651102747,-1.0,-1.5711090252752784,0.3558272471363721,-1.9258135500840623,-3.14,3.14,-0.0030673489365943708
238,1.4640236939828772,0.9752835988500069,1.0488023313839248,4.459398373124017,2.71012475974684,1.9713147649932394,4.498967657942642,-1.0,-1.571109009601223,0.3558272424342087,-1.925813550089606,-3.14,3.14,-0.00306734478812543
239,1.4640236919700087,0.9752835961206097,1.0488023313523698,4.459398378677066,2.710124757210715,1.9713147639767246,4.498967676820317,-1.0,-1.5711089989970939,0.3558272184971286,-1.9258135396751044,-3.14,3.14,-0.0030673457091050706
240,1.464023690982976,0.9752835948167732,1.048802331300322,4.459398384040536,2.710124756116012,1.971314763215363,4.498967703085737,-1.0,-1.5711089944001113,0.35582718178351375,-1.9258135219408323,-3.14,3.14,-0.003067350838210285
241,1.464023691030607,0.9752835949401825,1.0488023312388048,4.459398388404235,2.7101247564295328,1.971314762791856,4.498967731594159,-1.0,-1.5711089956773534,0.3558271398314526,-1.9258135006905366,-3.14,3.14,-0.003067358779319509
242,1.4640236919590093,0.9752835962695483,1.0488023311787598,4.4593983912286905,2.7101247579030128,1.9713147627244714,4.498967757579051,-1.0,-1.57110900179798,0.35582709992950967,-1.9258134797382453,-3.14,3.14,-0.003067367895094165
243,1.4640236934986206,0.9752835984267034,1.0488023311293482,4.459398392290997,2.710124760142305,1.9713147629733159,4.4989677773424175,-1.0,-1.57110901112121,0.3558270680145897,-1.9258134623115937,-3.14,3.14,-0.0030673765966473857
244,1.4640236953226504,0.9752836009578252,1.048802331096777,4.4593983916748074,2.7101247626895413,1.9713147634547914,4.498967788680657,-1.0,-1.571109021738721,0.355827047936755,-1.9258134506311244,-3.14,3.14,-0.0030673835846476523
245,1.46402369710618,0.9752836034149703,1.0488023310837447,4.459398389713882,2.7101247651036084,1.9713147640608295,4.498967791016924,-1.0,-1.5711090318103325,0.3558270411537837,-1.925813445706306,-3.14,3.14,-0.0030673880111046735
246,1.4640236985766037,0.975283605425148,1.0488023310895196,4.459398386904594,2.7101247670266186,1.971314764679219,4.498967785260875,-1.0,-1.571109039841541,0.3558270468423017,-1.9258134473494257,-3.14,3.14,-0.003067389547818737
247,1.4640236995487683,0.975283606737919,1.048802331110538,4.459398383805449,2.7101247682279768,1.971314765211706,4.49896777345629,-1.0,-1.5711090448678198,0.35582706234918327,-1.9258134543743475,-3.14,3.14,-0.003067388364021252
248,1.4640236999414882,0.9752836072471318,1.0488023311413623,4.459398380941132,2.7101247686223493,1.97131476558735,4.498967758301582,-1.0,-1.571109046530123,0.3558270838646053,-1.9258134649229512,-3.14,3.14,-0.0030673850295516738
249,1.4640236997754965,0.9752836069870642,1.0488023311757941,4.459398378725406,2.7101247682624225,1.9713147657697296,4.498967742636015,-1.0,-1.5711090450452112,0.35582710718034133,-1.9258134768502326,-3.14,3.14,-0.0030673803692215554
250,1.4640236991557856,0.9752836061071971,1.0488023312079489,4.459398377412249,2.71012476731114,1.97131476575774,4.498967728976676,-1.0,-1.5711090410903177,0.3558271284028939,-1.9258134880996622,-3.14,3.14,-0.0030673752980020347
251,1.4640236982432928,0.9752836048325758,1.0488023312331314,4.45939837707883,2.710124766000666,1.9713147655807648,4.498967719171255,-1.0,-1.571109035632276,0.35582714451656383,-1.9258134970116043,-3.14,3.14,-0.0030673706654711238
252,1.4640236972218665,0.9752836034179978,1.0488023312483978,4.4593983776385,2.7101247645863595,1.971314765289778,4.498967714204457,-1.0,-1.5711090297356443,0.3558271537298255,-1.9258135025261374,-3.14,3.14,-0.0030673671324847928
253,1.4640236962663302,0.9752836021040332,1.0488023312527703,4.459398378877496,2.710124763303634,1.97131476494633,4.498967714166478,-1.0,-1.5711090243827353,0.35582715558162736,-1.925813504263575,-3.14,3.14,-0.003067365094758005
254,1.4640236955164778,0.9752836010814973,1.0488023312471078,4.4593983805063,2.710124762334047,1.9713147646114442,4.498967718365559,-1.0,-1.5711090203319598,0.3558271508250118,-1.925813502487431,-3.14,3.14,-0.0030673646586408766
255,1.4640236950602163,0.9752836004687147,1.048802331233715,4.459398382215541,2.710124761784586,1.9713147643361717,4.498967725546622,-1.0,-1.571109018031162,0.35582714113773745,-1.925813497972248,-3.14,3.14,-0.0030673656654813964
256,1.4640236949271919,0.9752836003033143,1.048802331215776,4.459398383727091,2.7101247616815303,1.971314764155033,4.498967734166882,-1.0,-1.5711090175916906,0.3558271287295509,-1.925813491810385,-3.14,3.14,-0.003067367753897123
257,1.4640236950924086,0.9752836005477808,1.0488023311967334,4.4593983848330385,2.710124761977773,1.9713147640829718,4.498967742677337,-1.0,-1.5711090188186536,0.35582711592202887,-1.9258134851965556,-3.14,3.14,-0.0030673704448694467
258,1.4640236954878667,0.9752836011059451,1.0488023311797159,4.459398385418205,2.710124762570561,1.9713147641157938,4.498967749765386,-1.0,-1.5711090212846823,0.35582710477044277,-1.9258134792268924,-3.14,3.14,-0.003067373233151176
259,1.4640236960192583,0.9752836018462947,1.0488023311670924,4.459398385464987,2.710124763325406,1.9713147642335298,4.498967754526213,-1.0,-1.5711090244295345,0.3558270967807086,-1.9258134747418385,-3.14,3.14,-0.0030673756698281224
260,1.4640236965844138,0.9752836026275016,1.048802331160211,4.45939838504229,2.7101247641015673,1.9713147644057865,4.498967756546266,-1.0,-1.5711090276663349,0.35582709275213653,-1.925813472231182,-3.14,3.14,-0.0030673774244028046
261,1.4640236970903553,0.9752836033218676,1.0488023311593326,4.459398384282543,2.7101247647749003,1.971314764597964,4.498967755898262,-1.0,-1.5711090304769322,0.3558270927527132,-1.9258134718072542,-3.14,3.14,-0.003067378319609213
262,1.4640236974665066,0.9752836038333218,1.0488023311637447,4.459398383352016,2.7101247652548794,1.9713147647772513,4.498967753060997,-1.0,-1.5711090324830344,0.35582709621201103,-1.9258134732408316,-3.14,3.14,-0.003067378337387389
263,1.4640236976725385,0.9752836041079387,1.0488023311720096,4.4593983824201056,2.7101247654939695,1.971314764917493,4.498967748787153,-1.0,-1.5711090334854467,0.35582710210057983,-1.9258134760452552,-3.14,3.14,-0.003067377599165341
264,1.464023697700378,0.9752836041363862,1.0488023311822925,4.459398381632441,2.710124765488956,1.9713147650023302,4.498967743947058,-1.0,-1.5711090334698086,0.3558271091555781,-1.925813479588818,-3.14,3.14,-0.003067376327163965
265,1.4640236975709044,0.975283603949071,1.0488023311927028,4.459398381091527,2.710124765275175,1.9713147650263663,4.498967739376212,-1.0,-1.5711090325826675,0.3558271161108903,-1.9258134832138842,-3.14,3.14,-0.0030673747954500473
266,1.4640236973265912,0.9752836036057666,1.0488023312015977,4.459398380846849,2.710124764915541,1.9713147649944556,4.49896773574983,-1.0,-1.5711090310858349,0.35582712189517957,-1.9258134863431886,-3.14,3.14,-0.00306737327982637
267,1.4640236970218217,0.975283603182131,1.0488023312078039,4.459398380894659,2.7101247644868245,1.9713147649194984,4.498967733500154,-1.0,-1.5711090292992107,0.35582712577151016,-1.925813488558547,-3.14,3.14,-0.0030673720145437005
268,1.464023696712717,0.9752836027556474,1.048802331210733,4.459398381186095,2.71012476406571,1.971314764819286,4.498967732783393,-1.0,-1.5711090275426363,0.35582712740501854,-1.925813489643602,-3.14,3.14,-0.003067371161625773
269,1.4640236964481288,0.975283602393276,1.0488023312103922,4.459398381641187,2.7101247637168395,1.9713147647130327,4.498967733494414,-1.0,-1.5711090260859895,0.3558271268582567,-1.9258134895890175,-3.14,3.14,-0.003067370795807701
270,1.4640236962630475,0.9752836021424935,1.0488023312072972,4.45939838216575,2.7101247634844334,1.9713147646181743,4.498967735320151,-1.0,-1.5711090251141389,0.3558271245251759,-1.9258134885646316,-3.14,3.14,-0.0030673709052289346
271,1.4640236961751023,0.975283602026641,1.0488023312023214,4.459398382668085,2.710124763388274,1.9713147645479023,4.498967737817887,-1.0,-1.5711090247101276,0.3558271210227355,-1.9258134868675878,-3.14,3.14,-0.003067371405541576
272,1.4640236961842683,0.9752836020446991,1.048802331196507,4.4593983830729425,2.7101247634240817,1.9713147645097033,4.498967740502701,-1.0,-1.5711090248566268,0.3558271170630528,-1.9258134848579433,-3.14,3.14,-0.0030673721633350023
273,1.464023696275369,0.9752836021748938,1.0488023311908803,4.459398383330942,2.7101247635675882,1.9713147645049982,4.49896774292912,-1.0,-1.571109025452847,0.3558271133288011,-1.9258134828935736,-3.14,3.14,-0.003067373023900644
274,1.4640236964225888,0.9752836023810343,1.0488023311862928,4.459398383422606,2.710124763781153,1.9713147645297806,4.498967744755053,-1.0,-1.571109026342083,0.3558271103708376,-1.9258134812746297,-3.14,3.14,-0.003067373838390892
275,1.4640236965950086,0.9752836026201995,1.0488023311833132,4.4593983833571755,2.71012476402153,1.9713147645760083,4.498967745780544,-1.0,-1.5711090273440833,0.355827108540897,-1.9258134802048685,-3.14,3.14,-0.003067374486218392
276,1.4640236967621538,0.9752836028503905,1.0488023311821792,4.459398383167098,2.710124764247411,1.9713147646334315,4.498967745958861,-1.0,-1.5711090282865132,0.35582710796488537,-1.9258134797734987,-3.14,3.14,-0.0030673748898746417
277,1.464023696898686,0.9752836030369536,1.0488023311828063,4.459398382899682,2.710124764425596,1.9713147646915037,4.498967745382095,-1.0,-1.5711090290307295,0.355827108555198,-1.9258134799574738,-3.14,3.14,-0.003067375020927998
278,1.4640236969876317,0.9752836031569505,1.0488023311848478,4.459398382607608,2.7101247645350304,1.9713147647410714,4.49896774424714,-1.0,-1.5711090294886472,0.3558271100546143,-1.9258134806409783,-3.14,3.14,-0.0030673748975138366
279,1.4640236970218452,0.9752836032010761,1.048802331187784,4.459398382339947,2.7101247645683664,1.971314764775602,4.49896774281013,-1.0,-1.5711090296293302,0.35582711210044876,-1.9258134816466352,-3.14,3.14,-0.0030673745749129505
280,1.464023697003735,0.975283603173184,1.0488023311910306,4.4593983821350145,2.710124764531173,1.9713147647918352,4.498967741338084,-1.0,-1.5711090294757284,0.35582711429608127,-1.9258134827719002,-3.14,3.14,-0.003067374131665982
281,1.4640236969435347,0.9752836030878218,1.0488023311940373,4.459398382015913,2.7101247644392403,1.971314764789828,4.4989677400656864,-1.0,-1.5711090290934702,0.35582711627765623,-1.925813483824233,-3.14,3.14,-0.0030673736540239435
282,1.464023696856596,0.9752836029664459,1.048802331196368,4.459398381989081,2.710124764314662,1.971314764772475,4.498967739163249,-1.0,-1.571109028574578,0.3558271177662293,-1.92581348464973,-3.14,3.14,-0.003067373221396413
283,1.4640236967602727,0.9752836028330963,1.0488023311977552,4.459398382045642,2.710124764181502,1.9713147647446574,4.498967738719237,-1.0,-1.5711090280193707,0.35582711859927946,-1.925813485151673,-3.14,3.14,-0.0030673728949273046
284,1.464023696670924,0.975283602710278,1.0488023311981163,4.459398382164968,2.710124764061755,1.9713147647121971,4.498967738738052,-1.0,-1.5711090275196349,0.35582711873959183,-1.925813485297529,-3.14,3.14,-0.003067372710538463
285,1.4640236966015079,0.9752836026156683,1.0488023311975394,4.4593983823195495,2.7101247639722117,1.9713147646808173,4.498967739151241,-1.0,-1.571109027145507,0.3558271182633282,-1.9258134851149409,-3.14,3.14,-0.0030673726768938076
286,1.4640236965600348,0.9752836025600378,1.0488023311962478,4.459398382480274,2.710124763922569,1.9713147646552622,4.498967739838499,-1.0,-1.5711090269375936,0.3558271173320924,-1.9258134846788952,-3.14,3.14,-0.0030673727779056007
287,1.4640236965490225,0.9752836025465512,1.0488023311945438,4.459398382621189,2.7101247639149273,1.9713147646386955,4.498967740653778,-1.0,-1.5711090269048131,0.3558271161556158,-1.9258134840933192,-3.14,3.14,-0.0030673729787489687
288,1.4640236965658764,0.9752836025713476,1.0488023311927526,4.459398382723107,2.710124763944533,1.9713147646324303,4.498967741451722,-1.0,-1.5711090270274912,0.3558271149522138,-1.925813483470764,-3.14,3.14,-0.0030673732339488394
289,1.4640236966040234,0.9752836026251382,1.0488023311911652,4.459398382775642,2.710124764001494,1.9713147646359857,4.498967742110257,-1.0,-1.5711090272644772,0.3558271139135008,-1.9258134829136209,-3.14,3.14,-0.003067373495984542
290,1.464023696654495,0.9752836026954245,1.0488023311900005,4.459398382777586,2.710124764073049,1.9713147646474172,4.4989677425463475,-1.0,-1.571109027562606,0.355827113178267,-1.9258134824995778,-3.14,3.14,-0.003067373722994822
291,1.4640236967076707,0.975283602768902,1.0488023311893813,4.459398382735799,2.7101247641459643,1.9713147646638258,4.498967742723424,-1.0,-1.571109027866697,0.35582711281829443,-1.9258134822729946,-3.14,3.14,-0.003067373884510475
292,1.4640236967548688,0.9752836028336526,1.0488023311893262,4.459398382662989,2.710124764208669,1.9713147646819458,4.498967742650515,-1.0,-1.5711090281284494,0.3558271128366413,-1.9258134822426964,-3.14,3.14,-0.0030673739645963303
293,1.4640236967895697,0.9752836028808061,1.0488023311897638,4.459398382574912,2.7101247642528223,1.971314764698708,4.498967742374386,-1.0,-1.5711090283130071,0.3558271131768923,-1.9258134823856266,-3.14,3.14,-0.0030673739622806263
294,1.4640236968081268,0.975283602905495,1.048802331190557,4.459398382487474,2.7101247642741595,1.9713147647116882,4.498967741966896,-1.0,-1.5711090284024958,0.35582711374038084,-1.9258134826549584,-3.14,3.14,-0.0030673738895891007
295,1.4640236968099296,0.9752836029070462,1.0488023311915307,4.459398382414233,2.7101247642725808,1.9713147647193956,4.498967741510233,-1.0,-1.5711090283964066,0.3558271144075695,-1.925813482990768,-3.14,3.14,-0.0030673737678279097
296,1.464023696797069,0.9752836028884933,1.0488023311925083,4.459398382364605,2.710124764251577,1.9713147647213745,4.498967741082623,-1.0,-1.5711090283092195,0.3558271150596573,-1.9258134833312384,-3.14,3.14,-0.003067373622945006
297,1.4640236967736258,0.9752836028555764,1.0488023311933357,4.459398382342994,2.710124764217174,1.9713147647181268,4.4989677407466875,-1.0,-1.5711090281660203,0.3558271155970173,-1.9258134836225758,-3.14,3.14,-0.0030673734808237068
298,1.4640236967447582,0.9752836028154668,1.0488023311939059,4.459398382348808,2.710124764176639,1.971314764710899,4.498967740541875,-1.0,-1.5711090279970856,0.35582711595202904,-1.9258134838262693,-3.14,3.14,-0.003067373363252561
299,1.464023696715739,0.9752836027754413,1.0488023311941657,4.459398382377256,2.7101247641371646,1.9713147647013824,4.498967740481588,-1.0,-1.571109027832422,0.3558271160951014,-1.925813483922937,-3.14,3.14,-0.00306737328510471
300,1.4640236966911175,0.9752836027417353,1.048802331194119,4.459398382420696,2.710124764104762,1.9713147646913862,4.498967740554778,-1.0,-1.5711090276971225,0.3558271160339071,-1.9258134839126424,-3.14,3.14,-0.003067373252995271
301,1.4640236966741145,0.9752836027187134,1.048802331193816,4.4593983824702255,2.7101247640834862,1.9713147646825386,4.498967740731127,-1.0,-1.571109027608145,0.3558271158069105,-1.9258134838121328,-3.14,3.14,-0.0030673732654184142
302,1.4640236966663043,0.9752836027084568,1.0488023311933405,4.459398382517252,2.710124764075083,1.9713147646760574,4.498967740968512,-1.0,-1.5711090275728186,0.3558271154730061,-1.9258134836498642,-3.14,3.14,-0.0030673733141318524
303,1.464023696667605,0.9752836027107589,1.0488023311927912,4.4593983825547925,2.710124764079042,1.971314764672619,4.498967741221248,-1.0,-1.5711090275890622,0.3558271150994364,-1.925813483459902,-3.14,3.14,-0.003067373386396302
304,1.464023696676524,0.9752836027234828,1.0488023311922643,4.459398382578332,2.7101247640929946,1.9713147646723297,4.49896774144772,-1.0,-1.5711090276470407,0.3558271147501157,-1.9258134832758123,-3.14,3.14,-0.0030673734676003356
305,1.4640236966905908,0.9752836027431673,1.0488023311918386,4.459398382586177,2.7101247641133486,1.9713147646747888,4.498967741616301,-1.0,-1.571109027731798,0.35582711447612647,-1.9258134831254925,-3.14,3.14,-0.003067373543805876
306,1.4640236967068816,0.9752836027657558,1.0488023311915664,4.459398382579324,2.7101247641360224,1.9713147646792233,4.498967741708878,-1.0,-1.5711090278263167,0.3558271143095636,-1.9258134830276215,-3.14,3.14,-0.0030673736038279603
307,1.464023696722539,0.9752836027873115,1.0488023311914683,4.459398382560925,2.710124764157149,1.9713147646846614,4.498967741721762,-1.0,-1.5711090279144642,0.3558271142612149,-1.9258134829900486,-3.14,3.14,-0.0030673736405902523
308,1.4640236967352098,0.9752836028046168,1.0488023311915353,4.459398382535487,2.7101247641736497,1.9713147646901128,4.498967741664223,-1.0,-1.5711090279833864,0.355827114321892,-1.9258134830101021,-3.14,3.14,-0.0030673736516479994
309,1.464023696743338,0.9752836028155724,1.048802331191733,4.45939838250797,2.7101247641836044,1.9713147646947244,4.498967741555208,-1.0,-1.571109028025048,0.355827114466693,-1.9258134830764957,-3.14,3.14,-0.0030673736389141954
310,1.4640236967462996,0.9752836028193679,1.0488023311920125,4.459398382482972,2.7101247641863866,1.9713147646978957,4.498967741419019,-1.0,-1.5711090280368065,0.35582711466111205,-1.9258134831723082,-3.14,3.14,-0.003067373607743812
311,1.464023696744363,0.975283602816424,1.0488023311923187,4.4593983824640295,2.710124764182577,1.9713147646993356,4.498967741280754,-1.0,-1.5711090280210598,0.3558271148677842,-1.9258134832784222,-3.14,3.14,-0.00306737356561108
312,1.464023696738524,0.9752836028081545,1.0488023311925996,4.459398382453245,2.7101247641737034,1.9713147646990645,4.498967741162285,-1.0,-1.5711090279841589,0.35582711505272185,-1.92581348337682,-3.14,3.14,-0.0030673735206430282
313,1.4640236967302465,0.9752836027966039,1.0488023311928152,4.4593983824511465,2.7101247641618675,1.971314764697367,4.498967741079298,-1.0,-1.5711090279348563,0.35582711519014054,-1.9258134834532374,-3.14,3.14,-0.0030673734802585794
314,1.4640236967211664,0.9752836027840385,1.048802331192941,4.459398382456832,2.7101247641493353,1.9713147646947096,4.498967741039722,-1.0,-1.5711090278826025,0.3558271152653205,-1.9258134834988603,-3.14,3.14,-0.0030673734501114997
315,1.4640236967128157,0.9752836027725634,1.0488023311929706,4.459398382468311,2.7101247641381616,1.9713147646916431,4.498967741043589,-1.0,-1.5711090278359694,0.35582711527533967,-1.9258134835109277,-3.14,3.14,-0.003067373433457229
316,1.4640236967063933,0.9752836027638154,1.048802331192912,4.459398382482974,2.7101247641298976,1.9713147646887044,4.498967741084145,-1.0,-1.5711090278014395,0.3558271152278578,-1.9258134834923062,-3.14,3.14,-0.003067373430985031
317,1.4640236967026292,0.9752836027587731,1.0488023311927877,4.459398382498082,2.7101247641254216,1.971314764686333,4.498967741149867,-1.0,-1.5711090277826878,0.3558271151384246,-1.9258134834502463,-3.14,3.14,-0.0030673734410732283
318,1.4640236967017344,0.9752836027576992,1.0488023311926258,4.459398382511211,2.7101247641248953,1.9713147646848195,4.498967741226936,-1.0,-1.5711090277804072,0.35582711502693515,-1.9258134833946292,-3.14,3.14,-0.0030673734603694222
319,1.4640236967034423,0.9752836027601993,1.0488023311924575,4.459398382520598,2.710124764127842,1.9713147646842784,4.498967741301721,-1.0,-1.5711090277926223,0.3558271149139106,-1.9258134833360536,-3.14,3.14,-0.003067373484558825
320,1.4640236967071178,0.9752836027653777,1.0488023311923094,4.4593983825253005,2.7101247641333104,1.9713147646846565,4.498967741362871,-1.0,-1.5711090278153754,0.35582711481720647,-1.9258134832840796,-3.14,3.14,-0.0030673735091740085
321,1.4640236967119091,0.9752836027720466,1.048802331192202,4.459398382525254,2.7101247641400894,1.971314764685765,4.498967741402775,-1.0,-1.5711090278436233,0.3558271147496052,-1.9258134832458842,-3.14,3.14,-0.0030673735303129476
322,1.4640236967169102,0.9752836027789549,1.0488023311921464,4.459398382521136,2.710124764146937,1.971314764687327,4.4989677414182125,-1.0,-1.57110902787218,0.3558271147175366,-1.9258134832254774,-3.14,3.14,-0.0030673735451688987
323,1.4640236967213112,0.9752836027849899,1.048802331192144,4.459398382514163,2.7101247641527735,1.9713147646890345,4.498967741410237,-1.0,-1.5711090278965452,0.3558271147209755,-1.925813483223526,-3.14,3.14,-0.0030673735523128118
324,1.4640236967245102,0.9752836027893341,1.0488023311921868,4.459398382505831,2.7101247641568316,1.9713147646906013,4.4989677413834075,-1.0,-1.57110902791351,0.3558271147543592,-1.925813483237722,-3.14,3.14,-0.00306737355172139
325,1.4640236967261782,0.9752836027915486,1.0488023311922632,4.459398382497631,2.71012476415873,1.9713147646918017,4.498967741344581,-1.0,-1.5711090279214743,0.3558271148082392,-1.925813483263565,-3.14,3.14,-0.0030673735445820058
326,1.4640236967262712,0.9752836027915892,1.048802331192355,4.459398382490823,2.7101247641584782,1.9713147646925009,4.498967741301513,-1.0,-1.5711090279204691,0.3558271148713057,-1.9258134832953722,-3.14,3.14,-0.0030673735329355013
327,1.4640236967249978,0.9752836027897568,1.048802331192447,4.459398382486274,2.7101247641564186,1.9713147646926605,4.498967741261526,-1.0,-1.5711090279119204,0.35582711493241614,-1.9258134833273364,-3.14,3.14,-0.003067373519237532
328,1.46402369672275,0.9752836027866031,1.0488023311925239,4.459398382484374,2.71012476415313,1.971314764692332,4.498967741230426,-1.0,-1.5711090278982314,0.3558271149823098,-1.9258134833544462,-3.14,3.14,-0.0030673735059163357
329,1.4640236967200175,0.9752836027828078,1.0488023311925763,4.459398382485043,2.7101247641493,1.971314764691636,4.498967741211806,-1.0,-1.5711090278822653,0.35582711501478864,-1.9258134833731586,-3.14,3.14,-0.00306737349499737
330,1.4640236967172942,0.9752836027790531,1.0488023311925994,4.459398382487816,2.710124764145601,1.9713147646907327,4.4989677412068065,-1.0,-1.571109027866836,0.3558271150272495,-1.925813483381742,-3.14,3.14,-0.003067373487844493
331,1.4640236967150042,0.9752836027759194,1.0488023311925936,4.459398382491959,2.710124764142593,1.9713147646897928,4.498967741214279,-1.0,-1.5711090278542754,0.3558271150205809,-1.9258134833802905,-3.14,3.14,-0.0030673734850409323
332,1.4640236967134428,0.9752836027738078,1.048802331192564,4.459398382496634,2.710124764140647,1.971314764688968,4.498967741231292,-1.0,-1.5711090278461377,0.35582711499853115,-1.925813483370451,-3.14,3.14,-0.003067373486408716
333,1.464023696712752,0.9752836027729035,1.0488023311925185,4.459398382501035,2.710124764139917,1.9713147646883704,4.498967741253841,-1.0,-1.5711090278430668,0.35582711496671854,-1.9258134833549467,-3.14,3.14,-0.0030673734911439367
334,1.4640236967129154,0.9752836027731766,1.0488023311924666,4.459398382504514,2.710124764140345,1.9713147646880615,4.498967741277623,-1.0,-1.5711090278448252,0.3558271149314897,-1.9258134833369984,-3.14,3.14,-0.003067373498030804
335,1.4640236967137872,0.9752836027744177,1.0488023311924173,4.4593983825066585,2.7101247641416997,1.971314764688049,4.498967741298752,-1.0,-1.5711090278504545,0.3558271148988264,-1.9258134833197535,-3.14,3.14,-0.0030673735056899903
336,1.4640236967151294,0.9752836027762959,1.0488023311923778,4.459398382507324,2.7101247641436377,1.971314764688292,4.4989677413143045,-1.0,-1.571109027858528,0.35582711487346275,-1.925813483305804,-3.14,3.14,-0.0030673735128170228
337,1.4640236967166687,0.9752836027784285,1.0488023311923529,4.459398382506613,2.710124764145776,1.971314764688717,4.4989677413226445,-1.0,-1.5711090278674398,0.3558271148583235,-1.92581348329686,-3.14,3.14,-0.003067373518374965
338,1.4640236967181348,0.9752836027804463,1.0488023311923445,4.459398382504835,2.710124764147751,1.9713147646892317,4.498967741323492,-1.0,-1.5711090278756812,0.35582711485432394,-1.9258134832936085,-3.14,3.14,-0.0030673735217184445
339,1.4640236967193099,0.9752836027820504,1.0488023311923516,4.459398382502417,2.710124764149278,1.971314764689743,4.498967741317774,-1.0,-1.5711090278820603,0.3558271148605119,-1.9258134832957516,-3.14,3.14,-0.0030673735226391546
340,1.464023696720052,0.9752836027830495,1.0488023311923707,4.459398382499825,2.710124764150182,1.9713147646901723,4.498967741307312,-1.0,-1.571109027885845,0.3558271148744794,-1.9258134833021912,-3.14,3.14,-0.00306737352133638
341,1.4640236967203062,0.975283602783373,1.0488023311923973,4.459398382497491,2.710124764150411,1.9713147646904632,4.498967741294411,-1.0,-1.5711090278868125,0.3558271148929451,-1.925813483311314,-3.14,3.14,-0.003067373518328297
342,1.4640236967201024,0.9752836027830665,1.0488023311924262,4.459398382495741,2.7101247641500237,1.9713147646905902,4.4989677412814295,-1.0,-1.5711090278852107,0.35582711491239094,-1.9258134833213167,-3.14,3.14,-0.0030673735143256046
343,1.464023696719537,0.9752836027822662,1.0488023311924524,4.459398382494767,2.710124764149168,1.971314764690557,4.4989677412704046,-1.0,-1.5711090278816526,0.35582711492964386,-1.9258134833305136,-3.14,3.14,-0.0030673735100936617
344,1.4640236967187497,0.9752836027811678,1.0488023311924723,4.4593983824946095,2.710124764148044,1.9713147646903912,4.4989677412627795,-1.0,-1.5711090278769708,0.3558271149423214,-1.925813483337584,-3.14,3.14,-0.0030673735063255062
345,1.4640236967178941,0.9752836027799844,1.0488023311924835,4.459398382495179,2.7101247641468653,1.9713147646901374,4.498967741259263,-1.0,-1.571109027872055,0.3558271149490931,-1.9258134833417249,-3.14,3.14,-0.0030673735035433246
346,1.4640236967171136,0.9752836027789127,1.0488023311924861,4.459398382496282,2.710124764145823,1.9713147646898481,4.498967741259823,-1.0,-1.571109027867705,0.35582711494973807,-1.9258134833427047,-3.14,3.14,-0.0030673735020417454
347,1.4640236967165197,0.9752836027781042,1.0488023311924803,4.459398382497672,2.7101247641450605,1.9713147646895732,4.498967741263794,-1.0,-1.5711090278645201,0.35582711494502234,-1.9258134833408183,-3.14,3.14,-0.0030673735018740167
348,1.4640236967161786,0.9752836027776479,1.0488023311924684,4.459398382499091,2.710124764144658,1.9713147646893532,4.498967741270074,-1.0,-1.571109027862832,0.35582711493644126,-1.9258134833367657,-3.14,3.14,-0.003067373502877366
349,1.4640236967161073,0.9752836027775649,1.0488023311924528,4.4593983825003125,2.710124764144626,1.971314764689215,4.498967741277356,-1.0,-1.5711090278626922,0.3558271149258805,-1.925813483331486,-3.14,3.14,-0.0030673735047296083
350,1.4640236967162796,0.9752836027778158,1.0488023311924368,4.459398382501177,2.7101247641449184,1.9713147646891687,4.498967741284363,-1.0,-1.5711090278639042,0.3558271149152683,-1.9258134833259763,-3.14,3.14,-0.003067373507021527
351,1.4640236967166331,0.9752836027783137,1.048802331192423,4.459398382501598,2.7101247641454433,1.9713147646892082,4.4989677412900395,-1.0,-1.5711090278660866,0.3558271149062685,-1.9258134833211298,-3.14,3.14,-0.0030673735093331533
352,1.464023696717088,0.9752836027789465,1.0488023311924133,4.459398382501571,2.7101247641460855,1.9713147646893159,4.498967741293687,-1.0,-1.571109027868762,0.35582711490005714,-1.9258134833176082,-3.14,3.14,-0.0030673735113009044
353,1.4640236967175584,0.9752836027795956,1.0488023311924084,4.459398382501166,2.7101247641467276,1.9713147646894644,4.498967741295025,-1.0,-1.571109027871443,0.3558271148972089,-1.9258134833157738,-3.14,3.14,-0.003067373512666413
354,1.4640236967179685,0.9752836027801579,1.0488023311924084,4.459398382500501,2.710124764147271,1.9713147646896252,4.498967741294171,-1.0,-1.5711090278737103,0.3558271148976925,-1.9258134833156744,-3.14,3.14,-0.0030673735133018277
355,1.464023696718263,0.9752836027805578,1.0488023311924126,4.459398382499711,2.710124764147644,1.9713147646897713,4.498967741291568,-1.0,-1.5711090278752688,0.3558271149009604,-1.9258134833170797,-3.14,3.14,-0.0030673735132114004
356,1.464023696718413,0.9752836027807561,1.04880233119242,4.459398382498942,2.710124764147812,1.9713147646898825,4.498967741287871,-1.0,-1.5711090278759754,0.35582711490610924,-1.9258134833195575,-3.14,3.14,-0.0030673735125117917
357,1.4640236967184146,0.9752836027807501,1.0488023311924284,4.4593983824983106,2.710124764147779,1.9713147646899458,4.49896774128381,-1.0,-1.5711090278758402,0.35582711491206875,-1.9258134833225693,-3.14,3.14,-0.0030673735113985355
358,1.4640236967182882,0.9752836027805697,1.0488023311924373,4.459398382497893,2.7101247641475776,1.9713147646899583,4.4989677412800715,-1.0,-1.5711090278750042,0.3558271149177939,-1.9258134833255693,-3.14,3.14,-0.0030673735101040467
359,1.4640236967180735,0.9752836027802678,1.0488023311924444,4.459398382497728,2.710124764147263,1.971314764689925,4.498967741277194,-1.0,-1.5711090278736966,0.3558271149224251,-1.9258134833280915,-3.14,3.14,-0.0030673735088558004
360,1.4640236967178148,0.9752836027799087,1.0488023311924493,4.4593983824978025,2.7101247641469017,1.9713147646898581,4.498967741275503,-1.0,-1.5711090278721882,0.3558271149253943,-1.9258134833298095,-3.14,3.14,-0.003067373507841954
361,1.464023696717559,0.9752836027795564,1.0488023311924513,4.45939838249807,2.710124764146555,1.9713147646897724,4.498967741275094,-1.0,-1.5711090278707427,0.3558271149264734,-1.9258134833305693,-3.14,3.14,-0.0030673735071877323
362,1.4640236967173463,0.9752836027792654,1.0488023311924506,4.459398382498466,2.710124764146276,1.971314764689684,4.498967741275852,-1.0,-1.5711090278695774,0.3558271149257616,-1.925813483330388,-3.14,3.14,-0.003067373506944227
363,1.4640236967172031,0.9752836027790718,1.0488023311924475,4.459398382498907,2.710124764146098,1.9713147646896074,4.498967741277491,-1.0,-1.5711090278688336,0.3558271149236238,-1.9258134833294271,-3.14,3.14,-0.0030673735070912336
364,1.4640236967171418,0.9752836027789922,1.0488023311924435,4.459398382499319,2.710124764146035,1.9713147646895521,4.498967741279632,-1.0,-1.571109027868568,0.3558271149205948,-1.9258134833279468,-3.14,3.14,-0.0030673735075506955
365,1.4640236967171616,0.9752836027790233,1.0488023311924384,4.459398382499641,2.71012476414608,1.9713147646895248,4.498967741281869,-1.0,-1.5711090278687543,0.3558271149172737,-1.9258134833262515,-3.14,3.14,-0.0030673735082065315
366,1.4640236967172462,0.9752836027791438,1.048802331192434,4.459398382499838,2.7101247641462116,1.9713147646895246,4.498967741283841,-1.0,-1.5711090278692996,0.3558271149142197,-1.9258134833246363,-3.14,3.14,-0.0030673735089288903
367,1.4640236967173745,0.9752836027793231,1.0488023311924302,4.459398382499892,2.7101247641463964,1.9713147646895484,4.498967741285275,-1.0,-1.5711090278700686,0.35582711491187136,-1.9258134833233418,-3.14,3.14,-0.003067373509595569
368,1.4640236967175195,0.9752836027795243,1.0488023311924277,4.45939838249982,2.7101247641465975,1.9713147646895892,4.498967741286026,-1.0,-1.571109027870909,0.35582711491049623,-1.9258134833225247,-3.14,3.14,-0.0030673735101101668
369,1.4640236967176572,0.9752836027797133,1.048802331192427,4.459398382499648,2.7101247641467823,1.971314764689638,4.498967741286071,-1.0,-1.57110902787168,0.3558271149101711,-1.925813483322245,-3.14,3.14,-0.003067373510413897
370,1.464023696717766,0.9752836027798624,1.0488023311924277,4.459398382499418,2.710124764146924,1.971314764689686,4.4989677412855045,-1.0,-1.5711090278722701,0.35582711491079827,-1.9258134833224707,-3.14,3.14,-0.0030673735104893448
371,1.4640236967178342,0.9752836027799533,1.0488023311924297,4.459398382499173,2.7101247641470056,1.971314764689726,4.498967741284501,-1.0,-1.5711090278726136,0.35582711491214475,-1.9258134833230947,-3.14,3.14,-0.0030673735103568986
372,1.4640236967178557,0.9752836027799806,1.0488023311924324,4.459398382498956,2.7101247641470243,1.9713147646897526,4.498967741283279,-1.0,-1.5711090278726914,0.35582711491389857,-1.925813483323963,-3.14,3.14,-0.0030673735100667466
373,1.4640236967178344,0.975283602779949,1.048802331192435,4.459398382498795,2.710124764146985,1.9713147646897642,4.49896774128206,-1.0,-1.5711090278725293,0.35582711491572805,-1.9258134833249057,-3.14,3.14,-0.0030673735096864944
374,1.4640236967177795,0.9752836027798711,1.0488023311924373,4.459398382498707,2.710124764146902,1.97131476468976,4.498967741281034,-1.0,-1.5711090278721862,0.355827114917337,-1.9258134833257652,-3.14,3.14,-0.0030673735092883524
375,1.4640236967177045,0.975283602779767,1.0488023311924393,4.459398382498694,2.710124764146796,1.971314764689744,4.498967741280334,-1.0,-1.5711090278717417,0.35582711491850544,-1.9258134833264189,-3.14,3.14,-0.0030673735089369373
376,1.4640236967176237,0.9752836027796554,1.0488023311924404,4.459398382498751,2.710124764146685,1.9713147646897196,4.4989677412800235,-1.0,-1.5711090278712794,0.35582711491911373,-1.9258134833267941,-3.14,3.14,-0.0030673735086804723
377,1.4640236967175508,0.9752836027795553,1.0488023311924404,4.459398382498859,2.7101247641465873,1.9713147646896922,4.4989677412800955,-1.0,-1.5711090278708737,0.3558271149191462,-1.9258134833268716,-3.14,3.14,-0.0030673735085454948
378,1.464023696717496,0.9752836027794806,1.04880233119244,4.45939838249899,2.710124764146517,1.9713147646896663,4.498967741280484,-1.0,-1.5711090278705806,0.35582711491867897,-1.9258134833266813,-3.14,3.14,-0.0030673735085359516
379,1.4640236967174656,0.9752836027794394,1.0488023311924386,4.459398382499124,2.710124764146481,1.9713147646896463,4.498967741281083,-1.0,-1.571109027870429,0.35582711491785635,-1.9258134833262912,-3.14,3.14,-0.0030673735086354094
380,1.4640236967174596,0.9752836027794334,1.0488023311924373,4.459398382499236,2.71012476414648,1.9713147646896332,4.498967741281771,-1.0,-1.5711090278704227,0.3558271149168563,-1.9258134833257903,-3.14,3.14,-0.0030673735088131183
381,1.4640236967174773,0.9752836027794586,1.048802331192436,4.459398382499317,2.710124764146509,1.9713147646896296,4.498967741282428,-1.0,-1.5711090278705429,0.35582711491586044,-1.925813483325272,-3.14,3.14,-0.003067373509030044
382,1.464023696717511,0.9752836027795063,1.0488023311924346,4.459398382499355,2.710124764146559,1.9713147646896338,4.4989677412829545,-1.0,-1.5711090278707522,0.3558271149150235,-1.9258134833248202,-3.14,3.14,-0.003067373509246958
383,1.4640236967175542,0.9752836027795663,1.0488023311924337,4.45939838249935,2.71012476414662,1.971314764689644,4.498967741283287,-1.0,-1.571109027871005,0.3558271149144536,-1.925813483324496,-3.14,3.14,-0.0030673735094299778
384,1.4640236967175984,0.9752836027796276,1.0488023311924328,4.459398382499309,2.7101247641466806,1.9713147646896585,4.498967741283401,-1.0,-1.5711090278712567,0.3558271149142013,-1.9258134833243312,-3.14,3.14,-0.003067373509555346
385,1.4640236967176363,0.9752836027796798,1.0488023311924333,4.459398382499246,2.710124764146731,1.9713147646896734,4.498967741283312,-1.0,-1.5711090278714674,0.3558271149142619,-1.9258134833243299,-3.14,3.14,-0.0030673735096116146
386,1.4640236967176636,0.9752836027797165,1.0488023311924337,4.459398382499171,2.710124764146765,1.9713147646896871,4.498967741283059,-1.0,-1.5711090278716104,0.355827114914581,-1.9258134833244684,-3.14,3.14,-0.003067373509599813
387,1.4640236967176772,0.9752836027797342,1.0488023311924342,4.459398382499099,2.71012476414678,1.9713147646896976,4.498967741282708,-1.0,-1.5711090278716728,0.3558271149150724,-1.925813483324706,-3.14,3.14,-0.0030673735095315346
388,1.4640236967176763,0.9752836027797326,1.048802331192435,4.4593983824990415,2.7101247641467756,1.9713147646897027,4.498967741282326,-1.0,-1.5711090278716564,0.35582711491563507,-1.9258134833249911,-3.14,3.14,-0.0030673735094253318
389,1.464023696717664,0.9752836027797149,1.048802331192436,4.459398382499002,2.710124764146756,1.9713147646897042,4.498967741281976,-1.0,-1.5711090278715747,0.355827114916171,-1.9258134833252722,-3.14,3.14,-0.003067373509303059
390,1.4640236967176434,0.9752836027796862,1.0488023311924366,4.459398382498988,2.7101247641467263,1.9713147646897007,4.49896774128171,-1.0,-1.57110902787145,0.3558271149166003,-1.9258134833255067,-3.14,3.14,-0.003067373509186294
391,1.4640236967176194,0.9752836027796522,1.048802331192437,4.459398382498997,2.710124764146692,1.9713147646896942,4.498967741281557,-1.0,-1.5711090278713078,0.3558271149168713,-1.9258134833256642,-3.14,3.14,-0.0030673735090922644
392,1.4640236967175955,0.975283602779619,1.0488023311924373,4.459398382499023,2.7101247641466593,1.971314764689686,4.4989677412815245,-1.0,-1.5711090278711723,0.35582711491696406,-1.925813483325731,-3.14,3.14,-0.003067373509032531
393,1.4640236967175757,0.975283602779592,1.0488023311924368,4.45939838249906,2.7101247641466335,1.971314764689678,4.498967741281601,-1.0,-1.5711090278710642,0.35582711491688923,-1.9258134833257097,-3.14,3.14,-0.003067373509011498
394,1.4640236967175624,0.9752836027795742,1.0488023311924368,4.459398382499103,2.7101247641466175,1.9713147646896707,4.498967741281759,-1.0,-1.5711090278709965,0.3558271149166821,-1.925813483325616,-3.14,3.14,-0.003067373509027132
395,1.4640236967175566,0.9752836027795673,1.0488023311924364,4.459398382499141,2.710124764146612,1.9713147646896656,4.4989677412819615,-1.0,-1.5711090278709738,0.3558271149163939,-1.9258134833254748,-3.14,3.14,-0.003067373509071672
396,1.4640236967175593,0.975283602779571,1.048802331192436,4.45939838249917,2.7101247641466166,1.9713147646896634,4.498967741282172,-1.0,-1.5711090278709932,0.3558271149160812,-1.9258134833253149,-3.14,3.14,-0.0030673735091340396
397,1.4640236967175673,0.9752836027795823,1.0488023311924355,4.459398382499188,2.710124764146629,1.971314764689663,4.498967741282356,-1.0,-1.571109027871046,0.3558271149157958,-1.9258134833251639,-3.14,3.14,-0.003067373509202213
398,1.4640236967175795,0.9752836027795997,1.048802331192435,4.459398382499193,2.710124764146647,1.9713147646896658,4.498967741282488,-1.0,-1.5711090278711193,0.3558271149155788,-1.9258134833250438,-3.14,3.14,-0.0030673735092644197
399,1.4640236967175932,0.9752836027796187,1.048802331192435,4.4593983824991845,2.7101247641466664,1.9713147646896694,4.498967741282555,-1.0,-1.5711090278711983,0.3558271149154543,-1.9258134833249694,-3.14,3.14,-0.0030673735093119836
400,1.4640236967176066,0.9752836027796365,1.048802331192435,4.459398382499168,2.7101247641466832,1.9713147646896743,4.498967741282556,-1.0,-1.5711090278712705,0.35582711491542873,-1.9258134833249456,-3.14,3.14,-0.0030673735093394655
401,1.4640236967176163,0.97528360277965,1.048802331192435,4.459398382499146,2.7101247641466966,1.9713147646896787,4.4989677412825,-1.0,-1.5711090278713251,0.3558271149154922,-1.9258134833249692,-3.14,3.14,-0.003067373509345411
402,1.4640236967176226,0.9752836027796584,1.048802331192435,4.459398382499123,2.7101247641467037,1.9713147646896825,4.498967741282404,-1.0,-1.5711090278713562,0.35582711491562213,-1.9258134833250296,-3.14,3.14,-0.0030673735093319295
403,1.4640236967176241,0.9752836027796606,1.0488023311924355,4.459398382499104,2.7101247641467054,1.9713147646896847,4.498967741282288,-1.0,-1.5711090278713622,0.35582711491578883,-1.9258134833251126,-3.14,3.14,-0.0030673735093039575
404,1.464023696717622,0.9752836027796572,1.0488023311924357,4.4593983824990895,2.710124764146701,1.9713147646896856,4.498967741282174,-1.0,-1.5711090278713458,0.35582711491596103,-1.9258134833252014,-3.14,3.14,-0.0030673735092678115
405,1.4640236967176168,0.9752836027796498,1.048802331192436,4.459398382499081,2.710124764146693,1.9713147646896854,4.498967741282078,-1.0,-1.5711090278713127,0.3558271149161109,-1.9258134833252814,-3.14,3.14,-0.0030673735092302703
406,1.4640236967176092,0.9752836027796401,1.048802331192436,4.45939838249908,2.7101247641466832,1.971314764689684,4.498967741282014,-1.0,-1.5711090278712705,0.35582711491621843,-1.9258134833253415,-3.14,3.14,-0.0030673735091974455
407,1.464023696717602,0.9752836027796296,1.048802331192436,4.459398382499085,2.7101247641466726,1.9713147646896816,4.498967741281986,-1.0,-1.5711090278712267,0.35582711491627284,-1.9258134833253755,-3.14,3.14,-0.0030673735091738073
408,1.4640236967175955,0.9752836027796202,1.0488023311924362,4.459398382499096,2.7101247641466637,1.9713147646896791,4.498967741281995,-1.0,-1.5711090278711888,0.3558271149162728,-1.925813483325381,-3.14,3.14,-0.003067373509161748
409,1.46402369671759,0.9752836027796132,1.0488023311924362,4.459398382499108,2.7101247641466575,1.9713147646896765,4.4989677412820335,-1.0,-1.571109027871162,0.355827114916226,-1.9258134833253617,-3.14,3.14,-0.003067373509161579
410,1.4640236967175873,0.9752836027796095,1.048802331192436,4.459398382499121,2.710124764146654,1.9713147646896747,4.498967741282091,-1.0,-1.5711090278711484,0.3558271149161467,-1.925813483325324,-3.14,3.14,-0.0030673735091715387
411,1.4640236967175873,0.9752836027796092,1.0488023311924357,4.459398382499132,2.710124764146654,1.9713147646896736,4.498967741282157,-1.0,-1.5711090278711486,0.35582711491605173,-1.9258134833252762,-3.14,3.14,-0.0030673735091886565
412,1.4640236967175888,0.9752836027796116,1.0488023311924357,4.459398382499139,2.7101247641466566,1.9713147646896731,4.498967741282218,-1.0,-1.5711090278711606,0.355827114915958,-1.9258134833252274,-3.14,3.14,-0.0030673735092092993
413,1.464023696717592,0.9752836027796163,1.0488023311924355,4.459398382499142,2.710124764146662,1.9713147646896736,4.498967741282267,-1.0,-1.571109027871181,0.3558271149158801,-1.9258134833251852,-3.14,3.14,-0.0030673735092296775
414,1.4640236967175961,0.975283602779622,1.0488023311924355,4.459398382499141,2.7101247641466673,1.9713147646896747,4.498967741282297,-1.0,-1.571109027871205,0.3558271149158282,-1.9258134833251555,-3.14,3.14,-0.0030673735092466457
415,1.4640236967176006,0.9752836027796278,1.0488023311924355,4.4593983824991374,2.7101247641466735,1.9713147646896763,4.498967741282307,-1.0,-1.5711090278712285,0.3558271149158065,-1.925813483325141,-3.14,3.14,-0.0030673735092580094
416,1.4640236967176041,0.9752836027796324,1.0488023311924355,4.459398382499132,2.710124764146678,1.9713147646896771,4.498967741282298,-1.0,-1.5711090278712483,0.3558271149158139,-1.9258134833251421,-3.14,3.14,-0.003067373509262969
417,1.4640236967176066,0.9752836027796358,1.0488023311924355,4.459398382499126,2.7101247641466806,1.9713147646896787,4.498967741282273,-1.0,-1.5711090278712612,0.3558271149158456,-1.925813483325156,-3.14,3.14,-0.0030673735092613956
418,1.4640236967176075,0.9752836027796375,1.0488023311924355,4.459398382499118,2.7101247641466824,1.9713147646896796,4.4989677412822395,-1.0,-1.5711090278712665,0.35582711491589264,-1.9258134833251788,-3.14,3.14,-0.0030673735092547334
419,1.4640236967176072,0.9752836027796373,1.0488023311924357,4.459398382499113,2.710124764146682,1.97131476468968,4.498967741282203,-1.0,-1.5711090278712645,0.35582711491594576,-1.9258134833252056,-3.14,3.14,-0.0030673735092445606
420,1.464023696717606,0.9752836027796356,1.0488023311924357,4.45939838249911,2.7101247641466797,1.9713147646896803,4.498967741282171,-1.0,-1.5711090278712565,0.35582711491599595,-1.925813483325232,-3.14,3.14,-0.003067373509232952
421,1.4640236967176044,0.9752836027796326,1.0488023311924357,4.459398382499108,2.710124764146677,1.9713147646896798,4.498967741282146,-1.0,-1.5711090278712445,0.35582711491603547,-1.9258134833252538,-3.14,3.14,-0.003067373509222091
422,1.4640236967176017,0.9752836027796292,1.048802331192436,4.459398382499109,2.7101247641466735,1.9713147646896791,4.498967741282132,-1.0,-1.571109027871231,0.3558271149160599,-1.925813483325268,-3.14,3.14,-0.003067373509213434
423,1.4640236967175992,0.9752836027796264,1.048802331192436,4.459398382499111,2.710124764146671,1.9713147646896783,4.498967741282129,-1.0,-1.5711090278712185,0.35582711491606733,-1.9258134833252738,-3.14,3.14,-0.003067373509208145
424,1.464023696717598,0.9752836027796239,1.048802331192436,4.459398382499114,2.710124764146668,1.9713147646896776,4.498967741282137,-1.0,-1.5711090278712085,0.35582711491605956,-1.9258134833252714,-3.14,3.14,-0.0030673735092063698
425,1.4640236967175966,0.9752836027796223,1.048802331192436,4.459398382499119,2.710124764146667,1.9713147646896771,4.4989677412821525,-1.0,-1.5711090278712025,0.35582711491603947,-1.925813483325262,-3.14,3.14,-0.003067373509208015
426,1.4640236967175961,0.9752836027796216,1.0488023311924357,4.4593983824991215,2.7101247641466664,1.9713147646896765,4.498967741282171,-1.0,-1.5711090278712008,0.3558271149160122,-1.9258134833252487,-3.14,3.14,-0.003067373509212324
427,1.4640236967175968,0.9752836027796222,1.0488023311924357,4.459398382499125,2.7101247641466673,1.9713147646896765,4.498967741282191,-1.0,-1.571109027871203,0.3558271149159832,-1.9258134833252338,-3.14,3.14,-0.0030673735092181294
