jkpark150901/flame_robotics_drt/experiment/inspection_ik/session_20260722_143013/collision/inspection_ik_20260722_143102_rb20_1900es_normalized_fallback_collision.csv
iteration,err_norm,position_error,orientation_error,tcp_x,tcp_y,tcp_z,q0_rt_joint_linear_track,q1_rt_joint_carriage,q2_rt_base,q3_rt_shoulder,q4_rt_elbow,q5_rt_wrist1,q6_rt_wrist2,q7_rt_wrist3
0,2.135563385535095,1.5481534570923665,1.4346775685810242,3.075657166710809,2.007869687327181,1.1979839792332023,2.941096756195792,1.0,3.14,-0.35096241301276143,-1.5910564167894252,0.21757440848041387,-3.14,0.13756860069714394
1,1.3686331912136973,0.9804122058947328,0.9439415967935094,3.624848689508282,2.1124690697668083,1.4097514206306918,3.494091255072338,1.0,3.14,-0.4146990255929623,-1.1839772391766215,0.19664847098697305,-2.982884799310063,0.15757711514693562
2,0.8680836674481768,0.5960121598017342,0.6281666548682239,3.970687010252719,2.111587056929936,1.606200921781956,3.8396036794222996,1.0,3.14,-0.4322736595941744,-0.8893238163864317,0.14051373917266255,-2.9376774505972216,0.15327199236485092
3,0.5567351874202477,0.34942411914881444,0.43255814639563855,4.192877082654756,2.0775707922666875,1.748281053499344,4.060453131178566,1.0,3.14,-0.4513416394520182,-0.6623943449840171,0.08741399576600903,-2.9382299653211805,0.14590528068528036
4,0.3858752520013973,0.21324048463663667,0.3212184680393161,4.3396964092306485,2.0387523577184554,1.8453156543360456,4.205979690277481,1.0,3.14,-0.47853691015077937,-0.47616318883577846,0.040823000560407594,-2.963943840624383,0.13847998078663504
5,0.32429289933640665,0.17955496680580793,0.2697084254251351,4.440340688331492,2.0018915266636004,1.910998121897863,4.305742372493577,1.0,3.14,-0.5100831887170688,-0.31911343028382666,-0.00015322352830528935,-3.0039370696040795,0.13193840330939735
6,0.3333968495562612,0.21136384367723918,0.25735506006469655,4.512786397393553,1.966621747878257,1.9558725964227344,4.377811732171238,1.0,3.14,-0.5383011175842436,-0.1916173415647538,-0.036095953354806885,-3.048682975743444,0.12758943592264563
7,0.372431863667747,0.2599238457239425,0.26598056601905823,4.567084317625554,1.932951872382717,1.9870946282831679,4.432136240991167,1.0,3.14,-0.5551531765547518,-0.10123370467868015,-0.06616439166627928,-3.0877812982535753,0.12703924718091744
8,0.4157774610002093,0.3044988557981615,0.28201935784287513,4.607418098724966,1.9036866765441431,2.0089527886291227,4.472659441210933,1.0,3.14,-0.5583270540398624,-0.0504680089695709,-0.088924532463589,-3.1139163490176016,0.1304236530492122
9,0.4519235102689747,0.33880508829550116,0.2976494063634311,4.635891516875559,1.881226442558102,2.0239762372081116,4.501300743226179,1.0,3.14,-0.5529102281450802,-0.02882187528776572,-0.10460815263615784,-3.127788988976271,0.13573348765391513
10,0.4786038620817376,0.36304331105298593,0.3101608721252208,4.655194565861181,1.8653200478506227,2.0340721968404094,4.5207083924651155,1.0,3.14,-0.5449943396167657,-0.022185612259564134,-0.11504869636823203,-3.1343487794310736,0.1409415575774992
11,0.49734901667241826,0.3795715333829245,0.3194528264417256,4.668097148025039,1.8544893820379933,2.0407521151468253,4.533671871312758,1.0,3.14,-0.5378438747085327,-0.021405348272852565,-0.12204644911178812,-3.1375200970589905,0.1451912859262466
12,0.5102505974453816,0.39067764733925625,0.3261389168309019,4.67671785726795,1.8472824163658865,2.045118460161821,4.542330269288348,1.0,3.14,-0.5324328145880901,-0.022296200181883115,-0.12679094100424532,-3.139266166428687,0.14839418337671112
13,0.5189949295548435,0.39805912080055184,0.33083457776122993,4.682500383765536,1.8426157461946344,2.047913043985239,4.548131631234793,1.0,3.14,-0.5286863576810474,-0.02335461092558096,-0.1300061075955753,-3.14,0.15073118832498028
14,0.524905379947071,0.40296272656672905,0.33410736498281585,4.686423510797691,1.8396448658699627,2.0496778543600094,4.552059029990042,1.0,3.14,-0.5261756196999874,-0.02423131094413845,-0.13224642207370335,-3.14,0.15237149581176562
15,0.5289747941742259,0.4062774712563555,0.3364330640572148,4.689124936601456,1.8377104051291178,2.050820805851039,4.554763193936168,1.0,3.14,-0.5244870618900163,-0.024923023533411814,-0.1339168027005597,-3.14,0.15344232473954367
16,0.531758327821276,0.4085091380187431,0.33806617155082364,4.6909872456949975,1.8364692985664002,2.0515514022769885,4.556627221450749,1.0,3.14,-0.5233783688435385,-0.025423699013734147,-0.1351754103259839,-3.14,0.15410190918362446
17,0.5336519572433488,0.4100069258597514,0.33920147972911624,4.692271631068403,1.83568363159868,2.05201262194708,4.557912660222065,1.0,3.14,-0.5226599577010324,-0.025777493980299722,-0.13614009612730285,-3.14,0.15446807065694348
18,0.5349333442026821,0.4110090447856803,0.3399833486381074,4.693156923212,1.8351931330692994,2.0522998671471737,4.558798578318213,1.0,3.14,-0.5221979784817226,-0.02602810324984709,-0.13689693750062681,-3.14,0.15462682286760152
19,0.5357953954797406,0.41167707015786736,0.34051670425682223,4.693766036034032,1.8348917025864866,2.052475928385095,4.559408045891623,1.0,3.14,-0.5219019505108238,-0.026208763873779066,-0.13750797463476008,-3.14,0.15464013505267152
20,0.5363713394893365,0.41212027338706686,0.3408767669279806,4.6941837488785785,1.8347099713419455,2.0525817096669177,4.5598259436833235,1.0,3.14,-0.5217120303198316,-0.02634279809447398,-0.13801746463781273,-3.14,0.1545521972665442
21,0.5367527744154238,0.4124124165712908,0.3411168806454621,4.694468701692828,1.83460306573965,2.052643609552517,4.560110976686475,1.0,3.14,-0.5215891685447925,-0.026446067252410794,-0.13845670403689744,-3.14,0.15439424738809884
22,0.5370024327990109,0.41260321855334114,0.3412745333419425,4.694661536871101,1.8345422573718806,2.052678502137826,4.560303828544363,1.0,3.14,-0.5215081536211624,-0.026529203883256802,-0.13884765229719312,-3.14,0.1541881959484684
23,0.5371631237038489,0.41272614515513545,0.3413758609205921,4.694790460608979,1.8345093553167666,2.052697060100125,4.560432731286089,1.0,3.14,-0.5214528720156398,-0.02659927337556881,-0.13920560738043639,-3.14,0.15394930140037616
24,0.53726395856179,0.4128036895767641,0.3414389536787458,4.694875062561474,1.8344929817066147,2.0527059528782634,4.56051729051624,1.0,3.14,-0.5214131356544857,-0.02666093693066052,-0.13954115509054993,-3.14,0.15368811842755564
25,0.537324665572458,0.4128509465515531,0.34147624909077273,4.69492895098188,1.8344861208201257,2.0527092895984955,4.560571124168876,1.0,3.14,-0.5213825812842318,-0.026717247279043958,-0.13986157369693675,-3.14,0.1534119012606666
26,0.5373585675870296,0.41287802889106984,0.3414962436233093,4.694961576950846,1.834484520223819,2.052709558863351,4.5606036890773085,1.0,3.14,-0.5213572913691544,-0.026770187770655887,-0.14017183642160183,-3.14,0.15312560484632096
27,0.537374629977634,0.41289169955119864,0.34150470559227314,4.694979500453687,1.8344856569759724,2.0527082357454915,4.560621548552336,1.0,3.14,-0.5213348959364562,-0.02682103539328555,-0.14047532085687264,-3.14,0.1528325930667267
28,0.5373788640011455,0.41289647256873574,0.3415055272710668,4.694987270630864,1.8344880755042856,2.05270617024432,4.560629253585054,1.0,3.14,-0.5213139925331651,-0.02687060390298768,-0.14077430711900393,-3.14,0.1525351358688504
29,0.537375285181838,0.41289535473514316,0.34150131902014497,4.694988038447558,1.8344909679493289,2.0527038333316243,4.560629956113552,1.0,3.14,-0.5212937750552704,-0.026919405711926515,-0.14107032515311652,-3.14,0.15223475572849132
30,0.5373665655600008,0.4128903445154929,0.34149382065120654,4.694983983343703,1.8344939113241234,2.052701470962676,4.560625836042228,1.0,3.14,-0.521273798682682,-0.026967758976559154,-0.14136439524133507,-3.14,0.1519324674883861
31,0.5373544760596366,0.41288276713321953,0.34148418437683825,4.694976610353092,1.834496705154136,2.052699199151417,4.560618398585536,1.0,3.14,-0.5212538327757049,-0.027015857916841312,-0.14165719348607403,-3.14,0.1516289433195498
32,0.5373401854598593,0.41287349923226313,0.34147316820683404,4.6949669569372885,1.834499272838736,2.052697061690393,4.560608681235784,1.0,3.14,-0.5212337701019867,-0.02706381861353895,-0.14194916496582755,-3.14,0.1513246254777504
33,0.5373244617315428,0.4128631192260555,0.34146126732403376,4.694955736862339,1.8345016029516026,2.052695064469894,4.560597397717569,1.0,3.14,-0.5212135717680181,-0.027111708562617503,-0.14224060064010977,-3.14,0.15101980290744774
34,0.537307807128051,0.4128520077157518,0.34144880278831113,4.694943440176836,1.83450371523417,2.0526931953375795,4.5605850380093385,1.0,3.14,-0.5211932345155694,-0.02715956555162123,-0.14253168930238377,-3.14,0.15071466297064653
35,0.5372905484859677,0.4128404144189228,0.3414359810653461,4.694930402594533,1.8345056416079357,2.0526914351695265,4.560571937749105,1.0,3.14,-0.5211727718339743,-0.027207409574659253,-0.14282255246483988,-3.14,0.15040932616665012
36,0.5372728973513483,0.4128285026783715,0.34142293373008653,4.69491685357069,1.8345074161377064,2.052689763707928,4.560558326321985,1.0,3.14,-0.5211522034651274,-0.027255250250652372,-0.14311326763887175,-3.14,0.15010386929214187
37,0.537254989852499,0.4128163789917325,0.34140974377986566,4.694902949557446,1.8345090701908127,2.0526881623642534,4.560544360120134,1.0,3.14,-0.5211315499011373,-0.027303091366666962,-0.14340388377352206,-3.14,0.1497983407925308
38,0.5372369130298548,0.4128041125544303,0.34139646295828163,4.694888796963757,1.8345106305058563,2.0526866153258374,4.560530145503661,1.0,3.14,-0.5211108297720337,-0.027350933604602203,-0.14369443142637853,-3.14,0.14949277087031093
39,0.5372187221455007,0.41279174815943975,0.34138312308147917,4.6948744679748575,1.834512118806333,2.0526851097638086,4.560515754619351,1.0,3.14,-0.5210900588446138,-0.027398776135413968,-0.14398492941788668,-3.14,0.14918717809478393
40,0.53720045200904,0.41277931468847007,0.3413697433881346,4.6948600114283074,1.8345135521654081,2.05268363560591,4.560501236275238,1.0,3.14,-0.5210692498703682,-0.02744661751869789,-0.14427538915277685,-3.14,0.14888157369189559
41,0.5371821243510742,0.41276683068481657,0.34135633527053866,4.694845460274282,1.8345149436761472,2.0526821851341324,4.560486623399262,1.0,3.14,-0.5210484128403898,-0.027494456184573378,-0.14456581740398636,-3.14,0.14857596430591102
42,0.5371637525976305,0.412754307999504,0.3413429052927636,4.694830836680636,1.834516303189522,2.052680752545429,4.56047193814279,1.0,3.14,-0.52102755540002,-0.027542290670712156,-0.1448562180902579,-3.14,0.14827035376143477
43,0.5371453449435879,0.4127417541689406,0.3413294570967617,4.694816155517588,1.8345176380037387,2.052679333542989,4.560457195363972,1.0,3.14,-0.5210066832922877,-0.02759011972069264,-0.14514659339992778,-3.14,0.14796474417634872
44,0.5371269063184412,0.41272917395993275,0.34131599259232354,4.694801426730195,1.8345189534566757,2.052677924985746,4.560442404999131,1.0,3.14,-0.5209858007668029,-0.027637942307641813,-0.145436944493322,-3.14,0.14765913665669014
45,0.5371084396346603,0.4127165703698309,0.3413025126899091,4.69478665694928,1.8345202534097895,2.0526765246025205,4.560427573672829,1.0,3.14,-0.5209649109287027,-0.02768575762075824,-0.14572727193593946,-3.14,0.14735353172465182
46,0.5370899465741841,0.41270394527135545,0.3412890177446333,4.6947718505822404,1.83452154062987,2.0526751307667426,4.560412705788011,1.0,3.14,-0.5209440160224226,-0.02773356503607939,-0.14601757596134038,-3.14,0.14704792957791465
47,0.5370714280794036,0.41269129982648767,0.34127550781978333,4.694757010549533,1.8345228170826233,2.052673742323355,4.560397804261998,1.0,3.14,-0.5209231176549168,-0.027781364083064537,-0.1463078566275224,-3.14,0.14674233024359604
48,0.5370528846564846,0.41267863475088984,0.3412619828391179,4.694742138780491,1.8345240841540411,2.052672358458373,4.560382871021926,1.0,3.14,-0.5209022169669814,-0.027829154412800344,-0.14659811390755478,-3.14,0.14643673366723436
49,0.5370343165604238,0.4126659504819313,0.34124844267170606,4.6947272365460595,1.8345253428146804,2.0526709786021415,4.56036790733721,1.0,3.14,-0.5208813147622497,-0.02787693577034098,-0.1468883477402754,-3.14,0.14613113976237047
50,0.5370157239062644,0.4126532472848533,0.34123488717668327,4.694712304681395,1.834526593739982,2.0526696023585123,4.56035291404195,1.0,3.14,-0.520860411602828,-0.027924707971907086,-0.14717855805720273,-3.14,0.145825548436709
51,0.5369971067347091,0.41264052531942835,0.3412213162248005,4.694697343734296,1.834527837397395,2.0526682294535843,4.560337891683216,1.0,3.14,-0.5208395078792833,-0.02797247088676145,-0.14746874479563846,-3.14,0.14551995960471814
52,0.5369784650498729,0.4126277846814958,0.34120772970700575,4.694682354063822,1.834529074108852,2.052666859698954,4.560322840619571,1.0,3.14,-0.520818603861302,-0.02802022442317801,-0.14775890790402796,-3.14,0.14521437319265518
53,0.5369597988403285,0.4126150254286468,0.3411941275361765,4.694667335905593,1.83453030409517,2.052665492965615,4.560307761086295,1.0,3.14,-0.5207976997339989,-0.028067968517798556,-0.14804904734319602,-3.14,0.14490878913958016
54,0.5369411080902783,0.41260224759595104,0.34118050964550906,4.694652289414858,1.8345315275073606,2.052664129165549,4.560292653238406,1.0,3.14,-0.5207767956237218,-0.02811570312769033,-0.14833916308556253,-3.14,0.14460320739642515
55,0.5369223927850261,0.41258945120547186,0.3411668759855814,4.694637214694777,1.8345327444485442,2.0526627682388563,4.560277517178908,1.0,3.14,-0.520755891616241,-0.028163428224497734,-0.1486292551135183,-3.14,0.14429762792427417
56,0.5369036529133233,0.4125766362719657,0.34115322652109914,4.694622111814937,1.8345339549891806,2.0526614101448017,4.560262352977284,1.0,3.14,-0.5207349877694836,-0.02821114379018687,-0.1489193234175953,-3.14,0.1439920506924709
57,0.536884888468005,0.41256380280622396,0.34113956122788647,4.6946069808234006,1.8345351591775922,2.0526600548556417,4.560247160681523,1.0,3.14,-0.5207140841223845,-0.0282588498139776,-0.14920936799474102,-3.14,0.14368647567685244
58,0.5368660994458088,0.4125509508169971,0.3411258800902745,4.694591821754513,1.8345363570471842,2.0526587023523803,4.560231940325922,1.0,3.14,-0.5206931807010019,-0.028306546290153643,-0.149499388846829,-3.14,0.14338090285823407
59,0.5368472858468576,0.4125380803120781,0.3411121830990002,4.694576634633941,1.8345375486213684,2.052657352621882,4.560216691936111,1.0,3.14,-0.5206722775227132,-0.028354233216509924,-0.1497893859794393,-3.14,0.143075332221173
60,0.536828447674025,0.41252519129887794,0.3410984702495296,4.694561419481887,1.834538733916903,2.0526560056549115,4.56020141553227,1.0,3.14,-0.5206513745990787,-0.028401910593260853,-0.15007935940089573,-3.14,0.1427697637529951
61,0.5368095849323501,0.41251228378472504,0.34108474154078555,4.694546176315154,1.8345399129461442,2.0526546614448113,4.560186111131188,1.0,3.14,-0.520630471937785,-0.02844957842227826,-0.15036930912152463,-3.14,0.14246419744304725
62,0.5367906976285218,0.41249935777700686,0.3410709969741799,4.69453090514845,1.8345410857185542,2.0526533199866197,4.560170778747553,1.0,3.14,-0.520609569543954,-0.02849723670656162,-0.15065923515309662,-3.14,0.142158633282135
63,0.536771785770456,0.4124864132832117,0.34105723655290515,4.6945156059951865,1.834542252241705,2.0526519812764827,4.560155418394771,1.0,3.14,-0.5205886674210213,-0.028544885449872714,-0.150949137508412,-3.14,0.14185307126210536
64,0.5367528493669598,0.41247345031093907,0.3410434602814079,4.694500278867998,1.8345434125219453,2.052650645311259,4.560140030085467,1.0,3.14,-0.5205677655713219,-0.02859252465648582,-0.15123901620099733,-3.14,0.1415475113755422
65,0.536733888427492,0.4124604688678925,0.34102966816501723,4.694484923779051,1.834544566564833,2.052649312088271,4.560124613831801,1.0,3.14,-0.5205468639964759,-0.028640154331016476,-0.15152887124488645,-3.14,0.14124195361554615
66,0.5367149029619657,0.4124474689618545,0.3410158602096682,4.694469540740233,1.8345457143754251,2.0526479816051353,4.560109169645651,1.0,3.14,-0.5205259626976451,-0.028687774478305953,-0.15181870265446254,-3.14,0.14093639797557625
67,0.5366958929806085,0.4124344506006676,0.3410020364217169,4.694454129763264,1.8345468559584592,2.0526466538596493,4.560093697538734,1.0,3.14,-0.5205050616756984,-0.028735385103343135,-0.15210851044434728,-3.14,0.14063084444933893
68,0.536676858493867,0.41242141379222147,0.34098819680780407,4.694438690859768,1.834547991318473,2.0526453288497324,4.560078197522666,1.0,3.14,-0.5204841609313197,-0.02878298621121222,-0.15239829462932183,-3.14,0.1403252930307088
69,0.5366577995123316,0.4124083585444302,0.3409743413747569,4.694423224041307,1.8345491204598812,2.052644006573371,4.560062669609003,1.0,3.14,-0.5204632604650782,-0.02883057780705817,-0.15268805522427178,-3.14,0.14001974371367348
70,0.536638716046687,0.41239528486522764,0.34096047012952857,4.694407729319402,1.8345502433870209,2.0526426870285994,4.560047113809262,1.0,3.14,-0.5204423602774717,-0.028878159896063155,-0.15297779224414945,-3.14,0.13971419649229602
71,0.5366196081076713,0.4123821927625518,0.34094658307915154,4.694392206705546,1.834551360104185,2.052641370213474,4.560031530134931,1.0,3.14,-0.5204214603689561,-0.028925732483431766,-0.15326750570394715,-3.14,0.13940865136068809
72,0.536600475706061,0.41236908224435015,0.3409326802307089,4.6943766562112135,1.8345524706156349,2.0526400561260703,4.560015918597475,1.0,3.14,-0.5204005607399599,-0.028973295574380675,-0.1535571956186795,-3.14,0.13910310831299233
73,0.5365813188526437,0.4123559533185569,0.34091876159130674,4.69436107784785,1.8345535749256163,2.0526387447644736,4.56000027920834,1.0,3.14,-0.5203796613908982,-0.0290208491741327,-0.153846862003371,-3.14,0.13879756734336993
74,0.5365621375582139,0.4123428059931082,0.34090482716807013,4.69434547162689,1.834554673038365,2.052637436126771,4.559984611978949,1.0,3.14,-0.5203587623221781,-0.029068393287912442,-0.15413650487304761,-3.14,0.13849202844599223
75,0.5365429318335576,0.4123296402759266,0.34089087696812426,4.694329837559741,1.834555764958107,2.0526361302110576,4.559968916920708,1.0,3.14,-0.5203378635342012,-0.029115927920943113,-0.1544261242427315,-3.14,0.13818649161503554
76,0.5365237016894554,0.4123164561749236,0.3408769109985915,4.6943141756577935,1.8345568506890668,2.052634827015429,4.559953194045001,1.0,3.14,-0.520316965027368,-0.029163453078445905,-0.15471572012743692,-3.14,0.13788095684467702
77,0.5365044471366688,0.41230325369800075,0.34086292926659123,4.694298485932415,1.8345579302354629,2.05263352653798,4.559937443363189,1.0,3.14,-0.520296066802078,-0.029210968765637942,-0.15500529254216808,-3.14,0.1375754241290925
78,0.5364851681859522,0.4122900328530492,0.34084893177923103,4.694282768394955,1.83455900360151,2.052632228776812,4.559921664886616,1.0,3.14,-0.5202751688587294,-0.029258474987732225,-0.1552948415019174,-3.14,0.1372698934624548
79,0.5364658648480328,0.4122767936479413,0.34083491854360703,4.694267023056734,1.8345600707914211,2.0526309337300224,4.559905858626599,1.0,3.14,-0.520254271197722,-0.029305971749936967,-0.1555843670216643,-3.14,0.1369643648389326
80,0.5364465371336283,0.4122635360905419,0.3408208895668037,4.694251249929057,1.8345611318094048,2.052629641395713,4.559890024594435,1.0,3.14,-0.520233373819455,-0.02935345905745549,-0.15587386911637474,-3.14,0.13665883825268985
81,0.5364271850534293,0.41225026018869526,0.3408068448558918,4.694235449023198,1.8345621866596675,2.0526283517719857,4.559874162801396,1.0,3.14,-0.5202124767243281,-0.029400936915485978,-0.15616334780100052,-3.14,0.13635331369788525
82,0.5364078086181153,0.41223696595024095,0.34079278441792926,4.6942196203504185,1.8345632353464127,2.0526270648569436,4.559858273258734,1.0,3.14,-0.5201915799127415,-0.029448405329221595,-0.15645280309047924,-3.14,0.1360477911686721
83,0.5363884078383385,0.41222365338299616,0.3407787082599609,4.694203763921945,1.8345642778738387,2.052625780648691,4.559842355977674,1.0,3.14,-0.5201706833850952,-0.029495864303850025,-0.156742234999734,-3.14,0.13574227065919806
84,0.5363689827247357,0.41221032249476974,0.34076461638901556,4.6941878797489895,1.834565314246142,2.0526244991453346,4.559826410969419,1.0,3.14,-0.5201497871417894,-0.029543313844553935,-0.15703164354367333,-3.14,0.13543675216360507
85,0.536349533287923,0.41219697329335353,0.34075050881210744,4.694171967842736,1.8345663444675158,2.052623220344982,4.559810438245149,1.0,3.14,-0.5201288911832248,-0.029590753956510917,-0.15732102873719106,-3.14,0.13513123567602925
86,0.5363300595384968,0.4121836057865272,0.3407363855362401,4.694156028214345,1.8345673685421484,2.0526219442457414,4.559794437816021,1.0,3.14,-0.5201079955098019,-0.029638184644892904,-0.15761039059516646,-3.14,0.13482572119060107
87,0.5363105614870319,0.41217021998205655,0.3407222465683999,4.694140060874957,1.8345683864742255,2.0526206708457226,4.559778409693167,1.0,3.14,-0.5200871001219217,-0.02968560591486689,-0.15789972913246392,-3.14,0.13452020870144496
88,0.5362910391440866,0.41215681588769304,0.34070809191556045,4.694124065835685,1.834569398267929,2.052619400143039,4.559762353887696,1.0,3.14,-0.5200662050199846,-0.02973301777159449,-0.15818904436393327,-3.14,0.13421469820267976
89,0.5362714925201943,0.4121433935111732,0.34069392158467693,4.69410804310762,1.8345704039274375,2.0526181321358035,4.5597462704106935,1.0,3.14,-0.5200453102043915,-0.02978042022023207,-0.15847833630440947,-3.14,0.1339091896884183
90,0.5362519216258723,0.4121299528602202,0.3406797355826971,4.694091992701828,1.8345714034569258,2.0526168668221305,4.5597301592732205,1.0,3.14,-0.5200244156755434,-0.029827813265930998,-0.15876760496871298,-3.14,0.13360368315276794
91,0.5362323264716188,0.41211649394254446,0.34066553391655024,4.694075914629353,1.834572396860565,2.0526156042001364,4.559714020486316,1.0,3.14,-0.5200035214338411,-0.02987519691383712,-0.1590568503716493,-3.14,0.13329817858982992
92,0.5362127070679071,0.4121030167658413,0.3406513165931521,4.694059808901216,1.8345733841425227,2.0526143442679397,4.559697854060995,1.0,3.14,-0.5199826274796858,-0.029922571169091073,-0.1593460725280095,-3.14,0.13299267599370007
93,0.536193063425197,0.4120895213377939,0.3406370836194056,4.694043675528415,1.8345743653069633,2.0526130870236576,4.559681660008248,1.0,3.14,-0.5199617338134785,-0.02996993603682846,-0.1596352714525697,-3.14,0.1326871753584682
94,0.5361733955539221,0.41207600766606867,0.3406228350021965,4.6940275145219195,1.8345753403580458,2.0526118324654132,4.559665438339043,1.0,3.14,-0.5199408404356198,-0.030017291522179183,-0.1599244471600915,-3.14,0.13238167667821854
95,0.5361537034645029,0.41206247575832156,0.34060857074839906,4.694011325892681,1.8345763092999277,2.052610580591329,4.5596491890643245,1.0,3.14,-0.5199199473465108,-0.0300646376302686,-0.1602135996653217,-3.14,0.13207617994702964
96,0.5361339871673347,0.4120489256221926,0.34059429086487264,4.693995109651627,1.834577272136762,2.0526093313995277,4.5596329121950125,1.0,3.14,-0.5198990545465528,-0.030111974366216158,-0.1605027289829925,-3.14,0.1317706851589743
97,0.5361142466727952,0.4120353572653077,0.3405799953584623,4.693978865809656,1.834578228872698,2.052608084888136,4.559616607742004,1.0,3.14,-0.5198781620361469,-0.030159301735136413,-0.16079183512782141,-3.14,0.1314651923081197
98,0.5360944819912413,0.4120217706952804,0.34056568423600003,4.693962594377651,1.834579179511882,2.0526068410552787,4.559600275716174,1.0,3.14,-0.5198572698156945,-0.03020661974213862,-0.16108091811451125,-3.14,0.1311597013885274
99,0.5360746931330125,0.4120081659197093,0.3405513575043017,4.693946295366465,1.8345801240584556,2.052605599899086,4.559583916128372,1.0,3.14,-0.5198363778855961,-0.03025392839232673,-0.16136997795775032,-3.14,0.13085421239425338
100,0.5360548801084254,0.4119945429461812,0.3405370151701702,4.693929968786932,1.834581062516557,2.052604361417689,4.559567528989426,1.0,3.14,-0.5198154862462533,-0.030301227690799595,-0.1616590146722121,-3.14,0.1305487253193479
101,0.5360350429277816,0.41198090178226826,0.3405226572403955,4.693913614649863,1.8345819948903224,2.0526031256092163,4.55955111431014,1.0,3.14,-0.5197945948980675,-0.030348517642650664,-0.1619480282725555,-3.14,0.13024324015785568
102,0.5360151816013592,0.4119672424355286,0.3405082837217518,4.693897232966043,1.8345829211838827,2.052601892471803,4.559534672101294,1.0,3.14,-0.5197737038414397,-0.03039579825296803,-0.1622370187734248,-3.14,0.1299377569038159
103,0.5359952961394174,0.4119535649135059,0.3404938946209999,4.693880823746232,1.8345838414013647,2.0526006620035835,4.559518202373646,1.0,3.14,-0.5197528130767711,-0.030443069526834742,-0.16252598618944974,-3.14,0.12963227555126222
104,0.5359753865521956,0.41193986922373066,0.34047948994488747,4.693864387001171,1.8345847555468933,2.052599434202693,4.559501705137928,1.0,3.14,-0.5197319226044634,-0.030490331469328717,-0.1628149305352452,-3.14,0.1293267960942226
105,0.5359554528499147,0.4119261553737195,0.3404650697001468,4.6938479227415755,1.8345856636245899,2.0525982090672694,4.559485180404852,1.0,3.14,-0.5197110324249185,-0.0305375840855223,-0.16310385182541162,-3.14,0.1290213185267196
106,0.5359354950427746,0.41191242337097744,0.34045063389349767,4.693831430978139,1.8345865656385703,2.0525969865954523,4.5594686281851065,1.0,3.14,-0.5196901425385374,-0.03058482738048263,-0.16339275007453488,-3.14,0.12871584284277035
107,0.5359155131409589,0.4118986732229952,0.34043618253164504,4.693814911721533,1.8345874615929487,2.0525957667853816,4.559452048489356,1.0,3.14,-0.5196692529457217,-0.030632061359271802,-0.16368162529718613,-3.14,0.1284103690363864
108,0.5358955071546265,0.41188490493724667,0.34042171562127954,4.6937983649824,1.8345883514918346,2.0525945496351996,4.55943544132824,1.0,3.14,-0.5196483636468733,-0.030679286026946456,-0.16397047750792199,-3.14,0.1281048971015738
109,0.5358754770939235,0.4118711185211969,0.3404072331690776,4.693781790771367,1.834589235339334,2.0525933351430505,4.5594188067123795,1.0,3.14,-0.5196274746423937,-0.030726501388558092,-0.16425930672128447,-3.14,0.12779942703233324
110,0.5358554229689704,0.4118573139822944,0.340392735181706,4.693765189099034,1.8345901131395508,2.0525921233070776,4.559402144652367,1.0,3.14,-0.5196065859326852,-0.03077370744915272,-0.16454811295180097,-3.14,0.12749395882265988
111,0.5358353447898726,0.4118434913279743,0.34037822166580983,4.693748559975977,1.834590984896583,2.0525909141254295,4.559385455158775,1.0,3.14,-0.5195856975181491,-0.030820904213771337,-0.16483689621398437,-3.14,0.1271884924665436
112,0.535815242566711,0.411829650565658,0.34036369262802874,4.69373190341275,1.834591850614527,2.052589707596253,4.559368738242153,1.0,3.14,-0.519564809399188,-0.030868091687449598,-0.1651256565223329,-3.14,0.1268830279579687
113,0.5357951163095516,0.41181579170275406,0.34034914807498257,4.693715219419882,1.8345927102974737,2.0525885037176987,4.559351993913027,1.0,3.14,-0.5195439215762034,-0.030915269875217914,-0.16541439389133045,-3.14,0.1265775652909144
114,0.5357749660284423,0.41180191474666084,0.3403345880132803,4.693698508007889,1.8345935639495135,2.0525873024879164,4.5593352221819,1.0,3.14,-0.5195230340495982,-0.030962438782101486,-0.165703108335446,-3.14,0.12627210445935416
115,0.5357547917334068,0.411788019704756,0.3403200124495155,4.693681769187248,1.83459441157473,2.052586103905059,4.559318423059252,1.0,3.14,-0.5195021468197742,-0.031009598413119906,-0.16599179986913418,-3.14,0.12596664545725636
116,0.5357345934344526,0.41177410658440966,0.34030542139026776,4.693665002968426,1.8345952531772054,2.0525849079672813,4.55930159655554,1.0,3.14,-0.5194812598871339,-0.031056748773287807,-0.1662804685068352,-3.14,0.1256611882785841
117,0.5357143711415685,0.4117601753929758,0.340290814842106,4.69364820936186,1.834596088761017,2.0525837146727377,4.559284742681197,1.0,3.14,-0.5194603732520795,-0.03110388986761452,-0.1665691142629745,-3.14,0.12535573291729496
118,0.5356941248647187,0.41174622613779477,0.34027619281158145,4.693631388377965,1.8345969183302386,2.0525825240195865,4.559267861446635,1.0,3.14,-0.5194394869150136,-0.03115102170110402,-0.16685773715196303,-3.14,0.12505027936734128
119,0.5356738546138581,0.41173225882619674,0.34026155530523433,4.69361454002714,1.8345977418889423,2.0525813360059857,4.559250952862244,1.0,3.14,-0.5194186008763391,-0.031198144278755207,-0.16714633718819738,-3.14,0.12474482762267032
120,0.5356535603989134,0.4117182734654951,0.34024690232959137,4.693597664319752,1.8345985594411947,2.052580150630095,4.559234016938387,1.0,3.14,-0.5193977151364585,-0.03124525760556139,-0.1674349143860595,-3.14,0.12443937767722389
121,0.5356332422297941,0.4117042700629886,0.3402322338911623,4.693580761266147,1.8345993709910597,2.0525789678900765,4.5592170536854075,1.0,3.14,-0.5193768296957749,-0.03129236168651074,-0.16772346875991687,-3.14,0.12413392952493862
122,0.5356129001163935,0.41169024862596765,0.34021754999644654,4.693563830876654,1.8346001765425979,2.0525777877840916,4.559200063113626,1.0,3.14,-0.5193559445546915,-0.03133945652658634,-0.16801200032412236,-3.14,0.1238284831597459
123,0.5355925340685842,0.411676209161705,0.3402028506519286,4.693546873161573,1.8346009760998654,2.052576610310308,4.55918304523334,1.0,3.14,-0.519335059713611,-0.031386542130765555,-0.16830050909301442,-3.14,0.12352303857557187
124,0.535572144096218,0.41166215167746134,0.34018813586408014,4.693529888131184,1.8346017696669175,2.052575435466887,4.559166000054822,1.0,3.14,-0.5193141751729377,-0.03143361850402094,-0.1685889950809169,-3.14,0.12321759576633742
125,0.5355517302091304,0.41164807618048543,0.3401734056393576,4.693512875795745,1.8346025572478015,2.052574263251999,4.559148927588326,1.0,3.14,-0.5192932909330739,-0.031480685651319236,-0.1688774583021394,-3.14,0.12291215472595853
126,0.5355312924171365,0.41163398267801055,0.3401586599842048,4.693495836165489,1.8346033388465646,2.052573093663814,4.559131827844079,1.0,3.14,-0.5192724069944233,-0.03152774357762246,-0.16916589877097687,-3.14,0.12260671544834578
127,0.5355108307300306,0.4116198711772571,0.34014389890504976,4.6934787692506275,1.8346041144672502,2.0525719267004994,4.559114700832289,1.0,3.14,-0.51925152335739,-0.03157479228788702,-0.1694543165017098,-3.14,0.12230127792740472
128,0.5354903451575913,0.4116057416854341,0.3401291224083143,4.69346167506135,1.834604884113897,2.0525707623602285,4.559097546563138,1.0,3.14,-0.5192306400223776,-0.031621831787064146,-0.1697427115086042,-3.14,0.12199584215703568
129,0.535469194113044,0.41159126801016443,0.34011372760453945,4.693444704699178,1.8346063922486702,2.052569144821753,4.559080365046789,1.0,3.14,-0.51920975698979,-0.03166886208009957,-0.17003108380591161,-3.139993185388787,0.12169040813113396
130,0.5354483272431965,0.4115771985161755,0.3400982869868903,4.693428405255175,1.8346081209486096,2.052567364083683,4.559063689570235,1.0,3.14,-0.5191880169121015,-0.031716855468488056,-0.1703210791648359,-3.1399789419778372,0.12138407192387232
131,0.5354287160740303,0.41156420693394585,0.34008349691628165,4.693413122620703,1.8346094086960267,2.052565808331255,4.559047922796808,1.0,3.14,-0.5191648881526594,-0.03176638839156947,-0.17061436440904879,-3.1399598478452777,0.12107572144781716
132,0.5354105959115215,0.4115524203562699,0.34006956952260714,4.6933988774151265,1.834610071261564,2.0525645902349976,4.559033122589556,1.0,3.14,-0.5191403706664479,-0.031817464501054514,-0.1709118839872916,-3.1399376090299174,0.12076448710929359
133,0.5353938486583844,0.4115417173694379,0.3400564677559561,4.693385536764687,1.834610133911329,2.0525636992407157,4.559019179352654,1.0,3.14,-0.5191146262475392,-0.03186995084373504,-0.17121414913751093,-3.139913301130815,0.12044970439397394
134,0.5353782184909267,0.41153188773415994,0.3400440477941066,4.693372913620552,1.8346096977135653,2.052563079106727,4.559005920165765,1.0,3.14,-0.5190878403819429,-0.03192370960851183,-0.17152142856817137,-3.1398875836096067,0.12013086860683292
135,0.5353634229717541,0.41152271119103734,0.34003213657583736,4.6933608182378865,1.8346088768391806,2.052562664812333,4.558993163666324,1.0,3.14,-0.5190601743965442,-0.03197863167493341,-0.1718338640039925,-3.139860852856477,0.11980759472081165
136,0.5353492039159132,0.4115139916701968,0.34002056954370835,4.69334908138252,1.8346077724879772,2.052562398154162,4.558980745478509,1.0,3.14,-0.5190317533767929,-0.032034639709615176,-0.17215153639126404,-3.139833342915854,0.11947958516597937
137,0.5353353458104454,0.4115055683357092,0.34000920593002254,4.693337562107293,1.8346064648489684,2.0525622327217925,4.5589685273855105,1.0,3.14,-0.5190026677673355,-0.03209168298037853,-0.172474501967669,-3.1398051891944165,0.11914660516892028
138,0.5353216780747991,0.4114973155391984,0.33999793232146236,4.693326147800884,1.8346050132421892,2.0525621339996416,4.558956398235748,1.0,3.14,-0.518972979437894,-0.03214973095980238,-0.1728028107792293,-3.139776467861584,0.1188084643733602
139,0.5353080702078804,0.41148913817940286,0.33998666071663874,4.693314750852547,1.8346034594055323,2.0525620775619253,4.55894427112637,1.0,3.14,-0.5189427284013332,-0.03220876777162572,-0.17313651538414937,-3.1397472198596073,0.11846500338777544
140,0.5352944245684429,0.41148096576888576,0.33997532446756795,4.693303304239517,1.8346018315002597,2.0525620468023065,4.558932079300863,1.0,3.14,-0.5189119387333939,-0.032268787884750086,-0.17347567431367206,-3.1397174653701416,0.1181160840723642
141,0.5352806690929947,0.4114727467445991,0.3399638738303362,4.6932917571692725,1.8346001477834724,2.0525620308300034,4.558919771974837,1.0,3.14,-0.5188806232840826,-0.032329792949512874,-0.1738203528977437,-3.1396872124442234,0.11776158260273567
142,0.5352667509265959,0.4114644436254765,0.33995227191235033,4.693280071261017,1.8345984195879776,2.052562022753608,4.5589073106249725,1.0,3.14,-0.5188487872091933,-0.03239178954642967,-0.17417062289110746,-3.1396564621006746,0.11740138456224072
143,0.535252631257529,0.41145602915493545,0.33994049130172943,4.69326821741203,1.834596653573853,2.0525620183803395,4.558894665917569,1.0,3.14,-0.5188164305099136,-0.0324547876198569,-0.1745265616553559,-3.1396252113077483,0.11703538149713458
144,0.5352382813221908,0.4114474833557779,0.33992851141395114,4.693256173330522,1.8345948533480263,2.0525620152785966,4.558881815276986,1.0,3.14,-0.5187835498014287,-0.03251879940758078,-0.1748882512693002,-3.1395934547076654,0.11666346851493932
145,0.535223679415008,0.4114387913477826,0.3399163164797227,4.693243921648116,1.834593020585502,2.052562012128153,4.558868741018148,1.0,3.14,-0.518750139511603,-0.032583838720758554,-0.17525577773152284,-3.139561185601709,0.11628554261954743
146,0.5352088087044159,0.41142994176597186,0.33990389406037086,4.693231448505638,1.8345911557804861,2.052562008284495,4.558855428943429,1.0,3.14,-0.5187161926735021,-0.032649920466714805,-0.17562923031076663,-3.139528396504868,0.11590150156210498
147,0.535193655667564,0.41142092563391086,0.3398912339754907,4.6932187425103296,1.8345892587342876,2.0525620034957015,4.558841867305823,1.0,3.14,-0.5186817014367852,-0.03271706033741255,-0.17600870104756916,-3.1394950794527934,0.11551124305009705
148,0.5351782089853943,0.41141173557209176,0.33987832754149505,4.693205793976349,1.834587328862404,2.0525619977242084,4.5588280460525805,1.0,3.14,-0.5186466573893543,-0.032785274609343315,-0.17639428438844562,-3.1394612261680805,0.1151146642033426
149,0.5351624587724354,0.41140236524803725,0.33986516703852526,4.693192594377103,1.834585365381117,2.0525619910384876,4.558813956279045,1.0,3.14,-0.5186110517538738,-0.0328545800173524,-0.17678607692725432,-3.139426828147859,0.1147116611789743
150,0.5351463960454235,0.41139280899777514,0.3398517453416339,4.6931791359533195,1.8345833674160819,2.052561983550007,4.558799589837396,1.0,3.14,-0.518574875503622,-0.03292499367688624,-0.17718417722898813,-3.1393918767081477,0.11430212891127597
151,0.5351300123598287,0.41138306156721777,0.33983805566812886,4.693165411434289,1.8345813340619082,2.052561975378632,4.558784939058086,1.0,3.14,-0.5185381194275682,-0.0329965330375424,-0.1775886857147796,-3.139356363004946,0.1138859609290511
152,0.5351132995628488,0.41137311793646086,0.339824091405825,4.693151413840431,1.8345792644119512,2.0525619666352846,4.558769996552359,1.0,3.14,-0.5185007741643137,-0.033069215856578967,-0.17799970459120737,-3.1393202780431353,0.11346304922495877
153,0.5350962496263472,0.4113629732008524,0.3398098459969873,4.693137136343808,1.8345771575707162,2.0525619574146905,4.5587547550726,1.0,3.14,-0.5184628302175227,-0.03314306018496889,-0.17841733781102553,-3.1392836126792036,0.11303328415942168
154,0.5350788545340622,0.4113526224905973,0.3397953128600913,4.693122572169629,1.83457501265666,2.0525619477936545,4.5587392074135975,1.0,3.14,-0.5184242779607889,-0.033218084361214734,-0.17884169105582592,-3.1392463576209586,0.11259655438733938
155,0.5350611062053287,0.41134206091630515,0.33978048533701166,4.6931077145265165,1.8345728288001053,2.052561937832151,4.558723346342546,1.0,3.14,-0.5183851076367861,-0.033294307009878905,-0.1792728717338222,-3.139208503425865,0.1121527467996961
156,0.5350429964431637,0.41133128353188936,0.3397653566571158,4.693092556556891,1.8345706051390265,2.0525619275756237,4.5587071645491415,1.0,3.14,-0.5183453093535906,-0.03337174704292209,-0.1797109889879583,-3.1391700404987932,0.11170174647477168
157,0.5350245168984263,0.4113202853089755,0.33974991991246006,4.6930770913012925,1.8345683408142408,2.0525619170576044,4.558690654609587,1.0,3.14,-0.518304873079824,-0.03345042366267487,-0.1801561537110281,-3.139130959089542,0.11124343663543695
158,0.5350056590445185,0.41130906111888726,0.33973416804019774,4.693061311672313,1.834566034964778,2.0525619063022,4.558673808960231,1.0,3.14,-0.5182637886395012,-0.033530356365732594,-0.18060847856554973,-3.1390912492902876,0.11077769861020367
159,0.534986414158908,0.41129760571960167,0.33971809380960627,4.693045210435149,1.8345636867237847,2.0525618953262623,4.5586566198777785,1.0,3.14,-0.5182220457070238,-0.033611564947355635,-0.18106807800688074,-3.1390509010330017,0.11030441179649544
160,0.5349667733090256,0.4112859137459177,0.33970168981201526,4.693028780192638,1.8345612952150558,2.052561884141164,4.558639079463993,1.0,3.14,-0.5181796338025053,-0.03369406950613689,-0.18153506830857202,-3.139009904086844,0.10982345362513146
161,0.5349467273408806,0.4112739797016666,0.3396849484525208,4.693012013373311,1.8345588595501865,2.05256187275421,4.558621179633409,1.0,3.14,-0.518136542287465,-0.03377789044880612,-0.18200956758931025,-3.1389682480555257,0.10933469952536565
162,0.5349262668694069,0.41126179795324896,0.3396678619427545,4.692994902221501,1.8345563788262467,2.0525618611697203,4.558602912103067,1.0,3.14,-0.5180927603608702,-0.03386304849510648,-0.18249169584102676,-3.138925922374618,0.10883802289005028
163,0.5349053822697682,0.41124936272393336,0.3396504222942517,4.692977438788732,1.834553852123908,2.052561849389852,4.558584268383548,1.0,3.14,-0.5180482770554699,-0.033949564682711465,-0.18298157495791073,-3.1388829163088134,0.10833329504064287
164,0.5348840636692477,0.41123666808865617,0.3396326213120986,4.692959614925994,1.8345512785059068,2.052561837415204,4.558565239770849,1.0,3.14,-0.5180030812343587,-0.034037460372175525,-0.18347932876616302,-3.1388392189491148,0.10782038519187334
165,0.5348623009393866,0.41122370796906094,0.3396144505886996,4.692941422276505,1.8345486570157765,2.0525618252452618,4.558545817338763,1.0,3.14,-0.517957161587711,-0.0341267572519162,-0.18398508305439346,-3.13879481920996,0.10729916041594724
166,0.5348400836882182,0.4112104761286609,0.3395959014975173,4.692922852268781,1.8345459866767748,2.0525618128787135,4.558525991931531,1.0,3.14,-0.5179105066296364,-0.03421747734323558,-0.1844989656046064,-3.138749705826274,0.10676948560620428
167,0.5348174012524486,0.4111969661680224,0.33957696518672964,4.6929038961098275,1.8345432664909491,2.052561800313684,4.558505754156612,1.0,3.14,-0.5178631046951113,-0.03430964300538627,-0.18502110622374565,-3.1387038673504497,0.10623122344017384
168,0.5347942426895338,0.41118317151991524,0.33955763257274635,4.6928845447783605,1.8345404954383064,2.0525617875478885,4.558485094377472,1.0,3.14,-0.5178149439369594,-0.03440327694069114,-0.18555163677578518,-3.1386572921492513,0.10568423434198604
169,0.5347705967695753,0.4111690854443788,0.3395378943335523,4.69286478901797,1.8345376724760443,2.0525617745787517,4.558464002706302,1.0,3.14,-0.5177660123228472,-0.03449840219972101,-0.18609069121436594,-3.1386099684006505,0.10512837644410647
170,0.5347464519670345,0.41115470102370033,0.3395177409018755,4.6928446193302005,1.8345347965378274,2.052561761403483,4.558442468996624,1.0,3.14,-0.5177162976322831,-0.03459504218653882,-0.18663840561598022,-3.138561884090584,0.10456350554836867
171,0.5347217964521984,0.41114001115724813,0.3394971624581322,4.692824025967462,1.8345318665330888,2.0525617480191283,4.558420482835738,1.0,3.14,-0.5176657874536004,-0.03469322066401299,-0.1871949182137128,-3.1385130270096373,0.1039894750862815
172,0.5346966180824134,0.4111250085561787,0.3394761489231785,4.692802998925791,1.834528881346344,2.0525617344226124,4.558398033536985,1.0,3.14,-0.517614469180914,-0.03479296175920499,-0.1877603694315485,-3.138463384749656,0.10340613607859034
173,0.5346709043930545,0.4111096857379932,0.3394546899508177,4.69278152793742,1.834525839836507,2.052561720610759,4.558375110131804,1.0,3.14,-0.5175623300110465,-0.034894289968835875,-0.18833490191925703,-3.1384129447002738,0.10281333709407306
174,0.5346446425882244,0.41109403502092734,0.3394327749200923,4.6927596024631235,1.8345227408362021,2.052561706580308,4.558351701361569,1.0,3.14,-0.5175093569404107,-0.034997230164833096,-0.18891866058786919,-3.1383616940453694,0.1022109242075499
175,0.5346178195311698,0.41107804851819146,0.3394103929273293,4.692737211684374,1.8345195831510697,2.0525616923279286,4.558327795669187,1.0,3.14,-0.51745553676185,-0.0351018075999619,-0.18951179264575518,-3.138309619759438,0.10159874095708839
176,0.5345904217344027,0.4110617181320101,0.33938753277793293,4.692714344495225,1.8345163655590555,2.0525616778502256,4.558303381190443,1.0,3.14,-0.5174008560614297,-0.03520804791354292,-0.1901144476353202,-3.1382567086038837,0.10097662830038265
177,0.5345624353495189,0.4110450355475076,0.3393641829779317,4.692690989493985,1.8345130868096902,2.052561663143742,4.55827844574509,1.0,3.14,-0.5173453012151784,-0.03531597713725975,-0.19072677747033046,-3.138202947123224,0.10034442457028711
178,0.5345338461567016,0.41102799222639064,0.33934033172525346,4.692667134974621,1.8345097456233463,2.052561648204964,4.55825297682766,1.0,3.14,-0.5172888583857731,-0.035425621701056745,-0.19134893647388468,-3.138148321641212,0.0997019654294826
179,0.5345046395538979,0.411010579400437,0.3393159669007341,4.6926427689178905,1.8345063406904791,2.0525616330303205,4.558226961597998,1.0,3.14,-0.5172315135191714,-0.03553700843913191,-0.1919810814170446,-3.1380928182568644,0.0990490838242534
180,0.5344748005456696,0.41099278806479617,0.33929107605883785,4.692617878982225,1.8345028706708486,2.0525616176161883,4.558200386871502,1.0,3.14,-0.5171732523411836,-0.0356501645960253,-0.19262337155814116,-3.1380364228403996,0.09838560993735261
181,0.5344443137316782,0.4109746089710663,0.3392656464180952,4.6925924524943055,1.8344993341927203,2.052561601958886,4.558173239109059,1.0,3.14,-0.5171140603539883,-0.035765117832806045,-0.19327596868277117,-3.1379791210290797,0.09771137113993218
182,0.5344131632948294,0.41095603262016345,0.33923966485123586,4.69256647643935,1.8344957298520408,2.0525615860546793,4.5581455044066645,1.0,3.14,-0.5170539228325832,-0.03588189623336022,-0.19393903714450092,-3.137920898222953,0.09702619194251337
183,0.5343813329890412,0.41093704925497754,0.33921311787500585,4.692539937451115,1.8344920562115936,2.0525615698997766,4.558117168484728,1.0,3.14,-0.5169928248211755,-0.03600052831078264,-0.19461274390629385,-3.1378617395804964,0.09632989394497277
184,0.5343488061266239,0.41091764885278503,0.33918599163967583,4.692512821801557,1.8344883118001312,2.0525615534903325,4.55808821667703,1.0,3.14,-0.5169307511295064,-0.03612104301387346,-0.19529725858267868,-3.1378016300141476,0.09562229578551719
185,0.534315565565273,0.410897821117433,0.33915827191821196,4.692485115390191,1.8344844951114825,2.0525615368224432,4.558058633919341,1.0,3.14,-0.5168676863291106,-0.03624346973374487,-0.19599275348267745,-3.1377405541857333,0.094903213088621
186,0.534281593694645,0.41087755547128024,0.33912994409509883,4.692456803733103,1.8344806046036328,2.052561519892151,4.558028404737681,1.0,3.14,-0.5168036147495053,-0.03636783831053746,-0.196699403653511,-3.1376784965017803,0.09417245841189784
187,0.534246872422518,0.41085684104687964,0.3391009931548177,4.692427871951617,1.83447663869778,2.052561502695436,4.557997513236201,1.0,3.14,-0.5167385204743122,-0.036494179040252636,-0.19741738692510094,-3.13761544110871,0.09342984119187664
188,0.5342113831605119,0.41083566667840465,0.3390714036699505,4.692398304760606,1.8344725957773627,2.0525614852282223,4.557965943084693,1.0,3.14,-0.5166723873373043,-0.036622522681700055,-0.19814688395539018,-3.137551371887912,0.09267516768865379
189,0.5341751068093538,0.4108140208928011,0.3390411597889091,4.692368086456428,1.8344684741870614,2.0525614674863757,4.55793367750569,1.0,3.14,-0.5166051989183806,-0.03675290046356669,-0.19888807827649965,-3.137486272450692,0.09190824092938807
190,0.5341380237436778,0.4107918919006639,0.33901024522326906,4.692337200904482,1.83446427223177,2.052561449465699,4.5579006992611655,1.0,3.14,-0.5165369385394665,-0.036885344091609325,-0.19964115634174542,-3.1374201261330827,0.0911288606506068
191,0.5341001137963565,0.4107692675868285,0.3389786432346986,4.69230563152637,1.834459988175537,2.052561431161938,4.557866990638809,1.0,3.14,-0.5164675892603307,-0.03701988575597295,-0.2004063075735381,-3.1373529159905305,0.09033682323928989
192,0.5340613562422967,0.41074613550064687,0.3389463366214719,4.6922733612866345,1.8344556202404814,2.0525614125707734,4.557832533437851,1.0,3.14,-0.5163971338743296,-0.037156558138639724,-0.20118372441218585,-3.137284624792428,0.0895319216726952
193,0.5340217297817611,0.4107224828459808,0.3389133077045365,4.692240372679091,1.8344511666056684,2.0525613936878253,4.557797308954446,1.0,3.14,-0.5163255549040622,-0.0372953944210126,-0.2019736023656284,-3.1372152350165092,0.08871394545689078
194,0.5339812125231227,0.41069829647085115,0.33887953831314643,4.692206647712699,1.834446625405959,2.0525613745086497,4.5577612979665805,1.0,3.14,-0.5162528345969428,-0.037436428291635446,-0.20277614006012487,-3.137144728843089,0.08788268056395401
195,0.533939781965078,0.41067356285677586,0.3388450097700157,4.692172167897001,1.834441994730828,2.052561355028739,4.557724480718494,1.0,3.14,-0.5161789549206879,-0.037579693954055866,-0.2035915392919219,-3.137073088149144,0.0870379093678003
196,0.5338974149782973,0.41064826810775557,0.33880970287599643,4.6921369142270715,1.8344372726231375,2.052561335243521,4.557686836904594,1.0,3.14,-0.5161038975587088,-0.037725226134833256,-0.20442000507993036,-3.1370002945022297,0.08617941057859836
197,0.5338540877864595,0.4106223979389078,0.33877359789425554,4.6921008671679845,1.8344324570778885,2.0525613151483553,4.557648345652856,1.0,3.14,-0.516027643905416,-0.03787306009169743,-0.20526174571943778,-3.136926329154229,0.08530695917573088
198,0.5338097759466913,0.4105959376647402,0.3387366745339376,4.692064006638781,1.8344275460409223,2.0525612947385374,4.557608985507676,1.0,3.14,-0.5159501750614238,-0.038023231621861386,-0.20611697283688654,-3.136851173034918,0.08442032633925597
199,0.5337644543293671,0.4105688721870374,0.3386989119332827,4.692026311995906,1.8344225374075949,2.052561274009295,4.557568734412167,1.0,3.14,-0.5158714718286594,-0.038175777070494604,-0.2069859014457488,-3.136774806745351,0.08351927937982255
200,0.5337180970972446,0.4105411859823646,0.3386602886422046,4.691987762016107,1.8344174290214068,2.052561252955785,4.557527569689878,1.0,3.14,-0.5157915147053691,-0.038330733339359865,-0.20786875000352859,-3.1366972105510498,0.0826035816669916
201,0.5336706776839267,0.41051286308915674,0.33862078260427464,4.691948334878771,1.8344122186725929,2.0525612315730957,4.557485468025906,1.0,3.14,-0.5157102838810185,-0.03848813789561984,-0.20876574046992719,-3.1366183643749967,0.08167299255591425
202,0.5336221687716086,0.4104838870943963,0.33858037113812733,4.691908008147678,1.8344069040966706,2.0525612098562465,4.557442405447395,1.0,3.14,-0.5156277592310853,-0.03864802878081904,-0.2096770983662038,-3.136538247790414,0.0807272673123138
203,0.5335725422681116,0.41045424111985224,0.3385390309182327,4.691866758752158,1.8344014829729482,2.0525611878001837,4.557398357303382,1.0,3.14,-0.5155439203117409,-0.038810444620046895,-0.2106030528357688,-3.136456840013328,0.07976615703571636
204,0.533521769283133,0.41042390780786425,0.3384967379550431,4.6918245629676125,1.8343959529229847,2.0525611653997804,4.557353298243979,1.0,3.14,-0.5154587463544158,-0.03897542463128613,-0.21154383670604773,-3.1363741198949087,0.07878940858087533
205,0.5334698201037292,0.41039286930666663,0.338453467574458,4.691781396395394,1.8343903115090043,2.052561142649839,4.557307202198861,1.0,3.14,-0.5153722162602442,-0.039143008634955595,-0.21249968655165463,-3.1362900659135677,0.07779676447732867
206,0.5334166641689836,0.41036110725522884,0.33840919439661177,4.691737233942019,1.8343845562322694,2.0525611195450857,4.557260042355037,1.0,3.14,-0.5152843085943877,-0.03931323706365194,-0.21347084275891595,-3.136204656166815,0.07678796284702849
207,0.5333622700438205,0.41032860276758726,0.33836389231394876,4.691692049797675,1.8343786845313952,2.0525610960801712,4.557211791133874,1.0,3.14,-0.5151950015802298,-0.03948615097209759,-0.21445754959178867,-3.136117868362855,0.07576273731997811
208,0.5333066053919536,0.41029533641666965,0.33831753446854007,4.691645817414011,1.8343726937806222,2.052561072249671,4.557162420167345,1.0,3.14,-0.5151042730934379,-0.039661792047301844,-0.21546005525921616,-3.1360296798119185,0.0747208169478092
209,0.5332496369479185,0.4102612882175611,0.3382700932286495,4.691598509481168,1.8343665812880336,2.05256104804808,4.557111900273484,1.0,3.14,-0.5150121006558909,-0.0398402026189435,-0.2164786119839691,-3.1359400674173084,0.07366192611522931
210,0.5331913304881686,0.41022643761023786,0.33822154016448563,4.691550097904048,1.8343603442937153,2.052561023469818,4.557060201430998,1.0,3.14,-0.5149184614294616,-0.04002142566998194,-0.21751347607302118,-3.13584900766616,0.0725857844492663
211,0.5331316508012007,0.4101907634417061,0.3381718460231311,4.691500553777766,1.8343539799678659,2.0525609985092235,4.557007292753022,1.0,3.14,-0.5148233322096561,-0.040205504847505354,-0.2185649079895085,-3.1357564766198927,0.0714921067262328
212,0.5330705616566422,0.4101542439475313,0.3381209807026096,4.691449847362254,1.8343474854088475,2.052560973160554,4.556953142459973,1.0,3.14,-0.5147266894191003,-0.040392484473823924,-0.21963317242632782,-3.135662449904342,0.07038060277633149
213,0.5330080257733106,0.4101168567327656,0.3380689132250488,4.691397948056008,1.834340857641175,2.0525609474179833,4.556897717851472,1.0,3.14,-0.514628509100868,-0.04058240955781885,-0.22071853838142838,-3.135566902699561,0.0692509773858169
214,0.5329440047861723,0.4100785787522162,0.3380156117089279,4.691344824368931,1.8343340936134451,2.052560921275605,4.5568409852773035,1.0,3.14,-0.5145287669116463,-0.04077532580655437,-0.22182127923485648,-3.1354698097292726,0.06810293019662683
215,0.5328784592121576,0.4100393862900392,0.33796104334034255,4.691290443894221,1.8343271901962035,2.052560894727427,4.556782910107364,1.0,3.14,-0.5144274381147337,-0.0409712796371642,-0.2229416728276118,-3.1353711452499575,0.06693615560339151
216,0.5328113484148038,0.4099992549386428,0.3379051743432726,4.691234773279295,1.8343201441797443,2.0525608677673715,4.556723456700563,1.0,3.14,-0.5143244975728607,-0.04117031818902239,-0.22408000154238109,-3.135270883039562,0.06575034264772568
217,0.5327426305676742,0.4099581595768638,0.3378479699488001,4.691177778195693,1.834312952271841,2.052560840389273,4.556662588372643,1.0,3.14,-0.514219919740829,-0.04137248933620937,-0.22523655238621554,-3.1351689963858074,0.0645451749097031
218,0.5326722626164905,0.4099160743473901,0.3377893943632496,4.691119423307925,1.83430561109541,2.0525608125868784,4.556600267362872,1.0,3.14,-0.514113678657962,-0.04157784170028467,-0.2264116170752205,-3.1350654580740827,0.06332033039640857
219,0.5326002002399629,0.40987297263340494,0.33772941073517954,4.691059672241222,1.8342981171860973,2.0525607843538443,4.556536454799549,1.0,3.14,-0.5140057479403579,-0.04178642466337856,-0.22760549212133147,-3.134960240374903,0.06207548142745866
220,0.5325263978092213,0.4098288270344138,0.33766798112121194,4.69099848754814,1.834290466989795,2.052560755683738,4.5564711106643,1.0,3.14,-0.5138961007729407,-0.041998288381614284,-0.22881847892125232,-3.1348533150309104,0.06081029451737605
221,0.5324508083458283,0.4097836093412402,0.3376050664506282,4.6909358306739914,1.8342826568600745,2.0525607265700323,4.556404193755098,1.0,3.14,-0.5137847099012983,-0.04221348379887532,-0.23005088384763583,-3.134744653243393,0.05952443025469722
222,0.5323733834782926,0.409737290510115,0.337540626488694,4.690871661921002,1.834274683055543,2.0525606970061063,4.556335661647952,1.0,3.14,-0.5136715476233004,-0.042432062660930255,-0.23130301834259093,-3.134634225658313,0.05821754317768749
223,0.5322940733970413,0.4096898406358902,0.33747461979864696,4.690805940411226,1.8342665417371122,2.052560666985247,4.556265470657228,1.0,3.14,-0.5135565857804871,-0.04265407752993049,-0.23257519901360313,-3.1345220023518,0.056889281646532654
224,0.5322128268077647,0.40964122892426696,0.33740700370230553,4.690738624048081,1.8342582289651892,2.0525606365006404,4.5561935757945236,1.0,3.14,-0.5134397957492222,-0.04287958179929594,-0.2338677477319607,-3.1344079528151,0.05553928771186674
225,0.5321295908830967,0.4095914236630617,0.33733773423923646,4.690669669476507,1.8342497406967644,2.0525606055453767,4.556119930726058,1.0,3.14,-0.5133211484315937,-0.04310862970900382,-0.23518099173378448,-3.1342920459389485,0.05416719697949379
226,0.532044311212529,0.40954039219242755,0.3372667661244091,4.690599032041658,1.8342410727824188,2.052560574112445,4.556044487728491,1.0,3.14,-0.5132006142460629,-0.04334127636129828,-0.2365152637237588,-3.134174249997336,0.05277263847114864
227,0.531956931750507,0.4094881008740079,0.3371940527042886,4.690526665746079,1.834232220963228,2.0525605421947324,4.555967197643127,1.0,3.14,-0.513078163117839,-0.043577577736837174,-0.23787090198167335,-3.1340545326306435,0.0513552344811396
228,0.5318673947626257,0.4094345150589737,0.3371195459112878,4.690452523205294,1.8342231808675686,2.0525605097850232,4.555888009828414,1.0,3.14,-0.5129537644689792,-0.043817590711296324,-0.2392482504718841,-3.133932860828112,0.049914600428704374
229,0.531775640769846,0.4093795990549022,0.3370431962165101,4.690376555601752,1.834213948007821,2.052560476875998,4.555806872110687,1.0,3.14,-0.5128273872081958,-0.04406137307244721,-0.24064765895581106,-3.133809200909613,0.04845034470590398
230,0.5316816084906292,0.409323316091434,0.33696495258071774,4.690298712637037,1.8342045177769655,2.0525604434602265,4.555723730733053,1.0,3.14,-0.5126989997203611,-0.044308983537731376,-0.2420694831075948,-3.1336835185066874,0.046962068520870155
231,0.531585234780932,0.40926562828467145,0.3368847624034238,4.690218942482281,1.8341948854450643,2.052560409530173,4.555638530302359,1.0,3.14,-0.5125685698556961,-0.0445604817723516,-0.24351408463303983,-3.1335557785428176,0.04544936573621264
232,0.5314864545719444,0.40920649660026454,0.3368025714700553,4.690137191726713,1.8341850461556324,2.0525603750781904,4.555551213734151,1.0,3.14,-0.5124360649186306,-0.04481592840790127,-0.2449818313919793,-3.13342594521289,0.04391182270238268
233,0.5313852008054698,0.4091458808151107,0.33671832389707107,4.690053405324219,1.8341749949218855,2.052560340096517,4.555461722195522,1.0,3.14,-0.5123014516563208,-0.045075385061555506,-0.24647309752420207,-3.133293981961809,0.04234901808577954
234,0.5312814043668694,0.4090837394776302,0.33663196207496343,4.68996752653788,1.8341647266228633,2.0525603045772773,4.555369995045781,1.0,3.14,-0.5121646962468085,-0.04533891435584985,-0.24798826357909065,-3.133159851462221,0.04076052269137422
235,0.531174994015426,0.4090200298665327,0.3365434266090358,4.689879496882338,1.834154235999426,2.0525602685124786,4.55527596977481,1.0,3.14,-0.5120257642868085,-0.045606579939069275,-0.24952771664912524,-3.1330235155913035,0.03914589927961577
236,0.5310658963120396,0.4089547079480352,0.3364526562578587,4.689789256063952,1.8341435176501146,2.0525602318940064,4.555179581939042,1.0,3.14,-0.5118846207791061,-0.04587844650627702,-0.2510918505074174,-3.1328849354065644,0.03750470237737033
237,0.5309540355441217,0.40888772833142784,0.33635958786929543,4.689696741918575,1.8341325660268704,2.0525601947136294,4.555080765094913,1.0,3.14,-0.5117412301195486,-0.04615457982100967,-0.2526810657494453,-3.1327440711206127,0.0358364780826329
238,0.5308393336475594,0.40881904422294807,0.3362641563139756,4.689601890346915,1.8341213754306158,2.0525601569629863,4.554979450729699,1.0,3.14,-0.5115955560836167,-0.04643504673766867,-0.25429576993916914,-3.1326008820748323,0.03414076386273541
239,0.5307217101256146,0.40874860737785684,0.33616629441611195,4.689504635247294,1.83410994000668,2.0525601186335924,4.5548755681896,1.0,3.14,-0.5114475618125492,-0.046719915224637934,-0.255936377759719,-3.1324553267119155,0.03241708834576357
240,0.530601081964628,0.40867636805066504,0.3360659328815277,4.6894049084457485,1.8340982537400643,2.0525600797168315,4.55476904460495,1.0,3.14,-0.511297209799009,-0.047009254388162475,-0.2576033111688525,-3.1323073625471887,0.030664971104876614
241,0.5304773635463605,0.40860227494338663,0.3359630002227433,4.689302639623286,1.8340863104505543,2.052560040203956,4.55465980481241,1.0,3.14,-0.5111444618722676,-0.0473031344970185,-0.259296999559391,-3.132156946138668,0.02888392243520983
242,0.5303504665568114,0.4085262751517669,0.33585742268101143,4.689197756240215,1.8340741037876571,2.0525600000860824,4.554547771273994,1.0,3.14,-0.5109892791828868,-0.04760162700801262,-0.26101787992485553,-3.1320040330557775,0.02707344312302178
243,0.5302202998913766,0.4084483141093595,0.3357491241451228,4.689090183457359,1.8340616272253618,2.0525599593541886,4.554432863992803,1.0,3.14,-0.510831622186874,-0.047904804592348124,-0.2627663970305331,-3.1318485778466583,0.02523302420673005
244,0.5300867695561285,0.40836833552936874,0.3356380260668454,4.688979844054035,1.8340488740567191,2.052559917999113,4.554315000425256,1.0,3.14,-0.5106714506292882,-0.0482127411628943,-0.2645430035902184,-3.1316905340039987,0.023362146729461544
245,0.5299497785650538,0.4082862813441414,0.33552404737280755,4.68886665834263,1.834035837388233,2.052559876011546,4.554194095389698,1.0,3.14,-0.5105087235272779,-0.04852551190240297,-0.26634816044888227,-3.1315298539292904,0.021460281482719588
246,0.5298092268330499,0.40820209164220156,0.3354071043726728,4.68875054407959,1.8340225101340466,2.052559833382031,4.554070060971166,1.0,3.14,-0.5103433991525121,-0.04884319329271255,-0.26818233677154407,-3.131366488895448,0.01952688874075329
247,0.5296650110644705,0.4081157046027027,0.3352871106633925,4.688631416372665,1.8340088850099274,2.0525597901009585,4.55394280642215,1.0,3.14,-0.5101754350129919,-0.04916586314498646,-0.27004601023862274,-3.1312003890076796,0.017561417985187264
248,0.5295170246369824,0.40802705642717496,0.33516397702935313,4.6885091875842075,1.8339949545270364,2.0525597461585647,4.553812238059112,1.0,3.14,-0.510004787834205,-0.0494936006310302,-0.27193966724807117,-3.131031503162529,0.015563307619448002
249,0.5293651574805217,0.4079360812684305,0.3350376113382013,4.68838376723032,1.8339807109854736,2.0525597015449235,4.553678259154585,1.0,3.14,-0.509831413539598,-0.049826486315739785,-0.2738638031246054,-3.1308597790049797,0.013531984672497322
250,0.5292092959510878,0.4078427111564885,0.3349079184321261,4.688255061875647,1.833966146467584,2.0525596562499473,4.55354076982459,1.0,3.14,-0.5096552672303319,-0.05016460219072947,-0.27581892233636,-3.130685162883518,0.01146686449135452
251,0.5290493226991021,0.40774687592136927,0.33477480001434556,4.688122975023581,1.8339512528310309,2.0525596102633763,4.553399666911152,1.0,3.14,-0.509476303164294,-0.05050803170919503,-0.277805538719317,-3.1305075998030367,0.009367350421861148
252,0.5288851165320797,0.407648503112599,0.33463815453056306,4.687987407001645,1.8339360217016043,2.0525595635747793,4.553254843859645,1.0,3.14,-0.5092944747343245,-0.05085685982206778,-0.2798241757098776,-3.1303270333754627,0.007232833477111277
253,0.5287165522712883,0.40754751791524907,0.3344978770451199,4.687848254841784,1.833920444465772,2.052559516173549,4.553106190590695,1.0,3.14,-0.5091097344456285,-0.051211173015518585,-0.2818753665859613,-3.1301434057679773,0.005062691992936366
254,0.5285435006020875,0.4074438430623486,0.3343538591115371,4.687705412155313,1.8339045122629525,2.0525594680488886,4.552953593366346,1.0,3.14,-0.5089220338923358,-0.051571059349874,-0.28395965471703977,-3.129956657648688,0.0028562912697994904
255,0.5283658279176172,0.4073373987434538,0.33420598863717765,4.687558769002209,1.8338882159774978,2.052559419189818,4.552796934650192,1.0,3.14,-0.5087313237331637,-0.051936608500007996,-0.28607759382353853,-3.1297667281296184,0.0006129832004171955
256,0.5281833961554842,0.4072281025092064,0.3340541497416804,4.687408211754471,1.8338715462303785,2.0525593695851585,4.552636092961135,1.0,3.14,-0.5085375536661477,-0.05230791179727811,-0.28822974824605413,-3.1295735547068477,-0.0016678941176138762
257,0.5279960626270555,0.4071158691716413,0.33389822260881824,4.687253622953198,1.8338544933705516,2.052559319223533,4.552470942720425,1.0,3.14,-0.5083406724023956,-0.0526850622730755,-0.2904166932248691,-3.1293770731976416,-0.003987016784948264
258,0.5278036798389627,0.40700061070002225,0.33373808333143906,4.687094881159032,1.8338370474660062,2.0525592680933546,4.552301354091596,1.0,3.14,-0.5081406276388207,-0.05306815470406247,-0.29263901519026586,-3.129177217674398,-0.00634507552019153
259,0.5276060953063915,0.4068822361119742,0.3335736037490635,4.68693186079563,1.8338191982944616,2.0525592161828254,4.55212719281293,1.0,3.14,-0.5079373660298045,-0.05345728565917492,-0.2948973120641727,-3.128973920395222,-0.008742776097023591
260,0.5274031513576933,0.4067606513596383,0.333404651277761,4.686764431985719,1.8338009353337106,2.0525591634799225,4.55194832002199,1.0,3.14,-0.5077308331577445,-0.05385255354847019,-0.29719219357370175,-3.1287671117309257,-0.011180839799653938
261,0.5271946849298392,0.4066357592105983,0.33323108873181534,4.686592460379372,1.83378224775159,2.052559109972396,4.551764592071803,1.0,3.14,-0.5075209735024312,-0.05425405867390303,-0.29952428157717254,-3.128556720088247,-0.013660003897570298
262,0.5269805273542076,0.40650745912326725,0.3330527741367518,4.686415806974001,1.8337631243955588,2.0525590556477593,4.55157586033819,1.0,3.14,-0.5073077304092046,-0.05466190328211859,-0.30189421040324477,-3.128342671829054,-0.016181022140600423
263,0.5267605041321188,0.4063756471164345,0.33286956053317723,4.686234327925626,1.8337435537818743,2.0525590004932805,4.551381971017741,1.0,3.14,-0.5070910460558341,-0.05507619161935121,-0.30430262720382156,-3.128124891185298,-0.018744665275368597
264,0.5265344346995882,0.40624021563264806,0.3326812957709154,4.686047874350898,1.833723524084336,2.052558944495971,4.551182764915883,1.0,3.14,-0.5068708614180588,-0.05549702998852729,-0.3067501923214211,-3.127903300169452,-0.021351721584293985
265,0.5263021321806017,0.4061010533950606,0.3324878222928559,4.685856292119304,1.8337030231225877,2.0525588876425807,4.550978077224453,1.0,3.14,-0.5066471162337344,-0.055924526808666955,-0.30923757967175275,-3.1276778184801612,-0.024002997448349016
266,0.5260634031282987,0.405958045257395,0.3322889769078876,4.685659421635025,1.8336820383499564,2.052558829919585,4.550767737288153,1.0,3.14,-0.506419748965517,-0.05635879267669065,-0.3117654771422772,-3.1274483634028143,-0.02669931793487117
267,0.5258180472533176,0.40581107204659933,0.33208459055226164,4.68545709760776,1.8336605568408002,2.0525587713131745,4.550551568359219,1.0,3.14,-0.506188696762023,-0.0567999404317359,-0.31433458700757255,-3.1272148497047065,-0.029441527411801657
268,0.5255658571385433,0.405660010397781,0.3318744880386747,4.685249148811891,1.8336385652773537,2.052558711809242,4.550329387339581,1.0,3.14,-0.5059538954173922,-0.05724808522209394,-0.3169456263623793,-3.1269771895244722,-0.032230490189810675
269,0.5253066179394505,0.405504732580965,0.33165848779230384,4.685035397833257,1.833616049936033,2.0525586513933756,4.5501010045097505,1.0,3.14,-0.5057152793291818,-0.05770334457488459,-0.3195993275732428,-3.126735292255418,-0.0350670911938616
270,0.5250401070691407,0.40534510631916437,0.33143640157299326,4.684815660802757,1.8335929966731985,2.052558590050839,4.549866223243606,1.0,3.14,-0.505472781454525,-0.05816583846858395,-0.32229643874972674,-3.126489064422363,-0.0379522366658649
271,0.5247660938671732,0.40518099459728496,0.3312080341826941,4.684589747115987,1.8335693909103201,2.052558527766566,4.54962483970821,1.0,3.14,-0.5052263332644639,-0.05863568940853234,-0.32503772423623134,-3.126238409551584,-0.04088685490017738
272,0.5244843392511499,0.40501225546126407,0.330973183157251,4.68435745913801,1.8335452176185512,2.0525584645251382,4.5493766425476965,1.0,3.14,-0.5049758646963888,-0.05911302250554721,-0.3278239651255025,-3.1259832280334097,-0.0438718970138173
273,0.5241945953500011,0.40483874180686696,0.33073163844150255,4.684118591892307,1.8335204613026568,2.052558400310774,4.549121412550217,1.0,3.14,-0.5047213041044927,-0.05959796555777289,-0.3306559597949906,-3.125723416976989,-0.04690833775338567
274,0.5238966051178213,0.4046603011575084,0.3304831820466178,4.683872932732918,1.833495105984278,2.052558335107314,4.54885892229686,1.0,3.14,-0.5044625782081568,-0.06009064913590312,-0.3335345244672796,-3.125458870056725,-0.04999717634081484
275,0.5235901019269964,0.4044767754303915,0.3302275876885211,4.683620260998641,1.8334691351845096,2.052558268898201,4.548588935791376,1.0,3.14,-0.5041996120381824,-0.06059120667191353,-0.3364604937958816,-3.125189477349814,-0.05313943736020621
276,0.5232748091393131,0.40428800069024884,0.3299646204061365,4.683360347648153,1.833442531905748,2.0525582016664594,4.548311208069424,1.0,3.14,-0.5039323288807731,-0.06109977455144804,-0.3394347214777693,-3.124915125164308,-0.0563361716881672
277,0.522950439653628,0.4040938068899064,0.32969403615811044,4.6830929548747795,1.8334152786127784,2.052558133394685,4.54802548478603,1.0,3.14,-0.5036606502191715,-0.06161649221000374,-0.34245808089410157,-3.124635695857055,-0.05958845747021991
278,0.5226166954285508,0.40389401759678806,0.3294155813965606,4.682817835699516,1.8333873572130786,2.052558064065013,4.547731501779749,1.0,3.14,-0.5033844956728626,-0.06214150223306238,-0.3455314657806802,-3.1243510676408364,-0.06289740114602757
279,0.5222732669785028,0.4036884497045001,0.329128992616299,4.682534733540896,1.8333587490362897,2.052557993659105,4.547428984611997,1.0,3.14,-0.5031037829342339,-0.06267495046031749,-0.3486557909297764,-3.124061114379961,-0.0662641385263697
280,0.5219198328413879,0.40347691312849787,0.3288339958778231,4.682243381760088,1.8333294348128262,2.052557922158122,4.547117648079847,1.0,3.14,-0.5028184277026,-0.0632169860941512,-0.3518319929250552,-3.123765705373522,-0.06968983592499906
281,0.5215560590159464,0.403259210484787,0.32853030630226615,4.681943503179525,1.8332993946515908,2.0525578495426995,4.54679719570045,1.0,3.14,-0.502528343615487,-0.06376776181250976,-0.3550610309114389,-3.1234647051254565,-0.0731756913487276
282,0.5211815983667685,0.4030351367505387,0.3282176275363607,4.681634809573227,1.8332686080167462,2.052557775792923,4.546467319165145,1.0,3.14,-0.5022334421770694,-0.06432743388633319,-0.35834388740185824,-3.1231579731004833,-0.07672293574932303
283,0.5207960899947325,0.4028044789054171,0.32789565118524844,4.681317001126849,1.8332370537035134,2.0525577008882983,4.546127697761089,1.0,3.14,-0.5019336326836621,-0.06489616230168707,-0.3616815691229605,-3.12284536346492,-0.0803328343410454
284,0.5203991585705035,0.4025670155523074,0.3275640562108883,4.680989765865295,1.8332047098129516,2.0525576248077244,4.545777997758148,1.0,3.14,-0.5016288221461565,-0.06547411088674533,-0.36507510790197195,-3.122526724811301,-0.08400668798792542
285,0.5199904136285027,0.4023225165160419,0.32722250829355964,4.680652779045582,1.8331715537256794,2.0525575475294584,4.545417871758528,1.0,3.14,-0.5013189152093056,-0.06606144744376614,-0.36852556159704275,-3.122201899865626,-0.08774583466517603
286,0.5195694488185792,0.40207074241861146,0.3268706591537603,4.680305702512445,1.8331375620745045,2.052557469031087,4.545046958006483,1.0,3.14,-0.5010038140677501,-0.06665834388619842,-0.3720340150735532,-3.1218707251759783,-0.091551650999443
287,0.5191358411123849,0.4018114442292447,0.32650814583161586,4.679948184013977,1.8331027107159037,2.052557389289485,4.544664879655174,1.0,3.14,-0.5006834183786916,-0.06726497638104553,-0.37560158122900617,-3.121533030781143,-0.09542555389294094
288,0.5186891499612276,0.40154436278758804,0.326134589920619,4.679579856474351,1.8330669747003274,2.052557308280784,4.544271243987527,1.0,3.14,-0.5003576251711165,-0.06788152549660385,-0.37922940206930017,-3.121188639857751,-0.09936900223688476
289,0.5182289164018714,0.4012692282980931,0.32574959675228904,4.67920033722045,1.8330303282412859,2.052557225980329,4.543865641587674,1.0,3.14,-0.5000263287514894,-0.06850817635567287,-0.3829186498393442,-3.12083736834433,-0.10338349872002574
290,0.517754662106511,0.4009857597935518,0.32535275452802687,4.678809227158898,1.832992744683167,2.052557142362632,4.54344764545925,1.0,3.14,-0.4996894206058292,-0.06914511879432254,-0.38667052821116693,-3.1204790245405367,-0.10747059173852731
291,0.5172658883728256,0.40069366456560285,0.32494363339411486,4.678406109899818,1.8329541964677605,2.0525570574013363,4.543016810086539,1.0,3.14,-0.4993467892981054,-0.06979254752627306,-0.39048627353286225,-3.1201134086796607,-0.11163187741387946
292,0.516762075049654,0.40039263755977206,0.324521784455494,4.6779905508231385,1.8329146550994473,2.05255697106916,4.542572670434064,1.0,3.14,-0.49899832036489994,-0.07045066231291638,-0.3943671561419263,-3.1197403124723566,-0.11586900172605255
293,0.5162426793934728,0.4000823607324977,0.32408673872351174,4.677562096083079,1.832874091109022,2.052556883337849,4.542114740879874,1.0,3.14,-0.49864389620629584,-0.07111966813897178,-0.39831448174675993,-3.1193595186193623,-0.120183662769633
294,0.5157071348504744,0.3997625023673254,0.32363800599244413,4.677120271545948,1.8328324740161224,2.0525567941781233,4.541642514077345,1.0,3.14,-0.4982833959729754,-0.07179977539372664,-0.40232959288034703,-3.1189708002907737,-0.1245776131412714
295,0.5151548497585586,0.3994327163472512,0.32317507363913395,4.676664581655999,1.8327897722902395,2.052556703559618,4.541155459739838,1.0,3.14,-0.4979166954495396,-0.07249120005775764,-0.40641387043036464,-3.1185739205692236,-0.12905266246741168
296,0.5145852059630797,0.3990926413799217,0.32269740533952435,4.676194508223606,1.8327459533103014,2.0525566114508242,4.540653023342082,1.0,3.14,-0.49754366693408847,-0.0731941638949704,-0.4105687352502495,-3.118168631854077,-0.13361068008195695
297,0.513997557339706,0.3987419001721722,0.3222044396953733,4.675709509129537,1.8327009833228134,2.0525565178190264,4.540134624731557,1.0,3.14,-0.49716417911413924,-0.07390889464971637,-0.41479564985601847,-3.117754675223494,-0.13825359786428185
298,0.5133912282170551,0.39838009854999207,0.3216955887637438,4.675209016938431,1.832654827398573,2.052556422630233,4.539599656642559,1.0,3.14,-0.49677809693901204,-0.07463562624865827,-0.41909612021393855,-3.1173317797509195,-0.14298341324880717
299,0.512765511691275,0.3980068245197947,0.32117023648121695,4.674692437414087,1.8326074493879623,2.052556325849104,4.539047483104947,1.0,3.14,-0.4963852814888528,-0.07537459900695243,-0.42347169762445164,-3.11689966177224,-0.1478021924182376
300,0.5121196678239237,0.3976216472664338,0.3206277369740191,4.674159147928386,1.8325588118748641,2.0525562274388798,4.538477437738833,1.0,3.14,-0.49598558984054647,-0.07612605983818709,-0.42792398070808346,-3.11645802409951,-0.15271207369351808
301,0.5114529217138085,0.39722411608304053,0.3200674127443669,4.673608495754928,1.8325088761292594,2.0525561273613,4.537888821925634,1.0,3.14,-0.4955788749308388,-0.07689026246736826,-0.4324546174994087,-3.1160065551767357,-0.15771527113460201
302,0.5107644614325745,0.3968137592273529,0.3194885527224997,4.673039796237615,1.832457602058573,2.05255602557652,4.53728090284502,1.0,3.14,-0.4951649854170825,-0.0776674676460729,-0.4370653076555036,-3.115544928172808,-0.1628140783672514
303,0.5100534358129334,0.39639008269872306,0.318890410172739,4.672452330823488,1.8324049481578888,2.0525559220430263,4.536652911366272,1.0,3.14,-0.49474376553613186,-0.07845794336867723,-0.4417578047856876,-3.115072800006184,-0.16801087265231163
304,0.5093189520774248,0.3959525689295043,0.318272200440871,4.6718453449480934,1.832350871459175,2.052555816717544,4.536004039781465,1.0,3.14,-0.49431505496204575,-0.07926196508832746,-0.44653391890974276,-3.1145898102953997,-0.17330811921523126
305,0.50856007329446,0.3955006753839545,0.3176330985288451,4.671218045760465,1.8322953274797107,2.0525557095549436,4.535333439366648,1.0,3.14,-0.49387868866340917,-0.08007981593102849,-0.451395519052196,-3.114095580228914,-0.17870837585503957
306,0.5077758156472548,0.395033833057216,0.3169722364814039,4.67056959967362,1.832238270169949,2.052555600508144,4.5346402177558485,1.0,3.14,-0.4934344967612656,-0.08091178690589274,-0.4563445359806623,-3.1135897113471565,-0.18421429785355575
307,0.5069651454998934,0.3945514448662717,0.31628870056773245,4.66989912972499,1.8321796518611215,2.05255548952801,4.533923436111232,1.0,3.14,-0.49298230438887897,-0.08175817710918473,-0.46138296509665294,-3.113071784228923,-0.18982864320730503
308,0.5061269762433116,0.39405288392405463,0.3155815282394693,4.669205712729688,1.83211942321296,2.0525553765632494,4.533182106071023,1.0,3.14,-0.4925219315547903,-0.08261929391933052,-0.46651286948767845,-3.1125413570734928,-0.19555427820645094
309,0.5052601649024385,0.39353749168716506,0.3148497048445823,4.668488376207795,1.8320575331619955,2.052555261560309,4.532415186455021,1.0,3.14,-0.49205319301094347,-0.08349545317950673,-0.47173638314988076,-3.1119979641689626,-0.2013941833870536
310,0.5043635084839512,0.39300457596675353,0.3140921600744156,4.667746095064882,1.831993928871004,2.0525551444632666,4.531621579705416,1.0,3.14,-0.49157589812801855,-0.08438697936376795,-0.47705571439083333,-3.1114411142363108,-0.20735145988511752
311,0.5034357400422507,0.39245340879128143,0.31330776411897715,4.6669777880029475,1.8319285556802993,2.0525550252137226,4.530800128038374,1.0,3.14,-0.4910898507805215,-0.08529420572190728,-0.48247314942253194,-3.110870288637659,-0.21342933622323115
312,0.5024755244391165,0.39188322410884646,0.31249532350281745,4.66618231363646,1.8318613570616993,2.0525549037507,4.529949609279289,1.0,3.14,-0.4905948492446981,-0.08621747439733128,-0.4879910561549393,-3.110284939435969,-0.21963117556312117
313,0.50148145377032,0.3912932153157284,0.31165357657102877,4.665358466285695,1.83179227457621,2.0525547800105373,4.529068732351802,1.0,3.14,-0.4900906861129225,-0.08715713651117223,-0.4936118882007509,-3.109684487292109,-0.22596048346016806
314,0.5004520424299364,0.3906825325966778,0.31078118859163,4.6645049714165525,1.831721247836641,2.052554653926797,4.528156132387544,1.0,3.14,-0.4895771482289166,-0.08811355220459044,-0.49933818910228017,-3.109068319183732,-0.2324209161588537
315,0.49938572178041074,0.3900502800612002,0.30987674643699514,4.66362048069279,1.831648214476652,2.0525545254301756,4.527210365420048,1.0,3.14,-0.48905401664898956,-0.0890870906297391,-0.505172596791498,-3.1084357859287777,-0.23901628947125877
316,0.4982808343935729,0.3893955126588607,0.3089387528030067,4.662703566603057,1.831573110128019,2.0525543944484306,4.526229902622443,1.0,3.14,-0.48852106663546396,-0.09007812987811219,-0.511117848294279,-3.107786199494573,-0.24575058828408958
317,0.4971356278245837,0.3887172328551751,0.30796561992014004,4.661752716621011,1.8314958684082612,2.052554260906321,4.525213124044176,1.0,3.14,-0.48797806768962787,-0.09108705683291372,-0.517176784689764,-3.107118830071485,-0.2526279767433013
318,0.495948247877414,0.388014387048231,0.30695566270570046,4.660766326852388,1.8314164209212207,2.052554124725576,4.524158311797238,1.0,3.14,-0.48742478363292957,-0.09211426692964447,-0.5233523563353917,-3.1064329028878253,-0.2596528091691892
319,0.49471673131682903,0.38728586170464335,0.3059070913009518,4.659742695117892,1.8313346972736795,2.0525539858248854,4.523063642637029,1.0,3.14,-0.4868609727467672,-0.09316016380620022,-0.5296476283675373,-3.105727594740185,-0.2668296417588315
320,0.4934389979779339,0.3865304791918442,0.3048180029306944,4.658680013415247,1.8312506251117253,2.0525538441199367,4.521927179877056,1.0,3.14,-0.48628638798317403,-0.09422515882033915,-0.5360657864867368,-3.1050020302106263,-0.2741632451369678
321,0.49211284222026386,0.38574699328213347,0.30368637301600154,4.657576359697639,1.8311641301813018,2.052553699523498,4.520746864570085,1.0,3.14,-0.48570077726100364,-0.09530967040831491,-0.5426101430350821,-3.1042552775390417,-0.2816586178207505
322,0.4907359236690655,0.3849340843022721,0.30251004546328875,4.656429688898953,1.8310751364182587,2.052553551945559,4.5195205058810695,1.0,3.14,-0.485103883864967,-0.09641412325363875,-0.549284143371453,-3.1034863441156,-0.2893210006682582
323,0.4893057571820124,0.38409035390084184,0.30128672204442136,4.655237823128665,1.8309835660742635,2.0525534012935633,4.518245770569083,1.0,3.14,-0.48449544696813407,-0.09753894722921552,-0.556091372547631,-3.102694171554418,-0.29715589238514506
324,0.4878197019750197,0.38321431940415085,0.30001395077326914,4.653998440950941,1.8308893398861952,2.052553247472721,4.516920171486543,1.0,3.14,-0.48387520230240333,-0.09868457606928169,-0.5630355622848903,-3.101877630305426,-0.3051690661681989
325,0.48627494983644803,0.38230440773023794,0.29868911317385005,4.652709065653309,1.8307923772981307,2.052553090386456,4.515541054994194,1.0,3.14,-0.48324288300606444,-0.09985144571949868,-0.5701205982461387,-3.1010355137568353,-0.313366587568759
326,0.48466851235465863,0.38135894882954624,0.2973094103238683,4.651367052400144,1.8306925967468517,2.052552929937002,4.514105587179445,1.0,3.14,-0.48259822068310376,-0.10103999230391113,-0.577350527592843,-3.1001665317755935,-0.32175483366269836
327,0.4829972070800953,0.3803761686204353,0.29587184754506074,4.649969574155184,1.830589916023939,2.0525527660261806,4.512610738753851,1.0,3.14,-0.4819409467154933,-0.10225064963601767,-0.5847295668084853,-3.099269303627753,-0.3303405136167372
328,0.4812576425399823,0.3793541813879071,0.2943732175982381,4.648513606245258,1.8304842527301368,2.052552598556416,4.511053268492606,1.0,3.14,-0.4812707938775623,-0.10348384618753106,-0.5922621097607821,-3.098342350214766,-0.3391306907428732
329,0.47944620202185134,0.3782909816151328,0.2928100822262653,4.646995909424368,1.8303755248407545,2.052552427432023,4.509429705064981,1.0,3.14,-0.48058749831095443,-0.10474000141210053,-0.5999527359628402,-3.097384085555357,-0.3481328061332122
330,0.4775590260419178,0.37718443521989353,0.29117875187246917,4.645413011283326,1.830263651404622,2.0525522525608504,4.507736327089693,1.0,3.14,-0.47989080192990824,-0.1060195213018055,-0.6078062189782479,-3.0963928074358873,-0.3573547039658425
331,0.47559199341675024,0.3760322701724257,0.28947526338532886,4.643761185835347,1.830148553403598,2.0525520738563423,4.505969141233349,1.0,3.14,-0.4791804553400419,-0.10732279303099741,-0.6158275348960277,-3.0953666871450163,-0.36680465856781247
332,0.4735407008625732,0.374832066477918,0.28769535550275177,4.642036431092531,1.8300301548050169,2.052551891240109,4.504123858153621,1.0,3.14,-0.4784562213699027,-0.10865017851430808,-0.624021870777528,-3.0943037582012227,-0.37649140331266345
333,0.47140044105750695,0.37358124551705935,0.28583444189150653,4.640234444432442,1.829908383845925,2.052551704645139,4.502195866071943,1.0,3.14,-0.4777178793337762,-0.11000200667249206,-0.6323946329475536,-3.093201903974474,-0.38642416141597946
334,0.46916617911964986,0.3722770587523846,0.2838875814995423,4.638350595538294,1.8297831745957385,2.0525515140197617,4.500180201743885,1.0,3.14,-0.4769652301672881,-0.111378564160153,-0.640951454964929,-3.092058844096366,-0.3966126786712318
335,0.4668325274809465,0.370916575828454,0.28184944596232053,4.636379896681596,1.8296544688532534,2.0525513193325344,4.498071518579703,1.0,3.14,-0.4761981026048413,-0.11278008426212265,-0.649698205061596,-3.090872119546871,-0.4070672581375039
336,0.4643937191761028,0.36949667212161275,0.27971428378962454,4.6343169701032645,1.829522218445117,2.0525511205782534,4.495864051654055,1.0,3.14,-0.47541636060083886,-0.11420673360881775,-0.6586409927821324,-3.089639076301006,-0.4177987967474794
337,0.4618435796219666,0.36801401583285187,0.2774758810486874,4.63215601223988,1.8293863880062142,2.052550917785293,4.493551579334103,1.0,3.14,-0.47461991223590616,-0.11565859629365421,-0.6677861744847147,-3.088356847416172,-0.4288188237445002
338,0.4591754970412428,0.36646505476801533,0.27512751825510195,4.629890754537983,1.8292469583383548,2.0525507110245655,4.4911273812515615,1.0,3.14,-0.47380872039608185,-0.11713565489558589,-0.6771403572769628,-3.0870223334419027,-0.4401395407765666
339,0.45638239179255813,0.36484600301735176,0.2726619231882756,4.627514420604049,1.8291039304625931,2.0525505004203946,4.488584192349821,1.0,3.14,-0.4729828155685349,-0.11863776781488146,-0.6867104008519889,-3.0856321810399043,-0.4517738633664998
340,0.45345668501632314,0.36315282783615416,0.27007121936780243,4.625019679455055,1.8289573305029552,2.0525502861636746,4.485914152756464,1.0,3.14,-0.4721423111631571,-0.12016464221795635,-0.6965034165568793,-3.084182759715998,-0.46373546333294835
341,0.45039026720525244,0.3613812371466285,0.2673468699673391,4.622398594669889,1.828807215565765,2.0525500685277103,4.4831087532703,1.0,3.14,-0.4712874218469456,-0.12171580175486003,-0.7065267628623362,-3.082670136589973,-0.4760388115461224
342,0.4471744675761208,0.35952666823645146,0.26447961701209655,4.619642569302799,1.828653680809624,2.0525498478871875,4.480158776318566,1.0,3.14,-0.4704184854689072,-0.12329054805831635,-0.7167880362019894,-3.0810900491687505,-0.4886992201519054
343,0.44380002547665454,0.3575842784323859,0.2614594158163687,4.616742286516652,1.8284968679367892,2.0525496247407675,4.47705423234502,1.0,3.14,-0.4695359892587233,-0.12488791485366264,-0.7272950559055502,-3.0794378761482846,-0.5017328830717269
344,0.44025706553585425,0.35554893879106353,0.25827536478414165,4.613687646039337,1.8283369753774101,2.0525493997377713,4.473784291747902,1.0,3.14,-0.4686406011035721,-0.12650661330293178,-0.7380558416531549,-3.0777086063579406,-0.5151569131624896
345,0.43653507889267784,0.3534152321905368,0.2549156309394386,4.610467696759334,1.828174270483597,2.0525491737094246,4.470337212717366,1.0,3.14,-0.4677332068445149,-0.12814496697328304,-0.7490785815196821,-3.0758968060876644,-0.5289893738751525
346,0.43262291366172073,0.3511774576458539,0.2513673719006239,4.607070566079389,1.8280091040998196,2.052548947705,4.466700265650439,1.0,3.14,-0.4668149546854977,-0.1298008345619964,-0.7603715882477605,-3.0739965852162254,-0.5432493025507018
347,0.4285087788712705,0.34882964323471416,0.24761665549970768,4.603483387071198,1.8278419279278015,2.052548723032993,4.462859655280612,1.0,3.14,-0.4658873079706645,-0.13147151823320305,-0.7719432408771283,-3.0720015628051196,-0.5579567216001154
348,0.4241802675085764,0.34636557073483365,0.24364837891909838,4.599692225058179,1.8276733151543663,2.0525485013070717,4.458800442291468,1.0,3.14,-0.46495210775188084,-0.13315365513770105,-0.7838019082580165,-3.0699048331590446,-0.5731326326857614
349,0.4196244061131604,0.34377881597630366,0.2394461901315986,4.595682006047415,1.827503984853671,2.0525482844959066,4.454506467042516,1.0,3.14,-0.46401164672475664,-0.13484308941861722,-0.7959558502831595,-3.067698933807364,-0.588798987604343
350,0.4148277406698922,0.34106281003631456,0.2349924156555413,4.591436450497431,1.827334830701193,2.052548074974968,4.449960279187222,1.0,3.14,-0.4630687562357695,-0.13653472178904127,-0.808413091890021,-3.0653758174650423,-0.604978627810741
351,0.40977647147885005,0.3382109277847335,0.2302680002612467,4.586938017319489,1.8271669545307043,2.0525478755768574,4.445143078487667,1.0,3.14,-0.4621269081200444,-0.1382223336613365,-0.821181264027712,-3.0629268308257083,-0.6216951823628717
352,0.40445665333077035,0.33521661195401997,0.2252524663851074,4.582167864852401,1.8270017052046814,2.052547689634509,4.440034674119331,1.0,3.14,-0.4611903330650575,-0.13989838290060752,-0.8342674048884097,-3.0603427040685363,-0.6389729114640952
353,0.39885448179155736,0.33207354286143914,0.21992390372904208,4.577105837916954,1.8268407231202015,2.0525475210084085,4.4346134723124075,1.0,3.14,-0.4602641569304058,-0.14155376869831682,-0.8476777138396708,-3.057613556271288,-0.6568364797103433
354,0.39295669174307774,0.328775866119216,0.21425900294501893,4.5717304930350515,1.8266859903900527,2.052547374084686,4.4288565053877464,1.0,3.14,-0.4593545558740317,-0.1431775640046282,-0.8614172497786082,-3.054728923555958,-0.6753106396423411
355,0.38675110047690214,0.3253184930173249,0.20823315149611415,4.566019177556219,1.8265398862594278,2.0525472537252694,4.422739519184798,1.0,3.14,-0.4584689300835612,-0.1447567156803917,-0.8754895652468964,-3.0516778187752527,-0.6944198023765478
356,0.3802273343201949,0.32169749051524577,0.2018206147429778,4.559948182775856,1.8264052465605394,2.0525471651443543,4.416237140549203,1.0,3.14,-0.4576160941793409,-0.14627571537802722,-0.8898962678758989,-3.0484488338623748,-0.714187468206707
357,0.3733777843525684,0.31791057949490786,0.19499483088078767,4.5534929960443895,1.826285424871296,2.0525471136775413,4.409323151824526,1.0,3.14,-0.4568064796818025,-0.1477162485711669,-0.9046365019729073,-3.045030298523729,-0.7346354866248933
358,0.36619884201858144,0.3139577603707306,0.18772885415241808,4.546628682037246,1.8261843514206162,2.0525471044024655,4.401970904828237,1.0,3.14,-0.45605234101712144,-0.14905683563461694,-0.9197063458532074,-3.041410511539041,-0.7557831130342938
359,0.358692467206908,0.3098420831726952,0.17999598600162978,4.539330428137195,1.8261065835731214,2.052547141564835,4.394153911882348,1.0,3.14,-0.4553679510660719,-0.1502724879503236,-0.9350981255534221,-3.0375780631342866,-0.7776458297978152
360,0.35086813618640667,0.30557057313259867,0.17177063714463686,4.531574292144204,1.8260573388820465,2.0525472277660524,4.38584665488664,1.0,3.14,-0.454769765016669,-0.15133441408218384,-0.9507996536192623,-3.0335222680160294,-0.8002339040341537
361,0.3427451994351247,0.30115531033955406,0.1630294628066996,4.52333819049602,1.8260424982949406,2.052547362884784,4.377025653239453,1.0,3.14,-0.4542765222705443,-0.15220982615716697,-0.9667934135225108,-3.02923372763984,-0.823550666191663
362,0.334355642574272,0.29661464042645574,0.15375280558770416,4.5146031593139515,1.8260685634338114,2.0525475427445685,4.367670824878661,1.0,3.14,-0.4539092458609335,-0.15286191398809457,-0.9830557264501734,-3.0247050356553933,-0.8475905148381422
363,0.3257471781136422,0.2919744596875068,0.1439264617892085,4.505354905628173,1.8261425486175629,2.0525477576134583,4.357767158323766,1.0,3.14,-0.4536910885604229,-0.153250072146727,-0.999555957581856,-3.0199316304030397,-0.8723366872725713
364,0.3169864916364207,0.2872694706414813,0.13354375348635525,4.495585638518345,1.8262717866215163,2.052547990738146,4.347306683520731,1.0,3.14,-0.45364696706225976,-0.1533304791946997,-1.016255842140783,-3.0149127809461143,-0.8977588845381107
365,0.30816231609269723,0.2825442437349835,0.12260783704594985,4.485296126731921,1.8264636288118439,2.0525482172713834,4.336290682450402,1.0,3.14,-0.45380292421964363,-0.15305713227618223,-1.033109034162159,-3.0096526671016295,-0.9238109027076855
366,0.29938781375466517,0.2778538539038668,0.11113410913694523,4.474497870129514,1.826725027395722,2.052548404122636,4.324732016431459,1.0,3.14,-0.45418516952175836,-0.15238342573157385,-1.050060997344153,-3.0041614796186615,-0.9504284947355269
367,0.29080152826088157,0.27326380168592496,0.09915248944890477,4.463215201385669,1.8270620020963646,2.0525485113871587,4.312657370646431,1.0,3.14,-0.4548187753015798,-0.15126432001155407,-1.0670493595372643,-2.9984564274351326,-0.9775277566595646
368,0.28256598289287993,0.26884890215109053,0.08670927990249423,4.451487063282247,1.8274790164051944,2.0525484959886144,4.3001091402652625,1.0,3.14,-0.45572605433533275,-0.14965907025224953,-1.0840048315428932,-2.9925625025084157,-1.0050043786693716
369,0.27486294296356095,0.2646908635625869,0.07386824716603405,4.439368155299632,1.827978317846373,2.0525483178878665,4.287146627960545,1.0,3.14,-0.45692471220035774,-0.14753437350176424,-1.1008527403567094,-2.98651283121563,-1.032734100166362
370,0.26788456546064837,0.26087441248444415,0.06071057895906399,4.426929136088143,1.8285593266756932,2.052547948590663,4.273846216653245,1.0,3.14,-0.45842594533989606,-0.1448676641835916,-1.1175151469591866,-2.980348449231759,-1.0605746345796032
371,0.2618202610794227,0.2574820654146231,0.04733345303613652,4.414255628559864,1.8292181784904866,2.0525473807851973,4.260300248359172,1.0,3.14,-0.46023272394365305,-0.14165016920063808,-1.1339134201630299,-2.9741173857778107,-1.088369173503314
372,0.2568401319381901,0.2545879720117139,0.03384715231692516,4.401445910576878,1.82994752716489,2.052546637013513,4.246614489017221,1.0,3.14,-0.46233853194410607,-0.13788926849318212,-1.1499710432929178,-2.9678730348893407,-1.1159513548388882
373,0.25327753239095474,0.25231474531610215,0.022004745987770583,4.389964819537736,1.830807957785593,2.0525457747572684,4.2329042722641415,1.0,3.1383660401208973,-0.46472681192507714,-0.13360973239425822,-1.1656163681825422,-2.9616719118793737,-1.1431513302694014
374,0.2509900676226583,0.25057964559744383,0.014310267342497473,4.381979149831044,1.8318609200976557,2.0525444656696985,4.2196022204181745,1.0,3.132987874097489,-0.4674201755770397,-0.1287657816026121,-1.1808743136290556,-2.9557268110325894,-1.1696654123081478
375,0.24932157216628692,0.24914670660718374,0.009312163924288007,4.376448601759094,1.8329672474262364,2.0525422724717908,4.2074927119183325,1.0,3.1260166743091613,-0.4704560318806693,-0.12328341561876197,-1.195863932060039,-2.95041577400004,-1.195024491118755
376,0.2479980992159387,0.24792352314307606,0.006065924548867037,4.372632682255084,1.8340351497754854,2.0525400187502614,4.196843077510182,1.0,3.118648408583076,-0.473750198354423,-0.11730622156505814,-1.2105361324927888,-2.945849015747377,-1.2189589045454607
377,0.24690211565930706,0.24687023841945677,0.003957345207960291,4.3700084378470745,1.8350150726783732,2.052538566480354,4.187671732623414,1.0,3.111530163587369,-0.4771889403795952,-0.11103407032342551,-1.2247967798160482,-2.9420147203878866,-1.2413348873022911
378,0.2459781361320186,0.24596446043347145,0.0025872612569228957,4.368208960554706,1.83588638852471,2.0525384239119733,4.179881114039641,1.0,3.1049878856119473,-0.48066716035455453,-0.10465531808274385,-1.2385561337770046,-2.9388483707343096,-1.2621126860283327
379,0.24519468400066827,0.2451887860717209,0.0016964180302228747,4.366978240500943,1.8366459578420835,2.0525397154374687,4.173325092083628,1.0,3.099159075955801,-0.4841014163725816,-0.09832270907176718,-1.2517453222965322,-2.9362663464698833,-1.281316099589098
380,0.24452971822255676,0.24452715645207512,0.0011165309697383225,4.366138482387856,1.8373000962791264,2.052542287871048,4.167843765739926,1.0,3.0940725040404917,-0.4874316016221197,-0.09214915581283933,-1.2643189832685657,-2.9341823645987795,-1.2990096988633784
381,0.24396543965768394,0.24396431659465193,0.0007384251889338957,4.365566707415328,1.8378594660305194,2.0525458398580594,4.163281351415945,1.0,3.0896969072034186,-0.49061804307187984,-0.08621181003592612,-1.27625269959164,-2.9325153646596696,-1.3152820126076181
382,0.24348660734746616,0.24348610921750566,0.0004913076041275313,4.3651781520505475,1.8383360715750128,2.0525500263559935,4.159494927717895,1.0,3.0859707840732766,-0.4936372468564682,-0.08055884974406641,-1.2875389462494204,-2.9311929608898613,-1.3302335140990071
383,0.24308002908629564,0.24307980494930967,0.0003292910200700816,4.364914574693489,1.838741638368905,2.0525545258979667,4.156358079396699,1.0,3.0828203532534886,-0.49647773141689205,-0.07521642514555367,-1.298183048065553,-2.9301525381091884,-1.3439683978106995
384,0.24273436579944155,0.24273426319514788,0.00022263898140009028,4.364736068636418,1.8390868410477454,2.052559074824292,4.153761678104594,1.0,3.0801700230631175,-0.4991364986287506,-0.07019472026629817,-1.308199674573583,-2.9293410993604097,-1.3565892391924537
385,0.24243997506078718,0.24243992712833867,0.00015208135641376356,4.364615358840408,1.8393810210900225,2.052563477984279,4.151613104132809,1.0,3.0779481384746914,-0.5016162682424489,-0.06549282731717712,-1.3176099913755632,-2.928714486164655,-1.3681937594482483
386,0.24218873270903737,0.24218870978316306,0.00010512581984052268,4.36453384617424,1.8396321663193929,2.0525676052798048,4.149834691690705,1.0,3.0760897972937467,-0.5039234164741595,-0.06110246946302952,-1.3264394295348283,-2.9282363285923774,-1.3788730649858376
387,0.2419738374533991,0.2419738261868897,7.366582515284026e-05,4.364478874075794,1.839847016220972,2.052571381259998,4.148361867720233,1.0,3.07453789957574,-0.5060664953378751,-0.05701074045621962,-1.3347159832344633,-2.927876929827246,-1.388710877120258
388,0.24178961578210512,0.24178961007130154,5.243039580692455e-05,4.36444184621833,1.8400312162523458,2.052574772522932,4.147141258494468,1.0,3.073243179596258,-0.5080552014809585,-0.053202061361911225,-1.3424689380979715,-2.9276121977959133,-1.3977833963309876
389,0.2416313407689712,0.24163133777082343,3.798058991862486e-05,4.364416934130302,1.8401894805780414,2.0525777756503234,4.146128913912442,1.0,3.0721636940992707,-0.5098996787885884,-0.04965954094214053,-1.3497279410329845,-2.927422680041956,-1.406159550130501
390,0.2414950720009093,0.24149507036385387,2.8060995403194867e-05,4.36440019228243,1.840325743785642,2.0525804069704563,4.145288721312113,1.0,3.0712640584052076,-0.5116100614962229,-0.04636589588267532,-1.3565223358357499,-2.9272927239461333,-1.413901453924491
391,0.24137751883234718,0.24137751789938863,2.1182167049694364e-05,4.364388953671726,1.8404432938465976,2.0525826945508023,4.144591033149224,1.0,3.070514603202807,-0.5131961865622752,-0.04330405389636373,-1.3628807025129681,-2.92720976459681,-1.4210649730510982
392,0.24127592610718063,0.24127592555112085,1.63527463907462e-05,4.364381417921387,1.8405448846784946,2.0525846723289574,4.144011505586852,1.0,3.0698905489141244,-0.5146674227580457,-0.04045753288324173,-1.3688305506527383,-2.9271637319230774,-1.4277003156480685
393,0.24118797996516061,0.24118797961866562,1.2908672195757141e-05,4.364376371154479,1.8406328295597054,2.052586376063577,4.143530130732248,1.0,3.069371247176814,-0.5160325786905374,-0.037810664794767385,-1.374398127718349,-2.9271465636931007,-1.433852614286096
394,0.2411117308167222,0.2411117305916521,1.0403870801436896e-05,4.3643729958427375,1.840709077800146,2.0525878407192644,4.14313043902916,1.0,3.0689395104140282,-0.5172998631028709,-0.03534871374259915,-1.3796083118397857,-2.9271518093790325,-1.4395624730235415
395,0.24104553059129452,0.24104553043965796,8.539470527046298e-06,4.364370741952606,1.8407752773311992,2.0525890989166573,4.142798846865431,1.0,3.068581033968494,-0.5184768789387554,-0.033057923524636434,-1.3844845657128546,-2.9271743102145105,-1.444866468535004
396,0.2409879816506766,0.24098798154534756,7.116704729380987e-06,4.364369239765697,1.8408328257181676,2.052590180134154,4.142524125635951,1.0,3.0682839063751715,-0.5195706384869905,-0.030925519199513984,-1.3890489338164864,-2.9272099420797177,-1.4497976013820792
397,0.24093789514103883,0.24093789506603944,6.004631791195437e-06,4.36436824097965,1.840882911774025,2.052591110413648,4.142296970957122,1.0,3.0680381990801853,-0.520587591029635,-0.028939679745076937,-1.3933220695609296,-2.9272554095667407,-1.4543856978683425
398,0.24089425694393332,0.24089425688943444,5.1178493136291015e-06,4.3643675789673635,1.8409265495924232,2.0525919123850316,4.142109653647819,1.0,3.06783562537386,-0.5215336572760568,-0.027089493438627144,-1.3973232824010344,-2.927308081370349,-1.4586577653261064
399,0.24085619973634825,0.24085619969603742,4.400663843464163e-06,4.364367141994711,1.8409646064800584,2.0525926054771855,4.141955737013462,1.0,3.067669258287622,-0.5224142668339635,-0.02536490380337247,-1.4010705975811162,-2.927365858836819,-1.4626383048501472
400,0.24082297996703178,0.2408229799366892,3.81708303367747e-06,4.364366855190733,1.8409978259766635,2.0525932062249077,4.141829847657397,1.0,3.067533297966705,-0.5232343963124251,-0.02375665132444556,-1.4045808231837316,-2.9274270710020454,-1.4663495859084705
401,0.2407939588001641,0.24079395877687257,3.3433769606711024e-06,4.364366668421763,1.8410268469094686,2.0525937286125764,4.141727489396038,1.0,3.0674228801312236,-0.5239986065610854,-0.02225621431465841,-1.407869620669315,-2.927490390732377,-1.4698118872377013
402,0.24076858627312916,0.24076858625481948,2.963570870286573e-06,4.364366548143383,1.8410522192344363,2.0525941844178863,4.1416448918474345,1.0,3.067333918425151,-0.5247110781590697,-0.020855751061977568,-1.410951576227128,-2.9275547676510594,-1.4730437081710908
403,0.2407463880700857,0.24074638805526138,2.6658506382081427e-06,4.364366471929536,1.8410744172621256,2.0525945835346193,4.1415788869151715,1.0,3.0672629745913227,-0.5253756446708613,-0.019548044543848554,-1.4138402710986506,-2.9276193744093035,-1.4760619541743398
404,0.24072695443488684,0.24072695442245357,2.4409721277723037e-06,4.364366424801767,1.8410938507444194,2.0525949342637797,4.141526807738184,1.0,3.0672071514365107,-0.5259958234501462,-0.018326450424979542,-1.4165483496521956,-2.9276835635694325,-1.4788820999526306
405,0.24070993084243597,0.24070993083158915,2.2796341666301817e-06,4.3643663967677675,1.8411108742029358,2.052595243569125,4.141486405766073,1.0,3.067164004440638,-0.5265748439414161,-0.01718484867869605,-1.4190875844367108,-2.927746832935096,-1.4815183330838373
406,0.24069501012243752,0.2406950101125867,2.1723010711843378e-06,4.364366381171695,1.84112579480511,2.052595517297134,4.141455782492337,1.0,3.0671314686173385,-0.5271156735340532,-0.01611759892713209,-1.4214689377655971,-2.9278087976150684,-1.4839836807503861
407,0.24068192578838377,0.2406819257790963,2.1092381810216637e-06,4.36436637358908,1.841138879035087,2.052595760363701,4.141433333073992,1.0,3.0671077978598813,-0.5276210410858337,-0.015119499440501716,-1.4237026196102596,-2.927869167464769,-1.4862901217961
408,0.24067044637102616,0.24067044636198892,2.0808339184182078e-06,4.364366371086846,1.8411503583601518,2.0525959769109767,4.141417699619509,1.0,3.067091514522165,-0.5280934582666984,-0.014185749641515918,-1.4257981417425682,-2.9279277288319663,-1.4884486860279167
409,0.2406603705924168,0.2406603705834074,2.0778439061112993e-06,4.364366371727967,1.8411604340566132,2.05259617043816,4.141407732366411,1.0,3.0670813674054935,-0.5285352388891368,-0.013311915907613419,-1.4277643681739687,-2.927984329755656,-1.4904695424148893
410,0.2406515232459588,0.24065152323682168,2.0928573474445808e-06,4.364366374240002,1.8411692813296967,2.05259634391,4.14140245731865,1.0,3.067076296663764,-0.5289485163951512,-0.012493900437402004,-1.4296095620105416,-2.928038867942341,-1.492362077605633
