jkpark150901/flame_robotics_drt/experiment/inspection_ik/session_20260722_143013/collision/inspection_ik_20260722_143058_rb20_1900es_normalized_fallback_collision.csv
iteration,err_norm,position_error,orientation_error,tcp_x,tcp_y,tcp_z,q0_rt_joint_linear_track,q1_rt_joint_carriage,q2_rt_base,q3_rt_shoulder,q4_rt_elbow,q5_rt_wrist1,q6_rt_wrist2,q7_rt_wrist3
0,2.2310496101649164,0.577442525898947,2.1179369595500157,2.319444520899859,1.8130084633767791,2.0510158495127015,2.3247155720741524,1.0,0.327233365921587,0.5051995721117766,0.06521965087279308,-0.2819262244585149,-3.14,3.14
1,1.9746154233812987,0.5010132448044607,1.88635372248056,2.343424315197994,1.5174051420606207,2.139588575991319,2.3669919405203497,0.8960640183064985,0.4469077253580056,0.47555116938656466,-0.13532907071353995,-0.3965023876807488,-3.14,3.14
2,1.7674463305445527,0.4233978018257581,1.7012908470787456,2.3487723659786424,1.2209328930746128,2.0407097782686794,2.5786914544271067,0.660615529410017,0.7493128890511664,0.7425921268936723,-0.6033257875905174,-0.5950106985057823,-3.14,3.14
3,1.7946469307131134,0.47234655235522977,1.7130225150244731,2.3621664432146963,0.9801752947157507,1.880685346770714,2.9131147867761094,0.5455560752920088,1.1232595979599156,0.9753432519546079,-0.7989043279053325,-0.838188894678961,-3.14,3.14
4,1.8146522485547603,0.4842610253085196,1.7292097623550198,2.3820063388640316,0.914275032838492,1.6941460322200335,3.1301666078504375,0.5216473969406972,1.243364452253273,1.194268713346268,-0.9245639756604562,-0.9823844442573564,-3.14,3.14
5,1.8053721049394418,0.46532828772938134,1.7262735510219094,2.3859013447774644,0.9455622400353557,1.545262944619864,3.214248500892827,0.527001176717025,1.2444681841277854,1.354747748815332,-1.0257719553485547,-1.0783752599769416,-3.14,3.14
6,1.783339375731046,0.4332762108214393,1.7143647383879692,2.3790846774670746,1.016908308393991,1.4479914279534276,3.2116064364048187,0.5426543526118344,1.1990568561946948,1.4619026774908648,-1.1179620714911143,-1.1476816460797548,-3.14,3.14
7,1.7555144296685896,0.3932970371828588,1.6982412773478126,2.36775233381778,1.09878453199261,1.3982892820958022,3.156713122124092,0.5636695337732337,1.1342693145859226,1.5245426503043795,-1.2031662487136383,-1.1942753932139902,-3.14,3.14
8,1.7247059169401666,0.3485843495068889,1.6793090199157268,2.355329298186212,1.1740856044087176,1.3859306636764739,3.0740228636542715,0.5878111918238718,1.064126753604513,1.5507728369485205,-1.2785212170542317,-1.2195830708311526,-3.14,3.14
9,1.6921616057481534,0.30231411457329305,1.6576777128950924,2.3433646037473217,1.2340224389552927,1.3988147046315018,2.981235815667932,0.6132542218931144,0.9972614700813964,1.5492433131919985,-1.3412466008042503,-1.225973141834884,-3.14,3.14
10,1.65910936201814,0.25790412295188153,1.6337507355428795,2.3323967122299942,1.2757549757532407,1.4254981440574397,2.8907891280681572,0.6381013892650377,0.9391444173781639,1.5292662731356363,-1.390519583841851,-1.2172145906284375,-3.14,3.1312057105755633
11,1.6250512604311629,0.21893489682791828,1.6065721348257305,2.322071350328885,1.3003633361836489,1.4564885081623002,2.807849216997782,0.6606302226151819,0.8914168331048188,1.5003120867903523,-1.4304098833344665,-1.1983539876130485,-3.14,3.1123416269615864
12,1.5903718223349814,0.18839219869761392,1.576524548687958,2.3122433309208787,1.3112548469003735,1.4852446439088105,2.7336957124054613,0.6795755668551328,0.8527033262215546,1.4697761087057266,-1.465541235919896,-1.173493617581338,-3.14,3.0875239637900593
13,1.5561274662459172,0.1679208507869068,1.5449881243278336,2.3031371026026997,1.312731778275449,1.5082070838043484,2.668028610702887,0.6942077619262585,0.8199534843462417,1.4422892596801218,-1.4987772967584274,-1.1449268258380565,-3.14,3.059057851491457
14,1.5226493977197337,0.15718791534309576,1.5127620123540204,2.2949612952587315,1.3089647288020105,1.5241984378804345,2.608804450055386,0.7044969625027344,0.7888547485146264,1.420019085017113,-1.5319472937436112,-1.113419818884168,-3.14,3.027714259531348
15,1.4887582670455366,0.15389309650670616,1.479149561087331,2.28777186304718,1.303413976856616,1.5336718415189443,2.5523184136543633,0.7112941120623949,0.7541469376649486,1.4030618136111255,-1.5665078993309154,-1.0784771638200257,-3.14,2.9929907092490526
16,1.4513081400641117,0.15484117424894195,1.4414226003499653,2.2814536077932,1.298608238417854,1.5379828593093885,2.493429277274304,0.7166158764287948,0.7098393553691021,1.3898443647864458,-1.6041112827825046,-1.0385871093546777,-3.14,2.953350456798629
17,1.4047391293030378,0.15720505246454947,1.3943292714400726,2.275702663029466,1.2961942828304232,1.53879891790306,2.4260462157051714,0.7244117188443668,0.6495421622505435,1.3773702936165444,-1.6470457682787476,-0.991564331075635,-3.14,2.9065512381116805
18,1.3411491241567748,0.15902378774949014,1.3301545463723454,2.269968221045393,1.2973050891614355,1.5376973424801355,2.3455974062633,0.7425456617764298,0.5692201950420712,1.3611166526594283,-1.6981321942801362,-0.9361601076301925,-3.14,2.8512195637984017
19,1.2568289086169393,0.1585142785920666,1.2453836778341298,2.2640021273596864,1.3036034668699858,1.5360912665431359,2.2602066096024513,0.7839610130311478,0.4816552842907289,1.3355120849417887,-1.7572874660584068,-0.8792491947999675,-3.14,2.7940070729917665
20,1.1715095587969968,0.15359218150006285,1.1601784825116885,2.2603792706090022,1.3156321609754618,1.5358689117880868,2.2001628938218523,0.8490577481837908,0.42876250461030085,1.299822201610967,-1.812187719064281,-0.8406219926371066,-3.14,2.7546693006808662
21,1.1029581786055438,0.14600484965829721,1.0922222196784133,2.2597549056702007,1.3276695820827231,1.5385585186888164,2.165580078848129,0.9129003679823978,0.406623212864845,1.2606076225600855,-1.850271741632104,-0.8168143140691897,-3.14,2.730158183636745
22,1.0450777005220542,0.13796534782570316,1.035064871822019,2.260212134463013,1.3372514934474458,1.5432590614708026,2.139304825576065,0.9671504173589216,0.38811390349573793,1.22153227374395,-1.8749146473073623,-0.7954657410916717,-3.14,2.7082564568859535
23,0.9944301743171248,0.13612658385897994,0.9842711429491973,2.2611222305555523,1.3305477855151273,1.5487107737470454,2.1171868129481957,1.0,0.3687653239487205,1.183635970276723,-1.891392736668086,-0.7755009614761654,-3.14,2.687844253437548
24,0.9547100278841661,0.15209269832109099,0.9415727105349352,2.261203404897799,1.2970933974170782,1.5519417212233633,2.0992949069301554,1.0,0.3526261260677588,1.1516434904471862,-1.9046776817608129,-0.7588677938217544,-3.14,2.6708084468179996
25,0.9289528540424117,0.16985960627927146,0.9121577295488824,2.2586963740205817,1.2741238254777552,1.549555896019541,2.0862011190475647,1.0,0.34513297204263294,1.1330821162231675,-1.919093716045812,-0.7473915245671412,-3.14,2.658923900181933
26,0.9124726715800996,0.18453102826915593,0.8923151552894389,2.2552379699239813,1.2591509402066634,1.5449585112273694,2.0764570186308955,1.0,0.3417562729554496,1.1231572795708464,-1.932359946212578,-0.7389897124760509,-3.14,2.6501165093439227
27,0.9021926751882289,0.1955251255593138,0.8793110247101348,2.251728997089721,1.249769622252923,1.5399741976509977,2.0693022390676967,1.0,0.3405545245996343,1.118473633973992,-1.9435056792203662,-0.7327558982468941,-3.14,2.643480309777582
28,0.8960127570685099,0.2033966087211379,0.8710798338087504,2.2485982749470814,1.244119727007853,1.5354546983823265,2.0641613723869967,1.0,0.3405253237532142,1.1167996184627698,-1.9523289430464266,-0.7281541587612878,-3.14,2.6384785730964406
29,0.8924858875257382,0.20887218261797677,0.8660837885822011,2.246002650253098,1.2408734060549573,1.531712338271255,2.0605547391095596,1.0,0.3410936131564405,1.116731517841842,-1.9590185271624727,-0.7248008236209067,-3.14,2.6347268219049202
30,0.8906258544310625,0.21259396407554643,0.8632114807145514,2.243953926327448,1.2391243025632612,1.528784962127286,2.0580864211761423,1.0,0.34191977962893905,1.117422271255249,-1.9639211394867189,-0.7223992906226915,-3.14,2.6319278543939397
31,0.8897746177974756,0.21506943851610077,0.8616855901568482,2.2423946398779453,1.2382737449274197,1.526586481123618,2.056440231042461,1.0,0.3428081413840325,1.1183858070442592,-1.9674130012397353,-0.7207161905553496,-3.14,2.6298478923897997
32,0.8895047338070909,0.21668000538625976,0.8609798951964559,2.2412413543977285,1.23793770399621,1.52498760006616,2.0553722672790036,1.0,0.34365376090740285,1.1193623202178302,-1.9698375305900746,-0.7195689450125923,-3.14,2.6283040876942767
33,0.8895471639448438,0.21770362105142413,0.8607495775649818,2.240407968700168,1.237877188215745,1.523856180477228,2.054700383502125,1.0,0.34440811699090396,1.1202284557327533,-1.971481221394659,-0.7188166088556307,-3.14,2.627155319471114
34,0.8897388486285848,0.21833805722796337,0.860776296542361,2.2398170276952776,1.2379486183830235,1.5230751901168564,2.0542925630897613,1.0,0.3450562597112559,1.1209392049182212,-1.9725697766346604,-0.7183520012651704,-3.14,2.626294292684859
35,0.889985619113015,0.21872097405538013,0.860927061229134,2.2394040846823775,1.238069565956843,1.5225487378233,2.0540557823670045,1.0,0.3456017712058953,1.1214915143590805,-1.9732738083138692,-0.7180947949701804,-3.14,2.625640605390545
36,0.8902366818713083,0.2189460963716419,0.8611246794640023,2.2391182704802395,1.238195694616903,1.5222021672039696,2.0539262632468582,1.0,0.34605719293013404,1.1219023415613432,-1.9737181276068945,-0.7179855904778578,-3.14,2.6251348087423225
37,0.8904675528952369,0.21907575736456406,0.8613272510728532,2.2389209957860374,1.238305602091874,1.5219795174032615,2.0538614691222463,1.0,0.346438236479287,1.1221960465419736,-1.9739915158076162,-0.7179809973801496,-3.14,2.6247334792649943
38,0.8906689705973015,0.21915035326948004,0.8615143758139866,2.2387839171998456,1.2383910947301746,1.5218401164659288,2.0538338444521274,1.0,0.3467605327997838,1.1223976271578524,-1.974155527163431,-0.71804967271813,-3.14,2.624405251525619
39,0.890839916012921,0.21919529515106612,0.8616781542562205,2.238686789970124,1.2384511167298893,1.5217551932111169,2.0538261076017914,1.0,0.3470380136202778,1.122529478165116,-1.974251790396846,-0.7181692104700005,-3.14,2.6241277040277637
40,0.890983376146673,0.21922600109520854,0.8618174996502095,2.2386155166958077,1.2384880850685185,1.521704902259036,2.0538278287740437,1.0,0.34728228758793084,1.1226101764511291,-1.974307749089732,-0.718323750318004,-3.14,2.6238849656851744
41,0.8911038879417484,0.21925139833937685,0.861934670550499,2.2385605157115727,1.2385057713096943,1.5216758917567703,2.05383301612172,1.0,0.347502580601081,1.1226543555800281,-1.9743410008314706,-0.7185021714226801,-3.14,2.623665908106699
42,0.8912062032054109,0.21927632241990938,0.862033250606966,2.238515430245414,1.2385081515378342,1.521659408791564,2.053838460623498,1.0,0.3477059627113591,1.1226731046422178,-1.9743624752211317,-0.718696748332971,-3.14,2.623462800518241
43,0.8912946345954209,0.21930312050540035,0.8621170430470085,2.2384761483532034,1.238498842508498,1.5216498768807702,2.053842632580273,1.0,0.34789769192285264,1.122674566179753,-1.9743786987516374,-0.7189021637612971,-3.14,2.6232703218677855
44,0.8913727972869036,0.219332694671921,0.8621895233552221,2.2384400830639066,1.238480877774354,1.5216438598148931,2.0538449670756367,1.0,0.34808157808603085,1.1226645579268286,-1.9743933688916446,-0.7191147919272844,-3.14,2.623084843706017
45,0.8914435665953309,0.21936516068239648,0.8622536179525097,2.238405658463317,1.2384566692449868,1.5216393268508759,2.053845416012392,1.0,0.34826031702468385,1.12264713359722,-1.9744084216539892,-0.7193321839211355,-3.14,2.622903915224941
46,0.8915091422129091,0.21940024940947414,0.862311662028033,2.2383719521191634,1.2384280603304196,1.5216351444874348,2.0538441778045162,1.0,0.348435773729059,1.1226250501141288,-1.9744247377232147,-0.7195527019110326,-3.14,2.6227258972354717
47,0.891571155374929,0.21943754057833864,0.862365446771275,2.2383384523006087,1.2383964160598493,1.521630733513622,2.053841542067012,1.0,0.34860920987744176,1.1226001368637846,-1.974442597035634,-0.7197752617124944,-3.14,2.622549704573496
48,0.8916307840531933,0.21947659048283108,0.8624163034481911,2.2383048971155457,1.2383627202614145,1.5216258434253709,2.053837806387433,1.0,0.3487814594996178,1.1225735762572369,-1.9744619624999453,-0.7199991533789917,-3.14,2.622374626574507
49,0.8916888588140457,0.21951699498474997,0.8624651953152032,2.238271170617011,1.2383276649257762,1.5216204081323728,2.053833236591704,1.0,0.34895306033500395,1.1225461102243,-1.9744826505178543,-0.7202239173805791,-3.14,2.6222002031701725
50,0.8917459522225736,0.21955841473784793,0.8625128027855129,2.238237237568963,1.238291725652685,1.5216144566005063,2.053828052005143,1.0,0.34912434941586895,1.1225181880704402,-1.9745044284913416,-0.7204492599857323,-3.14,2.622026140212483
51,0.8918024503130199,0.21960057969146918,0.8625595957301986,2.2382031038121926,1.2382552219067233,1.5216080596878092,2.0538224241149696,1.0,0.3492955309341881,1.122490069718654,-1.9745270666539367,-0.7206749960146561,-3.14,2.621852252186857
52,0.8918586074712576,0.2196432832999317,0.8626058914901236,2.2381687931530183,1.2382183632248085,1.521601300175037,2.0538164816382696,1.0,0.3494667233300329,1.1224618960750112,-1.9745503623675191,-0.7209010105122748,-3.14,2.6216784238573996
53,0.8919145872534936,0.21968637253729445,0.8626518995522211,2.2381343346179543,1.2381812835234351,1.52159425719358,2.0538103179738116,1.0,0.34963799123057265,1.1224337358276228,-1.9745741486074915,-0.7211272333667026,-3.14,2.621504584866467
54,0.8919704919329359,0.2197297370755509,0.8626977548571909,2.238099755999491,1.2381440658801,1.5215869992456814,2.05380399888007,1.0,0.3498093666151616,1.1224056157726663,-1.974598293986285,-0.7213536226938643,-3.14,2.6213306931065623
55,0.8920263833740586,0.21977329930579137,0.8627435419600361,2.2380650810645495,1.2381067599975146,1.5215795820900662,2.0537975693467283,1.0,0.3499808624947051,1.1223775399011333,-1.9746226987585542,-0.721580154094702,-3.14,2.621156723969105
56,0.8920822974471931,0.21981700589779618,0.8627893121319192,2.238030328777767,1.2380693942278314,1.5215720491744575,2.0537910592738298,1.0,0.3501524815072357,1.1223495010020919,-1.9746472893698732,-0.7218068138024796,-3.14,2.620982663486228
57,0.8921382537616264,0.21986082104976895,0.8628350951913465,2.2379955135405023,1.2380319836630276,1.5215644332272467,2.0537844879200846,1.0,0.3503242211405724,1.1223214874105483,-1.9746720129285151,-0.7220335943763868,-3.14,2.6208085040208533
58,0.8921942620879416,0.21990472130631789,0.8628809075073259,2.2379606458646406,1.2379945354503041,1.521556758219161,2.053777867248349,1.0,0.3504960767723754,1.122293486694919,-1.974696832263267,-0.7222604920406054,-3.14,2.6206342416035473
59,0.8922503264921084,0.2199486917077161,0.8629267572900271,2.2379257331624,1.2379570521952261,1.521549041278999,2.0537712043588043,1.0,0.3506680433369738,1.1222654874806253,-1.974721721815479,-0.7224875050719155,-3.14,2.6204598743187746
60,0.8923064479232807,0.2199927230064872,0.8629726480032046,2.237890780492006,1.237919534077164,1.5215412943714655,2.0537645032069136,1.0,0.35084011615657884,1.1222374801870867,-1.9747466643888936,-0.7227146328451408,-3.14,2.620285401349544
61,0.892362625780533,0.22003680970482828,0.8630185805050372,2.2378557911913672,1.2378819801180148,1.5215335256730504,2.053757765782983,1.0,0.35101229128519745,1.1222094571687284,-1.9747716486716649,-0.722941875284081,-3.14,2.620110822427886
62,0.892418858821888,0.22008094870286507,0.8630645543477359,2.237820767382354,1.2378443889083766,1.5215257406497087,2.0537509928997486,1.0,0.35118456558465966,1.1221814125593486,-1.9747966674029382,-0.7231692325572788,-3.14,2.619936137530384
63,0.8924751456613672,0.2201251383889505,0.8631105685341729,2.2377857103535566,1.2378067589961645,1.5215179428718397,2.053744184702882,1.0,0.35135693666648066,1.1221533419947656,-1.9748217160508603,-0.7233967049179983,-3.14,2.6197613467180316
64,0.8925314850164369,0.2201693780419763,0.8631566219336101,2.2377506208400537,1.2377690890725668,1.5215101346130262,2.0537373409909834,1.0,0.351529402777677,1.1221252423100327,-1.9748467918813357,-0.7236242926265408,-3.14,2.6195864500585078
65,0.8925878758105333,0.22021366744879783,0.8632027134903354,2.237715499221285,1.2377313780418437,1.5215023172789737,2.0537304614081573,1.0,0.3517019626735984,1.1220971112594347,-1.9748718933163507,-0.7238519959176699,-3.14,2.6194114475935946
66,0.8926443171962708,0.22025800666654585,0.8632488423116289,2.237680345656812,1.2376936250288657,1.5214944917077848,2.053723545553811,1.0,0.3518746154994276,1.1220689472793437,-1.9748970195013682,-0.7240798149913314,-3.14,2.6192363393299094
67,0.8927008085391157,0.2203023958802288,0.863295007689358,2.2376451601766516,1.2376558293567514,1.5214866583755742,2.053716593040425,1.0,0.3520473606894872,1.1220407492984446,-1.9749221700201496,-0.7243077500143108,-3.14,2.61906112524058
68,0.8927573493846392,0.22034683532137958,0.8633412090882155,2.2376099427394767,1.237617990513198,1.5214788175341805,2.0537096035198816,1.0,0.3522201978865585,1.12201251659202,-1.974947344711257,-0.7245358011261339,-3.14,2.6188858052711663
69,0.8928139394220185,0.22039132522467844,0.8633874461198544,2.237574693268726,1.2375801081154845,1.5214709693012933,2.053702576691761,1.0,0.35239312687992413,1.1219842486736769,-1.9749725435531624,-0.7247639684458246,-3.14,2.6187103793464344
70,0.8928705784501028,0.22043586580734792,0.8634337185135209,2.2375394116740064,1.2375421818789514,1.521463113717971,2.0536955123020495,1.0,0.35256614755937293,1.1219559452170995,-1.9749977665946092,-0.7249922520779919,-3.14,2.6185348473764587
71,0.8929272663486832,0.22048045726158233,0.8634800260885251,2.237504097862979,1.2375042115907993,1.5214552507843018,2.053688410137389,1.0,0.3527392598820026,1.1219276060009025,-1.9750230139141145,-0.7252206521177057,-3.14,2.6183592092615093
72,0.8929840030555682,0.22052509975394607,0.863526368730808,2.2374687517473357,1.2374661970894296,1.5214473804807418,2.05368127001782,1.0,0.3529124638488721,1.1218992308706675,-1.9750482855977263,-0.7254491686541189,-3.14,2.618183464895682
73,0.8930407885490708,0.2205697934280911,0.8635727463741809,2.2374333732452465,1.2374281382487955,1.5214395027803183,2.053674091789604,1.0,0.35308575948897397,1.1218708197134115,-1.9750735817278495,-0.7256778017730036,-3.14,2.6180076141694415
74,0.8930976228350754,0.22061453840871784,0.8636191589859441,2.2373979622818294,1.237390034966915,1.5214316176551528,2.053666875318877,1.0,0.35325914684848947,1.1218423724408304,-1.9750989023785168,-0.7259065515584309,-3.14,2.6178316569713047
75,0.8931545059377667,0.22065933480564015,0.8636656065562434,2.2373625187886157,1.2373518871576823,1.5214237250795966,2.053659620486405,1.0,0.3534326259837706,1.1218138889785823,-1.9751242476141926,-0.7261354180938251,-3.14,2.6176555931889
76,0.8932114378931556,0.22070418271744482,0.8637120890904204,2.2373270427025767,1.2373136947451668,1.5214158250314125,2.0536523271834386,1.0,0.353606196956874,1.1217853692596422,-1.975149617490363,-0.7263644014625775,-3.14,2.6174794227095792
77,0.8932684187446723,0.22074908223451184,0.8637586066036576,2.237291533965064,1.2372754576597507,1.521407917491927,2.053644995308561,1.0,0.35377985983281623,1.1217568132203297,-1.9751750120548737,-0.7265935017483725,-3.14,2.617303145420749
78,0.8933254485402425,0.22079403344140566,0.8638051591173206,2.2372559925208044,1.237237175835569,1.5214000024456746,2.053637624765354,1.0,0.3539536146779457,1.1217282207980444,-1.975200431349461,-0.726822719035329,-3.14,2.6171267612100104
79,0.8933825273303976,0.22083903641868138,0.8638517466565302,2.237220418317045,1.2371988492088604,1.5213920798798555,2.0536302154607085,1.0,0.3541274615590331,1.121699591930067,-1.9752258754111887,-0.7270520534080368,-3.14,2.6169502699651956
80,0.8934396551670987,0.22088409124421104,0.8638983692485864,2.2371848113028503,1.2371604777169423,1.5213841497837697,2.053622767303638,1.0,0.35430140054279946,1.1216709265529936,-1.9752513442736699,-0.7272815049515322,-3.14,2.616773671574345
81,0.8934968321030198,0.2209291979941265,0.8639450269219786,2.237149171428569,1.237122061297591,1.521376212148305,2.0536152802044563,1.0,0.3544754316957081,1.121642224602535,-1.9752768379680474,-0.7275110737512491,-3.14,2.6165969659256563
82,0.8935540581911402,0.2209743567434843,0.863991719705787,2.237113498645418,1.2370835998886827,1.521368266965514,2.0536077540742212,1.0,0.354649555083899,1.1216134860135067,-1.9753023565237422,-0.7277407598929604,-3.14,2.6164201529074282
83,0.8936113334845267,0.22101956756670954,0.8640384476293355,2.237077792905181,1.2370450934280082,1.521360314228279,2.0536001888243667,1.0,0.35482377077320265,1.121584710719912,-1.975327899969008,-0.7279705634627214,-3.14,2.616243232408001
84,0.8936686580362245,0.2210648305378914,0.8640852107220018,2.237042054160006,1.2370065418531773,1.5213523539300597,2.053592584366468,1.0,0.35499807882918666,1.1215558986550567,-1.97535346833133,-0.7282004845468212,-3.14,2.6160662043157092
85,0.8937260318992263,0.22111014573098017,0.8641320090131287,2.2370062823622336,1.2369679451015905,1.5213443860647071,2.0535849406120867,1.0,0.35517247931721296,1.1215270497516672,-1.9753790616377023,-0.7284305232317414,-3.14,2.6158890685188396
86,0.8937834551264612,0.22115551321990226,0.8641788425319875,2.2369704774643124,1.2369293031104325,1.5213364106263316,2.0535772574726847,1.0,0.3553469723024938,1.1214981639419943,-1.9754046799148168,-0.7286606796041243,-3.14,2.6157118249055986
87,0.8938409277708165,0.22120093307863287,0.8642257113077738,2.2369346394187204,1.2368906158166868,1.5213284276092147,2.0535695348595677,1.0,0.3555215578501409,1.1214692411579001,-1.9754303231891899,-0.7288909537507476,-3.14,2.615534473364088
88,0.8938984498851533,0.22124640538124374,0.8642726153696159,2.2368987681779164,1.2368518831571507,1.5213204370077424,2.053561772683853,1.0,0.3556962360252027,1.1214402813309252,-1.9754559914872438,-0.7291213457585064,-3.14,2.6153570137822855
89,0.8939560215223313,0.22129193020192006,0.864319554746591,2.236862863694315,1.236813105068456,1.5213124388163686,2.0535539708564587,1.0,0.35587100689269785,1.12141128439234,-1.9754816848353567,-0.7293518557144001,-3.14,2.615179446048031
90,0.894013642735226,0.22133750761497292,0.8643665294677442,2.2368269259202704,1.2367742814870855,1.521304433029586,2.0535461292880925,1.0,0.3560458705176368,1.1213822502731832,-1.9755074032598943,-0.7295824837055228,-3.14,2.615001770049018
91,0.8940713135767457,0.2213831376948464,0.8644135395621011,2.2367909548080562,1.2367354123493837,1.5212964196419125,2.05353824788925,1.0,0.35622082696503793,1.1213531789042859,-1.9755331467872257,-0.7298132298190564,-3.14,2.614823985672785
92,0.8941290340998447,0.22142882051611454,0.8644605850586826,2.2367549503098694,1.2366964975915706,1.5212883986478802,2.053530326570217,1.0,0.35639587629994096,1.1213240702162925,-1.9755589154437356,-0.730044094142267,-3.14,2.614646092806713
93,0.8941868043575325,0.2214745561534848,0.8645076659865142,2.236718912377815,1.2366575371497484,1.5212803700420299,2.053522365241067,1.0,0.3565710185874139,1.1212949241396717,-1.9755847092558263,-0.7302750767625013,-3.14,2.6144680913380194
94,0.8942446244028811,0.22152034468179088,0.8645547823746336,2.236682840963919,1.236618530959907,1.5212723338189085,2.0535143638116655,1.0,0.35674625389255904,1.1212657406047253,-1.9756105282499208,-0.7305061777671847,-3.14,2.614289981153759
95,0.8943024942890301,0.22156618617599694,0.8646019342520982,2.23664673602011,1.23657947895793,1.5212642899730675,2.0535063221916694,1.0,0.3569215822805165,1.121236519541592,-1.975636372452462,-0.730737397243821,-3.14,2.6141117621408196
96,0.894360414069192,0.22161208071119043,0.8646491216479879,2.236610597498235,1.2365403810795956,1.521256238499064,2.0534982402905295,1.0,0.3570970038164675,1.1212072608802517,-1.975662241889912,-0.7309687352799906,-3.14,2.6139334341859235
97,0.8944183837966532,0.2216580283625853,0.8646963445914083,2.236574425350046,1.23650123726058,1.521248179391459,2.053490118017489,1.0,0.3572725185656342,1.1211779645505264,-1.9756881365887518,-0.7312001919633508,-3.14,2.613754997175625
98,0.8944764035247753,0.22170402920551768,0.8647436031114932,2.2365382195272114,1.236462047436457,1.5212401126448178,2.0534819552815877,1.0,0.3574481265932815,1.121148630482082,-1.9757140565754803,-0.7314317673816352,-3.14,2.6135764509963098
99,0.8945344733069973,0.2217500833154462,0.8647908972374057,2.2365019799813064,1.2364228115427016,1.5212320382537134,2.0534737519916586,1.0,0.357623827964718,1.121119258604427,-1.9757400018766123,-0.7316634616226539,-3.14,2.6133977955341967
100,0.8945925931968378,0.22179619076795337,0.864838226998339,2.236465706663822,1.236383529514686,1.5212239562127212,2.05346550805633,1.0,0.35779962274529375,1.121089848846914,-1.9757659725186796,-0.7318952747742931,-3.14,2.6132190306753342
101,0.8946507632478934,0.22184235163874116,0.8648855924235183,2.2364293995261573,1.2363442012876869,1.5212158665164242,2.0534572233840236,1.0,0.35797551100040487,1.1210604011387393,-1.9757919685282286,-0.7321272069245158,-3.14,2.6130401563056034
102,0.8947089835138395,0.22188856600363685,0.8649329935421991,2.236393058519621,1.236304826796875,1.5212077691594128,2.0534488978829564,1.0,0.3581514927954897,1.1210309154089402,-1.9758179899318198,-0.7323592581613616,-3.14,2.6128611723107147
103,0.8947672540484319,0.22193483393858535,0.8649804303836693,2.236356683595437,1.2362654059773273,1.5211996641362822,2.0534405314611406,1.0,0.35832756819603023,1.1210013915863986,-1.9758440367560297,-0.7325914285729461,-3.14,2.61268207857621
104,0.8948255749055049,0.22198115551965508,0.8650279029772492,2.2363202747047404,1.236225938764017,1.5211915514416352,2.053432124026381,1.0,0.358503737267552,1.1209718295998372,-1.975870109027448,-0.7328237182474618,-3.14,2.6125028749874613
105,0.8948839461389745,0.2220275308230383,0.8650754113522896,2.2362838317985734,1.2361864250918178,1.521183431070081,2.053423675486275,1.0,0.358680000075624,1.12094222937782,-1.9758962067726782,-0.7330561272731777,-3.14,2.6123235614296703
106,0.894942367802836,0.22207395992504583,0.8651229555381754,2.236247354827891,1.2361468648955047,1.5211753030162367,2.0534151857482135,1.0,0.3588563566858595,1.120912590848753,-1.9759223300183373,-0.7332886557384397,-3.14,2.6121441377878685
107,0.8950008399511652,0.2221204429021117,0.8651705355643238,2.236210843743561,1.2361072581097514,1.5211671672747267,2.0534066547193808,1.0,0.35903280716391456,1.120882913940882,-1.975948478791056,-0.7335213037316703,-3.14,2.6119646039469173
108,0.8950593626381182,0.22216697983079403,0.8652181514601814,2.2361742984963593,1.2360676046691297,1.5211590238401813,2.0533980823067512,1.0,0.3592093515754876,1.1208531985822936,-1.9759746531174787,-0.7337540713413684,-3.14,2.611784959791506
109,0.8951179359179334,0.22221357078777149,0.8652658032552313,2.236137719036972,1.2360279045081128,1.5211508727072396,2.0533894684170924,1.0,0.3593859899863231,1.1208234447009144,-1.9760008530242628,-0.7339869586561105,-3.14,2.611605205206154
110,0.8951765598449278,0.22226021584984637,0.8653134909789867,2.2361011053159956,1.2359881575610727,1.521142713870547,2.0533808129569624,1.0,0.3595627224622071,1.1207936522245103,-1.976027078538079,-0.7342199657645496,-3.14,2.611425340075209
111,0.8952352344735017,0.2223069150939421,0.8653612146609954,2.236064457283938,1.2359483637622808,1.5211345473247575,2.05337211583271,1.0,0.35973954906896993,1.1207638210806863,-1.9760533296856102,-0.7344530927554157,-3.14,2.611245364282847
112,0.895293959858135,0.22235366859710576,0.8654089743308349,2.2360277748912196,1.2359085230459061,1.5211263730645321,2.053363376950475,1.0,0.3599164698724845,1.120733951196886,-1.9760796064935535,-0.7346863397175156,-3.14,2.6110652777130716
113,0.895352736053391,0.22240047643650968,0.865456770018119,2.2359910580881626,1.2358686353460178,1.5211181910845393,2.0533545962161837,1.0,0.3600934849386683,1.120704042500391,-1.976105908988618,-0.7349197067397335,-3.14,2.610885080249715
114,0.8954115631139135,0.2224473386894471,0.865504601752493,2.235954306825005,1.2358287005965825,1.5211100013794563,2.053345773535555,1.0,0.36027059433348146,1.1206740949183212,-1.9761322371975256,-0.7351531939110303,-3.14,2.6107047717764362
115,0.8954704410944273,0.22249425543333518,0.8655524695636342,2.235917521051893,1.2357887187314667,1.5211018039439672,2.053336908814095,1.0,0.36044779812292826,1.1206441083776335,-1.9761585911470112,-0.7353868013204443,-3.14,2.6105243521767223
116,0.8955293700497412,0.2225412267457172,0.8656003734812538,2.23588070071888,1.2357486896844332,1.5210935987727634,2.0533280019570976,1.0,0.36062509637305534,1.120614082805123,-1.9761849708638224,-0.7356205290570906,-3.14,2.610343821333886
117,0.8955883500347466,0.22258825270425658,0.8656483135350983,2.23584384577593,1.235708613389146,1.5210853858605464,2.053319052869646,1.0,0.3608024891499546,1.1205840181274205,-1.9762113763747187,-0.735854377210162,-3.14,2.610163179131068
118,0.8956473811044146,0.22263533338674318,0.8656962897549433,2.2358069561729184,1.2356684897791645,1.5210771652020232,2.0533100614566098,1.0,0.36097997651975966,1.1205539142709935,-1.9762378077064728,-0.736088345868928,-3.14,2.6099824254512343
119,0.8957064633138017,0.2226824688710913,0.8657443021706019,2.2357700318596225,1.235628318787948,1.5210689367919104,2.0533010276226444,1.0,0.3611575585486486,1.1205237711621452,-1.9762642648858686,-0.7363224351227357,-3.14,2.6098015601771776
120,0.8957655967180465,0.22272965923533866,0.8657923508119184,2.2357330727857336,1.2355881003488518,1.5210607006249333,2.0532919512721923,1.0,0.3613352353028431,1.1204935887270142,-1.9762907479397027,-0.7365566450610095,-3.14,2.609620583191516
121,0.89582478137237,0.2227769045576485,0.8658404357087712,2.23569607890085,1.2355478343951303,1.5210524566958232,2.0532828323094825,1.0,0.3615130068486078,1.1204633668915749,-1.9763172568947844,-0.736790975773251,-3.14,2.609439494376694
122,0.895884017332077,0.22282420491630842,0.8658885568910732,2.2356590501544775,1.235507520859935,1.5210442049993218,2.053273670638528,1.0,0.3616908732522511,1.1204331055816361,-1.9763437917779343,-0.7370254273490394,-3.14,2.6092582936149795
123,0.8959433046525571,0.2228715603897328,0.8659367143887701,2.235621986496027,1.2354671596763145,1.5210359455301778,2.0532644661631276,1.0,0.3618688345801249,1.1204028047228412,-1.976370352615985,-0.7372599998780311,-3.14,2.6090769807884673
124,0.8960026433892816,0.22291897105645775,0.8659849082318423,2.2355848878748237,1.2354267507772159,1.521027678283149,2.0532552187868642,1.0,0.36204689089862524,1.1203724642406672,-1.9763969394357812,-0.7374946934499604,-3.14,2.608895555779076
125,0.8960620335978067,0.22296643699514787,0.866033138450304,2.235547754240094,1.2353862940954816,1.5210194032530027,2.053245928413104,1.0,0.36222504227419083,1.1203420840604243,-1.9764235522641782,-0.7377295081546387,-3.14,2.6087140184685484
126,0.8961214753337722,0.22301395828459186,0.8660814050742031,2.235510585540976,1.2353457895638527,1.5210111204345123,2.053236594944998,1.0,0.36240328877330447,1.1203116641072568,-1.976450191128045,-0.7379644440819552,-3.14,2.6085323687384516
127,0.8961809686529029,0.2230615350037065,0.8661297081336214,2.2354733817265116,1.2353052371149646,1.5210028298224612,2.053227218285479,1.0,0.362581630462492,1.120281204306141,-1.9764768560542605,-0.7381995013218764,-3.14,2.6083506064701765
128,0.8962405136110072,0.22310916723153118,0.8661780476586769,2.2354361427456526,1.235264636681353,1.520994531411642,2.053217798337262,1.0,0.3627600674083234,1.1202507045818861,-1.9765035470697154,-0.7384346799644468,-3.14,2.6081687315449376
129,0.8963001102639793,0.22315685504723415,0.8662264236795207,2.235398868547254,1.2352239881954474,1.5209862251968558,2.053208335002844,1.0,0.36293859967741215,1.120220164859133,-1.9765302642013112,-0.7386699800997886,-3.14,2.6079867438437723
130,0.8963597586677984,0.22320459853010965,0.866274836226338,2.23536155908008,1.2351832915895746,1.5209779111729118,2.0531988281845037,1.0,0.363117227336415,1.1201895850623542,-1.976557007475962,-0.7389054018181014,-3.14,2.6078046432475412
131,0.8964194588785273,0.22325239775957725,0.8663232853293498,2.235324214292802,1.2351425467959583,1.5209695893346287,2.0531892777843015,1.0,0.3632959504520327,1.1201589651158532,-1.9765837769205918,-0.7391409452096628,-3.14,2.6076224296369275
132,0.8964792109523159,0.22330025281518484,0.8663717710188107,2.2352868341339946,1.2351017537467173,1.520961259676834,2.053179683704077,1.0,0.3634747690910096,1.1201283049437647,-1.976610572562136,-0.7393766103648283,-3.14,2.6074401028924368
133,0.8965390149453988,0.22334816377660605,0.8664202933250115,2.23524941855214,1.2350609123738676,1.520952922194365,2.05317004584545,1.0,0.36365368332013315,1.1200976044700532,-1.9766373944275404,-0.739612397374031,-3.14,2.6072576628943964
134,0.8965988709140964,0.22339613072364228,0.866468852278278,2.2352119674956272,1.23502002260932,1.5209445768820673,2.0531603641098197,1.0,0.36383269320623507,1.1200668636185136,-1.9766642425437622,-0.739848306327782,-3.14,2.6070751095229556
135,0.8966587789148154,0.22344415373622256,0.8665174479089686,2.23517448091275,1.234979084384881,1.520936223734796,2.0531506383983653,1.0,0.36401179881619006,1.12003608231277,-1.9766911169377692,-0.7400843373166703,-3.14,2.6068924426580855
136,0.8967187390040477,0.22349223289440298,0.8665660802474796,2.2351369587517063,1.2349380976322537,1.5209278627474156,2.053140868612043,1.0,0.36419100021691714,1.1200052604762758,-1.9767180176365398,-0.7403204904313632,-3.14,2.606709662179578
137,0.8967787512383735,0.22354036827836837,0.8666147493242415,2.2350994009606007,1.2348970622830364,1.5209194939147985,2.0531310546515877,1.0,0.3643702974753788,1.1199743980323131,-1.976744944667063,-0.7405567657626054,-3.14,2.6065267679670456
138,0.8968388156744587,0.22358855996842952,0.8666634551697213,2.235061807487443,1.2348559782687218,1.5209111172318301,2.0531211964175116,1.0,0.36454969065858134,1.1199434949039921,-1.976771898056337,-0.7407931634012204,-3.14,2.606343759899923
139,0.8968989323690545,0.22363680804502778,0.8667121978144193,2.2350241782801468,1.2348148455206989,1.5209027326934015,2.0531112938101037,1.0,0.3647291798335737,1.1199125510142514,-1.9767988778313716,-0.7410296834381087,-3.14,2.6061606378574624
140,0.8969591013790018,0.22368511258873092,0.8667609772888726,2.2349865132865316,1.2347736639702511,1.5208943402944153,2.05310134672943,1.0,0.3649087650674494,1.1198815662858568,-1.976825884019187,-0.7412663259642499,-3.14,2.605977401718739
141,0.8970193227612274,0.2237334736802359,0.8668097936236558,2.234948812454321,1.2347324335485572,1.5208859400297836,2.053091355075331,1.0,0.36508844642734617,1.1198505406414012,-1.9768529166468116,-0.7415030910707016,-3.14,2.6057940513626456
142,0.8970795965727449,0.2237818914003687,0.8668586468493767,2.2349110757311417,1.2346911541866903,1.5208775318944283,2.053081318747425,1.0,0.36526822398044484,1.1198194740033036,-1.9768799757412854,-0.7417399788485994,-3.14,2.605610586667896
143,0.8971399228706577,0.22383036583008448,0.8669075369966803,2.234873303064525,1.234649825815618,1.5208691158832808,2.053071237645103,1.0,0.3654480977939695,1.1197883662938104,-1.9769070613296575,-0.7419769893891571,-3.14,2.6054270075130215
144,0.8972003017121543,0.22387889705046538,0.8669564640962476,2.234835494401909,1.2346084483662036,1.5208606919912824,2.0530611116675312,1.0,0.3656280679351883,1.1197572174349932,-1.9769341734389876,-0.7422141227836669,-3.14,2.6052433137763735
145,0.8972607331545135,0.22392748514272678,0.8670054281787946,2.2347976496906305,1.2345670217692033,1.5208522602133834,2.05305094071365,1.0,0.3658081344714135,1.1197260273487488,-1.9769613120963438,-0.7424513791234993,-3.14,2.6050595053361216
146,0.8973212172551025,0.22397613018820914,0.8670544292750765,2.234759768877934,1.2345255459552682,1.5208438205445471,2.0530407246821736,1.0,0.36598829747000106,1.1196947959567993,-1.9769884773288042,-0.7426887585001034,-3.14,2.6048755820702536
147,0.8973817540713751,0.22402483226838615,0.8671034674158812,2.2347218519109653,1.2344840208549435,1.5208353729797432,2.053030463471588,1.0,0.36616855699835005,1.1196635231806913,-1.9770156691634564,-0.7429262610050062,-3.14,2.604691543856575
148,0.8974423436608768,0.22407359146485956,0.8671525426320371,2.234683898736774,1.2344424463986674,1.5208269175139546,2.0530201569801525,1.0,0.3663489131239043,1.1196322089417956,-1.9770428876273967,-0.7431638867298138,-3.14,2.60450739057271
149,0.8975029860812389,0.22412240785936036,0.8672016549544058,2.234645909302313,1.2344008225167742,1.5208184541421732,2.053009805105898,1.0,0.36652936591415064,1.1196008531613069,-1.9770701327477314,-0.7434016357662103,-3.14,2.6043231220960994
150,0.8975636813901848,0.2241712815337531,0.867250804413887,2.2346078835544354,1.2343591491394892,1.5208099828594006,2.0529994077466256,1.0,0.3667099154366195,1.1195694557602427,-1.9770974045515755,-0.7436395082059581,-3.14,2.6041387383040004
151,0.8976244296455257,0.2242202125700293,0.8672999910414183,2.2345698214399006,1.2343174261969327,1.5208015036606506,2.0529889647999093,1.0,0.3668905617588862,1.119538016659444,-1.9771247030660521,-0.7438775041408989,-3.14,2.6039542390734884
152,0.8976852309051628,0.22426920105031284,0.8673492148679729,2.234531722905367,1.234275653619119,1.5207930165409458,2.052978476163092,1.0,0.3670713049485688,1.119506535779574,-1.9771520283182944,-0.7441156236629525,-3.14,2.6037696242814543
153,0.8977460852270877,0.22431824705685893,0.8673984759245619,2.2344935878973984,1.2342338313359533,1.52078452149532,2.0529679417332876,1.0,0.36725214507332976,1.119475013041118,-1.9771793803354434,-0.7443538668641173,-3.14,2.603584893804606
154,0.8978069926693812,0.22436735067205138,0.8674477742422328,2.2344554163624593,1.2341919592772364,1.5207760185188186,2.052957361407378,1.0,0.36743308220087556,1.1194434483643827,-1.977206759144649,-0.7445922338364708,-3.14,2.6034000475194663
155,0.8978679532902164,0.2244165119784085,0.8674971098520721,2.2344172082469127,1.2341500373726615,1.5207675076064957,2.0529467350820143,1.0,0.3676141163989555,1.119411841669497,-1.9772341647730691,-0.7448307246721686,-3.14,2.6032150853023746
156,0.8979289671478542,0.2244657310585774,0.8675464827852013,2.2343789634970292,1.2341080655518128,1.520758988753419,2.052936062653617,1.0,0.3677952477353641,1.1193801928764087,-1.9772615972478707,-0.7450693394634457,-3.14,2.603030007029485
157,0.8979900343006486,0.2245150079953384,0.8675958930727821,2.234340682058976,1.2340660437441697,1.5207504619546646,2.0529253440183726,1.0,0.3679764762779381,1.1193485019048879,-1.9772890565962282,-0.7453080783026151,-3.14,2.602844812576766
158,0.8980511548070443,0.22456434287160318,0.8676453407460128,2.2343023638788244,1.2340239718791022,1.5207419272053204,2.0529145790722363,1.0,0.3681578020945606,1.1193167686745231,-1.9773165428453243,-0.7455469412820699,-3.14,2.602659501820003
159,0.8981123287255763,0.22461373577041535,0.8676948258361289,2.2342640089025427,1.2339818498858748,1.520733384500486,2.0529037677109288,1.0,0.36833922525315604,1.1192849931047235,-1.9773440560223503,-0.7457859284942806,-3.14,2.6024740746347934
160,0.8981735561148719,0.22466318677495076,0.8677443483744054,2.234225617076006,1.2339396776936413,1.5207248338352717,2.052892909829938,1.0,0.3685207458216942,1.1192531751147168,-1.9773715961545042,-0.7460250400317975,-3.14,2.60228853089655
161,0.8982348370336493,0.2247126959685175,0.8677939083921533,2.234187188344984,1.2338974552314514,1.520716275204799,2.0528820053245167,1.0,0.36870236386818833,1.119221314623549,-1.9773991632689931,-0.7462642759872496,-3.14,2.6021028704804987
162,0.8982961715407203,0.22476226343455646,0.8678435059207241,2.2341487226551524,1.233855182428243,1.5207077086042005,2.0528710540896835,1.0,0.3688840794606954,1.119189411550085,-1.97742675739303,-0.746503636453345,-3.14,2.6019170932616795
163,0.8983575596949875,0.22481188925664186,0.8678931409915059,2.234110219952081,1.2338128592128492,1.5206991340286204,2.052860056020221,1.0,0.36906589266731715,1.1191574658130063,-1.9774543785538368,-0.7467431215228708,-3.14,2.601731199114946
164,0.8984190015554467,0.22486157351847966,0.867942813635927,2.2340716801812444,1.2337704855139917,1.520690551473216,2.052849011010676,1.0,0.3692478035561987,1.119125477330813,-1.9774820267786417,-0.746982731288693,-3.14,2.6015451879149634
165,0.898480497181186,0.2249113163039109,0.8679925238854522,2.2340331032880143,1.2337280612602863,1.5206819609331528,2.0528379189553596,1.0,0.3694298121955289,1.119093446021822,-1.977509702094681,-0.7472224658437566,-3.14,2.6013590595362106
166,0.8985420466313868,0.22496111769690705,0.8680422717715873,2.233994489217665,1.2336855863802394,1.5206733624036113,2.052826779748345,1.0,0.3696119186535414,1.1190613718041658,-1.9775374045291974,-0.7474623252810862,-3.14,2.6011728138529784
167,0.898603649965323,0.22501097778157697,0.8680920573258751,2.233955837915366,1.2336430608022484,1.5206647558797808,2.0528155932834684,1.0,0.36979412299851305,1.1190292545957936,-1.977565134109441,-0.7477023096937851,-3.14,2.6009864507393696
168,0.8986653072423628,0.2250608966421605,0.8681418805798986,2.2339171493261887,1.233600484454602,1.5206561413568649,2.0528043594543277,1.0,0.369976425298765,1.1189970943144696,-1.977592890862668,-0.747942419175036,-3.14,2.6007999700692985
169,0.8987270185219675,0.22511087436303223,0.8681917415652787,2.233878423395103,1.2335578572654806,1.5206475188300779,2.0527930781542825,1.0,0.37015882562266245,1.1189648908777738,-1.9776206748161427,-0.748182653818101,-3.14,2.600613371716492
170,0.8987887838636922,0.2251609110287011,0.8682416403136771,2.2338396600669785,1.233515179162954,1.5206388882946462,2.0527817492764537,1.0,0.37034132403861486,1.1189326442031007,-1.9776484859971344,-0.7484230137163213,-3.14,2.600426655554486
171,0.8988506033271867,0.22521100672380973,0.868291576856794,2.2338008592865823,1.2334724500749847,1.5206302497458086,2.0527703727137214,1.0,0.3705239206150754,1.1189003542076588,-1.9776763244329192,-0.7486634989631172,-3.14,2.600239821456629
172,0.8989124769721949,0.22526116153313744,0.8683415512263696,2.2337620209985776,1.2334296699294245,1.5206216031788156,2.052758948358726,1.0,0.37070661542054156,1.1188680208084703,-1.9777041901507801,-0.748904109651989,-3.14,2.60005286929608
173,0.898974404858555,0.22531137554159514,0.868391563454183,2.2337231451475312,1.2333868386540159,1.5206129485889306,2.0527474761038684,1.0,0.3708894085235549,1.118835643922371,-1.9777320831780059,-0.7491448458765155,-3.14,2.5998657989458063
174,0.8990363870462,0.2253616488342313,0.8684416135720535,2.233684231677903,1.2333439561763915,1.5206042859714295,2.0527359558413063,1.0,0.3710722999927007,1.1188032234660097,-1.9777600035418912,-0.7493857077303558,-3.14,2.599678610278587
175,0.8990984235951583,0.22541198149622868,0.86849170161184,2.233645280534053,1.233301022424075,1.5205956153215987,2.0527243874629573,1.0,0.37125528989660855,1.118770759355848,-1.9777879512697374,-0.7496266953072479,-3.14,2.59949130316701
176,0.899160514565554,0.22546237361290544,0.8685418276054421,2.233606291660238,1.2332580373244793,1.5205869366347393,2.052712770860495,1.0,0.37143837830395254,1.1187382515081588,-1.9778159263888508,-0.7498678087010096,-3.14,2.599303877483473
177,0.8992226600176064,0.2255128252697141,0.8685919915847997,2.2335672650006133,1.2332150008049083,1.5205782499061646,2.0527011059253524,1.0,0.3716215652834508,1.1187056998390268,-1.9778439289265433,-0.7501090480055381,-3.14,2.5991163331001816
178,0.8992848600116304,0.225563336552246,0.8686421935818922,2.2335282004992294,1.2331719127925536,1.5205695551311995,2.0526893925487166,1.0,0.3718048509038652,1.1186731042643479,-1.9778719589101326,-0.7503504133148102,-3.14,2.5989286698891516
179,0.899347114608038,0.22561390754622518,0.8686924336287399,2.2334890981000353,1.2331287732144987,1.520560852305183,2.052677630621533,1.0,0.3719882352340023,1.1186404646998287,-1.9779000163669413,-0.7505919047228824,-3.14,2.598740887722206
180,0.8994094238673359,0.22566453833751365,0.8687427117574037,2.233449957746875,1.2330855819977153,1.5205521414234668,2.0526658200345005,1.0,0.3721717183427125,1.1186077810609862,-1.9779281013242982,-0.7508335223238907,-3.14,2.5985529864709758
181,0.899471787850129,0.22571522901210858,0.8687930279999859,2.2334107793834925,1.2330423390690657,1.5205434224814145,2.052653960678075,1.0,0.37235530029889047,1.1185750532631475,-1.9779562138095363,-0.7510752662120508,-3.14,2.5983649660069004
182,0.8995342066171185,0.22576597965614573,0.8688433823886286,2.233371562953524,1.2329990443553,1.520534695474403,2.0526420524424656,1.0,0.3725389811714753,1.118542281221448,-1.9779843538499937,-0.7513171364816583,-3.14,2.5981768262012266
183,0.8995966802291026,0.22581679035589577,0.8688937749555155,2.2333323084005032,1.2329556977830578,1.520525960397824,2.052630095217635,1.0,0.37272276102945034,1.1185094648508325,-1.978012521473013,-0.7515591332270884,-3.14,2.5979885669250082
184,0.8996592087469759,0.22586766119776605,0.8689442057328706,2.233293015667862,1.2329122992788693,1.5205172172470804,2.0526180888932997,1.0,0.3729066399418423,1.1184766040660548,-1.9780407167059426,-0.7518012565427961,-3.14,2.5978001880491055
185,0.8997217922317329,0.22591859226830252,0.8689946747529611,2.233253684698927,1.2328688487691501,1.5205084660175896,2.0526060333589298,1.0,0.3730906179777237,1.118443698781675,-1.978068939576134,-0.7520435065233162,-3.14,2.5976116894441854
186,0.899784430744464,0.22596958365418887,0.8690451820480939,2.2332143154369155,1.2328253461802077,1.5204997067047816,2.052593928503746,1.0,0.3732746952062106,1.118410748912063,-1.9780971901109439,-0.7522858832632636,-3.14,2.597423070980722
187,0.8998471243463584,0.22602063544224327,0.8690957276506195,2.233174907824948,1.232781791438237,1.5204909393041013,2.052581774216722,1.0,0.37345887169646325,1.118377754371394,-1.9781254683377327,-0.752528386857333,-3.14,2.5972343325289935
188,0.899909873098704,0.22607174771942512,0.8691463115929271,2.2331354618060337,1.2327381844693217,1.5204821638110053,2.0525695703865816,1.0,0.37364314751768624,1.1183447150736505,-1.9781537742838653,-0.7527710174002988,-3.14,2.597045473959086
189,0.8999726770628862,0.22612292057282962,0.8691969339074503,2.2330959773230807,1.2326945251994323,1.520473380220966,2.0525573169018005,1.0,0.37382752273912845,1.1183116309326206,-1.9781821079767103,-0.7530137749870155,-3.14,2.596856495140888
190,0.9000355363003908,0.22617415408969166,0.8692475946266638,2.2330564543188895,1.2326508135544287,1.5204645885294674,2.052545013650603,1.0,0.37401199743008356,1.1182785018618986,-1.9782104694436404,-0.7532566597124177,-3.14,2.5966673959440962
191,0.9000984508728015,0.22622544835738223,0.8692982937830847,2.2330168927361567,1.2326070494600598,1.520455788732009,2.052532660520964,1.0,0.3741965716598892,1.118245327774884,-1.9782388587120316,-0.75349967167152,-3.14,2.596478176238209
192,0.9001614208418032,0.22627680346341414,0.8693490314092718,2.2329772925174693,1.23256323284196,1.5204469808241035,2.0525202574006056,1.0,0.3743812454979277,1.1182121085847807,-1.9782672758092632,-0.7537428109594172,-3.14,2.596288835892532
193,0.900224446269178,0.2263282194954358,0.8693998075378282,2.232937653605313,1.2325193636256526,1.520438164801279,2.052507804177001,1.0,0.374566019013626,1.118178844204597,-1.978295720762718,-0.753986077671284,-3.14,2.5960993747761725
194,0.9002875272168098,0.22637969654123616,0.8694506222013976,2.232897975942066,1.2324754417365495,1.520429340659075,2.0524953007373687,1.0,0.37475089227645464,1.1181455345471454,-1.978324193599783,-0.7542294719023752,-3.14,2.595909792758042
195,0.9003506637466812,0.22643123468874274,0.8695014754326673,2.2328582594699995,1.2324314670999483,1.5204205083930482,2.0524827469686757,1.0,0.37493586535592915,1.118112179525041,-1.9783526943478464,-0.7544729937480261,-3.14,2.595720089706857
196,0.900413855920878,0.22648283402602262,0.8695523672643679,2.232818504131278,1.2323874396410353,1.5204116679987678,2.0524701427576355,1.0,0.37512093832160975,1.1180787790507025,-1.9783812230343008,-0.754716643303652,-3.14,2.5955302654911354
197,0.9004771038015832,0.22653449464128372,0.8696032977292717,2.232778709867958,1.2323433592848823,1.5204028194718182,2.052457487990707,1.0,0.37530611124310115,1.1180453330363502,-1.9784097796865405,-0.7549604206647483,-3.14,2.5953403199791985
198,0.9005404074510834,0.22658621662287098,0.8696542668601965,2.232738876621992,1.23229922595645,1.5203939628077983,2.0524447825540957,1.0,0.37549138419005207,1.1180118413940072,-1.978438364331963,-0.7552043259268911,-3.14,2.59515025303917
199,0.9006037669317659,0.22663800005927162,0.8697052746900015,2.2326990043352226,1.2322550395805851,1.5203850980023215,2.052432026333751,1.0,0.3756767572321562,1.1179783040354974,-1.978466976997968,-0.7554483591857366,-3.14,2.594960064538976
200,0.90066718230612,0.22668984503911196,0.8697563212515916,2.2326590929493846,1.2322108000820213,1.5203762250510167,2.0524192192153685,1.0,0.3758622304391524,1.1179447208724462,-1.9784956177119566,-0.7556925205370215,-3.14,2.5947697543463444
201,0.9007306536367343,0.22674175165115804,0.8698074065779124,2.2326191424061106,1.2321665073853787,1.5203673439495258,2.052406361084386,1.0,0.37604780388082254,1.1179110918162791,-1.9785242865013342,-0.7559368100765627,-3.14,2.594579322328805
202,0.9007941809863023,0.22679371998431871,0.8698585307019557,2.2325791526469168,1.2321221614151634,1.5203584546935078,2.0523934518259837,1.0,0.3762334776269944,1.1178774167782217,-1.9785529833935058,-0.7561812279002574,-3.14,2.594388768353688
203,0.9008577644176197,0.22684575012764066,0.8699096936567569,2.2325391236132175,1.2320777620957701,1.5203495572786352,2.052380491325087,1.0,0.3764192517475396,1.1178436956692996,-1.97858170841588,-0.7564257741040835,-3.14,2.5941980922881256
204,0.900921403993583,0.22689784217031478,0.8699608954753939,2.2324990552463153,1.2320333093514761,1.5203406517005964,2.0523674794663624,1.0,0.37660512631237464,1.117809928400337,-1.9786104615958662,-0.7566704487840993,-3.14,2.594007293999049
205,0.9009850997771925,0.2269499962016692,0.8700121361909918,2.232458947487409,1.2319888031064485,1.5203317379550945,2.0523544161342175,1.0,0.3767911013914613,1.1177761148819574,-1.9786392429608752,-0.7569152520364437,-3.14,2.593816373353192
206,0.9010488518315533,0.22700221231117784,0.8700634158367179,2.23241880027758,1.2319442432847376,1.5203228160378484,2.0523413012128007,1.0,0.3769771770548054,1.117742255024581,-1.9786680525383187,-0.7571601839573363,-3.14,2.593625330217086
207,0.9011126602198714,0.22705449058845126,0.8701147344457865,2.232378613557812,1.2318996298102811,1.520313885944593,2.0523281345860025,1.0,0.37716335337245777,1.1177083487384274,-1.9786968903556104,-0.757405244643077,-3.14,2.593434164457064
208,0.9011765250054585,0.2271068311232467,0.8701660920514536,2.2323383872689697,1.231854962606901,1.520304947671077,2.0523149161374517,1.0,0.37734963041451347,1.1176743959335123,-1.978725756440165,-0.7576504341900465,-3.14,2.5932428759392576
209,0.9012404462517294,0.22715923400545954,0.8702174886870229,2.232298121351813,1.231810241598307,1.5202960012130666,2.0523016457505165,1.0,0.3775360082511135,1.1176403965196486,-1.9787546508193974,-0.7578957526947063,-3.14,2.5930514645295974
210,0.9013044240222027,0.22721169932512947,0.8702689243858415,2.232257815746992,1.2317654667080924,1.520287046566342,2.0522883233083045,1.0,0.37772248695244187,1.117606350406445,-1.978783573520724,-0.7581412002535981,-3.14,2.5928599300938124
211,0.9013684583805026,0.22726422717243794,0.8703203991813019,2.232217470395047,1.2317206378597354,1.5202780837267005,2.0522749486936607,1.0,0.3779090665887288,1.117572257503306,-1.9788125245715604,-0.7583867769633448,-3.14,2.5926682724974306
212,0.901432549390359,0.22731681763770795,0.8703719131068446,2.2321770852364056,1.2316757549766013,1.5202691126899563,2.052261521789168,1.0,0.3780957472302491,1.1175381177194315,-1.9788415039993232,-0.7586324829206499,-3.14,2.592476491605778
213,0.9014966971156044,0.22736947081140724,0.8704234661959522,2.2321366602113892,1.2316308179819386,1.5202601334519366,2.0522480424771463,1.0,0.37828252894732173,1.1175039309638164,-1.97887051183143,-0.7588783182222978,-3.14,2.592284587283978
214,0.9015609016201792,0.22742218678414458,0.8704750584821555,2.2320961952602056,1.2315858267988824,1.520251146008487,2.052234510639652,1.0,0.37846941181031174,1.1174696971452496,-1.9788995480952971,-0.7591242829651537,-3.14,2.5920925593969524
215,0.9016251629681273,0.2274749656466741,0.87052668999903,2.232055690322952,1.2315407813504498,1.5202421503554697,2.0522209261584763,1.0,0.37865639588962763,1.1174354161723135,-1.9789286128183412,-0.7593703772461634,-3.14,2.591900407809419
216,0.9016894812236013,0.22752780748989032,0.8705783607801985,2.2320151453396173,1.231495681559546,1.5202331464887615,2.0522072889151475,1.0,0.37884348125572453,1.1174010879533844,-1.9789577060279788,-0.7596166011623542,-3.14,2.591708132385893
217,0.9017538564508575,0.22758071240483385,0.8706300708593292,2.231974560250078,1.2314505273489573,1.5202241344042566,2.052193598790927,1.0,0.3790306679791005,1.117366712396631,-1.9789868277516258,-0.7598629548108335,-3.14,2.591515732990686
218,0.901818288714261,0.22763368048268942,0.8706818202701371,2.231933934994095,1.231405318641356,1.5202151140978661,2.05217985566681,1.0,0.3792179561303005,1.1173322894100144,-1.979015978016697,-0.7601094382887906,-3.14,2.591323209487906
219,0.901882778078282,0.22768671181478203,0.8707336090463837,2.231893269511325,1.2313600553593003,1.5202060855655173,2.052166059423527,1.0,0.37940534577991347,1.1172978189012879,-1.9790451568506067,-0.7603560516934952,-3.14,2.591130561741457
220,0.9019473246074993,0.22773980649258527,0.8707854372218783,2.2318525637413074,1.2313147374252287,1.5201970488031542,2.05215220994154,1.0,0.37959283699857344,1.1172633007779953,-1.9790743642807682,-0.760602795122298,-3.14,2.590937789615038
221,0.9020119283665983,0.227792964607714,0.8708373048304762,2.231811817623472,1.231269364761466,1.5201880038067386,2.0521383071010435,1.0,0.3797804298569599,1.117228734947472,-1.9791036003345932,-0.760849668672631,-3.14,2.5907448929721437
222,0.9020765894203718,0.22784618625192898,0.8708892119060792,2.2317710310971366,1.2312239372902212,1.5201789505722472,2.0521243507819635,1.0,0.3799681244257971,1.1171941213168435,-1.979132865039493,-0.7610966724420074,-3.14,2.590551871676064
223,0.9021413078337223,0.22789947151713605,0.8709411584826386,2.2317302041015026,1.2311784549335847,1.5201698890956774,2.052110340863957,1.0,0.3801559207758544,1.1171594597930246,-1.9791621584228756,-0.761343806528021,-3.14,2.590358725589882
224,0.9022060836716589,0.22795282049538643,0.8709931445941511,2.2316893365756627,1.2311329176135324,1.520160819373039,2.052096277226412,1.0,0.38034381897794606,1.1171247502827206,-1.9791914805121495,-0.7615910710283472,-3.14,2.5901654545764767
225,0.9022709169993005,0.22800623327887315,0.871045170274663,2.231648428458598,1.2310873252519237,1.5201517414003634,2.0520821597484473,1.0,0.3805318191029324,1.117089992692425,-1.9792208313347193,-0.7618384660407427,-3.14,2.5899720584985206
226,0.9023358078818748,0.22805970995993938,0.8710972355582675,2.2316074796891714,1.2310416777704989,1.5201426551736972,2.052067988308909,1.0,0.3807199212217178,1.117055186928419,-1.9792502109179881,-0.762085991663045,-3.14,2.5897785372184794
227,0.9024007563847176,0.2281132506310712,0.8711493404791052,2.2315664902061356,1.230995975090884,1.5201335606891044,2.0520537627863726,1.0,0.38090812540525304,1.117020332896773,-1.9792796192893576,-0.7623336479931733,-3.14,2.5895848905986125
228,0.9024657625732764,0.22816685538490022,0.8712014850713659,2.231525459948128,1.2309502171345876,1.520124457942669,2.0520394830591426,1.0,0.38109643172453295,1.1169854305033433,-1.9793090564762257,-0.7625814351291277,-3.14,2.5893911185009726
229,0.9025308265131069,0.22822052431420534,0.8712536693692876,2.231484388853675,1.2309044038229993,1.5201153469304896,2.052025149005251,1.0,0.38128484025059844,1.1169504796537748,-1.9793385225059887,-0.7628293531689898,-3.14,2.5891972207874043
230,0.902595948269876,0.22827425751191116,0.8713058934071588,2.231443276861186,1.2308585350773933,1.520106227648684,2.052010760502455,1.0,0.3814733510545359,1.116915480253497,-1.9793680174060393,-0.7630774022109228,-3.14,2.589003197319545
231,0.9026611279093593,0.2283280550710879,0.8713581572193128,2.231402123908958,1.230812610818926,1.520097100093389,2.05199631742824,1.0,0.3816619642074762,1.1168804322077264,-1.979397541203768,-0.7633255823531708,-3.14,2.5888090479588244
232,0.9027263654974453,0.2283819170849543,0.871410460840135,2.231360929935171,1.2307666309686347,1.5200879642607579,2.0519818196598165,1.0,0.3818506797805964,1.1168453354214638,-1.9794270939265612,-0.7635738936940597,-3.14,2.5886147725664634
233,0.9027916611001323,0.22843584364687364,0.8714628043040592,2.231319694877894,1.2307205954474416,1.5200788201469628,2.05196726707412,1.0,0.3820394978451187,1.1168101897994958,-1.979456675601803,-0.7638223363319966,-3.14,2.5884203710034748
234,0.9028570147835311,0.2284898348503579,0.8715151876455686,2.2312784186750765,1.2306745041761493,1.5200696677481946,2.0519526595478106,1.0,0.38222841847231026,1.1167749952463928,-1.9794862862568725,-0.7640709103654701,-3.14,2.5882258431306617
235,0.9029224266138629,0.22854389078906465,0.8715676108991955,2.231237101264558,1.2306283570754433,1.5200605070606616,2.051937996957273,1.0,0.3824174417334845,1.1167397516665094,-1.9795159259191464,-0.7643196158930508,-3.14,2.588031188808619
236,0.9029878966574618,0.22859801155680015,0.8716200740995222,2.2311957425840587,1.2305821540658899,1.5200513380805925,2.0519232791786135,1.0,0.3826065676999998,1.1167044589639827,-1.9795455946159963,-0.7645684530133902,-3.14,2.5878364078977314
237,0.903053424980774,0.22865219724751973,0.8716725772811815,2.2311543425711826,1.2305358950679377,1.5200421608042312,2.051908506087663,1.0,0.3827957964432601,1.1166691170427334,-1.979575292374791,-0.7648174218252215,-3.14,2.5876415002581736
238,0.9031190116503592,0.22870644795532286,0.8717251204788559,2.23111290116342,1.2304895800019182,1.5200329752278443,2.051893677559973,1.0,0.3829851280347156,1.1166337258064643,-1.9796050192228933,-0.7650665224273598,-3.14,2.5874464657499106
239,0.9031846567328874,0.22876076377445956,0.8717777037272777,2.231071418298147,1.2304432087880424,1.520023781347714,2.0518787934708187,1.0,0.38317456254586096,1.1165982851586596,-1.979634775187664,-0.7653157549187017,-3.14,2.5872513042326966
240,0.9032503602951448,0.22881514479932746,0.8718303270612308,2.231029893912617,1.2303967813464043,1.520014579160144,2.051863853695193,1.0,0.3833641000482374,1.1165627950025847,-1.9796645602964555,-0.7655651193982254,-3.14,2.5870560155660747
241,0.9033161224040296,0.2288695911244733,0.8718829905155486,2.2309883279439733,1.2303502975969773,1.5200053686614556,2.051848858107812,1.0,0.3835537406134312,1.116527255241286,-1.979694374576619,-0.7658146159649907,-3.14,2.586860599609377
242,0.9033819431265551,0.22892410284459075,0.8719356941251172,2.2309467203292384,1.2303037574596187,1.51999614984799,2.0518338065831094,1.0,0.38374348431307476,1.1164916657775905,-1.9797242180554977,-0.7660642447181393,-3.14,2.5866650562217237
243,0.9034478225298475,0.22897868005452465,0.8719884379248714,2.2309050710053184,1.2302571608540638,1.5199869227161071,2.051818698995239,1.0,0.383933331218846,1.1164560265141037,-1.9797540907604314,-0.7663140057568948,-3.14,2.586469385262024
244,0.9035137606811486,0.22903332284926642,0.8720412219497994,2.230863379909004,1.230210507699931,1.519977687262187,2.051803535218073,1.0,0.3841232814024685,1.1164203373532116,-1.9797839927187533,-0.7665638991805622,-3.14,2.586273586588975
245,0.9035797576478146,0.2290880313239581,0.8720940462349401,2.230821646976967,1.2301637979167181,1.5199684434826295,2.051788315125201,1.0,0.3843133349357119,1.1163845981970777,-1.9798139239577912,-0.7668139250885287,-3.14,2.58607766006106
246,0.9036458134973165,0.2291428055738918,0.8721469108153834,2.2307798721457606,1.2301170314238037,1.5199591913738528,2.05177303858993,1.0,0.38450349189039146,1.1163488089476443,-1.9798438845048678,-0.7670640835802632,-3.14,2.5858816055365503
247,0.9037119282972423,0.2291976456945089,0.8721998157262721,2.230738055351821,1.2300702081404469,1.5199499309322952,2.051757705485284,1.0,0.38469375233836844,1.1163129695066314,-1.9798738743872986,-0.7673143747553165,-3.14,2.5856854228735044
248,0.9037781021152939,0.22925255178139878,0.8722527610028014,2.2306961965314667,1.230023327985788,1.519940662154417,2.051742315684002,1.0,0.3848841163515504,1.1162770797755355,-1.979903893632393,-0.7675647987133213,-3.14,2.5854891119297667
249,0.9038443350192914,0.22930752393030315,0.8723057466802181,2.2306542956208966,1.2299763908788466,1.5199313850366956,2.0517268690585393,1.0,0.38507458400189026,1.1162411396556302,-1.9799339422674542,-0.7678153555539922,-3.14,2.5852926725629684
250,0.9039106270771696,0.2293625622371131,0.8723587727938215,2.2306123525561907,1.2299293967385228,1.5199220995756306,2.0517113654810655,1.0,0.3852651553613871,1.1162051490479645,-1.9799640203197786,-0.7680660453771259,-3.14,2.585096104630526
251,0.9039769783569801,0.22941766679787015,0.8724118393789629,2.2305703672733133,1.2298823454835954,1.519912805767741,2.0516958048234644,1.0,0.3854558305020854,1.1161691078533633,-1.9799941278166555,-0.7683168682826007,-3.14,2.584899407989642
252,0.9040433889268943,0.22947283770876803,0.8724649464710482,2.2305283397081035,1.2298352370327237,1.5199035036095665,2.0516801869573325,1.0,0.3856466094960766,1.1161330159724263,-1.9800242647853672,-0.7685678243703775,-3.14,2.584702582497304
253,0.9041098588551983,0.22952807506614786,0.8725180941055357,2.2304862697962866,1.2297880713044493,1.5198941930976666,2.0516645117539807,1.0,0.3858374924154986,1.1160968733055283,-1.980054431253189,-0.7688189137404992,-3.14,2.584505628010284
254,0.9041763882102969,0.22958337896650519,0.8725712823179376,2.2304441574734666,1.229740848217188,1.5198848742286233,2.0516487790844313,1.0,0.38602847933253415,1.1160606797528168,-1.9800846272473878,-0.7690701364930903,-3.14,2.5843085443851392
255,0.9042429770607132,0.22963874950648624,0.8726245111438171,2.230402002675125,1.22969356768924,1.5198755469990364,2.0516329888194176,1.0,0.38621957031941284,1.1160244352142135,-1.9801148527952241,-0.7693214927283577,-3.14,2.584111331478211
256,0.9043096254750892,0.22969418678288644,0.8726777806187953,2.2303598053366285,1.2296462296387818,1.5198662114055295,2.0516171408293853,1.0,0.386410765448411,1.1159881395894127,-1.9801451079239487,-0.7695729825465908,-3.14,2.5839139891456244
257,0.9043763335221858,0.2297496908926559,0.8727310907785442,2.230317565393218,1.2295988339838702,1.5198568674447457,2.051601234984489,1.0,0.38660206479185033,1.115951792777881,-1.9801753926608054,-0.7698246060481607,-3.14,2.5837165172432885
258,0.9044431012708811,0.22980526193289455,0.8727844416587902,2.230275282780017,1.229551380642441,1.5198475151133497,2.051585271154593,1.0,0.3867934684220989,1.115915394678857,-1.9802057070330297,-0.7700763633335208,-3.14,2.5835189156268945
259,0.9045099287901764,0.22986090000085602,0.8728378332953162,2.230232957432026,1.2295038695323082,1.5198381544080275,2.0515692492092725,1.0,0.3869849764115717,1.1158789451913498,-1.9802360510678472,-0.770328254503207,-3.14,2.583321184151918
260,0.9045768161491891,0.22991660519394472,0.8728912657239577,2.230190589284127,1.229456300571166,1.5198287853254855,2.0515531690178093,1.0,0.3871765888327297,1.1158424442141401,-1.9802664247924764,-0.7705802796578373,-3.14,2.5831233226736163
261,0.9046437634171599,0.22997237760971811,0.8729447389806054,2.2301481782710795,1.2294086736765861,1.5198194078624532,2.0515370304491936,1.0,0.3873683057580803,1.1158058916457783,-1.9802968282341253,-0.7708324388981118,-3.14,2.5829253310470293
262,0.9047107706634475,0.2300282173458884,0.872998253101206,2.2301057243275197,1.2293609887660175,1.51981002201568,2.0515208333721224,1.0,0.3875601272601775,1.1157692873845837,-1.9803272614199938,-0.7710847323248133,-3.14,2.5827272091269786
263,0.9047778379575327,0.2300841245003159,0.8730518081217606,2.230063227387967,1.2293132457567908,1.5198006277819391,2.051504577655001,1.0,0.3877520534116219,1.1157326313286464,-1.9803577243772719,-0.7713371600388068,-3.14,2.582528956768068
264,0.9048449653690185,0.2301400991710199,0.873105404078326,2.2300206873868116,1.2292654445661118,1.5197912251580235,2.051488263165938,1.0,0.3879440842850603,1.1156959233758235,-1.9803882171331393,-0.7715897221410396,-3.14,2.5823305738246813
265,0.9049121529676283,0.23019614145616812,0.8731590410070152,2.229978104258328,1.229217585111066,1.5197818141407498,2.0514718897727486,1.0,0.38813621995318653,1.1156591634237405,-1.9804187397147663,-0.7718424187325416,-3.14,2.5821320601509847
266,0.9049794008232075,0.23025225145408537,0.8732127189439965,2.229935477936664,1.2291696673086165,1.5197723947269555,2.051455457342953,1.0,0.38832846048874103,1.1156223513697905,-1.9804492921493135,-0.7720952499144249,-3.14,2.581933415600924
267,0.9050467090057238,0.2303084292632478,0.8732664379254937,2.229892808355846,1.2291216910756046,1.5197629669135013,2.0514389657437744,1.0,0.3885208059645097,1.1155854871111335,-1.9804798744639305,-0.7723482157878842,-3.14,2.581734640028226
268,0.9051140775852683,0.23036467498228647,0.8733201979877904,2.229850095449778,1.2290736563287483,1.5197535306972705,2.0514224148421403,1.0,0.38871325645332744,1.1155485705446955,-1.9805104866857561,-0.7726013164541968,-3.14,2.5815357332863966
269,0.9051815066320544,0.2304209887099868,0.8733739991672221,2.22980733915224,1.2290255629846445,1.5197440860751676,2.0514058045046797,1.0,0.38890581202807406,1.1155116015671684,-1.980541128841919,-0.7728545520147225,-3.14,2.5813366952287224
270,0.9052489962164193,0.23047737054528838,0.8734278415001847,2.2297645393968892,1.2289774109597664,1.5197346330441208,2.0513891345977253,1.0,0.38909847276167703,1.1154745800750097,-1.9805718009595368,-0.7731079225709037,-3.14,2.5811375257082685
271,0.905316546408824,0.23053382058728492,0.8734817250231293,2.2297216961172586,1.2289292001704655,1.519725171601081,2.05137240498731,1.0,0.3892912387271103,1.1154375059644415,-1.9806025030657155,-0.773361428224265,-3.14,2.580938224577879
272,0.9053841572798524,0.23059033893522524,0.8735356497725651,2.229678809246757,1.2288809305329704,1.5197157017430212,2.0513556155391672,1.0,0.38948410999739497,1.1154003791314495,-1.9806332351875495,-0.7736150690764141,-3.14,2.580738791690177
273,0.905451828900215,0.23064692568851475,0.8735896157850584,2.2296358787186676,1.2288326019633855,1.519706223466938,2.051338766118731,1.0,0.38967708664559886,1.1153631994717834,-1.980663997352122,-0.7738688452290411,-3.14,2.5805392268975638
274,0.9055195613407451,0.23070358094671012,0.8736436230972351,2.229592904466153,1.2287842143776946,1.5196967367698524,2.051321856591136,1.0,0.3898701687448377,1.115325966880956,-1.9806947895865032,-0.774122756783919,-3.14,2.5803395300522185
275,0.9055873546724026,0.23076030480952717,0.873697671745776,2.2295498864222485,1.2287357676917552,1.5196872416488068,2.0513048868212134,1.0,0.39006335636827294,1.1152886812542422,-1.9807256119177523,-0.7743768038429031,-3.14,2.580139701006098
276,0.9056552089662718,0.23081709737683492,0.8737517617674228,2.2295068245198637,1.2286872618213052,1.519677738100868,2.051287856673494,1.0,0.3902566495891139,1.1152513424866795,-1.9807564643729154,-0.7746309865079317,-3.14,2.579939739610936
277,0.9057231242935638,0.23087395874865976,0.873805893198974,2.229463718691785,1.228638696681956,1.5196682261231256,2.0512707660122054,1.0,0.39045004848061676,1.1152139504730658,-1.9807873469790263,-0.7748853048810259,-3.14,2.579739645718244
278,0.9057911007256157,0.23093088902518408,0.8738600660772881,2.2294205688706716,1.2285900721891965,1.5196587057126936,2.0512536147012725,1.0,0.39064355311608545,1.1151765051079603,-1.9808182597631054,-0.7751397590642894,-3.14,2.57953941917931
279,0.9058591383338918,0.23098788830674474,0.873914280439282,2.229377374989059,1.228541388258392,1.5196491768667104,2.051236402604317,1.0,0.3908371635688708,1.1151390062856827,-1.9808492027521607,-0.7753943491599089,-3.14,2.579339059845197
280,0.9059272371899825,0.23104495669383704,0.8739685363219317,2.2293341369793533,1.2284926448047844,1.519639639582337,2.0512191295846547,1.0,0.3910308799123711,1.115101453900312,-1.980880175973186,-0.7756490752701538,-3.14,2.5791385675667455
281,0.9059953973656055,0.23110209428711098,0.8740228337622731,2.2292908547738386,1.2284438417434915,1.5196300938567597,2.0512017955052975,1.0,0.3912247022200318,1.1150638478456862,-1.980911179453162,-0.7759039374973765,-3.14,2.578937942194571
282,0.9060636189326071,0.23115930118737466,0.874077172797401,2.229247528304671,1.2283949789895066,1.519620539687188,2.0511844002289514,1.0,0.3914186305653453,1.1150261880154024,-1.9809422132190555,-0.776158935944012,-3.14,2.5787371835790647
283,0.9061319019629619,0.23121657749559346,0.8741315534644717,2.2292041575038777,1.2283460564576987,1.519610977070857,2.0511669436180147,1.0,0.39161266502185305,1.114988474302815,-1.9809732772978186,-0.7764140707125787,-3.14,2.578536291570392
284,0.906200246528772,0.23127392331288885,0.8741859758006999,2.2291607423033617,1.2282970740628139,1.519601406005025,2.05114942553458,1.0,0.39180680566314213,1.1149507066010365,-1.9810043717163903,-0.7766693419056776,-3.14,2.5783352660184935
285,0.9062686527022692,0.23133133874054093,0.8742404398433622,2.2291172826348977,1.2282480317194722,1.519591826486975,2.0511318458404317,1.0,0.39200105256284873,1.1149128848029355,-1.9810354965016939,-0.7769247496259928,-3.14,2.578134106773084
286,0.9063371205558144,0.23138882387998597,0.8742949456297945,2.229073778430134,1.2281989293421696,1.5195822385140167,2.0511142043970456,1.0,0.3921954057946558,1.1148750088011372,-1.9810666516806383,-0.7771802939762913,-3.14,2.577932813683652
287,0.906405650161898,0.23144637883282043,0.874349493197395,2.2290302296205873,1.2281497668452777,1.5195726420834832,2.051096501065588,1.0,0.3923898654322943,1.1148370784880226,-1.9810978372801171,-0.7774359750594233,-3.14,2.5777313865994604
288,0.906474241593141,0.23150400370079544,0.8744040825836221,2.2289866361376527,1.2281005441430441,1.519563037192732,2.0510787357069167,1.0,0.39258443154954287,1.1147990937557284,-1.9811290533270092,-0.7776917929783219,-3.14,2.5775298253695444
289,0.9065428949222932,0.23156169858582337,0.8744587138259965,2.2289429979125925,1.2280512611495895,1.5195534238391475,2.0510609081815785,1.0,0.3927791042202277,1.1147610544961446,-1.981160299848177,-0.7779477478360033,-3.14,2.577328129842712
290,0.9066116102222379,0.23161946358997398,0.8745133869621005,2.2288993148765415,1.2280019177789112,1.519543802020138,2.0510430183498087,1.0,0.3929738835182236,1.114722960600916,-1.981191576870468,-0.778203839735567,-3.14,2.5771262998675457
291,0.9066803875659875,0.23167729881547516,0.8745681020295772,2.228855586960506,1.227952513944881,1.5195341717331385,2.051025066071531,1.0,0.3931687695174523,1.1146848119614408,-1.9812228844207125,-0.7784600687801951,-3.14,2.576924335292398
292,0.9067492270266863,0.23173520436471448,0.8746228590661336,2.2288118140953634,1.227903049561245,1.5195245329756086,2.051007051206357,1.0,0.39336376229188447,1.1146466084688695,-1.9812542225257255,-0.7787164350731538,-3.14,2.576722235965394
293,0.9068181286776121,0.23179318034023808,0.874677658109538,2.2287679962118627,1.227853524541624,1.5195148857450347,2.050988973613585,1.0,0.39355886191553835,1.1146083500141055,-1.9812855912123046,-0.7789729387177916,-3.14,2.5765200017344316
294,0.9068870925921728,0.23185122684475185,0.8747324991976219,2.228724133240621,1.2278039387995139,1.519505230038928,2.050970833152199,1.0,0.3937540684624801,1.1145700364878037,-1.9813169905072314,-0.7792295798175407,-3.14,2.5763176324471786
295,0.906956118843911,0.23190934398112056,0.8747873823682798,2.228680225112129,1.2277542922482838,1.5194955658548264,2.05095262968087,1.0,0.39394938200682406,1.11453166778037,-1.9813484204372698,-0.7794863584759162,-3.14,2.576115127951074
296,0.9070252075065017,0.23196753185236896,0.87484230765947,2.228636271756746,1.2277045848011778,1.5194858931902941,2.050934363057953,1.0,0.39414480262273394,1.1144932437819608,-1.981379881029166,-0.7797432747965171,-3.14,2.5759124880933277
297,0.9070943586537527,0.23202579056168138,0.8748972751092134,2.2285922731046988,1.227654816371315,1.5194762120429217,2.050916033141486,1.0,0.39434033038442,1.1144547643824825,-1.9814113723096498,-0.780000328883025,-3.14,2.57570971272092
298,0.9071635723596079,0.2320841202124042,0.8749522847555946,2.2285482290860847,1.2276049868716863,1.5194665224103254,2.050897639789192,1.0,0.3945359653661418,1.1144162294715905,-1.9814428943054316,-0.7802575208392051,-3.14,2.5755068016806004
299,0.9072328486981434,0.2321425209080406,0.8750073366367634,2.2285041396308745,1.2275550962151585,1.519456824290149,2.0508791828584774,1.0,0.3947317076422077,1.1143776389386897,-1.9814744470432049,-0.7805148507689061,-3.14,2.5753037548188886
300,0.907302187743572,0.23220099275225695,0.8750624307909345,2.228460004668903,1.2275051443144704,1.5194471176800628,2.0508606622064294,1.0,0.3949275572869737,1.1143389926729326,-1.9815060305496437,-0.78077231877606,-3.14,2.5751005719820736
301,0.9073715895702393,0.23225953584887923,0.875117567256384,2.228415824129876,1.227455131082236,1.5194374025777644,2.050842077689817,1.0,0.3951235143748446,1.1143002905632193,-1.9815376448514046,-0.781029924964682,-3.14,2.5748972530162133
302,0.9074410542526284,0.2323181503018951,0.8751727460714557,2.228371597943365,1.2274050564309429,1.5194276789809766,2.05082342916509,1.0,0.39531957898027337,1.114261532498198,-1.9815692899751245,-0.7812876694388707,-3.14,2.574693797767133
303,0.907510581865358,0.23237683621545213,0.8752279672745579,2.2283273260388152,1.2273549202729501,1.5194179468874522,2.050804716488379,1.0,0.39551575117776294,1.1142227183662612,-1.9816009659474205,-0.7815455523028086,-3.14,2.5744902060804282
304,0.9075801724831832,0.23243559369386046,0.8752832309041648,2.2282830083455343,1.2273047225204918,1.5194082062949696,2.0507859395154937,1.0,0.39571203104186387,1.114183848055549,-1.9816326727948912,-0.7818035736607613,-3.14,2.5742864778014605
305,0.9076498261809955,0.2324944228415911,0.8753385369988153,2.2282386447927,1.2272544630856743,1.5193984572013357,2.050767098101922,1.0,0.3959084186471758,1.1141449214539463,-1.9816644105441148,-0.7820617336170779,-3.14,2.5740826127753604
306,0.9077195430338248,0.23255332376327698,0.8753938855971155,2.2281942353093576,1.2272041418804776,1.5193886996043837,2.0507481921028305,1.0,0.3961049140683476,1.1141059384490823,-1.9816961792216499,-0.7823200322761913,-3.14,2.5738786108470246
307,0.9077893231168371,0.23261229656371255,0.8754492767377365,2.2281497798244194,1.227153758816754,1.5193789335019763,2.050729221373063,1.0,0.39630151738007696,1.1140668989283304,-1.9817279788540343,-0.7825784697426179,-3.14,2.5736744718611178
308,0.9078591665053367,0.2326713413478546,0.8755047104594165,2.2281052782666646,1.22710331380623,1.5193691588920024,2.05071018576714,1.0,0.39649822865710954,1.114027802778808,-1.9817598094677862,-0.7828370461209573,-3.14,2.5734701956620696
309,0.907929073274768,0.23273045822082356,0.8755601868009614,2.228060730564739,1.2270528067605015,1.5193593757723802,2.0506910851392575,1.0,0.3966950479742415,1.113988649887374,-1.981791671089402,-0.7830957615158931,-3.14,2.573265782094077
310,0.9079990435007124,0.23278964728790055,0.8756157058012425,2.228016136647153,1.2270022375910412,1.5193495841410563,2.050671919343287,1.0,0.3968919754063177,1.113949440140631,-1.981823563745357,-0.7833546160321925,-3.14,2.5730612310011036
311,0.9080690772588917,0.23284890865453003,0.8756712674991998,2.2279714964422865,1.2269516062091914,1.5193397839960048,2.0506526882327756,1.0,0.3970890110282322,1.1139101734249222,-1.9818554874621057,-0.7836136097747062,-3.14,2.5728565422268765
312,0.9081391746251666,0.23290824242632033,0.8757268719338407,2.2279268098783827,1.2269009125261667,1.5193299753352294,2.050633391660943,1.0,0.39728615491492786,1.1138708496263328,-1.9818874422660804,-0.7838727428483685,-3.14,2.572651715614889
313,0.9082093356755399,0.2329676487090407,0.8757825191442409,2.227882076883553,1.2268501564530567,1.5193201581567608,2.0506140294806836,1.0,0.3974834071413979,1.1138314686306883,-1.9819194281836918,-0.7841320153581978,-3.14,2.5724467510083997
314,0.908279560486153,0.23302712760862584,0.8758382091695447,2.2278372973857703,1.22679933790082,1.5193103324586616,2.0505946015445624,1.0,0.39768076778268424,1.1137920303235531,-1.9819514452413274,-0.7843914274092959,-3.14,2.5722416482504307
315,0.9083498491332882,0.23308667923117424,0.875893942048963,2.2277924713128754,1.2267484567802873,1.5193004982390208,2.0505751077048173,1.0,0.3978782369138785,1.1137525345902315,-1.9819834934653533,-0.7846509791068487,-3.14,2.572036407183769
316,0.9084202016933708,0.23314630368294656,0.8759497178217772,2.227747598592574,1.2266975130021633,1.5192906554959567,2.050555547813358,1.0,0.3980758146101215,1.1137129813157667,-1.9820155728821127,-0.7849106705561252,-3.14,2.5718310276509655
317,0.9084906182429673,0.23320600107036876,0.8760055365273383,2.227702679152434,1.226646506477023,1.5192808042276182,2.0505359217217634,1.0,0.3982735009466051,1.1136733703849397,-1.982047683517925,-0.785170501862479,-3.14,2.5716255094943343
318,0.908561098858787,0.2332657715000289,0.8760613982050662,2.2276577129198913,1.2265954371153136,1.5192709444321837,2.050516229281283,1.0,0.39847129599856945,1.1136337016822688,-1.9820798253990863,-0.7854304731313472,-3.14,2.571419852555952
319,0.9086316436176801,0.23332561507868316,0.8761173028944497,2.227612699822241,1.2265443048273528,1.5192610761078595,2.050496470342834,1.0,0.39866919984130467,1.1135939750920092,-1.9821119985518698,-0.7856905844682505,-3.14,2.5712140566776593
320,0.9087022525966425,0.2333855319132488,0.8761732506350491,2.227567639786646,1.2264931095233311,1.5192511992528837,2.0504766447570035,1.0,0.3988672125501519,1.1135541904981523,-1.9821442030025236,-0.785950835978794,-3.14,2.5710081217010585
321,0.9087729258728114,0.2334455221108099,0.8762292414664941,2.2275225327401307,1.2264418511133086,1.5192413138655234,2.050456752374046,1.0,0.39906533420050067,1.1135143477844247,-1.9821764387772725,-0.7862112277686661,-3.14,2.570802047467514
322,0.9088436635234709,0.23350558577861344,0.8762852754284853,2.227477378609585,1.2263905295072184,1.5192314199440764,2.050436793043882,1.0,0.3992635648677922,1.113474446834289,-1.9822087059023155,-0.7864717599436398,-3.14,2.5705958338181523
323,0.9089144656260477,0.23356572302407486,0.876341352560795,2.2274321773217576,1.2263391446148633,1.5192215174868693,2.050416766616099,1.0,0.39946190462751663,1.1134344875309417,-1.9822410044038283,-0.7867324326095716,-3.14,2.570389480593861
324,0.9089853322581127,0.2336259339547715,0.876397472903266,2.2273869288032633,1.2262876963459184,1.5192116064922612,2.050396672939949,1.0,0.3996603535552154,1.1133944697573122,-1.9822733343079604,-0.7869932458724022,-3.14,2.5701829876352895
325,0.909056263497384,0.23368621867844913,0.8764536364958122,2.2273416329805777,1.2262361846099274,1.5192016869586407,2.0503765118643504,1.0,0.39985891172647864,1.113354393396064,-1.9823056956408358,-0.787254199838156,-3.14,2.569976354782847
326,0.9091272594217253,0.23374657730301746,0.8765098433784213,2.2272962897800395,1.2261846093163074,1.519191758884427,2.0503562832378845,1.0,0.40005757921694846,1.1133142583295932,-1.9823380884285533,-0.7875152946129418,-3.14,2.5697695818767037
327,0.9091983201091454,0.23380700993655357,0.8765660935911512,2.227250899127849,1.2261329703743435,1.5191818222680704,2.0503359869087965,1.0,0.40025635610231663,1.1132740644400272,-1.9823705126971856,-0.7877765303029522,-3.14,2.56956266875679
328,0.9092694456378011,0.23386751668729924,0.876622387174133,2.227205460950068,1.2260812676931931,1.5191718771080531,2.0503156227249937,1.0,0.4004552424583259,1.1132338116092249,-1.9824029684727786,-0.7880379070144642,-3.14,2.5693556152627948
329,0.9093406360859959,0.23392809766366482,0.8766787241675715,2.227159975172619,1.2260295011818834,1.5191619234028866,2.0502951905340456,1.0,0.4006542383607695,1.113193499718776,-1.9824354557813517,-0.7882994248538384,-3.14,2.569148421234168
330,0.9094118915321818,0.2339887529742236,0.8767351046117445,2.227114441721287,1.2259776707493126,1.519151961151117,2.0502746901831834,1.0,0.4008533438854914,1.1131531286500005,-1.9824679746488967,-0.78856108392752,-3.14,2.5689410865101183
331,0.9094832120549576,0.23404948272772103,0.8767915285470016,2.2270688605217166,1.2259257763042464,1.5191419903513181,2.0502541215192984,1.0,0.4010525591083861,1.1131126982839468,-1.9825005251013796,-0.7888228843420381,-3.14,2.568733610929612
332,0.9095545977330716,0.23411028703306427,0.8768479960137687,2.227023231499412,1.225873817755325,1.519132011002099,2.050233484388941,1.0,0.40125188410539936,1.113072208501393,-1.9825331071647374,-0.789084826204006,-3.14,2.5685259943313747
333,0.9096260486454208,0.23417116599933135,0.8769045070525441,2.2269775545797406,1.2258217950110541,1.519122023102098,2.050212778638322,1.0,0.4014513189525278,1.1130316591828455,-1.98256572086488,-0.7893469096201212,-3.14,2.56831823655389
334,0.9096975648710514,0.23423211973576688,0.8769610617039006,2.226931829687927,1.225769707979811,1.5191120266499871,2.0501920041133097,1.0,0.40165086372581904,1.1129910502085372,-1.9825983662276887,-0.7896091346971655,-3.14,2.568110337435398
335,0.9097691464891605,0.23429314835178106,0.877017660008487,2.226886056749057,1.2257175565698444,1.5191020216444704,2.0501711606594304,1.0,0.40185051850137243,1.1129503814584287,-1.9826310432790162,-0.789871501542005,-3.14,2.567902296813898
336,0.909840793579095,0.23435425195695506,0.8770743020070261,2.2268402356880745,1.22566534068927,1.5190920080842831,2.0501502481218665,1.0,0.40205028335533777,1.1129096528122069,-1.9826637520446868,-0.7901340102615899,-3.14,2.567694114527145
337,0.9099125062203535,0.23441543066103643,0.8771309877403168,2.226794366429783,1.2256130602460742,1.5190819859681945,2.0501292663454573,1.0,0.40225015836391637,1.1128688641492839,-1.982696492550495,-0.7903966609629547,-3.14,2.567485790412651
338,0.9099842844925845,0.2344766845739411,0.8771877172492331,2.2267484488988467,1.2255607151481118,1.519071955295006,2.0501082151746983,1.0,0.4024501436033616,1.1128280153487968,-1.9827292648222068,-0.7906594537532183,-3.14,2.567277324307684
339,0.9100561284755898,0.23453801380575284,0.8772444905747269,2.226702483019786,1.225508305303109,1.5190619160635523,2.0500870944537386,1.0,0.4026502391499783,1.1127871062896078,-1.982762068885557,-0.7909223887395841,-3.14,2.5670687160492687
340,0.9101280382493228,0.23459941846672605,0.8773013077578232,2.2266564687169796,1.2254558306186587,1.5190518682727006,2.050065904026381,1.0,0.4028504450801219,1.1127461368503018,-1.9827949047662516,-0.7911854660293394,-3.14,2.5668599654741846
341,0.91020001389389,0.23466089866728257,0.877358168839627,2.2266104059146667,1.225403291002224,1.5190418119213507,2.050044643736083,1.0,0.4030507614702006,1.1127051069091876,-1.982827772489966,-0.7914486857298563,-3.14,2.566651072418967
342,0.9102720554895519,0.2347224545180121,0.8774150738613192,2.2265642945369413,1.2253506863611383,1.519031747008438,2.050023313425953,1.0,0.4032511883966746,1.1126640163442965,-1.9828606720823434,-0.7917120479485912,-3.14,2.566442036719906
343,0.9103441631167214,0.23478408612967616,0.8774720228641585,2.2265181345077565,1.225298016602601,1.51902167353293,2.050001912938753,1.0,0.40345172593605494,1.1126228650333807,-1.9828936035689972,-0.7919755527930848,-3.14,2.5662328582130467
344,0.9104163368559656,0.23484579361320412,0.8775290158894804,2.226471925750924,1.2252452816336818,1.5190115914938278,2.0499804421168952,1.0,0.4036523741649055,1.1125816528539147,-1.98292656697551,-0.7922392003709624,-3.14,2.5660235367341873
345,0.9104885767880083,0.23490757707969548,0.8775860529786995,2.2264256681901093,1.2251924813613195,1.5190015008901667,2.0499589008024413,1.0,0.40385313315984267,1.1125403796830928,-1.9829595623274312,-0.7925029907899339,-3.14,2.5658140721188807
346,0.9105608829937275,0.23496943664041975,0.8776431341733096,2.2263793617488346,1.225139615692321,1.5189914017210169,2.049937288837103,1.0,0.4040540029975336,1.1124990453978294,-1.9829925896502782,-0.7927669241577934,-3.14,2.5656044642024334
347,0.9106332555541559,0.23503137240681568,0.8777002595148818,2.2263330063504823,1.225086684533361,1.518981293985482,2.049915606062243,1.0,0.4042549837546998,1.1124576498747583,-1.983025648969537,-0.7930310005824199,-3.14,2.5653947128199053
348,0.9107056945504829,0.23509338449049338,0.8777574290450669,2.226286601918287,1.2250336877909833,1.5189711776827002,2.0498938523188692,1.0,0.40445607550811313,1.1124161929902316,-1.9830587403106605,-0.7932952201717764,-3.14,2.565184817806108
349,0.9107782000640565,0.23515547300323367,0.8778146428055962,2.226240148375341,1.224980625371599,1.5189610528118438,2.049872027447638,1.0,0.4046572783345997,1.1123746746203196,-1.983091863699068,-0.7935595830339112,-3.14,2.5649747789956074
350,0.9108507721763792,0.23521763805698645,0.8778719008382799,2.226193645644591,1.2249274971814883,1.5189509193721216,2.0498501312888533,1.0,0.40485859231103716,1.1123330946408096,-1.9831250191601457,-0.7938240892769565,-3.14,2.56476459622272
351,0.9109234109691131,0.23527987976387357,0.8779292031850082,2.226147093648841,1.224874303126799,1.5189407773627754,2.0498281636824642,1.0,0.4050600175143565,1.1122914529272063,-1.9831582067192466,-0.7940887390091296,-3.14,2.564554269321515
352,0.9109961165240777,0.23534219823618818,0.8779865498877535,2.226100492310746,1.2248210431135464,1.5189306267830842,2.0498061244680645,1.0,0.4052615540215413,1.1122497493547296,-1.9831914264016883,-0.7943535323387322,-3.14,2.5643437981258135
353,0.911068888923251,0.2354045935863939,0.8780439409885671,2.226053841552821,1.2247677170476146,1.51892046763236,2.049784013484894,1.0,0.40546320190962815,1.1122079837983152,-1.9832246782327556,-0.7946184693741507,-3.14,2.5641331824691864
354,0.911141728248771,0.23546706592712607,0.878101376529584,2.2260071412974316,1.2247143248347545,1.5189102999099522,2.049761830571834,1.0,0.40566496125570656,1.112166156132613,-1.9832579622376971,-0.7948835502238563,-3.14,2.563922422184956
355,0.9112146345829351,0.23552961537119263,0.8781588565530182,2.2259603914667974,1.2246608663805845,1.5189001236152455,2.0497395755674104,1.0,0.4058668321369197,1.1121242662319875,-1.983291278441727,-0.7951487749964048,-3.14,2.563711517106196
356,0.9112876080081999,0.23559224203157303,0.878216381101168,2.2259135919829935,1.2246073415905907,1.518889938747659,2.049717248309791,1.0,0.4060688146304635,1.1120823139705165,-1.9833246268700244,-0.7954141438004367,-3.14,2.563500467065729
357,0.9113606486071849,0.23565494602141696,0.8782739502164143,2.225866742767949,1.2245537503701278,1.5188797453066503,2.0496948486367854,1.0,0.40627090881358774,1.1120402992219904,-1.9833580075477313,-0.7956796567446774,-3.14,2.563289271896128
358,0.9114337564626688,0.23571772745404856,0.8783315639412195,2.225819843743445,1.2245000926244154,1.5188695432917119,2.0496723763858427,1.0,0.40647311476359554,1.1119982218599116,-1.9833914204999543,-0.7959453139379371,-3.14,2.5630779314297154
359,0.9115069316575936,0.23578058644296424,0.8783892223181287,2.2257728948311137,1.2244463682585423,1.5188593327023727,2.0496498313940523,1.0,0.40667543255784344,1.1119560817574938,-1.9834248657517637,-0.7962111154891105,-3.14,2.562866445498562
360,0.9115801742750621,0.23584352310183213,0.8784469253897718,2.225725895952445,1.224392577177463,1.5188491135381983,2.049627213498144,1.0,0.4068778622737416,1.1119138787876621,-1.983458343328193,-0.7964770615071773,-3.14,2.5626548139344885
361,0.9116534843983414,0.23590653754449467,0.8785046731988629,2.225678847028775,1.224338719286,1.5188388857987911,2.049604522534485,1.0,0.4070804039887551,1.1118716128230508,-1.983491853254238,-0.7967431521012024,-3.14,2.5624430365690634
362,0.9117268621108603,0.23596962988496495,0.8785624657881993,2.2256317479812986,1.2242847944888429,1.5188286494837901,2.0495817583390803,1.0,0.4072830577804016,1.1118292837360046,-1.9835253955548575,-0.7970093873803349,-3.14,2.5622311132336026
363,0.9118003074962132,0.23603280023743253,0.8786203032006642,2.2255845987310563,1.2242308026905464,1.5188184045928723,2.049558920747572,1.0,0.40748582372625397,1.1117868913985762,-1.9835589702549716,-0.7972757674538092,-3.14,2.562019043759171
364,0.9118738206381578,0.2360960487162573,0.8786781854792256,2.2255373991989438,1.2241767437955338,1.5188081511257525,2.0495360095952386,1.0,0.40768870190393847,1.1117444356825266,-1.983592577379462,-0.7975422924309447,-3.14,2.5618068279765804
365,0.9119474016206164,0.23615937543597587,0.8787361126669355,2.2254901493057075,1.224122617708093,1.5187978890821805,2.0495130247169935,1.0,0.40789169239113593,1.111701916459324,-1.9836262169531735,-0.7978089624211453,-3.14,2.561594465716389
366,0.9120210505276781,0.23622278051129617,0.8787940848069334,2.2254428489719436,1.224068424332381,1.5187876184619464,2.049489965947385,1.0,0.4080947952655819,1.1116593336001446,-1.9836598890009098,-0.7980757775339002,-3.14,2.5613819568089022
367,0.9120947674435974,0.23628626405710154,0.8788521019424456,2.2253954981181,1.2240141635724193,1.5187773392648767,2.049466833120596,1.0,0.40829801060506676,1.1116166869758688,-1.9836935935474358,-0.7983427378787838,-3.14,2.5611693010841723
368,0.9121685524527938,0.2363498261884491,0.878910164116783,2.225348096664475,1.2239598353320953,1.5187670514908378,2.049443626070442,1.0,0.408501338487435,1.1115739764570833,-1.983727330617477,-0.7986098435654552,-3.14,2.5609564983719966
369,0.9122424056398558,0.23641346702057045,0.8789682713733449,2.2253006445312176,1.2239054395151645,1.5187567551397316,2.0494203446303705,1.0,0.40870477899058594,1.1115312019140802,-1.9837611002357192,-0.7988770947036583,-3.14,2.5607435485019185
370,0.9123163270895387,0.23647718666887352,0.8790264237556163,2.2252531416383237,1.2238509760252456,1.5187464502115011,2.0493969886334606,1.0,0.40890833219247363,1.1114883632168542,-1.983794902426807,-0.7991444914032222,-3.14,2.5605304513032263
371,0.9123903168867658,0.23654098524893807,0.8790846213071736,2.225205587905642,1.2237964447658276,1.5187361367061258,2.0493735579124235,1.0,0.4091119981711085,1.1114454602351052,-1.983828737215344,-0.7994120337740614,-3.14,2.560317206604954
372,0.9124643751166289,0.23660486287652135,0.8791428640716777,2.225157983252869,1.223741845640261,1.518725814623626,2.0493500522995998,1.0,0.4093157770045549,1.1114024928382342,-1.9838626046258934,-0.7996797219261754,-3.14,2.56010381423588
373,0.9125385018643896,0.23666881966755535,0.8792011520928801,2.2251103275995496,1.2236871785517642,1.51871548396406,2.049326471626958,1.0,0.40951966877093243,1.1113594608953452,-1.983896504682976,-0.7999475559696483,-3.14,2.5598902740245264
374,0.9126126972154794,0.2367328557381464,0.8792594854146216,2.225062620865078,1.2236324434034231,1.5187051447275246,2.0493028157260977,1.0,0.4097236735484174,1.1113163642752435,-1.983930437411071,-0.8002155360146499,-3.14,2.55967658579916
375,0.9126869612554994,0.23679697120457877,0.8793178640808306,2.2250148629686963,1.2235776400981846,1.518694796914158,2.049279084428245,1.0,0.40992779141524066,1.1112732028464343,-1.9839644028346153,-0.8004836621714351,-3.14,2.559462749387791
376,0.9127612940702214,0.23686116618331018,0.8793762881355268,2.2249670538294977,1.2235227685388648,1.5186844405241358,2.049255277564254,1.0,0.4101320224496893,1.1112299764771236,-1.983998400978003,-0.8007519345503437,-3.14,2.559248764618172
377,0.9128356957455893,0.23692544079097508,0.8794347576228201,2.2249191933664174,1.2234678286281448,1.5186740755576762,2.0492313949646017,1.0,0.41033636673010576,1.1111866850352161,-1.9840324318655842,-0.8010203532618008,-3.14,2.5590346313178
378,0.9129101663677194,0.23698979514438637,0.8794932725869105,2.224871281498241,1.2234128202685701,1.5186637020150338,2.0492074364593944,1.0,0.41054082433488887,1.111143328388316,-1.9840664955216676,-0.8012889184163168,-3.14,2.5588203493139132
379,0.9129847060228979,0.2370542293605306,0.8795518330720894,2.2248233181436032,1.2233577433625513,1.518653319896506,2.0491834018783623,1.0,0.4107453953424933,1.1110999064037248,-1.9841005919705161,-0.8015576301244872,-3.14,2.558605918433493
380,0.9130593147975877,0.23711874355657184,0.8796104391227398,2.2247753032209827,1.223302597812365,1.5186429292024308,2.0491592910508585,1.0,0.4109500798314307,1.111056418948441,-1.9841347212363492,-0.8018264884969932,-3.14,2.5583913385032617
381,0.913133992778423,0.23718333784985138,0.8796690907833361,2.2247272366487056,1.223247383520154,1.518632529933184,2.04913510380586,1.0,0.4111548778802678,1.1110128658891611,-1.9841688833433417,-0.8020954936446005,-3.14,2.5581766093496836
382,0.913208740052213,0.23724801235788726,0.879727788098446,2.2246791183449455,1.2231921003879227,1.518622122089186,2.049110839971966,1.0,0.4113597895676298,1.1109692470922752,-1.9842030783156221,-0.8023646456781611,-3.14,2.557961730798965
383,0.9132835567059417,0.2373127671983759,0.8797865311127286,2.2246309482277193,1.2231367483175426,1.5186117056708952,2.0490864993773967,1.0,0.4115648149721966,1.11092556242387,-1.9842373061772758,-0.8026339447086115,-3.14,2.5577467026770515
384,0.9133584428267678,0.23737760248918932,0.8798453198709377,2.224582726214891,1.2230813272107506,1.518601280678813,2.049062081849994,1.0,0.4117699541727065,1.1108818117497272,-1.9842715669523405,-0.8029033908469742,-3.14,2.5575315248096304
385,0.9134333985020271,0.23744251834837835,0.8799041544179199,2.2245344522241712,1.2230258369691471,1.5185908471134806,2.0490375872172195,1.0,0.41197520724795367,1.1108379949353213,-1.9843058606648085,-0.8031729842043563,-3.14,2.5573161970221285
386,0.9135084238192308,0.2375075148941712,0.8799630347986153,2.224486126173115,1.2229702774941973,1.518580404975482,2.0490130153061545,1.0,0.4121805742767904,1.11079411184582,-1.9843401873386253,-0.8034427248919512,-3.14,2.557100719139713
387,0.9135835188660677,0.23757259224497487,0.8800219610580591,2.22443774797912,1.2229146486872309,1.518569954265443,2.0489883659434978,1.0,0.4123860553381254,1.1107501623460836,-1.9843745469976892,-0.803712613021037,-3.14,2.5568850909872896
388,0.9136586837304044,0.23763775051937405,0.8800809332413823,2.2243893175594307,1.2228589504494425,1.5185594949840302,2.0489636389555668,1.0,0.412591650510925,1.1107061463006644,-1.9844089396658513,-0.8039826487029776,-3.14,2.556669312389504
389,0.9137339185002851,0.2377029898361314,0.8801399513938089,2.2243408348311347,1.2228031826818913,1.518549027131954,2.048938834168295,1.0,0.41279735987421345,1.1106620635738054,-1.984443365366915,-0.8042528320492224,-3.14,2.5564533831707403
390,0.9138092232639335,0.23776831031418877,0.8801990155606614,2.2242922997111645,1.2227473452854998,1.518538550709966,2.0489139514072328,1.0,0.4130031835070719,1.1106179140294397,-1.9844778241246348,-0.8045231631713058,-3.14,2.556237303155121
391,0.9138845981097525,0.23783371207266732,0.880258125787357,2.2242437121162943,1.2226914381610559,1.5185280657188602,2.048888990497546,1.0,0.4132091214886404,1.110573697531191,-1.9845123159627176,-0.8047936421808485,-3.14,2.556021072166507
392,0.9139600431263251,0.23789919523086656,0.8803172821194093,2.2241950719631447,1.2226354612092087,1.5185175721594755,2.048863951264014,1.0,0.4134151738981168,1.11052941394237,-1.9845468409048201,-0.8050642691895562,-3.14,2.5558046900284968
393,0.9140355584024158,0.23796475990826507,0.8803764846024301,2.224146379168175,1.2225794143304762,1.518507070032691,2.048838833531031,1.0,0.4136213408147567,1.110485063125978,-1.9845813989745504,-0.8053350443092202,-3.14,2.555588156564426
394,0.914111144026967,0.23803040622452093,0.8804357332821284,2.2240976336476908,1.2225232974252362,1.5184965593394315,2.048813637122603,1.0,0.413827622317874,1.1104406449447017,-1.9846159901954665,-0.8056059676517174,-3.14,2.555371471597368
395,0.9141868000891076,0.23809613429947277,0.8804950282043095,2.2240488353178383,1.2224671103937323,1.5184860400806626,2.0487883618623495,1.0,0.4140340184868414,1.110396159260916,-1.9846506145910765,-0.8058770393290104,-3.14,2.5551546349501315
396,0.9142625266781449,0.23816194425313783,0.8805543694148807,2.2239999840946063,1.222410853136071,1.518475512257396,2.0487630075735006,1.0,0.41424052940109046,1.1103516059366811,-1.9846852721848371,-0.8061482594531475,-3.14,2.5549376464452633
397,0.9143383238835714,0.23822783620571375,0.8806137569598451,2.2239510798938245,1.2223545255522232,1.5184649758706863,2.048737574078897,1.0,0.4144471551401109,1.1103069848337432,-1.984719963000154,-0.8064196281362622,-3.14,2.5547205059050455
398,0.9144141917950627,0.23829381027757876,0.8806731908853065,2.2239021226311655,1.2222981275420233,1.5184544309216308,2.0487120612009893,1.0,0.41465389578345196,1.1102622958135324,-1.984754687060382,-0.8066911454905742,-3.14,2.5545032131514955
399,0.9144901305024792,0.2383598665892914,0.8807326712374689,2.2238531122221414,1.2222416590051675,1.5184438774113742,2.0486864687618365,1.0,0.41486075141072176,1.110217538737163,-1.984789444388823,-0.8069628116283885,-3.14,2.554285768006366
400,0.9145661400958643,0.2384260052615898,0.8807921980626353,2.2238040485821067,1.2221851198412188,1.5184333153411023,2.048660796583107,1.0,0.41506772210158754,1.1101727134654331,-1.9848242350087277,-0.8072346266620959,-3.14,2.554068170291146
401,0.9146422206654488,0.2384922264153947,0.8808517714072103,2.2237549316262553,1.2221285099496,1.5184227447120475,2.0486350444860757,1.0,0.4152748079357764,1.1101278198588225,-1.9848590589432928,-0.8075065907041731,-3.14,2.5538504198270577
402,0.9147183723016489,0.23855853017180553,0.8809113913177007,2.2237057612696214,1.2220718292296004,1.518412165525487,2.048609212291624,1.0,0.41548200899307536,1.1100828577774935,-1.9848939162156627,-0.8077787038671823,-3.14,2.553632516435058
403,0.9147945950950668,0.23862491665210497,0.8809710578407126,2.2236565374270802,1.2220150775803695,1.5184015777827424,2.0485832998202405,1.0,0.41568932535333003,1.110037827081289,-1.9849288068489277,-0.8080509662637716,-3.14,2.5534144599358384
404,0.9148708891364936,0.2386913859777556,0.8810307710229575,2.223607260013344,1.221958254900923,1.5183909814851815,2.0485573068920164,1.0,0.41589675709644663,1.1099927276297328,-1.984963730866124,-0.8083233780066749,-3.14,2.553196250149823
405,0.914947254516906,0.23875793827040268,0.8810905309112463,2.2235579289429683,1.221901361090136,1.5183803766342165,2.048531233326649,1.0,0.416104304302392,1.1099475592820278,-1.984998688290234,-0.8085959392087119,-3.14,2.55297788689717
406,0.9150236913274716,0.2388245736518722,0.8811503375524954,2.223508544130344,1.2218443960467504,1.5183697632313056,2.0485050789434385,1.0,0.41631196705119294,1.109902321897056,-1.9850336791441838,-0.8088686499827882,-3.14,2.552759369997771
407,0.9151001996595458,0.2388912922441732,0.881210190993723,2.2234591054897015,1.2217873596693676,1.518359141277955,2.048478843561287,1.0,0.41651974542293657,1.1098570153333773,-1.9850687034508452,-0.8091415104418951,-3.14,2.552540699271249
408,0.9151767796046741,0.23895809416949562,0.8812700912820536,2.223409612935111,1.2217302518564546,1.5183485107757135,2.0484525269986986,1.0,0.41672763949777036,1.1098116394492301,-1.9851037612330342,-0.8094145206991097,-3.14,2.5523218745369594
409,0.9152534312545928,0.23902497955021282,0.8813300384647136,2.2233600663804793,1.2216730725063387,1.5183378717261793,2.048426129073779,1.0,0.41693564935590344,1.1097661941025285,-1.9851388525135099,-0.8096876808675952,-3.14,2.55210289561399
410,0.9153301547012294,0.23909194850888005,0.8813900325890381,2.223310465739551,1.221615821517212,1.5183272241309957,2.048399649604233,1.0,0.4171437750776058,1.109720679150863,-1.985173977314975,-0.809960991060601,-3.14,2.551883762321161
