jkpark150901/flame_robotics_drt/experiment/inspection_ik/session_20260722_143013/collision/inspection_ik_20260722_143101_dda_rb10_1300e_normalized_fallback_collision.csv
iteration,err_norm,position_error,orientation_error,tcp_x,tcp_y,tcp_z,q0_dda_joint_linear_track,q1_dda_joint_carriage,q2_dda_joint_base,q3_dda_joint_shoulder,q4_dda_joint_elbow,q5_dda_joint_wrist1,q6_dda_joint_wrist2,q7_dda_joint_wrist3
0,2.1006818001130356,0.13430217003637512,2.094395109373865,3.132462362884875,1.929746775119737,1.6549128833184836,2.1175903063458876,-1.0,0.712682454865595,-0.9418909057136604,-0.6032321494584619,-1.5964695891914318,2.2834787866631303,-1.570796320644386
1,1.3697197112741986,0.22364981589155092,1.348325446991178,3.1253411140997343,2.0346874915614217,1.7537494884342335,2.3491558850890555,-1.0,0.5768582382195727,-0.6808464421983405,-0.8419746990471415,-2.587546586489492,2.147657585786332,-2.2042290552507544
2,0.9072956043090574,0.23047622953028205,0.875524938970892,3.125746707191999,2.0275885473030066,1.8068972329596584,2.4688249401883,-1.0,0.40588651415117694,-0.6272935005199768,-0.847107817994096,-2.9720708564207747,1.7583431185733387,-2.1768850198708534
3,0.6719749767212511,0.202204571152118,0.6397225117476766,3.12186816299287,1.9959122789755468,1.80844450827451,2.520398157871634,-1.0,0.30528658823639193,-0.6636506696924268,-0.8083297875795319,-3.14,1.5707718275466351,-2.0444226029330137
4,0.6131648428761566,0.15233177196455974,0.5933690722591538,3.124619175492146,1.9542761610074877,1.7794789143908787,2.5555389648216593,-1.0,0.2445766998952038,-0.712770372757887,-0.781332648157474,-3.14,1.4919072169923535,-1.9297782719173109
5,0.5801277786521263,0.1160755711569018,0.5680841468193226,3.128971327901551,1.924942144247624,1.754005490831308,2.5881365336194317,-1.0,0.20104671417457715,-0.7502334128007037,-0.7667143641621122,-3.14,1.4591306715314893,-1.8411019419707166
6,0.5587398984239802,0.0914664477599793,0.5510166539834245,3.132547797797932,1.9041612670628938,1.7334793164657105,2.6175117243510995,-1.0,0.1669866840684633,-0.7770652115876675,-0.760101819627318,-3.14,1.451721926338979,-1.7731586474244843
7,0.5428871757147636,0.0759598467337234,0.5374225715743459,3.134807814516337,1.8892106603237246,1.7176005147001119,2.644066202911607,-1.0,0.13817562029480762,-0.795499274064126,-0.7587945309963865,-3.14,1.4574103842088129,-1.7210545285124192
8,0.530060544902906,0.06704098296284836,0.5257089814240347,3.135922363136145,1.8783200016089108,1.7055897978256855,2.6683110128404706,-1.0,0.11252938105181416,-0.8076626669443905,-0.760959200052702,-3.14,1.4692802752404328,-1.6806320984070917
9,0.5192211042457229,0.0624414952445988,0.5153714920469836,3.1362285167218276,1.8703383686031583,1.696632658299997,2.6906366648480593,-1.0,0.08905758753863312,-0.8152727315456393,-0.7653179215913092,-3.14,1.4835701764329534,-1.648648660579413
10,0.5098951401755161,0.06037704245805337,0.5062324093018058,3.136029397264565,1.864489367269078,1.6900195382303331,2.7113111355225676,-1.0,0.06728628131904878,-0.819639452836413,-0.7709748298199229,-3.14,1.498316840883806,-1.6227076866530479
11,0.5018193306116097,0.05965276420929386,0.498187968967338,3.1355456975544698,1.8602269714458342,1.6851762273620026,2.730518538996177,-1.0,0.04697513002111199,-0.8217382946590386,-0.7773029683259886,-3.14,1.5125591663455118,-1.601097597858229
12,0.49481052817323234,0.05957068189025425,0.4911390420949893,3.134921663617246,1.857154117611989,1.6816552851563316,2.7483925008572427,-1.0,0.027986267570319138,-0.8222861982251881,-0.7838672702724352,-3.14,1.5258804714716039,-1.5826232058216438
13,0.48872128522731445,0.05976212752026374,0.48498112182536707,3.13424485216596,1.8549754660633837,1.6791155290073416,2.765037950547116,-1.0,0.010225444480584382,-0.8218050405831158,-0.7903709807749307,-3.14,1.5381491571222328,-1.56646214342736
14,0.4834257385143242,0.06004734800693704,0.4796093217763607,3.13356506872309,1.853468354278961,1.6773001698837136,2.780543679893684,-1.0,-0.00638343912847587,-0.8206711794698908,-0.7966175727476906,-3.14,1.5493743316973965,-1.5520534809308497
15,0.4788151098016663,0.06034589627138134,0.4749243597935533,3.132908633386739,1.8524637269923228,1.6760174701030037,2.7949889191347115,-1.0,-0.021908722956291378,-0.8191531435780633,-0.8024831483658255,-3.14,1.5596274282667593,-1.5390157834384233
16,0.47479569294993573,0.060626333964446555,0.4708362245020448,3.132287999853203,1.8518328692273096,1.675124961939901,2.808446460396805,-1.0,-0.03641478004799995,-0.8174399660828224,-0.8078961634117289,-3.14,1.5690012269744373,-1.52708887419908
17,0.47128722219840335,0.06087988104335405,0.4672655667750352,3.1317078196487382,1.8514777672378115,1.6745171096893754,2.8209839902513716,-1.0,-0.04996309913887219,-0.8156623510430582,-0.8128224184781708,-3.14,1.5775896937209488,-1.5160934518740843
18,0.46822119962580944,0.06110724966664484,0.46414359445432724,3.1311685840960113,1.8513239026993467,1.6741158958918485,2.8326646100862978,-1.0,-0.06261239057785749,-0.8139084267453607,-0.8172539213774791,-3.14,1.5854790975235913,-1.5059036098547618
19,0.46553922439643464,0.061312377188981575,0.4614111818459634,3.1306687243695506,1.851314775002941,1.6738637397287384,2.8435470628989004,-1.0,-0.0744184474503518,-0.8122354408770728,-0.8212006333300009,-3.14,1.5927449992954201,-1.4964284184048835
20,0.4631914319956735,0.06149964867716543,0.4590176725635388,3.13020577546224,1.8514077009762295,1.673718212668481,2.8536859063529514,-1.0,-0.08543403387755347,-0.8106784252506856,-0.8246843784583539,-3.14,1.5994521071338916,-1.4875997410396196
21,0.4611351140450711,0.06167282381022544,0.45691964912894123,3.129776992831817,1.8515705823169182,1.6736481122144156,2.863131719401826,-1.0,-0.09570887187960116,-0.8092566018856172,-0.8277343806193572,-3.14,1.6056553751224976,-1.4793642698122602
22,0.45933354341324123,0.06183475502406097,0.45507980328132225,3.1293796596743073,1.8517794157743523,1.6736305505153137,2.871931356072329,-1.0,-0.10528971970113432,-0.8079781069358609,-0.8303840245499794,-3.14,1.6114015052899242,-1.471678377362206
23,0.4577549982492863,0.06198744104853862,0.45346595804975803,3.129011225277039,1.8520163766923292,1.6736487967914344,2.8801282309352443,-1.0,-0.11422051133728696,-0.8068434620047783,-0.832668536631362,-3.14,1.6167304462625631,-1.4645048274679322
24,0.4563719626477922,0.06213219623838545,0.45205024843462327,3.128669354831733,1.8522683458038156,1.6736906780850112,2.8877626143471415,-1.0,-0.12254252677210171,-0.8058481127357833,-0.8346233543597271,-3.14,1.6216767156176808,-1.4578106983756216
25,0.45516047613371213,0.06226983618223147,0.45080844686162824,3.1283519353742255,1.8525257784325344,1.6737473931718039,2.894871918858715,-1.0,-0.1302945699099638,-0.8049842730750951,-0.8362830093932645,-3.14,1.6262704931405834,-1.4515660888220445
26,0.4540996045079908,0.062400839619213104,0.4497194120175667,3.1280570619006407,1.8527818377451297,1.6738126322921443,2.901490964428745,-1.0,-0.13751313966173803,-0.8042422531073278,-0.8376803913703718,-3.14,1.6305384897701125,-1.44574332321097
27,0.45317100770805446,0.06252547501288136,0.4487646388272426,3.1277830161207865,1.8530317312334335,1.6738819234501245,2.907652216087455,-1.0,-0.14423258662975205,-0.8036114034195522,-0.8388462918751177,-3.14,1.6345046210390624,-1.4403164707846068
28,0.4523585843728828,0.06264389261683237,0.44792788950478984,3.127528243966017,1.8532722033400313,1.6739521467661533,2.9133859922929544,-1.0,-0.1504852527323276,-0.8030807754899214,-0.8398091524216345,-3.14,1.638190520659538,-1.4352610590255266
29,0.45164817679912395,0.06275618754864029,0.44719488883426545,3.1272913345975857,1.8535011478836028,1.6740211736372048,2.9187206452459415,-1.0,-0.15630159412480582,-0.8026395726227563,-0.8405949589906353,-3.14,1.6416159285937155,-1.4305539046166047
30,0.45102732350240876,0.06286244041429219,0.44655307012481704,3.127071001935035,1.8537173123126804,1.674087598697993,2.923682716113156,-1.0,-0.16171028936323964,-0.8022774472601315,-0.8412272398758085,-3.14,1.6447989833061791,-1.4261730134571697
31,0.4504850495191618,0.06296274149173278,0.44599136121688765,3.12686606888562,1.8539200723106537,1.6741505408559822,2.9282970688182566,-1.0,-0.16673833537855173,-0.8019846864746578,-0.8417271344429631,-3.14,1.6477564423680295,-1.422097519505581
32,0.4500116869078569,0.06305720341421173,0.4455000023478962,3.126675454083074,1.8541092602892664,1.6742094957823068,2.9325870061287023,-1.0,-0.17141113385868786,-0.8017523169022748,-0.8421135086718834,-3.14,1.6505038503290441,-1.4183076439716666
33,0.4495987197075245,0.06314596616368995,0.4450703896184993,3.1264981608072393,1.8542850351643376,1.6742642267566852,2.9365743714676062,-1.0,-0.17575257034762345,-0.801572152432236,-0.8424030996481331,-3.14,1.6530556682551985,-1.4147846638708612
34,0.44923864897741406,0.0632291971846757,0.4446949392931612,3.126333267732418,1.8544477837639641,1.674314684109281,2.940279639401743,-1.0,-0.17978508794545894,-0.8014368019859163,-0.8426106759620523,-3.14,1.6554253756578141,-1.4115108836677421
35,0.44892487456513114,0.06330708861812796,0.44436696929902647,3.126179921178427,1.8545980464810192,1.674360945984454,2.9437219972257505,-1.0,-0.18352975704507338,-0.8013396502042218,-0.8427492046074323,-3.14,1.6576255526672943,-1.408469606661896
36,0.44865159101008095,0.06337985303112832,0.44408059513129583,3.1260373285823237,1.8547364615092727,1.6744031749963362,2.9469194195519957,-1.0,-0.18700634212952807,-0.8012748204644948,-0.8428300177220996,-3.14,1.6596679481144323,-1.4056451045461937
37,0.44841369554957317,0.06344771855524017,0.44383063799804084,3.125904752955726,1.8548637233215213,1.6744415867197653,2.949888737364001,-1.0,-0.19023336630901663,-0.8012371270909237,-0.8428629745831931,-3.14,1.661563537546878,-1.4030225846150293
38,0.44820670660784884,0.06351092401294743,0.44361254349752793,3.125781508135999,1.8549805520554554,1.6744764269841985,2.952645702613974,-1.0,-0.19322817400458925,-0.8012220217033378,-0.842856615819546,-3.14,1.663322574007381,-1.4005881546888888
39,0.4480266914531162,0.0635697143774094,0.44342230945953315,3.125666954677021,1.855087671243114,1.674507955702763,2.9552050491431094,-1.0,-0.19600699198451169,-0.8012255372133602,-0.8428183079541248,-3.14,1.6649546335314234,-1.3983287861263964
40,0.4478702019342479,0.06362433675064039,0.4432564218320829,3.1255604962564596,1.855185791909352,1.6745364355399242,2.9575805504705563,-1.0,-0.19858498881867948,-0.8012442319071146,-0.8427543772347204,-3.14,1.6664686567016318,-1.3962322754274987
41,0.4477342173791416,0.06367503693889061,0.4431117976810619,3.1254615765020146,1.855275601516995,1.6745621241487194,2.9597850748234933,-1.0,-0.2009763327256751,-0.8012751352610491,-0.8426702323234285,-3.14,1.667872987159771,-1.3942872049627169
42,0.44761609386698775,0.06372205663606095,0.4429857345105403,3.1253696761595737,1.8553577565840027,1.6745852690285448,2.961830637655798,-1.0,-0.20319424773463113,-0.8013156965543446,-0.842570475850762,-3.14,1.6691754076742251,-1.3924829033380257
43,0.44751351918842547,0.06376563118479195,0.44287586521963984,3.1252843105426757,1.855432878065854,1.6746061042943656,2.9637284518161695,-1.0,-0.20525106805996562,-0.8013637369163321,-0.8424590051415969,-3.14,1.6703831741541462,-1.3908094058505887
44,0.44742447288895565,0.06380598786200971,0.4427801180966887,3.1252050272156615,1.8555015488032327,1.674624848828051,2.9654889754691465,-1.0,-0.20715829058287705,-0.8014174051412354,-0.8423391026208503,-3.14,1.6715030478630415,-1.3892574154240716
45,0.44734719085792246,0.06384334462503528,0.44269668132005735,3.125131403873192,1.855564312495223,1.674641705417505,2.9671219578366923,-1.0,-0.20892662534245712,-0.8014751373855808,-0.842213516532402,-3.14,1.6725413259940958,-1.3878182643434778
46,0.44728013398175237,0.0638779092515979,0.4426239714920029,3.125063046386848,1.8556216737824205,1.6746568605905485,2.9686364828077987,-1.0,-0.21056604395623982,-0.8015356207131489,-0.8420845326750155,-3.14,1.673503870712205,-1.38648387704393
47,0.44722196042881274,0.06390987880917492,0.44256060578029627,3.1249995869958305,1.8556740991208034,1.6746704849265326,2.970041010454049,-1.0,-0.21208582591111405,-0.8015977603512351,-0.8419540378889594,-3.14,1.6743961367329276,-1.3852467341484298
48,0.44717150117604376,0.06393943939397914,0.4425053772846052,3.124940682623696,1.8557220182022525,1.674682733685727,2.9713434164867243,-1.0,-0.21349460268807438,-0.801660650457188,-0.8418235760281937,-3.14,1.6752231974888352,-1.3840998378975276
49,0.4471277384257177,0.0639667660862171,0.4424572332819475,3.124886013306822,1.8557658257359648,1.6746937476393369,2.9725510296930433,-1.0,-0.21480039970642759,-0.8017235481559047,-0.841694397134122,-3.14,1.6759897699237585,-1.3830366790692894
50,0.44708978659514564,0.06399202307504956,0.4424152560391125,3.124835280723211,1.8558058834504318,1.6747036540150702,2.9736706673936406,-1.0,-0.21601067609362784,-0.8017858505897608,-0.8415675004945954,-3.14,1.6767002379515588,-1.3820512054505856
51,0.44705687559345475,0.06401536391343682,0.44237864591032505,3.1247882068124966,1.855842522210971,1.6747125674971777,2.97470866896901,-1.0,-0.2171323623052131,-0.8018470747167612,-0.8414436722310742,-3.14,1.6773586746157785,-1.3811377918899743
52,0.44702833612811743,0.06403693186940544,0.4423467064661809,3.1247445324796645,1.855876044175227,1.6747205912377987,2.97567092750844,-1.0,-0.21817189563502845,-0.8019068395963846,-0.841323518011202,-3.14,1.677968862988193,-1.3802912119375366
53,0.44700358680999586,0.06405686034602133,0.44231883142518724,3.124704016376317,1.8559067249302708,1.6747278178497695,2.9765629196404246,-1.0,-0.2191352536689671,-0.8019648509125519,-0.8412074914362555,-3.14,1.6785343158468016,-1.3795066110571979
54,0.4469821228495021,0.06407527334746789,0.4422944931824365,3.124666433754274,1.8559348155713347,1.6747343303609283,2.977389733608232,-1.0,-0.22002798574592897,-0.8020208874971009,-0.841095918604894,-3.14,1.679058294176469,-1.378779481381594
55,0.4469635061582098,0.06409228597304903,0.4422732327511508,3.124631575386997,1.8559605446947673,1.674740203117193,2.9781560956581044,-1.0,-0.22085524249776645,-0.8020747896334552,-0.8409890193076784,-3.14,1.6795438245378638,-1.3781056379677263
56,0.4469473566900761,0.06410800492471463,0.4422546509521479,3.124599246554913,1.8559841202874268,1.6747455026270166,2.978866394810427,-1.0,-0.22162180354589564,-0.8021264489376013,-0.8408869252619036,-3.14,1.679993715352302,-1.3774811965029023
57,0.44693334487441,0.06412252901688047,0.44223840070395304,3.1245692660910875,1.8560057315019447,1.6747502883436316,2.9795247060860612,-1.0,-0.2223321034362734,-0.8021757996312172,-0.840789695753927,-3.14,1.6804105721515001,-1.3769025524042238
58,0.4469211850090517,0.06413594967998595,0.4422241802822542,3.124541465484028,1.856025550312785,1.674754613384224,2.9801348122610585,-1.0,-0.22299025589682894,-0.8022228110392204,-0.8406973310167687,-3.14,1.6807968118420546,-1.3763663612507209
59,0.44691062949695487,0.06414835145136787,0.44221172743193593,3.124515688034613,1.8560437330519544,1.6747585251870731,2.9807002242231553,-1.0,-0.22360007650246172,-0.8022674811607349,-0.8406097836343996,-3.14,1.6811546760347136,-1.3758695204847293
60,0.4469014638226563,0.06415981244884343,0.44220081422802765,3.124491788064353,1.8560604218261922,1.6747620661089682,2.981224200002972,-1.0,-0.22416510383260402,-0.8023098311782643,-0.8405269682309372,-3.14,1.6814862434882527,-1.375409152317938
61,0.4468935021770438,0.06417040482378472,0.44219124259369835,3.1244696301723205,1.8560757458194523,1.6747652739660368,2.981709762551747,-1.0,-0.22468861920532002,-0.8023499007845577,-0.8404487696727855,-3.14,1.6817934417170814,-1.3749825877774196
62,0.4468865836495508,0.06418019519163047,0.4421828403940696,3.1244490885382126,1.8560898224859124,1.6747681825216088,2.9821597163358713,-1.0,-0.22517366507015515,-0.8023877442201905,-0.8403750499845389,-3.14,1.6820780578106425,-1.37458735182767
63,0.4468805689164527,0.06418924503864086,0.4421754580340822,3.1244300462691177,1.8561027586395784,1.6747708219249773,2.982576662816539,-1.0,-0.22562306213962685,-0.8024234269272539,-0.8403056541549999,-3.14,1.6823417485113255,-1.3742211495060084
64,0.44687533736249047,0.06419761110442208,0.4421689654971871,3.124412394787652,1.8561146514470992,1.6747732191050027,2.982963014880561,-1.0,-0.22603942533650742,-0.80245702273574,-0.84024041498781,-3.14,1.6825860495960314,-1.3738818530105015
65,0.44687078458061913,0.06420534574025827,0.4421632497691707,3.124396033259229,1.8561255893305781,1.674775398122429,2.9833210102859162,-1.0,-0.22642517863099826,-0.8024886115093316,-0.8401791571316953,-3.14,1.6828123846047764,-1.3735674896817214
66,0.44686682020143975,0.0642124972436757,0.4421582125981807,3.1243808680562903,1.856135652787192,1.6747773804846808,2.9836527241829547,-1.0,-0.22678256883864592,-0.8025182771863407,-0.84012170040805,-3.14,1.6830220729578542,-1.3732762308220268
67,0.4468633660098191,0.0642191101699696,0.4421537685479808,3.1243668122574317,1.8561449151322766,1.6747791854266836,2.983960080769444,-1.0,-0.22711367844647018,-0.8025461061596423,-0.8400678625382746,-3.14,1.6832163375011329,-1.3730063812986035
68,0.4468603543115047,0.06422522562160918,0.4421498433067736,3.124353785179424,1.8561534431722895,1.674780830161051,2.984244864134833,-1.0,-0.22742043753134597,-0.802572185946619,-0.8400174613597927,-3.14,1.6833963115170785,-1.3727563698791123
69,0.44685772651718886,0.06423088151657584,0.44214637221858677,3.124341711940219,1.8561612978137405,1.6747823301007392,2.984508728346302,-1.0,-0.22770463483123976,-0.8025966041065122,-0.8399703166077861,-3.14,1.6835630452371082,-1.3725247402514642
70,0.44685543191558885,0.06423611283676639,0.4421432990083793,3.1243305230511123,1.8561685346138144,1.6747836990570175,2.984753206826377,-1.0,-0.22796792802650498,-0.8026194473681867,-0.8399262513292598,-3.14,1.6837175118889005,-1.3723101426818818
71,0.446853426610719,0.06424095185764317,0.44214057467562773,3.124320154036297,1.8561752042780253,1.6747849494153555,2.9849797210691302,-1.0,-0.22821185328511157,-0.8026408009362752,-0.8398850929869176,-3.14,1.6838606133103533,-1.372111326268026
72,0.4468516726017103,0.06424542836030782,0.44213815653439575,3.1243105450781603,1.8561813531098679,1.6747860922916191,2.985189588739307,-1.0,-0.2284378341224497,-0.8026607479480109,-0.8398466743023422,-3.14,1.6839931851599945,-1.371927131746515
73,0.4468501369863156,0.06424956982717135,0.442136007380642,3.124301640686716,1.8561870234169984,1.6747871376706984,2.985384031196113,-1.0,-0.22864718962323102,-0.8026793690568711,-0.8398108338810104,-3.14,1.684116001751821,-1.3717564848166284
74,0.44684879127167665,0.06425340162235803,0.4421340947700721,3.12429338939166,1.8561922538781508,1.674788094529528,2.9855641804808783,-1.0,-0.22884114207001122,-0.802696742122483,-0.8397774166556096,-3.14,1.684229780540793,-1.3715983899443716
75,0.4468476107780671,0.0642569471579434,0.44213239039190655,3.124285743455628,1.8561970798745961,1.674788970946222,2.9857310858054156,-1.0,-0.22902082402000118,-0.8027129419891489,-0.8397462741788616,-3.14,1.6843351862835272,-1.3714519246133479
76,0.44684657412319223,0.06426022804706519,0.44213086952590197,3.1242786586072806,1.856201533789622,1.6747897741968993,2.985885719575564,-1.0,-0.22918728486911044,-0.8027280403378776,-0.8397172647924774,-3.14,1.684432834897139,-1.3713162339910552
77,0.4468456627762546,0.06426326424490234,0.44212951057158634,3.1242720937929414,1.8562056452791889,1.67479051084158,2.986028982982223,-1.0,-0.2293414969395856,-0.8027421055990083,-0.8396902536949201,-3.14,1.684523297037659,-1.3711905259812869
78,0.4468448606724177,0.06426607417845004,0.44212829464010195,3.1242660109455618,1.8562094415166202,1.6747911868004082,2.986161711190087,-1.0,-0.229484361125167,-0.8027552029144139,-0.8396651129272303,-3.14,1.6846071014180215,-1.3710740666352645
79,0.4468441538795409,0.06426867486596685,0.442127205200333,3.1242603747698885,1.8562129474139129,1.674791807421301,2.986284678152321,-1.0,-0.22961671212538604,-0.8027673941399274,-0.8396417212932176,-3.14,1.6846847378842569,-1.370966175895974
80,0.4468435303101325,0.0642710820269009,0.4421262277720823,3.124255152542725,1.8562161858219888,1.674792377540013,2.986398601077528,-1.0,-0.22973932329845886,-0.8027787378800527,-0.8396199642277786,-3.14,1.684756660267253,-1.3708662236519107
81,0.4468429794724152,0.06427331018305972,0.4421253496600097,3.1242503139272997,1.8562191777120003,1.6747929015334877,2.9865041445736167,-1.0,-0.229852911160199,-0.8027892895482586,-0.839599733624923,-3.14,1.6848232890262458,-1.3707736260780745
82,0.4468424922552048,0.06427537275171742,0.44212455972289105,3.124245830800776,1.856221942339562,1.6747933833672657,2.986601924491502,-1.0,-0.22995813955446276,-0.8027991014472042,-0.839580927635206,-3.14,1.684885013699073,-1.3706878422435802
83,0.44684206074202293,0.0642772821313152,0.44212384817347355,3.124241677094007,1.856224497393626,1.6747938266376432,2.986692511490016,-1.0,-0.23005562351885708,-0.8028082228641594,-0.8395634504406686,-3.14,1.6849421951731771,-1.370608370966692
84,0.4468416780504731,0.06427904978034106,0.44212320640483177,3.1242378286427086,1.8562268591315065,1.6747942346091846,2.9867764343419356,-1.0,-0.2301459328677671,-0.8028167001776603,-0.8395472120140065,-3.14,1.6849951677903503,-1.3705347478994285
85,0.44684133819344485,0.0642806862899591,0.4421226268396768,3.124234263049241,1.8562290425014423,1.6747946102481175,2.9868541829996635,-1.0,-0.2302295955132015,-0.8028245769721079,-0.8395321278675226,-3.14,1.6850442412972986,-1.3704665428251424
86,0.4468410359591786,0.06428220145087633,0.4421221027995465,3.124230959554296,1.8562310612539117,1.6747949562520965,2.986926211437814,-1.0,-0.2303071005424951,-0.8028318941575859,-0.8395181187964201,-3.14,1.6850897026532403,-1.3704033571536554
87,0.44684076680761853,0.06428360431492793,0.44212162839121216,3.124227898917779,1.8562329280428136,1.6747952750767436,2.986992940288744,-1.0,-0.23037890107055356,-0.802838690092661,-0.8395051106201475,-3.14,1.685131817704953,-1.3703448215996161
88,0.44684052678083913,0.06428490325180297,0.4421211984080058,3.1242250633082413,1.8562346545174973,1.6747955689593401,2.98705475928595,-1.0,-0.23044541688305578,-0.8028450007083409,-0.8394930339247862,-3.14,1.6851708327389354,-1.370290594030777
89,0.4468403124256206,0.06428610600131017,0.4421208082440543,3.1242224362002826,1.856236251406539,1.6747958399399914,2.9871120295292037,-1.0,-0.23050703688585206,-0.8028508596317135,-0.8394818238088724,-3.14,1.685206975919657,-1.3702403574738335
90,0.4468401207265183,0.06428721972153349,0.442120453819721,3.1242200022793485,1.8562377285940457,1.6747960898805567,2.9871650855843064,-1.0,-0.23056412137470106,-0.8028562983080894,-0.839471419634531,-3.14,1.6852404586222196,-1.3701938182663538
91,0.4468399490479927,0.06428825103322812,0.4421201315167295,3.12421774735339,1.856239095189222,1.674796320481591,2.9872142374294466,-1.0,-0.2306170041384659,-0.8028613461207136,-0.8394617647853732,-3.14,1.6852714766671513,-1.370150704344154
92,0.44683979508436616,0.06428920606074061,0.4421198381217043,3.124215658270934,1.8562403595898265,1.6747965332975296,2.9872597722592773,-1.0,-0.23066599440794108,-0.8028660305073294,-0.8394528064322502,-3.14,1.685300211464499,-1.3701107636542413
93,0.44683965681653093,0.06429009046974674,0.44211957077698877,3.12421372284507,1.856241529540102,1.6747967297503077,2.987301956157041,-1.0,-0.23071137866160266,-0.8028703770730454,-0.8394444953076609,-3.14,1.6853268310738603,-1.3700737626841533
94,0.44683953247449754,0.06429090950205714,0.4421193269377833,3.124211929782947,1.8562426121836977,1.6747969111415906,2.9873410356443317,-1.0,-0.23075342229875187,-0.8028744096991062,-0.8394367854893605,-3.14,1.6853514911865155,-1.3700394850991966
95,0.4468394205049753,0.06429166800772505,0.4421191043347629,3.124210268620406,1.856243614112047,1.6747970786637671,2.987377239117403,-1.0,-0.23079237118976248,-0.8028781506472876,-0.8394296341935216,-3.14,1.6853743360353706,-1.3700077304796934
96,0.4468393195433077,0.0642923704746733,0.4421189009414458,3.124208729661341,1.8562445414086246,1.6747972334098462,2.987410778178271,-1.0,-0.23082845311243747,-0.802881620659739,-0.8394230015776217,-3.14,1.6853954992380074,-1.36997831315092
97,0.4468392283891646,0.06429302105603664,0.4421187149456858,3.1242073039214855,1.856245399689455,1.6747973763823691,2.987441848868288,-1.0,-0.2308618790828212,-0.8028848390541712,-0.8394168505531104,-3.14,1.6854151045777488,-1.3699510610989567
98,0.44683914598548047,0.06429362359540401,0.4421185447247596,3.1242059830762816,1.8562461941402217,1.6747975085014497,2.987470632811303,-1.0,-0.2308928445882081,-0.8028878238143636,-0.8394111466077869,-3.14,1.6854332667272884,-1.3699258149661555
99,0.446839071400197,0.06429418165011729,0.4421183888235509,3.1242047594125584,1.8562469295502724,1.674797630612036,2.987497298272997,-1.0,-0.23092153072952043,-0.8028905916760094,-0.839405857637745,-3.14,1.685450091919103,-1.3699024271203935
100,0.44683900381042974,0.06429469851279489,0.4421182459354508,3.124203625783722,1.8562476103438075,1.6747977434904686,2.9875220011425276,-1.0,-0.23094810527970752,-0.8028931582079664,-0.8394009537886677,-3.14,1.6854656785665576,-1.3698807607927055
101,0.4468389424887289,0.06429517723120456,0.4421181148856108,3.124202575568223,1.856248240608497,1.6747978478504209,2.987544885842153,-1.0,-0.23097272366432905,-0.8028955378890112,-0.8393964073062024,-3.14,1.6854801178393208,-1.3698606892782819
102,0.44683888679115125,0.06429562062662568,0.4421179946162389,3.1242016026310564,1.856248824121755,1.6747979443482763,2.9875660861701063,-1.0,-0.23099552987003608,-0.8028977441802221,-0.8393921923951135,-3.14,1.6854934941964557,-1.3698420951961836
103,0.44683883614689784,0.0642960313108114,0.4421178841736804,3.1242007012880686,1.8562493643748699,1.6747980335880068,2.9875857260816,-1.0,-0.231016657286245,-0.8028997895931326,-0.839388285086877,-3.14,1.6855058858802883,-1.3698248698034692
104,0.44683879004930555,0.06429641170166413,0.44211778269706137,3.1241998662728863,1.8562498645951853,1.6747981161255994,2.9876039204124933,-1.0,-0.23103622948491168,-0.8029016857538162,-0.8393846631153647,-3.14,1.6855173653739433,-1.3698089123597381
105,0.44683874804801116,0.06429676403772709,0.4421176894082722,3.1241990927062435,1.8562503277664937,1.6747981924730775,2.987620775549816,-1.0,-0.2310543609429536,-0.802903443463068,-0.8393813058002562,-3.14,1.685527999825215,-1.3697941295383909
106,0.44683870974213047,0.06429709039157099,0.44211760360315155,3.124198376067576,1.8562507566477935,1.6747982631021632,2.987636390053049,-1.0,-0.23107115771153264,-0.8029050727528575,-0.8393781939378031,-3.14,1.6855378514392505,-1.3697804348811775
107,0.44683867477431505,0.06429739268217698,0.4421175246436873,3.1241977121686793,1.8562511537905517,1.6747983284476047,2.9876508552297634,-1.0,-0.23108671803610667,-0.8029065829392285,-0.8393753096985856,-3.14,1.6855469778423355,-1.369767748292852
108,0.44683864282556884,0.06429767268638444,0.4421174519511345,3.1241970971293043,1.8562515215546014,1.6747983889102134,2.987664255668968,-1.0,-0.2311011329308666,-0.8029079826718236,-0.8393726365318862,-3.14,1.6855554324189137,-1.3697559955729908
109,0.44683861361072785,0.06429793204947416,0.44211738499991593,3.124196527354538,1.8562518621227773,1.6747984448596323,2.987676669735266,-1.0,-0.2311144867109122,-0.8029092799802107,-0.8393701590763218,-3.14,1.685563264623802,-1.3697451079822422
110,0.4468385868745088,0.06429817229495896,0.4421173233122179,3.12419599951384,1.856252177514403,1.6747984966368612,2.987688170026695,-1.0,-0.23112685748527498,-0.8029104823171807,-0.8393678630763867,-3.14,1.6855705202714306,-1.3697350218404785
111,0.44683856238805575,0.06429839483363675,0.44211726645319904,3.124195510521619,1.8562524695977223,1.6747985445565678,2.9876988237989166,-1.0,-0.23113831761366552,-0.8029115965991898,-0.8393657353045615,-3.14,1.6855772418037978,-1.3697256781545055
112,0.446838539945916,0.06429860097196638,0.4421172140267171,3.1241950575192377,1.8562527401013609,1.6747985889091972,2.9877086933582233,-1.0,-0.2311489341296145,-0.8029126292441076,-0.8393637634886627,-3.14,1.6855834685387012,-1.3697170222731587
113,0.4468385193633936,0.06429879191981624,0.44211716567154624,3.124194637858325,1.8562529906248952,1.6747986299629027,2.9877178364256527,-1.0,-0.23115876913247738,-0.8029135862064302,-0.8393619362441115,-3.14,1.6855892368997039,-1.36970900356777
114,0.44683850047422374,0.06429896879763196,0.44211712105798784,3.1241942490853294,1.856253222648605,1.6747986679653155,2.9877263064743316,-1.0,-0.23116788015059353,-0.8029144730101118,-0.8393602430108245,-3.14,1.6855945806291717,-1.3697015751361434
115,0.44683848312853514,0.06429913264306879,0.4421170798848534,3.124193888927192,1.85625343754247,1.6747987031451645,2.9877341530420125,-1.0,-0.23117632047772205,-0.8029152947791582,-0.8393586739944362,-3.14,1.6855995309856322,-1.369694693528309
116,0.44683846719105413,0.06429928441713147,0.4421170418767695,3.124193555278078,1.8562536365744788,1.6747987357137624,2.9877414220206298,-1.0,-0.23118413948471883,-0.8029160562661243,-0.8393572201115777,-3.14,1.6856041169266083,-1.369688318492453
117,0.44683845253952964,0.0642994250098501,0.44211700678175836,3.1241932461870836,1.8562538209182933,1.6747987658663692,2.9877481559245602,-1.0,-0.23119138290827704,-0.8029167618786464,-0.839355872938949,-3.14,1.6856083652779938,-1.3696824127395453
118,0.44683843906333787,0.06429955524554076,0.44211697436908115,3.1241929598468436,1.8562539916603342,1.6747987937834432,2.9877543941391522,-1.0,-0.23119809311841835,-0.8029174157041359,-0.8393546246659459,-3.14,1.6856123008909625,-1.369676941725281
119,0.4468384266622568,0.064299675887667,0.44211694442728594,3.1241926945829723,1.856254149806318,1.6747988196317916,2.9877601731509764,-1.0,-0.2312043093662982,-0.8029180215327535,-0.8393534680505979,-3.14,1.6856159467873277,-1.3696718734480717
120,0.4468384152453814,0.06429978764334528,0.4421169167624702,3.124192448844289,1.8562542962873034,1.6747988435656265,2.9877655267611383,-1.0,-0.23121006801377322,-0.8029185828787768,-0.8393523963786054,-3.14,1.6856193242942035,-1.369667178261899
121,0.4468384047301628,0.06429989116751358,0.44211689119669995,3.1241922211937503,1.8562544319652734,1.6747988657275366,2.9877704862829,-1.0,-0.23121540274607336,-0.8029191030004672,-0.8393514034252652,-3.14,1.6856224531687525,-1.3696628287029406
122,0.44683839504155703,0.06429998706678887,0.4421168675666046,3.124192010300061,1.8562545576382943,1.6747988862493792,2.9877750807247647,-1.0,-0.23122034476882092,-0.8029195849185373,-0.839350483420089,-3.14,1.6856253517137523,-1.369658799328955
123,0.4468383861112733,0.06430007590304011,0.4421168457220914,3.1241918149298904,1.8562546740452899,1.6747989052531076,2.987779336960089,-1.0,-0.2312249229905496,-0.802920031433311,-0.8393496310139349,-3.14,1.6856280368846552,-1.3696550665704856
124,0.4468383778770997,0.06430015819669312,0.4421168255251894,3.124191633940669,1.856254781870444,1.6747989228515237,2.9877832798842183,-1.0,-0.23122916419178904,-0.8029204451406687,-0.8393488412484765,-3.14,1.685630524388767,-1.369651608593016
125,0.4468383702823096,0.0643002344297961,0.4421168068490114,3.124191466273911,1.8562548817472855,1.6747989391489781,2.987786932560062,-1.0,-0.23123309318170532,-0.8029208284468556,-0.8393481095278533,-3.14,1.685632828777126,-1.3696484051692688
126,0.44683836327512755,0.06430030504885344,0.44211678957680367,3.124191310949027,1.8562549742624548,1.6747989542420123,2.9877903163529536,-1.0,-0.23123673294321137,-0.802921183582236,-0.839347431592346,-3.14,1.685634963529618,-1.369645437560904
127,0.44683835680825684,0.06430037046744748,0.4421167736010844,3.124191167057594,1.8562550599591898,1.6747989682199529,2.987793451055592,-1.0,-0.231240104767397,-0.802921512614063,-0.8393468034939403,-3.14,1.6856369411338263,-1.3696426884089234
128,0.44683835083845486,0.0643004310686731,0.44211675882287316,3.1241910337580454,1.8562551393405542,1.6747989811654562,2.9877963550037854,-1.0,-0.23124322837806383,-0.8029218174583338,-0.8393462215736458,-3.14,1.6856387731580789,-1.3696401416321413
129,0.4468383453261526,0.06430048720738632,0.4421167451509754,3.124190910270751,1.8562552128724197,1.674798993155014,2.9877990451836816,-1.0,-0.23124612204709435,-0.8029220998907937,-0.8393456824404475,-3.14,1.6856404703191155,-1.3696377823331274
130,0.4468383402351161,0.0643005392122878,0.4421167325013379,3.1241907958734623,1.8562552809862252,1.6747990042594174,2.987801537331104,-1.0,-0.23124880270132844,-0.8029223615571484,-0.8393451829517735,-3.14,1.6856420425447771,-1.3696355967110734
131,0.4468383355321408,0.06430058738785391,0.4421167207964702,3.1241906898970853,1.8562553440815321,1.6747990145441873,2.987803846023579,-1.0,-0.2312512860215736,-0.8029226039825403,-0.8393447201953743,-3.14,1.685643499032078,-1.3696335719810708
132,0.44683833118677696,0.064300632016124,0.4421167099648988,3.1241905917217743,1.856255402528389,1.6747990240699704,2.987805984765593,-1.0,-0.23125358653432654,-0.8029228285803413,-0.8393442914725117,-3.14,1.6856448483010051,-1.3696316962993338
133,0.44683832717108307,0.06430067335835361,0.4421166999406857,3.1241905007733055,1.8562554566695144,1.6747990328929045,2.98780796606757,-1.0,-0.23125571769674397,-0.802923036660309,-0.8393438942823638,-3.14,1.6856460982443555,-1.3696299586939216
134,0.44683832345940394,0.06430071165654956,0.44211669066298176,3.1241904165197187,1.8562555068223257,1.6747990410649587,2.9878098015190417,-1.0,-0.23125769197535873,-0.8029232294361538,-0.8393435263075629,-3.14,1.6856472561739064,-1.3696283490005625
135,0.4468383200281688,0.06430074713488851,0.44211668207561655,3.1241903384682077,1.856255553280808,1.6747990486342421,2.98781150185643,-1.0,-0.2312595209190012,-0.8029234080325572,-0.8393431854007809,-3.14,1.6856483288631858,-1.3696268578032025
136,0.4468383168557111,0.06430078000103068,0.442116674126727,3.124190266162239,1.856255596317251,1.6747990556452965,2.9878130770258413,-1.0,-0.23126121522635368,-0.8029235734916801,-0.8393428695722903,-3.14,1.6856493225870948,-1.3696254763789266
137,0.44683831392210366,0.06430081044733997,0.442116666768417,3.124190199178884,1.8562556361838527,1.6747990621393591,2.987814536241241,-1.0,-0.2312627848085312,-0.8029237267791993,-0.83934257697843,-3.14,1.6856502431586136,-1.3696241966469382
138,0.44683831120901135,0.06430083865200767,0.4421166599564411,3.1241901371263423,1.8562556731142044,1.6747990681546132,2.9878158880383414,-1.0,-0.23126423884705702,-0.8029238687899045,-0.8393423059109092,-3.14,1.685651095962805,-1.3696230111212908
139,0.4468383086995542,0.06430086478010223,0.44211665364992286,3.124190079641654,1.856255707324669,1.6747990737264118,2.98781714032453,-1.0,-0.2312655858475693,-0.8029240003528882,-0.8393420547868934,-3.14,1.6856518859883154,-1.3696219128671006
140,0.44683830637818783,0.06430088898453112,0.4421166478110857,3.124190026388575,1.8562557390156496,1.6747990788874914,2.9878183004251175,-1.0,-0.23126683368957474,-0.8029241222363581,-0.8393418221398088,-3.14,1.6856526178565554,-1.3696208954599824
141,0.4468383042305897,0.0643009114069409,0.44211664240501514,3.12418997705561,1.8562557683727716,1.6747990836681648,2.987819375126185,-1.0,-0.2312679896725405,-0.8029242351520974,-0.8393416066108232,-3.14,1.685653295848735,-1.3696199529484703
142,0.4468383022435593,0.0643009321785459,0.44211663739943685,3.124189931354195,1.8562557955679755,1.674799088096503,2.9878203707142754,-1.0,-0.2312690605585922,-0.8029243397596005,-0.8393414069409446,-3.14,1.6856539239309056,-1.3696190798192054
143,0.44683830040492645,0.0643009514208955,0.4421166327645098,3.1241898890170043,1.8562558207605238,1.6747990921985014,2.987821293013166,-1.0,-0.23127005261206943,-0.8029244366699072,-0.8393412219636978,-3.14,1.6856545057771617,-1.3696182709646858
144,0.4468382987034653,0.06430096924658912,0.4421166284726418,3.124189849796393,1.8562558440979393,1.6747990959982317,2.9878221474179316,-1.0,-0.2312709716361693,-0.8029245264491565,-0.8393410505983376,-3.14,1.685655044791131,-1.3696175216533906
145,0.4468382971288199,0.06430098575993261,0.4421166244983149,3.1241898134629413,1.8562558657168713,1.6747990995179889,2.9878229389265005,-1.0,-0.23127182300689286,-0.8029246096218798,-0.8393408918435578,-3.14,1.6856555441258863,-1.3696168275021023
146,0.4468382956714339,0.06430100105755102,0.44211662081792724,3.1241897798041194,1.8562558857438975,1.6747991027784195,2.9878236721688913,-1.0,-0.23127261170449248,-0.8029246866740548,-0.8393407447716595,-3.14,1.685656006702389,-1.369616184450269
147,0.44683829432248434,0.06430101522895362,0.44211661740964614,3.124189748623042,1.856255904296267,1.6747991057986449,2.9878243514342926,-1.0,-0.23127334234260397,-0.8029247580559352,-0.8393406085231481,-3.14,1.685656435226576,-1.3696155887362498
148,0.44683829307382533,0.06430102835705939,0.4421166142532737,3.124189719737315,1.85625592148259,1.674799108596375,2.987824980696154,-1.0,-0.23127401919523485,-0.8029248241846728,-0.8393404823017242,-3.14,1.6856568322051884,-1.3696150368753126
149,0.4468382919179338,0.06430104051868121,0.4421166113301211,3.1241896929779704,1.8562559374034726,1.6747991111880107,2.9878255636354263,-1.0,-0.23127464622176544,-0.8029248854467488,-0.8393403653696427,-3.14,1.6856571999604355,-1.3696145256392502
150,0.4468382908478613,0.06430105178497467,0.44211660862289937,3.1241896681884813,1.8562559521521091,1.6747991135887448,2.987826103662095,-1.0,-0.23127522709010978,-0.8029249422002249,-0.8393402570434114,-3.14,1.6856575406435783,-1.3696140520374955
151,0.4468382898571863,0.06430106222185755,0.44211660611560744,3.1241896452238396,1.8562559658148277,1.6747991158126465,2.9878266039351247,-1.0,-0.23127576519817153,-0.8029249947768331,-0.8393401566898047,-3.14,1.6856578562475144,-1.3696136132996288
152,0.4468382889399758,0.06430107189039312,0.4421166037934364,3.124189623949713,1.8562559784715964,1.6747991178727482,2.9878270673809375,-1.0,-0.23127626369372076,-0.8029250434839079,-0.8393400637221711,-3.14,1.6856581486184352,-1.369613206859172
153,0.44683828809074533,0.06430108084714885,0.44211660164268124,3.124189604241657,1.8562559901964932,1.6747991197811207,2.9878274967105325,-1.0,-0.23127672549280667,-0.8029250886061803,-0.8393399775970095,-3.14,1.6856584194666262,-1.3696128303385755
154,0.44683828730442554,0.06430108914452688,0.4421165996506552,3.124189585984388,1.856256001058138,1.674799121548944,2.9878278944353416,-1.0,-0.2312771532968159,-0.8029251304074381,-0.8393398978107981,-3.14,1.6856586703764713,-1.3696124815353108
155,0.4468382865763295,0.06430109683107119,0.44211659780561846,3.1241895690711097,1.856256011120097,1.6747991231865738,2.987828262881922,-1.0,-0.23127754960827462,-0.8029251691320656,-0.8393398238970555,-3.14,1.6856589028157205,-1.3696121584089866
156,0.44683828590212266,0.06430110395175218,0.4421165960966996,3.1241895534028847,1.856256020441255,1.6747991247036023,2.9878286042055637,-1.0,-0.2312779167454875,-0.8029252050064697,-0.8393397554236183,-3.14,1.6856591181440768,-1.3696118590694129
157,0.4468382852777972,0.06430111054822873,0.4421165945138369,3.12418953888806,1.856256029076159,1.6747991261089141,2.9878289204028983,-1.0,-0.23127825685609874,-0.8029252382404013,-0.8393396919901169,-3.14,1.6856593176211492,-1.3696115817655443
158,0.446838284699645,0.06430111665909177,0.4421165930477151,3.1241895254417327,1.856256037075338,1.6747991274107392,2.987829213323578,-1.0,-0.23127857192965517,-0.8029252690281803,-0.8393396332256386,-3.14,1.6856595024138212,-1.3696113248752375
159,0.44683828416423726,0.06430112232009273,0.44211659168970896,3.1241895129852435,1.856256044485602,1.6747991286167012,2.987829484681094,-1.0,-0.23127886380924487,-0.8029252975498297,-0.839339578786561,-3.14,1.6856596736030773,-1.3696110868957614
160,0.4468382836684009,0.06430112756435022,0.4421165904318331,3.124189501445728,1.8562560513503112,1.67479912973386,2.9878297360628014,-1.0,-0.23127913420227783,-0.8029253239721279,-0.839339528354545,-3.14,1.6856598321903253,-1.3696108664350077
161,0.446838283209201,0.06430113242254373,0.44211658926669306,3.1241894907556835,1.8562560577096339,1.6747991307687575,2.987829968939204,-1.0,-0.23127938469047446,-0.8029253484495807,-0.8393394816346756,-3.14,1.6856599791032556,-1.3696106622033468
162,0.44683828278392135,0.0643011369230945,0.44211658818744315,3.1241894808525785,1.8562560636007803,1.6747991317274529,2.9878301846725566,-1.0,-0.23127961673911768,-0.8029253711253261,-0.8393394383537393,-3.14,1.6856601152012667,-1.3696104730060843
163,0.4468382823900477,0.0643011410923317,0.44211658718774405,3.124189471678483,1.85625606905822,1.6747991326155576,2.9878303845248313,-1.0,-0.23127983170562477,-0.8029253921319693,-0.8393393982586269,-3.14,1.685660241280493,-1.3696102977364721
164,0.44683828202525466,0.06430114495464656,0.4421165862617242,3.1241894631797305,1.8562560741138854,1.6747991334382706,2.9878305696651024,-1.0,-0.23128003084748747,-0.8029254115923575,-0.8393393611148555,-3.14,1.6856603580784622,-1.369610135369235
165,0.44683828168738915,0.0643011485326327,0.44211658540394877,3.124189455306609,1.8562560787973563,1.6747991342004083,2.987830741176384,-1.0,-0.231280215329628,-0.8029254296202978,-0.8393393267051976,-3.14,1.6856604662784092,-1.3696099849545724
166,0.44683828137445847,0.06430115184722286,0.4421165846093812,3.12418944801306,1.856256083136035,1.6747991349064306,2.987830900061964,-1.0,-0.23128038623121366,-0.8029254463212226,-0.8393392948284119,-3.14,1.6856605665132727,-1.3696098456126025
167,0.4468382810846184,0.06430115491780637,0.4421165838733616,3.1241894412564206,1.8562560871553062,1.674799135560471,2.9878310472512752,-1.0,-0.23128054455196942,-0.8029254617928049,-0.8393392652980673,-3.14,1.6856606593693981,-1.3696097165282157
168,0.4468382808161608,0.06430115776234724,0.4421165831915701,3.1241894349971666,1.8562560908786858,1.6747991361663566,2.9878311836053313,-1.0,-0.23128069121802614,-0.8029254761255294,-0.8393392379414539,-3.14,1.6856607453899677,-1.369609596946306
169,0.4468382805675057,0.06430116039748554,0.4421165825600095,3.124189429198683,1.8562560943279576,1.6747991367276336,2.9878313099217615,-1.0,-0.2312808270873382,-0.8029254894032222,-0.8393392125985717,-3.14,1.685660825078177,-1.369609486167354
170,0.44683828033718914,0.06430116283863714,0.44211658197497644,3.1241894238270516,1.8562560975233022,1.6747991372475868,2.98783142693948,-1.0,-0.23128095295470202,-0.8029255017035395,-0.8393391891211971,-3.14,1.6856608989001798,-1.369609383543335
171,0.4468382801238569,0.06430116510008196,0.44211658143303995,3.124189418850848,1.8562561004834126,1.6747991377292588,2.9878315353430054,-1.0,-0.2312810695564056,-0.8029255130984227,-0.8393391673720147,-3.14,1.6856609672878136,-1.3696092884739282
172,0.44683827992625386,0.0643011671950495,0.44211658093102346,3.1241894142409667,1.8562561032256084,1.6747991381754692,2.987831635766466,-1.0,-0.23128117757453548,-0.802925523654518,-0.8393391472238169,-3.14,1.6856610306411266,-1.3696092004030052
173,0.44683827974321927,0.06430116913579577,0.44211658046598484,3.124189409970436,1.856256105765932,1.6747991385888286,2.987831728797309,-1.0,-0.2312812776409671,-0.8029255334335665,-0.8393391285587577,-3.14,1.685661089330718,-1.3696091188153763
174,0.4468382795736772,0.0643011709336733,0.442116580035199,3.1241894060142794,1.8562561081192441,1.6747991389717551,2.9878318149797387,-1.0,-0.23128137034106003,-0.8029255424927656,-0.8393391112676649,-3.14,1.685661143699905,-1.3696090432337777
175,0.44683827941663123,0.06430117259920012,0.4421165796361411,3.1241894023493524,1.8562561102993134,1.6747991393264898,2.987831894817896,-1.0,-0.23128145621708374,-0.8029255508851021,-0.8393390952494028,-3.14,1.6856611940667319,-1.3696089732160788
176,0.4468382792711606,0.06430117414211844,0.4421165792664737,3.1241893989542175,1.8562561123188936,1.6747991396551094,2.9878319687788113,-1.0,-0.2312815357713883,-0.8029255586596629,-0.8393390804102784,-3.14,1.6856612407258305,-1.3696089083526959
177,0.4468382791364097,0.06430117557145518,0.4421165789240311,3.1241893958090126,1.8562561141897997,1.6747991399595354,2.9878320372951337,-1.0,-0.23128160946934384,-0.8029255658619224,-0.8393390666634958,-3.14,1.6856612839501433,-1.3696088482641968
178,0.44683827901158896,0.06430117689557105,0.4421165786068076,3.12418939289534,1.8562561159229762,1.6747991402415494,2.9878321007676636,-1.0,-0.23128167774206232,-0.8029255725340075,-0.8393390539286472,-3.14,1.6856613239925202,-1.3696087925990812
179,0.4468382788959654,0.06430117812221223,0.44211657831294504,3.1241893901961557,1.8562561175285635,1.674799140502802,2.9878321595676978,-1.0,-0.2312817409889198,-0.8029255787149442,-0.839339042131244,-3.14,1.6856613610871982,-1.3696087410317241
180,0.4468382787888612,0.06430117925855346,0.44211657804072324,3.1241893876956714,1.8562561190159534,1.674799140744822,2.9878322140391993,-1.0,-0.2312817995798922,-0.8029255844408862,-0.8393390312022796,-3.14,1.68566139545117,-1.3696086932604714
181,0.4468382786896471,0.06430118031124396,0.4421165777885468,3.124189385379258,1.8562561203938481,1.6747991409690237,2.9878322645008097,-1.0,-0.23128185385772035,-0.8029255897453266,-0.8393390210778277,-3.14,1.6856614272854558,-1.3696086490058743
182,0.44683827859774283,0.06430118128644051,0.4421165775549402,3.124189383233366,1.8562561216703082,1.6747991411767207,2.9878323112477156,-1.0,-0.23128190413991404,-0.8029255946592918,-0.8393390116986668,-3.14,1.6856614567762767,-1.3696086080090566
183,0.4468382785126082,0.0643011821898479,0.44211657733853504,3.124189381245442,1.8562561228528003,1.6747991413691272,2.9878323545533725,-1.0,-0.23128195072060975,-0.8029255992115257,-0.8393390030099347,-3.14,1.6856614840961457,-1.3696085700301985
184,0.44683827843374463,0.06430118302675143,0.4421165771380644,3.1241893794038584,1.856256123948243,1.674799141547369,2.9878323946711065,-1.0,-0.23128199387229134,-0.8029256034286557,-0.8393389949608082,-3.14,1.6856615094048766,-1.3696085348471345
185,0.4468382783606903,0.06430118380204641,0.4421165769523544,3.1241893776978427,1.8562561249630438,1.674799141712489,2.987832431835595,-1.0,-0.23128203384738388,-0.8029256073353493,-0.8393389875042043,-3.14,1.685661532850518,-1.3696085022540536
186,0.4468382782930167,0.06430118452026777,0.4421165767803194,3.124189376117413,1.8562561259031392,1.6747991418654535,2.9878324662642384,-1.0,-0.23128207087973043,-0.8029256109544585,-0.8393389805965061,-3.14,1.6856615545702203,-1.3696084720602955
187,0.44683827823032735,0.0643011851856178,0.44211657662095094,3.124189374653326,1.8562561267740296,1.6747991420071573,2.9878324981584354,-1.0,-0.2312821051859597,-0.8029256143071528,-0.8393389741973079,-3.14,1.6856615746910377,-1.3696084440892353
188,0.44683827817225474,0.06430118580198857,0.4421165764733154,3.124189373297018,1.8562561275808094,1.6747991421384287,2.987832527704758,-1.0,-0.2312821369667532,-0.8029256174130441,-0.8393389682691769,-3.14,1.6856615933306713,-1.3696084181772505
189,0.4468382781184594,0.06430118637298467,0.4421165763365509,3.1241893720405534,1.856256128328197,1.6747991422600368,2.9878325550760434,-1.0,-0.23128216640801993,-0.8029256202902996,-0.8393389627774371,-3.14,1.685661610598158,-1.3696083941727633
190,0.4468382780686257,0.06430118690194765,0.44211657620985545,3.1241893708765827,1.8562561290205664,1.6747991423726922,2.9878325804324057,-1.0,-0.23128219368198283,-0.8029256229557497,-0.8393389576899648,-3.14,1.6856616265945072,-1.369608371935354
191,0.4468382780224616,0.06430118739197069,0.44211657609248856,3.1241893697982968,1.8562561296619666,1.674799142477055,2.9878326039221728,-1.0,-0.23128221894818676,-0.8029256254249864,-0.8393389529770001,-3.14,1.6856616414132934,-1.3696083513349402
192,0.4468382779796971,0.06430118784592116,0.4421165759837626,3.1241893687993887,1.8562561302561496,1.6747991425737339,2.9878326256827523,-1.0,-0.23128224235443198,-0.8029256277124537,-0.8393389486109744,-3.14,1.685661655141202,-1.3696083322510153
193,0.4468382779400817,0.06430118826645413,0.44211657588304076,3.1241893678740142,1.8562561308065921,1.6747991426632962,2.987832645841438,-1.0,-0.23128226403763838,-0.8029256298315315,-0.839338944566349,-3.14,1.6856616678585377,-1.3696083145719438
194,0.4468382779033837,0.06430118865603025,0.442116575789735,3.1241893670167604,1.8562561313165147,1.6747991427462654,2.987832664516153,-1.0,-0.23128228412464652,-0.802925631794616,-0.8393389408194641,-3.14,1.685661679639693,-1.369608298194308
195,0.44683827786938785,0.0643011890169268,0.44211657570329893,3.124189366222615,1.8562561317888981,1.6747991428231268,2.9878326818161383,-1.0,-0.23128230273295966,-0.8029256336131902,-0.8393389373484018,-3.14,1.6856616905535846,-1.369608283022304
196,0.4468382778378954,0.06430118935125671,0.44211657562322654,3.124189365486928,1.8562561322265079,1.67479914289433,2.987832697842594,-1.0,-0.23128231997143134,-0.8029256352978922,-0.8393389341328582,-3.14,1.6856617006640555,-1.369608268967179
197,0.4468382778087216,0.064301189660975,0.44211657554904915,3.1241893648053987,1.8562561326319023,1.674799142960291,2.9878327126892703,-1.0,-0.2312823359409016,-0.8029256368585767,-0.8393389311540236,-3.14,1.6856617100302493,-1.3696082559467149
198,0.44683827778169594,0.06430118994789337,0.4421165754803324,3.12418936417404,1.8562561330074538,1.6747991430213967,2.9878327264430165,-1.0,-0.23128235073478748,-0.8029256383043728,-0.8393389283944734,-3.14,1.6856617187069554,-1.3696082438847457
199,0.4468382777566603,0.06430119021369034,0.4421165754166746,3.1241893635891596,1.8562561333553595,1.674799143078004,2.9878327391842876,-1.0,-0.23128236443962896,-0.8029256396437378,-0.8393389258380649,-3.14,1.68566172674493,-1.3696082327107122
200,0.44683827773346785,0.0643011904599209,0.4421165753577036,3.124189363047333,1.8562561336776542,1.6747991431304443,2.987832750987616,-1.0,-0.23128237713559557,-0.8029256408845067,-0.8393389234698442,-3.14,1.6856617341911935,-1.3696082223592494
201,0.44683827771198276,0.06430119068802538,0.44211657530307336,3.1241893625453936,1.8562561339762227,1.6747991431790235,2.987832761922049,-1.0,-0.23128238889695488,-0.8029256420339379,-0.8393389212759579,-3.14,1.685661741089304,-1.3696082127698044
202,0.44683827769207995,0.06430119089933772,0.4421165752524667,3.124189362080404,1.8562561342528128,1.6747991432240275,2.987832772051549,-1.0,-0.23128239979250775,-0.8029256430987541,-0.8393389192435728,-3.14,1.6856617474796136,-1.3696082038862816
203,0.44683827767364215,0.06430119109509465,0.4421165752055842,3.1241893616496443,1.8562561345090411,1.6747991432657177,2.987832781435371,-1.0,-0.23128240988599,-0.8029256440851853,-0.8393389173608001,-3.14,1.6856617533995037,-1.3696081956567145
204,0.446838277656562,0.06430119127644136,0.44211657516215336,3.124189361250595,1.8562561347464084,1.6747991433043392,2.987832790128408,-1.0,-0.23128241923644563,-0.802925644999001,-0.8393389156166263,-3.14,1.685661758883604,-1.3696081880329631
205,0.44683827764073936,0.06430119144443776,0.44211657512191943,3.124189360880922,1.856256134966301,1.6747991433401175,2.9878327981815116,-1.0,-0.23128242789857217,-0.8029256458455469,-0.8393389140008484,-3.14,1.6856617639639953,-1.3696081809704304
206,0.4468382776260819,0.06430119160006721,0.44211657508464886,3.124189360538461,1.8562561351700062,1.674799143373262,2.9878328056417898,-1.0,-0.2312824359230407,-0.8029256466297748,-0.8393389125040146,-3.14,1.6856617686703959,-1.3696081744278021
207,0.4468382776125033,0.06430119174424015,0.44211657505012103,3.124189360221211,1.8562561353587164,1.674799143403967,2.9878328125528832,-1.0,-0.23128244335679202,-0.8029256473562725,-0.8393389111173692,-3.14,1.6856617730303374,-1.3696081683668062
208,0.4468382775999245,0.06430119187779963,0.4421165750181346,3.1241893599273154,1.8562561355335336,1.674799143432411,2.98783281895522,-1.0,-0.2312824502433115,-0.8029256480292898,-0.8393389098328007,-3.14,1.6856617770693239,-1.3696081627519876
209,0.44683827758827166,0.06430119200152788,0.4421165749885038,3.124189359655053,1.8562561356954828,1.6747991434587612,2.9878328248862522,-1.0,-0.23128245662288344,-0.8029256486527631,-0.8393389086427949,-3.14,1.6856617808109824,-1.3696081575505008
210,0.44683827757747663,0.06430119211614713,0.4421165749610532,3.124189359402835,1.8562561358455096,1.6747991434831722,2.9878328303806745,-1.0,-0.23128246253282633,-0.8029256492303397,-0.8393389075403908,-3.14,1.6856617842772006,-1.369608152731919
211,0.44683827756747635,0.06430119222232922,0.44211657493562406,3.124189359169183,1.8562561359844925,1.6747991435057856,2.987832835470628,-1.0,-0.23128246800771174,-0.8029256497653986,-0.8393389065191394,-3.14,1.685661787488255,-1.3696081482680547
212,0.4468382775582124,0.06430119232069484,0.44211657491206785,3.124189358952732,1.8562561361132444,1.6747991435267344,2.9878328401858867,-1.0,-0.2312824730795662,-0.8029256502610695,-0.8393389055730667,-3.14,1.6856617904629292,-1.3696081441327954
213,0.44683827754963035,0.06430119241181913,0.4421165748902445,3.124189358752215,1.856256136232518,1.6747991435461411,2.9878328445540343,-1.0,-0.23128247777805871,-0.802925650720252,-0.8393389046966385,-3.14,1.6856617932186242,-1.369608140301951
214,0.4468382775416801,0.0643011924962351,0.44211657487002787,3.1241893585664573,1.856256136343011,1.6747991435641194,2.9878328486006227,-1.0,-0.2312824821306741,-0.8029256511456322,-0.8393389038847278,-3.14,1.6856617957714601,-1.3696081367531125
215,0.446838277534315,0.06430119257443742,0.4421165748512997,3.124189358394375,1.8562561364453705,1.6747991435807736,2.9878328523493236,-1.0,-0.23128248616287383,-0.8029256515396983,-0.8393389031325855,-3.14,1.6856617981363704,-1.36960813346552
216,0.4468382775274924,0.06430119264688253,0.44211657483395095,3.1241893582349616,1.8562561365401953,1.6747991435962026,2.987832855822066,-1.0,-0.23128248989824524,-0.8029256519047551,-0.8393389024358118,-3.14,1.685661800327189,-1.3696081304199417
217,0.4468382775211722,0.06430119271399454,0.44211657481787886,3.124189358087281,1.8562561366280386,1.6747991436104954,2.987832859039164,-1.0,-0.2312824933586392,-0.8029256522429388,-0.8393389017903303,-3.14,1.6856618023567316,-1.369608127598562
218,0.44683827751531674,0.06430119277616608,0.442116574802989,3.1241893579504736,1.8562561367094157,1.6747991436237362,2.9878328620194368,-1.0,-0.231282496564298,-0.8029256525562273,-0.839338901192366,-3.14,1.6856618042368703,-1.369608124984877
219,0.4468382775098927,0.06430119283376134,0.44211657478919675,3.1241893578237363,1.856256136784803,1.6747991436360024,2.9878328647803185,-1.0,-0.2312824995339739,-0.8029256528464529,-0.8393389006384204,-3.14,1.6856618059786037,-1.369608122563597
220,0.4468382775048678,0.06430119288711644,0.4421165747764186,3.1241893577063298,1.8562561368546397,1.674799143647365,2.9878328673379597,-1.0,-0.23128250228503847,-0.8029256531153142,-0.8393389001252531,-3.14,1.6856618075921201,-1.3696081203205583
221,0.44683827750021277,0.06430119293654427,0.4421165747645813,3.124189357597566,1.856256136919336,1.674799143657891,2.9878328697073213,-1.0,-0.2312825048335849,-0.8029256533643833,-0.8393388996498625,-3.14,1.6856618090868585,-1.3696081182426398
222,0.44683827749590066,0.06430119298233318,0.44211657475361593,3.1241893574968076,1.8562561369792698,1.674799143667643,2.9878328719022633,-1.0,-0.2312825071945214,-0.802925653595117,-0.8393388992094672,-3.14,1.6856618104715624,-1.3696081163176863
223,0.44683827749190613,0.06430119302475111,0.44211657474345806,3.124189357403467,1.8562561370347912,1.674799143676677,2.9878328739356257,-1.0,-0.2312825093816587,-0.8029256538088657,-0.8393388988014913,-3.14,1.685661811754332,-1.3696081145344372
224,0.4468382774882055,0.0643011930640466,0.4421165747340475,3.124189357316998,1.8562561370862254,1.6747991436850456,2.9878328758193033,-1.0,-0.23128251140779096,-0.8029256540068793,-0.8393388984235485,-3.14,1.6856618129426713,-1.369608112882461
225,0.4468382774847774,0.06430119310044931,0.4421165747253298,3.124189357236894,1.8562561371338735,1.6747991436927985,2.987832877564315,-1.0,-0.23128251328477056,-0.8029256541903163,-0.8393388980734277,-3.14,1.6856618140435315,-1.3696081113520944
226,0.4468382774816015,0.0643011931341723,0.4421165747172535,3.1241893571626873,1.856256137178014,1.6747991436999805,2.9878328791808686,-1.0,-0.23128251502357733,-0.8029256543602495,-0.8393388977490809,-3.14,1.6856618150633524,-1.3696081099343849
227,0.4468382774786593,0.06430119316541295,0.442116574709772,3.124189357093943,1.8562561372189048,1.6747991437066334,2.9878328806784205,-1.0,-0.2312825166343826,-0.8029256545176735,-0.8393388974486106,-3.14,1.6856618160080998,-1.3696081086210392
228,0.44683827747593374,0.06430119319435368,0.4421165747028416,3.124189357030259,1.856256137256786,1.6747991437127974,2.9878328820657303,-1.0,-0.2312825181266094,-0.8029256546635085,-0.8393388971702594,-3.14,1.6856618168833,-1.3696081074043749
229,0.446838277473409,0.06430119322116416,0.4421165746964209,3.124189356971263,1.8562561372918784,1.674799143718507,2.9878328833509142,-1.0,-0.23128251950898657,-0.8029256547986081,-0.8393388969123988,-3.14,1.6856618176940728,-1.3696081062772747
230,0.4468382774710699,0.06430119324600082,0.44211657469047344,3.124189356916611,1.856256137324387,1.6747991437237961,2.9878328845414903,-1.0,-0.2312825207896007,-0.8029256549237624,-0.8393388966735205,-3.14,1.685661818445161,-1.3696081052331455
231,0.44683827746890326,0.06430119326900921,0.442116574684963,3.124189356865981,1.8562561373545032,1.6747991437286964,2.9878328856444223,-1.0,-0.23128252197594323,-0.8029256550397036,-0.8393388964522269,-3.14,1.6856618191409583,-1.3696081042658792
232,0.4468382774668961,0.06430119329032366,0.44211657467985943,3.1241893568190786,1.8562561373824018,1.6747991437332357,2.9878328866661628,-1.0,-0.23128252307495367,-0.8029256551471098,-0.8393388962472237,-3.14,1.6856618197855346,-1.3696081033698178
233,0.4468382774650365,0.0643011933100694,0.4421165746751305,3.124189356775629,1.8562561374082471,1.6747991437374408,2.9878328876126883,-1.0,-0.23128252409306102,-0.8029256552466093,-0.8393388960573119,-3.14,1.685661820382661,-1.3696081025397195
234,0.4468382774633139,0.06430119332836103,0.44211657467074933,3.1241893567353776,1.8562561374321895,1.6747991437413368,2.9878328884895358,-1.0,-0.23128252503622088,-0.8029256553387842,-0.8393388958813802,-3.14,1.68566182093583,-1.3696081017707284
235,0.44683827746171806,0.06430119334530697,0.44211657466669146,3.1241893566980887,1.8562561374543698,1.6747991437449452,2.9878328893018344,-1.0,-0.2312825259099505,-0.8029256554241738,-0.8393388957183998,-3.14,1.685661821448278,-1.3696081010583463
236,0.4468382774602399,0.06430119336100447,0.4421165746629326,3.1241893566635466,1.856256137474917,1.6747991437482888,2.9878328900543365,-1.0,-0.23128252671936098,-0.8029256555032772,-0.8393388955674171,-3.14,1.6856618219230022,-1.3696081003984057
237,0.4468382774588701,0.06430119337554724,0.4421165746594492,3.124189356631545,1.8562561374939517,1.6747991437513856,2.987832890751443,-1.0,-0.23128252746918718,-0.8029256555765578,-0.839338895427549,-3.14,1.68566182236278,-1.3696080997870463
238,0.4468382774576015,0.0643011933890192,0.4421165746562228,3.1241893566019,1.8562561375115854,1.6747991437542549,2.9878328913972325,-1.0,-0.2312825281638152,-0.8029256556444437,-0.8393388952979772,-3.14,1.6856618227701836,-1.369608099220692
239,0.4468382774564262,0.0643011934014992,0.4421165746532345,3.1241893565744387,1.8562561375279205,1.6747991437569125,2.987832891995483,-1.0,-0.23128252880730843,-0.8029256557073324,-0.8393388951779435,-3.14,1.6856618231475964,-1.3696080986960297
240,0.44683827745533733,0.0643011934130608,0.4421165746504658,3.1241893565489973,1.8562561375430533,1.6747991437593746,2.987832892549693,-1.0,-0.23128252940343139,-0.8029256557655914,-0.8393388950667462,-3.14,1.6856618234972263,-1.3696080982099899
241,0.4468382774543289,0.064301193423771,0.442116574647901,3.1241893565254295,1.856256137557072,1.6747991437616556,2.9878328930631053,-1.0,-0.23128252995567103,-0.8029256558195617,-0.8393388949637345,-3.14,1.6856618238211183,-1.3696080977597298
242,0.4468382774533946,0.06430119343369302,0.4421165746455246,3.1241893565035963,1.8562561375700593,1.6747991437637688,2.987832893538723,-1.0,-0.2312825304672578,-0.8029256558695589,-0.8393388948683062,-3.14,1.6856618241211672,-1.3696080973426152
243,0.44683827745252885,0.06430119344288444,0.44211657464332366,3.1241893564833707,1.8562561375820903,1.6747991437657266,2.9878328939793284,-1.0,-0.23128253094118434,-0.8029256559158757,-0.8393388947799025,-3.14,1.685661824399128,-1.3696080969562066
244,0.4468382774517271,0.06430119345139941,0.4421165746412846,3.1241893564646337,1.8562561375932352,1.6747991437675396,2.9878328943874988,-1.0,-0.23128253138022303,-0.802925655958783,-0.8393388946980069,-3.14,1.6856618246566268,-1.3696080965982431
245,0.44683827745098414,0.06430119345928742,0.4421165746393956,3.1241893564472765,1.8562561376035602,1.6747991437692198,2.987832894765622,-1.0,-0.2312825317869421,-0.8029256559985315,-0.83933889462214,-3.14,1.68566182489517,-1.3696080962666308
246,0.44683827745029603,0.0643011934665947,0.4421165746376456,3.1241893564311964,1.8562561376131246,1.6747991437707759,2.98783289511591,-1.0,-0.23128253216372077,-0.802925656035354,-0.8393388945518578,-3.14,1.685661825116153,-1.3696080959594301
247,0.4468382774496584,0.06430119347336455,0.44211657463602433,3.1241893564163,1.8562561376219855,1.6747991437722174,2.987832895440411,-1.0,-0.23128253251276307,-0.802925656069466,-0.8393388944867494,-3.14,1.6856618253208686,-1.3696080956748438
248,0.4468382774490682,0.06430119347963525,0.4421165746345229,3.1241893564025007,1.8562561376301938,1.6747991437735534,2.987832895741025,-1.0,-0.2312825328361107,-0.8029256561010667,-0.8393388944264338,-3.14,1.685661825510514,-1.369608095411207
249,0.4468382774485209,0.06430119348544443,0.44211657463313153,3.1241893563897176,1.8562561376377973,1.6747991437747904,2.9878328960195093,-1.0,-0.2312825331356553,-0.8029256561303414,-0.8393388943705584,-3.14,1.6856618256861988,-1.369608095166978
250,0.4468382774480141,0.06430119349082654,0.44211657463184295,3.124189356377875,1.856256137644842,1.6747991437759366,2.9878328962774927,-1.0,-0.23128253341314917,-0.8029256561574608,-0.8393388943187964,-3.14,1.6856618258489506,-1.3696080949407277
251,0.4468382774475447,0.06430119349581216,0.44211657463064824,3.124189356366904,1.8562561376513675,1.6747991437769982,2.987832896516485,-1.0,-0.23128253367021542,-0.8029256561825838,-0.8393388942708446,-3.14,1.6856618259997216,-1.3696080947311327
252,0.44683827744710974,0.06430119350043083,0.44211657462954285,3.1241893563567413,1.8562561376574134,1.6747991437779821,2.9878328967378844,-1.0,-0.23128253390835787,-0.8029256562058572,-0.839338894226423,-3.14,1.6856618261393936,-1.3696080945369669
253,0.4468382774467067,0.06430119350470904,0.4421165746285184,3.124189356347327,1.8562561376630136,1.6747991437788936,2.9878328969429853,-1.0,-0.23128253412896962,-0.8029256562274177,-0.8393388941852714,-3.14,1.6856618262687837,-1.3696080943570943
254,0.44683827744633303,0.06430119350867315,0.4421165746275687,3.124189356338604,1.8562561376682014,1.6747991437797372,2.9878328971329875,-1.0,-0.23128253433334123,-0.8029256562473911,-0.8393388941471494,-3.14,1.685661826388649,-1.369608094190463
255,0.4468382774459872,0.06430119351234498,0.4421165746266895,3.124189356330524,1.8562561376730076,1.6747991437805192,2.987832897309003,-1.0,-0.23128253452266803,-0.8029256562658939,-0.8393388941118335,-3.14,1.6856618264996903,-1.3696080940360982
256,0.44683827744566684,0.06430119351574684,0.4421165746258742,3.124189356323039,1.8562561376774602,1.6747991437812435,2.987832897472061,-1.0,-0.23128253469805765,-0.8029256562830348,-0.8393388940791174,-3.14,1.6856618266025574,-1.369608093893097
257,0.4468382774453701,0.06430119351889767,0.44211657462512016,3.124189356316105,1.8562561376815845,1.6747991437819147,2.987832897623116,-1.0,-0.231282534860536,-0.8029256562989139,-0.8393388940488093,-3.14,1.685661826697852,-1.3696080937606228
258,0.4468382774450953,0.06430119352181689,0.4421165746244211,3.1241893563096808,1.8562561376854056,1.6747991437825367,2.9878328977630506,-1.0,-0.2312825350110537,-0.8029256563136239,-0.8393388940207328,-3.14,1.6856618267861316,-1.3696080936379005
259,0.4468382774448406,0.06430119352452116,0.4421165746237729,3.124189356303731,1.8562561376889453,1.6747991437831125,2.9878328978926847,-1.0,-0.231282535150491,-0.802925656327251,-0.839338893994723,-3.14,1.6856618268679124,-1.3696080935242123
260,0.4468382774446047,0.06430119352702658,0.44211657462317244,3.124189356298218,1.8562561376922242,1.6747991437836456,2.9878328980127753,-1.0,-0.23128253527966378,-0.8029256563398751,-0.8393388939706279,-3.14,1.685661826943673,-1.3696080934188932
261,0.44683827744438637,0.06430119352934778,0.44211657462261766,3.1241893562931105,1.8562561376952627,1.67479914378414,2.9878328981240254,-1.0,-0.2312825353993276,-0.8029256563515695,-0.8393388939483066,-3.14,1.6856618270138566,-1.3696080933213273
262,0.446838277444184,0.06430119353149703,0.44211657462210285,3.1241893562883796,1.8562561376980762,1.6747991437845984,2.987832898227086,-1.0,-0.23128253551018232,-0.8029256563624032,-0.8393388939276281,-3.14,1.6856618270788737,-1.3696080932309436
263,0.4468382774439966,0.06430119353348866,0.4421165746216259,3.124189356283997,1.8562561377006832,1.6747991437850227,2.98783289832256,-1.0,-0.23128253561287657,-0.8029256563724395,-0.839338893908472,-3.14,1.6856618271391044,-1.3696080931472134
264,0.44683827744382276,0.06430119353533413,0.44211657462118426,3.1241893562799365,1.8562561377030984,1.6747991437854153,2.9878328984110056,-1.0,-0.23128253570801097,-0.8029256563817372,-0.8393388938907262,-3.14,1.6856618271949013,-1.369608093069647
265,0.4468382774436617,0.06430119353704296,0.4421165746207753,3.124189356276176,1.8562561377053353,1.6747991437857794,2.9878328984929405,-1.0,-0.23128253579614205,-0.8029256563903504,-0.8393388938742866,-3.14,1.6856618272465909,-1.3696080929977907
266,0.44683827744351257,0.0643011935386268,0.44211657462039594,3.1241893562726917,1.8562561377074083,1.6747991437861165,2.987832898568844,-1.0,-0.2312825358777855,-0.8029256563983295,-0.8393388938590574,-3.14,1.6856618272944752,-1.369608092931224
267,0.4468382774433744,0.06430119354009349,0.4421165746200446,3.124189356269464,1.856256137709328,1.674799143786429,2.9878328986391596,-1.0,-0.2312825359534188,-0.8029256564057211,-0.839338893844949,-3.14,1.6856618273388346,-1.3696080928695575
268,0.4468382774432467,0.06430119354145226,0.4421165746197187,3.1241893562664735,1.8562561377111064,1.6747991437867182,2.987832898704299,-1.0,-0.2312825360234844,-0.8029256564125686,-0.8393388938318793,-3.14,1.6856618273799284,-1.3696080928124306
269,0.446838277443128,0.06430119354271134,0.44211657461941767,3.1241893562637038,1.8562561377127544,1.6747991437869862,2.987832898764643,-1.0,-0.23128253608839214,-0.802925656418912,-0.839338893819772,-3.14,1.6856618274179973,-1.3696080927595091
270,0.44683827744301813,0.06430119354387735,0.44211657461913795,3.124189356261138,1.8562561377142808,1.6747991437872347,2.987832898820545,-1.0,-0.2312825361485217,-0.8029256564247885,-0.8393388938085556,-3.14,1.6856618274532635,-1.3696080927104834
271,0.44683827744291643,0.06430119354495775,0.4421165746188795,3.1241893562587597,1.8562561377156952,1.6747991437874652,2.9878328988723317,-1.0,-0.2312825362042249,-0.8029256564302323,-0.8393388937981651,-3.14,1.6856618274859339,-1.3696080926650667
272,0.4468382774428222,0.06430119354595829,0.44211657461863924,3.124189356256559,1.8562561377170048,1.6747991437876781,2.9878328989203062,-1.0,-0.23128253625582748,-0.8029256564352756,-0.8393388937885394,-3.14,1.6856618275161992,-1.3696080926229932
273,0.44683827744273485,0.06430119354688583,0.44211657461841813,3.1241893562545178,1.8562561377182187,1.6747991437878755,2.987832898964749,-1.0,-0.23128253630363146,-0.8029256564399475,-0.8393388937796222,-3.14,1.6856618275442365,-1.3696080925840168
274,0.446838277442654,0.06430119354774441,0.4421165746182121,3.1241893562526277,1.8562561377193423,1.6747991437880583,2.98783289900592,-1.0,-0.23128253634791632,-0.8029256564442757,-0.8393388937713613,-3.14,1.6856618275702098,-1.36960809254791
275,0.4468382774425791,0.06430119354854,0.4421165746180211,3.1241893562508762,1.8562561377203834,1.6747991437882277,2.9878328990440606,-1.0,-0.23128253638894114,-0.8029256564482852,-0.8393388937637087,-3.14,1.6856618275942712,-1.369608092514461
276,0.44683827744250976,0.06430119354927714,0.44211657461784465,3.124189356249255,1.8562561377213487,1.674799143788385,2.9878328990793936,-1.0,-0.23128253642694602,-0.802925656451999,-0.8393388937566199,-3.14,1.6856618276165611,-1.3696080924834744
277,0.4468382774424452,0.06430119354996014,0.44211657461768117,3.124189356247752,1.8562561377222422,1.67479914378853,2.9878328991121252,-1.0,-0.23128253646215313,-0.8029256564554399,-0.8393388937500527,-3.14,1.6856618276372104,-1.3696080924547687
278,0.4468382774423856,0.0643011935505926,0.4421165746175297,3.1241893562463607,1.8562561377230702,1.6747991437886647,2.9878328991424477,-1.0,-0.23128253649476851,-0.8029256564586272,-0.8393388937439689,-3.14,1.6856618276563395,-1.3696080924281762
279,0.44683827744233034,0.0643011935511785,0.442116574617389,3.1241893562450715,1.8562561377238374,1.6747991437887897,2.9878328991705376,-1.0,-0.23128253652498296,-0.80292565646158,-0.8393388937383328,-3.14,1.6856618276740605,-1.3696080924035412
280,0.4468382774422791,0.06430119355172137,0.4421165746172593,3.1241893562438765,1.856256137724548,1.6747991437889054,2.98783289919656,-1.0,-0.23128253655297318,-0.8029256564643156,-0.8393388937331117,-3.14,1.685661827690477,-1.36960809238072
281,0.4468382774422318,0.06430119355222427,0.4421165746171394,3.12418935624277,1.8562561377252058,1.6747991437890122,2.9878328992206664,-1.0,-0.23128253657890294,-0.8029256564668497,-0.8393388937282751,-3.14,1.685661827705685,-1.3696080923595786
282,0.44683827744218774,0.06430119355269019,0.4421165746170273,3.124189356241745,1.856256137725816,1.6747991437891117,2.9878328992429983,-1.0,-0.23128253660292386,-0.8029256564691971,-0.8393388937237946,-3.14,1.6856618277197732,-1.3696080923399934
283,0.4468382774421472,0.06430119355312194,0.4421165746169235,3.124189356240795,1.8562561377263809,1.6747991437892034,2.9878328992636867,-1.0,-0.23128253662517645,-0.802925656471372,-0.8393388937196435,-3.14,1.6856618277328246,-1.36960809232185
284,0.4468382774421098,0.06430119355352168,0.4421165746168285,3.1241893562399152,1.8562561377269045,1.6747991437892888,2.987832899282852,-1.0,-0.2312825366457909,-0.8029256564733865,-0.8393388937157982,-3.14,1.6856618277449151,-1.3696080923050424
285,0.4468382774420747,0.06430119355389205,0.44211657461673876,3.1241893562391003,1.8562561377273887,1.6747991437893672,2.987832899300606,-1.0,-0.23128253666488785,-0.8029256564752532,-0.8393388937122358,-3.14,1.6856618277561155,-1.369608092289472
286,0.4468382774420425,0.06430119355423523,0.44211657461665727,3.1241893562383454,1.8562561377278382,1.6747991437894405,2.9878328993170533,-1.0,-0.23128253668257898,-0.8029256564769821,-0.8393388937089358,-3.14,1.6856618277664914,-1.3696080922750478
287,0.4468382774420127,0.06430119355455305,0.442116574616582,3.1241893562376464,1.8562561377282543,1.6747991437895082,2.98783289933229,-1.0,-0.23128253669896778,-0.8029256564785838,-0.8393388937058784,-3.14,1.6856618277761035,-1.3696080922616853
288,0.4468382774419851,0.06430119355484733,0.4421165746165109,3.1241893562369984,1.856256137728639,1.6747991437895706,2.987832899346405,-1.0,-0.23128253671415017,-0.8029256564800676,-0.8393388937030463,-3.14,1.6856618277850082,-1.3696080922493066
289,0.44683827744195953,0.06430119355511973,0.44211657461644605,3.124189356236398,1.8562561377289961,1.6747991437896292,2.9878328993594807,-1.0,-0.23128253672821494,-0.802925656481442,-0.8393388937004228,-3.14,1.6856618277932571,-1.369608092237839
290,0.4468382774419356,0.0643011935553729,0.4421165746163853,3.1241893562358416,1.8562561377293274,1.674799143789683,2.9878328993715937,-1.0,-0.23128253674124438,-0.8029256564827153,-0.8393388936979924,-3.14,1.685661827800899,-1.3696080922272158
291,0.4468382774419137,0.06430119355560694,0.44211657461632875,3.1241893562353265,1.8562561377296336,1.6747991437897327,2.9878328993828154,-1.0,-0.2312825367533146,-0.8029256564838951,-0.8393388936957409,-3.14,1.6856618278079782,-1.3696080922173746
292,0.44683827744189325,0.06430119355582409,0.44211657461627685,3.124189356234849,1.8562561377299176,1.6747991437897787,2.9878328993932106,-1.0,-0.23128253676449625,-0.8029256564849878,-0.8393388936936551,-3.14,1.6856618278145363,-1.3696080922082579
293,0.4468382774418744,0.06430119355602457,0.4421165746162291,3.124189356234407,1.8562561377301803,1.6747991437898218,2.987832899402841,-1.0,-0.23128253677485477,-0.8029256564860001,-0.8393388936917229,-3.14,1.6856618278206117,-1.3696080921998122
294,0.446838277441857,0.06430119355621078,0.442116574616185,3.1241893562339973,1.856256137730424,1.6747991437898615,2.9878328994117624,-1.0,-0.23128253678445074,-0.8029256564869378,-0.8393388936899329,-3.14,1.6856618278262399,-1.3696080921919882
295,0.4468382774418406,0.06430119355638314,0.44211657461614295,3.1241893562336185,1.8562561377306495,1.674799143789898,2.987832899420027,-1.0,-0.2312825367933403,-0.8029256564878068,-0.8393388936882746,-3.14,1.6856618278314537,-1.3696080921847402
296,0.4468382774418257,0.06430119355654297,0.4421165746161051,3.1241893562332668,1.8562561377308588,1.674799143789932,2.987832899427683,-1.0,-0.23128253680157554,-0.8029256564886115,-0.8393388936867385,-3.14,1.6856618278362836,-1.3696080921780258
297,0.4468382774418118,0.06430119355669094,0.4421165746160703,3.124189356232941,1.8562561377310525,1.6747991437899636,2.9878328994347756,-1.0,-0.23128253680920444,-0.8029256564893571,-0.8393388936853152,-3.14,1.685661827840758,-1.3696080921718057
298,0.44683827744179894,0.06430119355682756,0.4421165746160371,3.1241893562326397,1.8562561377312314,1.674799143789993,2.9878328994413463,-1.0,-0.23128253681627176,-0.8029256564900478,-0.8393388936839971,-3.14,1.6856618278449031,-1.3696080921660434
299,0.4468382774417866,0.06430119355695482,0.44211657461600595,3.124189356232361,1.856256137731398,1.6747991437900198,2.987832899447433,-1.0,-0.23128253682281893,-0.8029256564906876,-0.839338893682776,-3.14,1.6856618278487432,-1.3696080921607052
300,0.4468382774417757,0.06430119355707242,0.4421165746159779,3.1241893562321015,1.8562561377315518,1.674799143790045,2.9878328994530716,-1.0,-0.23128253682888414,-0.8029256564912803,-0.8393388936816447,-3.14,1.6856618278523003,-1.36960809215576
301,0.44683827744176524,0.06430119355718156,0.442116574615952,3.124189356231861,1.8562561377316942,1.6747991437900678,2.987832899458295,-1.0,-0.23128253683450284,-0.8029256564918295,-0.8393388936805967,-3.14,1.6856618278555957,-1.369608092151179
302,0.4468382774417555,0.06430119355728253,0.4421165746159281,3.124189356231639,1.8562561377318267,1.6747991437900895,2.9878328994631342,-1.0,-0.23128253683970787,-0.8029256564923379,-0.839338893679626,-3.14,1.6856618278586486,-1.3696080921469351
303,0.44683827744174676,0.06430119355737625,0.44211657461590526,3.1241893562314336,1.8562561377319493,1.6747991437901093,2.9878328994676173,-1.0,-0.2312825368445297,-0.8029256564928093,-0.8393388936787267,-3.14,1.6856618278614766,-1.3696080921430038
304,0.44683827744173865,0.06430119355746246,0.4421165746158845,3.124189356231243,1.8562561377320625,1.6747991437901282,2.98783289947177,-1.0,-0.23128253684899666,-0.8029256564932457,-0.8393388936778935,-3.14,1.6856618278640965,-1.3696080921393619
305,0.446838277441731,0.06430119355754271,0.4421165746158648,3.1241893562310663,1.8562561377321676,1.6747991437901453,2.987832899475617,-1.0,-0.23128253685313474,-0.80292565649365,-0.8393388936771218,-3.14,1.6856618278665234,-1.3696080921359879
306,0.44683827744172394,0.0643011935576172,0.44211657461584764,3.124189356230903,1.856256137732265,1.674799143790161,2.9878328994791814,-1.0,-0.23128253685696815,-0.8029256564940247,-0.8393388936764067,-3.14,1.6856618278687718,-1.3696080921328624
307,0.4468382774417173,0.06430119355768622,0.44211657461583054,3.1241893562307514,1.8562561377323552,1.6747991437901755,2.987832899482483,-1.0,-0.23128253686051936,-0.802925656494372,-0.8393388936757442,-3.14,1.6856618278708546,-1.369608092129967
308,0.44683827744171156,0.06430119355775003,0.4421165746158155,3.124189356230611,1.8562561377324387,1.674799143790189,2.9878328994855416,-1.0,-0.2312825368638092,-0.8029256564946933,-0.8393388936751306,-3.14,1.6856618278727842,-1.3696080921272846
309,0.44683827744170584,0.06430119355780897,0.44211657461580145,3.1241893562304814,1.856256137732516,1.6747991437902017,2.987832899488375,-1.0,-0.23128253686685685,-0.8029256564949911,-0.839338893674562,-3.14,1.6856618278745716,-1.3696080921247997
310,0.44683827744170096,0.06430119355786382,0.4421165746157885,3.124189356230361,1.856256137732588,1.6747991437902134,2.987832899491,-1.0,-0.23128253686968017,-0.8029256564952669,-0.8393388936740354,-3.14,1.6856618278762274,-1.3696080921224978
311,0.4468382774416963,0.06430119355791437,0.4421165746157766,3.124189356230249,1.8562561377326543,1.6747991437902245,2.9878328994934313,-1.0,-0.2312825368722957,-0.8029256564955225,-0.8393388936735474,-3.14,1.6856618278777613,-1.3696080921203653
312,0.44683827744169186,0.06430119355796128,0.44211657461576565,3.1241893562301453,1.8562561377327156,1.6747991437902345,2.9878328994956838,-1.0,-0.23128253687471867,-0.8029256564957593,-0.8393388936730953,-3.14,1.6856618278791824,-1.3696080921183897
313,0.4468382774416877,0.06430119355800511,0.44211657461575476,3.12418935623005,1.8562561377327729,1.6747991437902436,2.9878328994977705,-1.0,-0.23128253687696324,-0.8029256564959789,-0.8393388936726766,-3.14,1.685661827880499,-1.3696080921165597
314,0.44683827744168375,0.0643011935580456,0.4421165746157449,3.124189356229961,1.8562561377328255,1.6747991437902519,2.9878328994997037,-1.0,-0.23128253687904257,-0.8029256564961822,-0.8393388936722888,-3.14,1.6856618278817186,-1.3696080921148643
315,0.4468382774416802,0.06430119355808238,0.44211657461573606,3.1241893562298793,1.856256137732874,1.67479914379026,2.9878328995014947,-1.0,-0.2312825368809688,-0.8029256564963705,-0.8393388936719294,-3.14,1.6856618278828484,-1.3696080921132938
316,0.4468382774416765,0.06430119355811727,0.44211657461572723,3.1241893562298024,1.8562561377329192,1.6747991437902672,2.9878328995031533,-1.0,-0.23128253688275335,-0.8029256564965448,-0.8393388936715969,-3.14,1.6856618278838948,-1.3696080921118388
317,0.4468382774416738,0.06430119355814995,0.44211657461571946,3.1241893562297314,1.856256137732962,1.674799143790274,2.9878328995046903,-1.0,-0.23128253688440642,-0.8029256564967062,-0.8393388936712887,-3.14,1.6856618278848645,-1.369608092110491
318,0.4468382774416712,0.064301193558179,0.44211657461571274,3.124189356229667,1.856256137733,1.6747991437902803,2.9878328995061145,-1.0,-0.23128253688593767,-0.802925656496856,-0.8393388936710027,-3.14,1.6856618278857627,-1.3696080921092424
319,0.44683827744166876,0.06430119355820671,0.44211657461570597,3.124189356229606,1.8562561377330367,1.6747991437902865,2.9878328995074335,-1.0,-0.23128253688735642,-0.8029256564969945,-0.8393388936707381,-3.14,1.6856618278865947,-1.3696080921080858
320,0.4468382774416663,0.0643011935582322,0.44211657461570025,3.12418935622955,1.8562561377330702,1.674799143790292,2.987832899508655,-1.0,-0.23128253688867068,-0.802925656497123,-0.8393388936704927,-3.14,1.6856618278873656,-1.3696080921070142
321,0.44683827744166416,0.06430119355825559,0.44211657461569454,3.1241893562294982,1.8562561377331006,1.674799143790297,2.987832899509787,-1.0,-0.23128253688988815,-0.8029256564972421,-0.8393388936702655,-3.14,1.6856618278880797,-1.3696080921060216
322,0.4468382774416621,0.0643011935582775,0.4421165746156904,3.12418935622945,1.8562561377331293,1.6747991437903016,2.9878328995108356,-1.0,-0.23128253689101605,-0.8029256564973524,-0.839338893670055,-3.14,1.6856618278887412,-1.369608092105102
323,0.4468382774416603,0.06430119355829773,0.4421165746156847,3.1241893562294054,1.856256137733156,1.674799143790306,2.987832899511807,-1.0,-0.2312825368920609,-0.8029256564974544,-0.83933889366986,-3.14,1.685661827889354,-1.36960809210425
324,0.4468382774416585,0.06430119355831677,0.44211657461568055,3.1241893562293637,1.8562561377331805,1.6747991437903098,2.9878328995127066,-1.0,-0.23128253689302888,-0.8029256564975491,-0.8393388936696795,-3.14,1.6856618278899218,-1.3696080921034608
325,0.4468382774416567,0.06430119355833393,0.4421165746156759,3.124189356229325,1.8562561377332032,1.6747991437903138,2.98783289951354,-1.0,-0.23128253689392556,-0.8029256564976367,-0.8393388936695123,-3.14,1.6856618278904476,-1.3696080921027296
326,0.44683827744165516,0.06430119355835033,0.4421165746156717,3.1241893562292904,1.8562561377332243,1.6747991437903167,2.987832899514313,-1.0,-0.2312825368947562,-0.8029256564977179,-0.8393388936693577,-3.14,1.6856618278909348,-1.3696080921020524
327,0.44683827744165383,0.06430119355836483,0.4421165746156686,3.1241893562292575,1.8562561377332438,1.6747991437903205,2.9878328995150283,-1.0,-0.23128253689552575,-0.8029256564977928,-0.8393388936692141,-3.14,1.6856618278913862,-1.3696080921014249
328,0.4468382774416527,0.06430119355837845,0.442116574615665,3.1241893562292273,1.8562561377332616,1.6747991437903234,2.987832899515691,-1.0,-0.2312825368962386,-0.8029256564978626,-0.8393388936690809,-3.14,1.6856618278918043,-1.3696080921008438
329,0.4468382774416514,0.0643011935583916,0.4421165746156619,3.1241893562291985,1.8562561377332787,1.674799143790326,2.9878328995163046,-1.0,-0.23128253689689904,-0.8029256564979272,-0.8393388936689579,-3.14,1.6856618278921915,-1.3696080921003053
330,0.4468382774416503,0.06430119355840366,0.4421165746156598,3.1241893562291727,1.8562561377332942,1.6747991437903282,2.9878328995168735,-1.0,-0.23128253689751077,-0.8029256564979872,-0.8393388936688435,-3.14,1.6856618278925504,-1.3696080920998066
331,0.44683827744164945,0.06430119355841442,0.4421165746156567,3.1241893562291487,1.8562561377333087,1.674799143790331,2.9878328995174006,-1.0,-0.2312825368980775,-0.8029256564980424,-0.8393388936687378,-3.14,1.6856618278928828,-1.3696080920993445
332,0.44683827744164845,0.0643011935584247,0.44211657461565407,3.1241893562291265,1.856256137733322,1.674799143790333,2.9878328995178887,-1.0,-0.23128253689860254,-0.8029256564980937,-0.8393388936686399,-3.14,1.6856618278931907,-1.3696080920989164
333,0.4468382774416475,0.06430119355843392,0.4421165746156525,3.1241893562291057,1.856256137733334,1.674799143790335,2.9878328995183407,-1.0,-0.23128253689908893,-0.8029256564981412,-0.8393388936685492,-3.14,1.685661827893476,-1.3696080920985199
334,0.44683827744164634,0.06430119355844266,0.4421165746156494,3.124189356229086,1.8562561377333455,1.674799143790337,2.9878328995187595,-1.0,-0.23128253689953956,-0.8029256564981853,-0.8393388936684654,-3.14,1.6856618278937403,-1.3696080920981524
335,0.44683827744164545,0.06430119355845114,0.44211657461564785,3.124189356229068,1.8562561377333562,1.6747991437903382,2.9878328995191477,-1.0,-0.23128253689995693,-0.8029256564982262,-0.8393388936683874,-3.14,1.685661827893985,-1.3696080920978122
336,0.44683827744164495,0.06430119355845851,0.4421165746156468,3.1241893562290524,1.8562561377333662,1.67479914379034,2.9878328995195074,-1.0,-0.2312825369003435,-0.802925656498264,-0.8393388936683152,-3.14,1.6856618278942117,-1.369608092097497
337,0.4468382774416444,0.0643011935584654,0.44211657461564474,3.124189356229036,1.856256137733375,1.6747991437903416,2.98783289951984,-1.0,-0.23128253690070175,-0.8029256564982991,-0.8393388936682482,-3.14,1.6856618278944218,-1.3696080920972047
338,0.4468382774416438,0.06430119355847186,0.4421165746156432,3.124189356229023,1.8562561377333837,1.674799143790343,2.9878328995201486,-1.0,-0.23128253690103354,-0.8029256564983315,-0.8393388936681864,-3.14,1.6856618278946165,-1.3696080920969342
339,0.44683827744164323,0.06430119355847774,0.44211657461564163,3.124189356229009,1.8562561377333913,1.6747991437903442,2.987832899520434,-1.0,-0.231282536901341,-0.8029256564983615,-0.8393388936681291,-3.14,1.6856618278947968,-1.3696080920966835
340,0.44683827744164256,0.06430119355848331,0.4421165746156406,3.1241893562289973,1.8562561377333986,1.6747991437903453,2.987832899520699,-1.0,-0.23128253690162576,-0.8029256564983891,-0.839338893668076,-3.14,1.6856618278949638,-1.3696080920964513
341,0.4468382774416423,0.06430119355848832,0.442116574615639,3.1241893562289853,1.8562561377334053,1.6747991437903467,2.987832899520944,-1.0,-0.23128253690188955,-0.8029256564984151,-0.8393388936680267,-3.14,1.6856618278951185,-1.3696080920962361
342,0.4468382774416415,0.06430119355849329,0.44211657461563747,3.124189356228975,1.8562561377334115,1.6747991437903473,2.9878328995211714,-1.0,-0.23128253690213393,-0.802925656498439,-0.8393388936679813,-3.14,1.685661827895262,-1.369608092096037
343,0.4468382774416411,0.06430119355849738,0.4421165746156364,3.1241893562289658,1.856256137733417,1.6747991437903484,2.987832899521382,-1.0,-0.2312825369023604,-0.802925656498461,-0.8393388936679391,-3.14,1.6856618278953948,-1.3696080920958524
344,0.44683827744164084,0.06430119355850179,0.4421165746156354,3.1241893562289564,1.8562561377334226,1.674799143790349,2.987832899521577,-1.0,-0.2312825369025701,-0.8029256564984816,-0.8393388936679,-3.14,1.6856618278955178,-1.3696080920956815
345,0.4468382774416404,0.0643011935585055,0.44211657461563486,3.124189356228949,1.856256137733428,1.6747991437903502,2.9878328995217576,-1.0,-0.23128253690276437,-0.8029256564985006,-0.8393388936678639,-3.14,1.6856618278956317,-1.3696080920955231
346,0.4468382774416402,0.06430119355850876,0.44211657461563436,3.1241893562289405,1.856256137733432,1.6747991437903509,2.9878328995219245,-1.0,-0.2312825369029444,-0.8029256564985183,-0.8393388936678301,-3.14,1.6856618278957372,-1.3696080920953764
347,0.44683827744163973,0.06430119355851226,0.4421165746156333,3.124189356228934,1.8562561377334363,1.6747991437903513,2.9878328995220795,-1.0,-0.23128253690311115,-0.8029256564985345,-0.8393388936677991,-3.14,1.6856618278958349,-1.3696080920952405
348,0.44683827744163945,0.06430119355851474,0.44211657461563175,3.1241893562289267,1.8562561377334397,1.6747991437903522,2.9878328995222234,-1.0,-0.23128253690326556,-0.8029256564985497,-0.8393388936677701,-3.14,1.6856618278959254,-1.3696080920951146
349,0.44683827744163895,0.06430119355851799,0.44211657461563125,3.124189356228921,1.8562561377334437,1.6747991437903524,2.9878328995223566,-1.0,-0.23128253690340866,-0.8029256564985637,-0.8393388936677438,-3.14,1.6856618278960094,-1.3696080920949978
350,0.44683827744163845,0.06430119355852072,0.4421165746156302,3.1241893562289156,1.8562561377334472,1.6747991437903529,2.98783289952248,-1.0,-0.23128253690354122,-0.8029256564985766,-0.8393388936677193,-3.14,1.685661827896087,-1.3696080920948897
351,0.44683827744163845,0.06430119355852319,0.4421165746156302,3.12418935622891,1.8562561377334506,1.6747991437903536,2.9878328995225942,-1.0,-0.23128253690366396,-0.8029256564985886,-0.8393388936676962,-3.14,1.6856618278961593,-1.3696080920947895
352,0.44683827744163823,0.06430119355852532,0.4421165746156297,3.124189356228906,1.8562561377334534,1.674799143790354,2.9878328995227004,-1.0,-0.23128253690377773,-0.8029256564985996,-0.8393388936676751,-3.14,1.6856618278962259,-1.3696080920946967
353,0.4468382774416381,0.06430119355852687,0.4421165746156292,3.1241893562289014,1.8562561377334557,1.6747991437903547,2.987832899522798,-1.0,-0.23128253690388315,-0.8029256564986099,-0.8393388936676552,-3.14,1.6856618278962878,-1.3696080920946108
354,0.4468382774416377,0.06430119355852937,0.44211657461562864,3.124189356228897,1.8562561377334585,1.6747991437903547,2.9878328995228887,-1.0,-0.2312825369039809,-0.8029256564986194,-0.8393388936676373,-3.14,1.685661827896345,-1.369608092094531
355,0.4468382774416379,0.06430119355853056,0.44211657461562864,3.124189356228893,1.8562561377334605,1.6747991437903555,2.9878328995229726,-1.0,-0.23128253690407138,-0.8029256564986281,-0.8393388936676203,-3.14,1.6856618278963982,-1.3696080920944573
356,0.4468382774416376,0.0643011935585325,0.44211657461562814,3.1241893562288894,1.8562561377334628,1.6747991437903555,2.9878328995230508,-1.0,-0.2312825369041552,-0.8029256564986363,-0.8393388936676048,-3.14,1.6856618278964473,-1.369608092094389
357,0.4468382774416372,0.0643011935585339,0.4421165746156276,3.1241893562288863,1.8562561377334648,1.674799143790356,2.987832899523123,-1.0,-0.2312825369042328,-0.8029256564986439,-0.8393388936675904,-3.14,1.6856618278964928,-1.3696080920943257
358,0.44683827744163757,0.06430119355853538,0.4421165746156271,3.1241893562288827,1.8562561377334668,1.6747991437903564,2.9878328995231898,-1.0,-0.23128253690430478,-0.8029256564986509,-0.8393388936675769,-3.14,1.685661827896535,-1.369608092094267
359,0.4468382774416377,0.06430119355853643,0.4421165746156271,3.12418935622888,1.8562561377334683,1.6747991437903569,2.987832899523252,-1.0,-0.23128253690437128,-0.8029256564986575,-0.8393388936675641,-3.14,1.685661827896574,-1.3696080920942129
360,0.4468382774416373,0.06430119355853796,0.4421165746156271,3.1241893562288774,1.85625613773347,1.6747991437903569,2.987832899523309,-1.0,-0.23128253690443304,-0.8029256564986637,-0.8393388936675528,-3.14,1.6856618278966102,-1.3696080920941625
361,0.4468382774416368,0.06430119355853933,0.4421165746156266,3.1241893562288747,1.8562561377334716,1.6747991437903569,2.9878328995233625,-1.0,-0.23128253690449024,-0.8029256564986692,-0.8393388936675422,-3.14,1.6856618278966438,-1.3696080920941158
362,0.44683827744163707,0.06430119355854012,0.4421165746156266,3.124189356228873,1.856256137733473,1.6747991437903573,2.987832899523412,-1.0,-0.23128253690454315,-0.8029256564986743,-0.8393388936675322,-3.14,1.6856618278966748,-1.3696080920940727
363,0.44683827744163684,0.06430119355854064,0.44211657461562603,3.124189356228871,1.8562561377334736,1.6747991437903575,2.9878328995234575,-1.0,-0.23128253690459216,-0.8029256564986792,-0.8393388936675229,-3.14,1.6856618278967037,-1.3696080920940328
364,0.4468382774416368,0.06430119355854201,0.44211657461562504,3.1241893562288685,1.8562561377334752,1.6747991437903575,2.9878328995234997,-1.0,-0.2312825369046377,-0.8029256564986836,-0.8393388936675147,-3.14,1.6856618278967304,-1.3696080920939957
365,0.44683827744163684,0.06430119355854247,0.44211657461562553,3.124189356228867,1.8562561377334759,1.6747991437903578,2.987832899523539,-1.0,-0.2312825369046798,-0.8029256564986876,-0.8393388936675067,-3.14,1.685661827896755,-1.3696080920939613
366,0.4468382774416369,0.06430119355854337,0.44211657461562553,3.1241893562288645,1.8562561377334772,1.6747991437903582,2.987832899523575,-1.0,-0.23128253690471887,-0.8029256564986912,-0.8393388936674996,-3.14,1.6856618278967779,-1.3696080920939295
367,0.4468382774416368,0.06430119355854423,0.44211657461562504,3.1241893562288636,1.8562561377334783,1.6747991437903582,2.9878328995236085,-1.0,-0.23128253690475492,-0.8029256564986949,-0.8393388936674928,-3.14,1.685661827896799,-1.3696080920939
368,0.4468382774416366,0.06430119355854476,0.44211657461562504,3.124189356228862,1.8562561377334788,1.6747991437903582,2.9878328995236396,-1.0,-0.2312825369047884,-0.8029256564986982,-0.8393388936674865,-3.14,1.6856618278968187,-1.3696080920938727
369,0.4468382774416367,0.06430119355854551,0.4421165746156245,3.1241893562288605,1.8562561377334799,1.6747991437903584,2.9878328995236685,-1.0,-0.23128253690481942,-0.8029256564987012,-0.8393388936674808,-3.14,1.685661827896837,-1.3696080920938474
370,0.4468382774416365,0.06430119355854598,0.44211657461562504,3.12418935622886,1.856256137733481,1.6747991437903589,2.987832899523695,-1.0,-0.23128253690484815,-0.802925656498704,-0.8393388936674755,-3.14,1.6856618278968538,-1.369608092093824
371,0.44683827744163634,0.06430119355854652,0.44211657461562504,3.1241893562288583,1.8562561377334812,1.6747991437903587,2.9878328995237196,-1.0,-0.23128253690487477,-0.8029256564987068,-0.8393388936674702,-3.14,1.6856618278968694,-1.3696080920938023
372,0.44683827744163657,0.06430119355854676,0.44211657461562504,3.1241893562288574,1.8562561377334816,1.6747991437903589,2.9878328995237426,-1.0,-0.23128253690489944,-0.8029256564987092,-0.8393388936674656,-3.14,1.6856618278968838,-1.3696080920937823
373,0.4468382774416364,0.06430119355854733,0.4421165746156245,3.1241893562288565,1.8562561377334823,1.6747991437903589,2.987832899523764,-1.0,-0.2312825369049223,-0.8029256564987114,-0.8393388936674614,-3.14,1.6856618278968971,-1.3696080920937637
374,0.4468382774416364,0.06430119355854803,0.4421165746156245,3.1241893562288556,1.8562561377334832,1.6747991437903589,2.9878328995237835,-1.0,-0.2312825369049434,-0.8029256564987134,-0.8393388936674575,-3.14,1.6856618278969095,-1.3696080920937463
375,0.44683827744163623,0.06430119355854792,0.4421165746156245,3.124189356228855,1.8562561377334832,1.674799143790359,2.9878328995238017,-1.0,-0.23128253690496295,-0.8029256564987154,-0.8393388936674537,-3.14,1.685661827896921,-1.3696080920937304
376,0.4468382774416361,0.06430119355854857,0.4421165746156245,3.124189356228854,1.8562561377334834,1.6747991437903587,2.9878328995238186,-1.0,-0.23128253690498116,-0.8029256564987173,-0.8393388936674504,-3.14,1.6856618278969318,-1.3696080920937155
377,0.4468382774416362,0.06430119355854857,0.442116574615624,3.1241893562288534,1.8562561377334843,1.6747991437903595,2.987832899523834,-1.0,-0.231282536904998,-0.8029256564987187,-0.8393388936674474,-3.14,1.6856618278969415,-1.3696080920937017
378,0.44683827744163584,0.06430119355854931,0.442116574615624,3.1241893562288525,1.8562561377334845,1.6747991437903589,2.9878328995238483,-1.0,-0.23128253690501363,-0.8029256564987205,-0.8393388936674445,-3.14,1.6856618278969506,-1.369608092093689
379,0.4468382774416363,0.06430119355854946,0.4421165746156245,3.124189356228851,1.856256137733485,1.6747991437903593,2.9878328995238617,-1.0,-0.231282536905028,-0.8029256564987218,-0.8393388936674416,-3.14,1.685661827896959,-1.3696080920936773
380,0.4468382774416361,0.06430119355854991,0.442116574615624,3.124189356228851,1.8562561377334856,1.6747991437903593,2.987832899523874,-1.0,-0.23128253690504136,-0.8029256564987232,-0.8393388936674392,-3.14,1.685661827896967,-1.3696080920936664
381,0.44683827744163623,0.06430119355855016,0.442116574615624,3.1241893562288503,1.856256137733486,1.6747991437903595,2.9878328995238856,-1.0,-0.23128253690505368,-0.8029256564987244,-0.8393388936674366,-3.14,1.6856618278969744,-1.3696080920936564
382,0.44683827744163646,0.06430119355854985,0.44211657461562504,3.1241893562288503,1.8562561377334856,1.6747991437903595,2.9878328995238963,-1.0,-0.23128253690506512,-0.8029256564987255,-0.8393388936674342,-3.14,1.685661827896981,-1.369608092093647
383,0.44683827744163623,0.06430119355855021,0.442116574615624,3.12418935622885,1.856256137733486,1.6747991437903595,2.9878328995239065,-1.0,-0.2312825369050757,-0.8029256564987265,-0.8393388936674324,-3.14,1.6856618278969873,-1.3696080920936384
384,0.4468382774416366,0.06430119355855039,0.4421165746156245,3.1241893562288494,1.8562561377334865,1.6747991437903598,2.987832899523916,-1.0,-0.23128253690508552,-0.8029256564987273,-0.8393388936674305,-3.14,1.685661827896993,-1.3696080920936304
385,0.4468382774416364,0.06430119355855025,0.442116574615624,3.1241893562288494,1.8562561377334863,1.6747991437903598,2.9878328995239243,-1.0,-0.23128253690509468,-0.8029256564987283,-0.8393388936674288,-3.14,1.6856618278969984,-1.3696080920936229
386,0.4468382774416363,0.06430119355855055,0.442116574615624,3.1241893562288494,1.8562561377334867,1.6747991437903598,2.9878328995239323,-1.0,-0.23128253690510314,-0.8029256564987292,-0.8393388936674272,-3.14,1.6856618278970033,-1.369608092093616
387,0.4468382774416363,0.06430119355855106,0.442116574615624,3.124189356228849,1.8562561377334872,1.6747991437903595,2.9878328995239394,-1.0,-0.23128253690511105,-0.80292565649873,-0.8393388936674258,-3.14,1.685661827897008,-1.3696080920936096
388,0.4468382774416365,0.06430119355855089,0.442116574615624,3.1241893562288476,1.8562561377334874,1.6747991437903602,2.987832899523946,-1.0,-0.2312825369051184,-0.8029256564987305,-0.8393388936674243,-3.14,1.6856618278970121,-1.3696080920936036
389,0.4468382774416365,0.06430119355855152,0.4421165746156245,3.1241893562288476,1.8562561377334879,1.6747991437903598,2.9878328995239523,-1.0,-0.23128253690512507,-0.8029256564987314,-0.8393388936674229,-3.14,1.6856618278970161,-1.3696080920935982
390,0.4468382774416367,0.06430119355855099,0.4421165746156245,3.124189356228848,1.8562561377334874,1.67479914379036,2.9878328995239585,-1.0,-0.23128253690513118,-0.8029256564987322,-0.8393388936674214,-3.14,1.6856618278970197,-1.3696080920935934
391,0.4468382774416364,0.06430119355855125,0.442116574615624,3.124189356228847,1.8562561377334876,1.67479914379036,2.987832899523964,-1.0,-0.231282536905137,-0.8029256564987326,-0.8393388936674205,-3.14,1.685661827897023,-1.3696080920935885
392,0.44683827744163646,0.06430119355855121,0.4421165746156235,3.1241893562288476,1.8562561377334876,1.67479914379036,2.9878328995239687,-1.0,-0.23128253690514236,-0.802925656498733,-0.8393388936674198,-3.14,1.6856618278970261,-1.369608092093584
393,0.44683827744163623,0.06430119355855156,0.442116574615624,3.124189356228847,1.856256137733488,1.67479914379036,2.987832899523973,-1.0,-0.23128253690514736,-0.8029256564987335,-0.8393388936674189,-3.14,1.685661827897029,-1.36960809209358
394,0.4468382774416363,0.06430119355855157,0.442116574615624,3.124189356228846,1.856256137733488,1.6747991437903602,2.987832899523977,-1.0,-0.231282536905152,-0.8029256564987338,-0.8393388936674181,-3.14,1.6856618278970317,-1.3696080920935763
395,0.44683827744163657,0.06430119355855181,0.442116574615624,3.1241893562288463,1.8562561377334885,1.6747991437903602,2.987832899523981,-1.0,-0.23128253690515616,-0.8029256564987343,-0.8393388936674173,-3.14,1.6856618278970343,-1.369608092093573
396,0.44683827744163634,0.06430119355855171,0.442116574615624,3.124189356228846,1.8562561377334883,1.6747991437903602,2.9878328995239847,-1.0,-0.23128253690516004,-0.8029256564987348,-0.8393388936674164,-3.14,1.6856618278970366,-1.3696080920935698
397,0.4468382774416362,0.06430119355855182,0.442116574615624,3.1241893562288463,1.8562561377334883,1.67479914379036,2.9878328995239882,-1.0,-0.23128253690516365,-0.8029256564987352,-0.8393388936674159,-3.14,1.6856618278970388,-1.369608092093567
398,0.44683827744163646,0.06430119355855234,0.442116574615624,3.124189356228846,1.8562561377334887,1.6747991437903598,2.9878328995239913,-1.0,-0.23128253690516704,-0.8029256564987354,-0.8393388936674153,-3.14,1.6856618278970408,-1.369608092093564
399,0.4468382774416364,0.06430119355855217,0.4421165746156245,3.124189356228846,1.8562561377334887,1.67479914379036,2.9878328995239944,-1.0,-0.23128253690517014,-0.8029256564987356,-0.8393388936674145,-3.14,1.6856618278970426,-1.3696080920935616
400,0.4468382774416366,0.06430119355855195,0.442116574615624,3.1241893562288463,1.8562561377334887,1.6747991437903602,2.987832899523997,-1.0,-0.23128253690517303,-0.8029256564987358,-0.8393388936674141,-3.14,1.6856618278970443,-1.3696080920935592
401,0.4468382774416364,0.06430119355855175,0.4421165746156245,3.1241893562288454,1.8562561377334885,1.6747991437903604,2.9878328995239993,-1.0,-0.23128253690517572,-0.8029256564987362,-0.8393388936674135,-3.14,1.6856618278970459,-1.369608092093557
402,0.4468382774416361,0.06430119355855222,0.442116574615624,3.1241893562288454,1.8562561377334887,1.67479914379036,2.9878328995240016,-1.0,-0.23128253690517822,-0.8029256564987365,-0.8393388936674133,-3.14,1.6856618278970474,-1.369608092093555
403,0.44683827744163607,0.06430119355855207,0.442116574615624,3.1241893562288454,1.8562561377334887,1.6747991437903602,2.9878328995240038,-1.0,-0.23128253690518058,-0.8029256564987366,-0.8393388936674131,-3.14,1.6856618278970488,-1.369608092093553
