jkpark150901/flame_robotics_drt/experiment/inspection_ik/session_20260722_143013/collision/inspection_ik_20260722_143059_rb20_1900es_normalized_fallback_collision.csv
iteration,err_norm,position_error,orientation_error,tcp_x,tcp_y,tcp_z,q0_rt_joint_linear_track,q1_rt_joint_carriage,q2_rt_base,q3_rt_shoulder,q4_rt_elbow,q5_rt_wrist1,q6_rt_wrist2,q7_rt_wrist3
0,1.306764729523051,0.8970607808056922,0.9276761051236331,2.1805951672870454,1.1711523842657536,1.5110346527580532,2.0096869548484606,1.0,0.5634922167581363,1.0636609704156963,-2.011816573231203,-1.00172941663124,-3.14,2.3879079142018
1,1.1978642636937213,0.6713657124347044,0.9768363406299698,2.4187681070812856,1.1975696226961157,1.4835960891851863,2.276521098714042,1.0,0.6150282952108133,1.1190576600390179,-2.0407895000364946,-1.017229362631767,-3.14,2.4023224665088225
2,1.1289532948181744,0.524544345334337,0.9893101238162704,2.581407109644811,1.2061388029959381,1.4761468929418717,2.4478472481494125,1.0,0.6254500364856368,1.1362239976580255,-2.0474827543163525,-1.0209691437037993,-3.14,2.405062910004815
3,1.082127765205317,0.43126890981881666,0.9849949417522083,2.691296938214969,1.2064815426020687,1.4783606457685377,2.556142188875756,1.0,0.6181861366339981,1.134333482811364,-2.0444236519451136,-1.0196766071072196,-3.14,2.4028565528622328
4,1.0498942539398557,0.37391728362275617,0.975258497818437,2.764787102583537,1.2027540431433565,1.4842571886659806,2.624116157743869,1.0,0.6065132375205357,1.1243033493571666,-2.0379590628561335,-1.017187900387259,-3.14,2.3995117754597723
5,1.027594264456137,0.33993331684698125,0.9649139474557872,2.8133930131386067,1.1973240970304597,1.4907428166509327,2.6663778623766476,1.0,0.5955260399011106,1.1119656272733298,-2.03118488409587,-1.014848552788196,-3.14,2.3963531032441057
6,1.0121197763176824,0.32051246120850374,0.9557572647056697,2.84514782940943,1.1916133803615436,1.4964639017512913,2.6922836650808217,1.0,0.586686746535633,1.1001739821794274,-2.025388095905755,-1.0129717065501997,-3.14,2.393680699538149
7,1.0013916238520977,0.30979970366535936,0.9483059623487687,2.865609878216288,1.1863880428745988,1.5009952586866626,2.7078577347252994,1.0,0.5801013232543588,1.0901102183359128,-2.020926940529791,-1.0115478721938935,-3.14,2.3914771040389167
8,0.99400053582496,0.3041258014500313,0.9425483046278594,2.8785895419008365,1.181977061727639,1.504350224974461,2.716980583105008,1.0,0.5754414284929693,1.082073341632928,-2.017732645543442,-1.0104976810105808,-3.14,2.3896578616550563
9,0.9889700892184454,0.3012939875422112,0.9382692403342636,2.886672071933417,1.1784474507170475,1.5067146351945737,2.722138430697248,1.0,0.5722911992280252,1.0759374901567005,-2.015575881258692,-1.009744519137911,-3.14,2.3881429753283294
10,0.9856091723936852,0.30002685182455224,0.9351954846697825,2.891592116000754,1.175728969437023,1.508314546827149,2.7249079812502437,1.0,0.5702677775545507,1.071406055067529,-2.0141984287192773,-1.009227957099662,-3.14,2.3868696933420845
11,0.9834215027283291,0.2995951395200739,0.9330600920182693,2.8944999490359726,1.173693526704833,1.509357629728875,2.7262750651291916,1.0,0.5690557344653041,1.06814465695303,-2.0133709302776106,-1.0089016354569775,-3.14,2.3857900304721325
12,0.9820488035051117,0.2995888628702375,0.9316294213798381,2.896148821181241,1.1722007844568696,1.5100126344912783,2.726845169430081,1.0,0.5684097882646055,1.0658444142050518,-2.012911930257179,-1.0087291218930183,-3.14,2.384866404017342
13,0.981233265623252,0.29978193933043146,0.9307117721576706,2.89702533579168,1.171121324698543,1.5104070679223824,2.7269821219155976,1.0,0.5681466019943993,1.0642466695873558,-2.012688188043054,-1.0086808879303983,-3.14,2.384068467617812
14,0.9807912327541969,0.3000534298833387,0.9301569564522134,2.8974391485611397,1.170346197396214,1.5106324736026089,2.72689867362973,1.0,0.5681335964510966,1.0631476303677405,-2.0126072646388575,-1.0087325282512654,-3.14,2.383371233708401
15,0.9805938324830881,0.30034188260463374,0.9298516171354418,2.897583972345571,1.16978889682898,1.5107519667249059,2.726714943121776,1.0,0.5682778534820953,1.0623935440438317,-2.01260809083996,-1.0088637549283654,-3.14,2.3827540001438905
16,0.9805523179875455,0.30061887607707594,0.929712935464681,2.8975785849321887,1.1693835816213902,1.5108075502044902,2.726495559963125,1.0,0.5685162997492951,1.0618722799891303,-2.012652178059439,-1.0090577727255077,-3.14,2.3821996775758394
17,0.9806068928898358,0.3008737360475183,0.9296821927327612,2.897494064169787,1.1690817792616004,1.5108262521095117,2.726272856891012,1.0,0.5688075705338109,1.06150436537483,-2.0127164647990208,-1.0093008121515092,-3.14,2.381694288278394
18,0.9807182540564916,0.30110479569246384,0.9297189461082889,2.8973716467855266,1.1688487928636557,1.5108248720515118,2.726061055376962,1.0,0.5691255819717339,1.061234897236953,-2.012787950715677,-1.0095817213226475,-3.14,2.3812265334789586
19,0.9808612937915128,0.30131450132672544,0.9297961440556418,2.89723427796683,1.168660403872117,1.510813456094204,2.725864732517896,1.0,0.5694546550209902,1.061026854552322,-2.012859901712952,-1.0098915848999168,-3.14,2.380787394685591
20,0.9810205065257768,0.301506770675115,0.9298962463581589,2.8970939664802438,1.1685001059076683,1.5107977362354559,2.7256837244561556,1.0,0.5697859504534895,1.0608558698280772,-2.0129292927404463,-1.0102233672338419,-3.14,2.3803697641846426
21,0.9811867151001841,0.30168565426944993,0.9300082713790833,2.896956386805748,1.168356913065151,1.5107807831984321,2.7255158565928084,1.0,0.5701149520346657,1.0607063053676011,-2.012995159365686,-1.0105715855096262,-3.14,2.3799681091071103
22,0.9813547935886604,0.3018547324730279,0.930125628613784,2.896823699471183,1.1682236934984753,1.510764090093737,2.725358381741244,1.0,0.5704397501029149,1.0605684028465323,-2.013057582143526,-1.0109320186479778,-3.14,2.379578173822345
23,0.9815221229928527,0.30201691095297195,0.9302445779069332,2.8966962360367288,1.1680959429713889,1.5107482600391955,2.7252086738895795,1.0,0.5707599121492811,1.060436269254678,-2.0131170922234056,-1.0113014549411639,-3.14,2.379196722923234
24,0.981687571725923,0.3021744174856727,0.9303631665016806,2.89657347349131,1.1679709067899842,1.5107334273543023,2.7250645105006783,1.0,0.5710757682295061,1.0603064890942544,-2.01317434568739,-1.0116774784752869,-3.14,2.378821324337977
25,0.9818508420800445,0.302328888111797,0.9304805170546435,2.8964545732321048,1.1678469665968028,1.5107195051663669,2.7249241404993287,1.0,0.571387979284796,1.0601771907649655,-2.0132299618471725,-1.0120582921778987,-3.14,2.3784501700340033
26,0.9820120652442934,0.3024814818764582,0.9305963651532074,2.896338660082583,1.1677232221358287,1.5107063235431315,2.724786250939703,1.0,0.5716972915715389,1.0600474334396344,-2.013284456496789,-1.0124425739587573,-3.14,2.3780819305104512
27,0.9821715605547541,0.30263299358206125,0.9307107689435852,2.8962249512013805,1.1675992126525105,1.5106937010133352,2.724649894353003,1.0,0.5720044088519601,1.0599168145235531,-2.013338226503278,-1.0128293617419764,-3.14,2.377715638680057
28,0.9823297001024373,0.30278395120608487,0.9308239340496237,2.8961128021910123,1.167474735848548,1.510681477242901,2.72451440869651,1.0,0.5723099357953744,1.059785225351871,-2.0133915593568075,-1.0132179630263913,-3.14,2.3773505986338006
29,0.9824868386948603,0.30293469398185585,0.930936113412979,2.8960017105685356,1.1673497334027454,1.5106695242790835,2.7243793446736175,1.0,0.5726143620034231,1.059652704138429,-2.013444652550968,-1.0136078847837036,-3.14,2.376986314993912
30,0.9826432827301553,0.30308543181534314,0.9310475542202901,2.895891299756635,1.1672242208543622,1.510657746890911,2.724244405851674,1.0,0.5729180673170987,1.0595193511209653,-2.0134976347172224,-1.0139987798751344,-3.14,2.3766224389610175
31,0.9827992810145328,0.3032362887159323,0.9311584732751659,2.8957812963351586,1.1670982463295276,1.5106460780976485,2.724109402250943,1.0,0.5732213367042738,1.0593852823678265,-2.0135505846692694,-1.0143904066381018,-3.14,2.3762587276532643
32,0.9829550269892999,0.3033873334780293,0.9312690486970617,2.895671507079943,1.1669718675163248,1.5106344732096786,2.7239742159286155,1.0,0.5735243780382215,1.0592506068210397,-2.013603546918395,-1.0147825987964336,-3.14,2.375895013852795
33,0.9831106660869307,0.30353860069097405,0.9313794203245479,2.895561798737829,1.1668451398247683,1.510622904043023,2.7238387763407887,1.0,0.5738273392438129,1.0591154167207293,-2.0136565434891316,-1.015175243336101,-3.14,2.3755311837747124
34,0.9832663046658018,0.3036901046933301,0.9314896942104046,2.8954520815235174,1.1667181111368152,1.510611354013629,2.723703043232229,1.0,0.5741303232036837,1.0589797852920426,-2.013709582455573,-1.0155682644363924,-3.14,2.3751671609297427
35,0.9834220186689862,0.30384184854867663,0.9315999485530243,2.8953422963230704,1.1665908202376958,1.5105998143020518,2.7235669950829577,1.0,0.5744333999136328,1.0588437680222589,-2.0137626638279023,-1.015961611939886,-3.14,2.374802894551043
36,0.9835778611648004,0.3039938296142152,0.9317102396405377,2.895232405141648,1.1664632971446072,1.5105882810262066,2.723430621519825,1.0,0.5747366159569157,1.0587074054173455,-2.0138157834290853,-1.0163552531786022,-3.14,2.374438351393751
37,0.983733868500359,0.30414604284643854,0.9318206071307678,2.895122384188836,1.1663355642807127,1.510576753256669,2.723293918474758,1.0,0.5750400016349547,1.0585707260956903,-2.0138689353213053,-1.0167491672494713,-3.14,2.3740735099944907
38,0.9838900651002647,0.30429848265036546,0.9319310784212068,2.895012219004363,1.1662076379060136,1.5105652316857079,2.7231568851940047,1.0,0.5753435761806438,1.0584337496572362,-2.013922113231156,-1.0171433410544772,-3.14,2.3737083567022608
39,0.9840464670804848,0.3044511438239886,0.9320416720954267,2.894901901104515,1.1660795295011366,1.5105537177764208,2.7230195224611604,1.0,0.5756473514738487,1.058296489099265,-2.0139753113130014,-1.017537766596184,-3.14,2.373342882968847
40,0.9842030848928669,0.3046040219643504,0.932152400543925,2.8947914257280183,1.1659512469680051,1.5105422132485706,2.7228818315935404,1.0,0.5759513346277949,1.0581589527297932,-2.014028524495127,-1.0179324391550928,-3.14,2.372977083523548
41,0.9843599252123807,0.304757113571146,0.9322632718990875,2.8946807903563196,1.165822795605417,1.510530719790552,2.7227438139156392,1.0,0.5762555297489299,1.058021145617512,-2.014081748577737,-1.0183273560785568,-3.14,2.372610955160904
42,0.9845169922533363,0.3049104159946282,0.9323742914278632,2.8945699937662472,1.1656941788662052,1.5105192389165434,2.722605470515673,1.0,0.5765599391071164,1.0578830706525948,-2.0141349801948745,-1.0187225159882896,-3.14,2.3722444959478084
43,0.9846742886673333,0.30506392731530774,0.9324854625113129,2.8944590354403035,1.165565398924551,1.51050777191214,2.7224668021617653,1.0,0.5768645638949866,1.0577447292998028,-2.0141882167113208,-1.0191179182705095,-3.14,2.371877704713669
44,0.9848318161424587,0.3052176462047997,0.9325967873187179,2.8943479152116227,1.1654364570888596,1.510496319830316,2.7223278093017327,1.0,0.5771694047075153,1.0576061221186603,-2.0142414560971935,-1.0195135627541885,-3.14,2.3715105807288572
45,0.984989575794006,0.3053715717934035,0.9327082672616361,2.8942366330590397,1.1653073540946943,1.5104848835131608,2.7221884921013664,1.0,0.5774744618354096,1.0574672491133092,-2.0142946968040647,-1.0199094495125576,-3.14,2.3711431235064704
46,0.9851475684128654,0.30552570355580433,0.9328199032930242,2.894125188995591,1.165178090307763,1.5104734636242958,2.722048850495853,1.0,0.5777797354375686,1.0573281099614849,-2.0143479376544606,-1.0203055787439963,-3.14,2.3707753326834795
47,0.9853057946188978,0.3056800412182495,0.9329316960996779,2.894013583013196,1.1650486658614292,1.510462060683301,2.7219088842410497,1.0,0.5780852256371088,1.057188704159998,-2.0144011777492845,-1.0207019507030692,-3.14,2.3704072079519873
48,0.9854642549523129,0.3058345846863601,0.9330436462227519,2.893901815059759,1.1649190807477385,1.5104506750975837,2.721768592958534,1.0,0.5783909325705656,1.0570490311140524,-2.0144544163936082,-1.0210985656625151,-3.14,2.370038749021402
49,0.9856229499256206,0.3059893339908494,0.9331557541308906,2.8937898850338746,1.164789334876221,1.5104393071896969,2.7216279761723636,1.0,0.5786968564095355,1.0569090901897786,-2.0145076530391535,-1.0214954238938203,-3.14,2.3696699555991514
50,0.9857818800512208,0.3061442892478354,0.933268020262835,2.8936777927882464,1.1646594281108578,1.5104279572195705,2.7214870333376027,1.0,0.5790029973669368,1.0567688807433857,-2.0145608872409206,-1.0218925256585527,-3.14,2.369300827382124
51,0.9859410458544735,0.30629945063052094,0.933380445050921,2.8935655381366963,1.1645293602925855,1.5104166254019358,2.721345763861621,1.0,0.5793093556953656,1.0566284021359327,-2.014614118625239,-1.0222898712056236,-3.14,2.368931364054009
52,0.9861004478785037,0.30645481834943844,0.9334930289329662,2.8934531208619814,1.1643991312524566,1.5104053119195748,2.7212041671195015,1.0,0.5796159316819449,1.0564876537396262,-2.0146673468667173,-1.0226874607715748,-3.14,2.368561565285638
53,0.9862600866846175,0.30661039263897005,0.9336057723573918,2.893340540723034,1.1642687408189194,1.5103940169331451,2.721062242464879,1.0,0.5799227256421363,1.0563466349394006,-2.0147205716719343,-1.0230852945822115,-3.14,2.3681914307366583
54,0.9864199628506332,0.306766173748341,0.9337186757846074,2.8932277974610896,1.1641381888215159,1.5103827405882992,2.7209199892373697,1.0,0.580229737913778,1.0562053451320932,-2.0147737927681066,-1.0234833728546548,-3.14,2.36782096005761
55,0.9865800769684426,0.30692216193574295,0.9338317396865091,2.8931148908045365,1.1640074750924914,1.51037148302075,2.7207774067675268,1.0,0.5805369688519215,1.0560637837245812,-2.014827009895357,-1.0238816957993402,-3.14,2.367450152891944
56,0.986740429641503,0.307078357464592,0.9339449645451595,2.893001820472633,1.1638765994672335,1.5103602443597963,2.7206344943800698,1.0,0.5808444188246364,1.0559219501316375,-2.0148802228015334,-1.0242802636217547,-3.14,2.36707900887777
57,0.9869010214825902,0.3072347606012119,0.9340583508512464,2.892888586178229,1.1637455617841286,1.5103490247307412,2.7204912513959134,1.0,0.5811520882097553,1.0557798437739034,-2.0149334312388048,-1.0246790765238487,-3.14,2.366707527649278
58,0.9870618531119414,0.30739137161345625,0.9341718991026199,2.892775187629714,1.1636143618841568,1.5103378242565089,2.720347677133407,1.0,0.5814599773924313,1.0556374640761446,-2.0149866349614696,-1.0250781347051297,-3.14,2.366335708837834
59,0.9872229251557911,0.30754819076991396,0.9342856098030392,2.892661624532381,1.1634829996104161,1.5103266430587179,2.720203770909055,1.0,0.5817680867633602,1.0554948104658393,-2.0150398337245767,-1.0254774383634808,-3.14,2.365963552072806
60,0.9873842382452687,0.3077052183394927,0.9343994834611662,2.8925478965893445,1.1633514748076708,1.5103154812583643,2.7200595320379093,1.0,0.5820764167175196,1.0553518823720849,-2.0150930272830823,-1.0258769876957579,-3.14,2.3655910569821597
61,0.9875457930155873,0.3078624545912157,0.9345135205897871,2.892434003502158,1.1632197873219574,1.5103043389762596,2.7199149598337646,1.0,0.5823849676532925,1.0552086792247761,-2.015146215391349,-1.0262767828982104,-3.14,2.3652182231928838
62,0.987707590105471,0.30801989979414646,0.9346277217052416,2.8923199449712036,1.1630879370002736,1.5102932163332925,2.7197700536092344,1.0,0.582693739971877,1.0550652004540078,-2.015199397802864,-1.0266768241667774,-3.14,2.3648450503312852
63,0.9878696301567549,0.30817755421737986,0.9347420873270053,2.8922057206959457,1.1629559236903317,1.5102821134505886,2.719624812675765,1.0,0.5830027340768955,1.054921445489648,-2.015252574270089,-1.027077111697285,-3.14,2.3644715380231895
64,0.9880319138141163,0.3083354181300678,0.934856617977403,2.8920913303750697,1.162823747240381,1.510271030449598,2.7194792363436133,1.0,0.583311950374145,1.0547774137610413,-2.0153057445443867,-1.0274776456855799,-3.14,2.364097685894073
65,0.9881944417248995,0.30849349180145336,0.934971314181411,2.8919767737065802,1.1626914074990726,1.5102599674521413,2.719333323921819,1.0,0.5836213892714415,1.0546331046968052,-2.015358908375994,-1.0278784263276153,-3.14,2.3637234935691533
66,0.9883572145390035,0.30865177550090805,0.9350861764665293,2.891862050387839,1.1625589043153697,1.5102489245804347,2.7191870747181652,1.0,0.5839310511785276,1.0544885177246954,-2.015412065514014,-1.0282794538195061,-3.14,2.3633489606734406
67,0.988520232908816,0.3088102694979675,0.9352012053626972,2.891747160115586,1.1624262375384835,1.5102379019570973,2.7190404880391466,1.0,0.5842409365070246,1.0543436522715173,-2.0154652157064263,-1.0286807283575634,-3.14,2.3629740868317763
68,0.9886834974891744,0.30896897406235707,0.9353164014022475,2.8916321025859575,1.1622934070178306,1.5102268997051496,2.718893563189941,1.0,0.5845510456704044,1.054198507763069,-2.015518358700094,-1.029082250138314,-3.14,2.3625988716688533
69,0.9888470089373503,0.3091278894640178,0.9354317651198775,2.891516877494473,1.1621604126030034,1.5102159179480161,2.7187462994743843,1.0,0.5848613790839847,1.0540530836241038,-2.0155714942407745,-1.0294840193585126,-3.14,2.3622233148092278
70,0.9890107679130401,0.3092870159731187,0.9355472970526392,2.8914014845360407,1.1620272541437577,1.5102049568095182,2.718598696194952,1.0,0.5851719371649285,1.053907379278312,-2.0156246220731275,-1.0298860362151494,-3.14,2.3618474158773277
71,0.9891747750783695,0.30944635386007774,0.935662997739932,2.891285923404944,1.1618939314899963,1.5101940164138707,2.7184507526527417,1.0,0.5854827203322497,1.0537613941483037,-2.015677741940724,-1.0302883009054524,-3.14,2.361471174497458
72,0.9893390310978969,0.30960590339555843,0.9357788677235133,2.891170193794851,1.1617604444917684,1.5101830968856806,2.718302468147466,1.0,0.5857937290068265,1.053615127655604,-2.01573085358605,-1.0306908136268902,-3.14,2.3610945902938023
73,0.9895035366386237,0.30976566485048984,0.9358949075474975,2.89105429539879,1.1616267929992636,1.5101721983499423,2.7181538419774363,1.0,0.5861049636114074,1.053468579220646,-2.015783956750507,-1.0310935745771714,-3.14,2.3607176628904245
74,0.9896682923700044,0.3099256384960617,0.9360111177583706,2.890938227909158,1.1614929768628113,1.5101613209320404,2.7180048734395594,1.0,0.5864164245706268,1.0533217482627688,-2.0158370511744166,-1.0314965839542465,-3.14,2.3603403919112704
75,0.9898332989639546,0.3100858246037323,0.9361274989049978,2.8908219910177135,1.1613589959328823,1.5101504647577408,2.7178555618293285,1.0,0.586728112311013,1.0531746342002175,-2.0158901365970183,-1.0318998419563064,-3.14,2.359962776980169
76,0.9899985570948644,0.3102462234452299,0.9362440515386327,2.8907055844155685,1.161224850060089,1.5101396299531968,2.717705906440818,1.0,0.5870400272610019,1.0530272364501385,-2.0159432127564703,-1.0323033487817832,-3.14,2.359584817720833
77,0.9901640674396084,0.31040683529255275,0.936360776212934,2.8905890077931913,1.1610905390951864,1.5101288166449462,2.717555906566679,1.0,0.5873521698509472,1.0528795544285803,-2.0159962793898463,-1.0327071046293508,-3.14,2.359206513756861
78,0.990329830677556,0.3105676604179727,0.9364776734839694,2.8904722608403994,1.1609560628890734,1.510118024959911,2.717405561498134,1.0,0.5876645405131309,1.052731587550492,-2.016049336233135,-1.0331111096979244,-3.14,2.3588278647117376
79,0.9904958474905836,0.3107286990940337,0.9365947439102313,2.890355343246359,1.1608214212927952,1.5101072550253982,2.7172548705249735,1.0,0.587977139681774,1.0525833352297223,-2.0161023830212357,-1.0335153641866608,-3.14,2.358448870208835
80,0.990662118563082,0.31088995159355354,0.9367119880526467,2.890238254699583,1.160686614157544,1.5100965069691,2.71710383293555,1.0,0.588289967793048,1.052434796879017,-2.016155419487959,-1.0339198682949593,-3.14,2.3580695298714143
81,0.9908286445819711,0.31105141818962606,0.9368294064745892,2.8901209948879254,1.16055164133466,1.5100857809190937,2.7169524480167757,1.0,0.5886030252850839,1.052285971910018,-2.01620844536602,-1.0343246222224614,-3.14,2.3576898433226283
82,0.9909954262367063,0.31121309915561723,0.9369469997418881,2.890003563498584,1.160416502675636,1.5100750770038434,2.7168007150541165,1.0,0.5889163125979837,1.0521368597332619,-2.016261460387039,-1.0347296261690513,-3.14,2.3573098101855217
83,0.991162464219292,0.3113749947651703,0.93706476842284,2.8898859602180944,1.1602811980321144,1.5100643953521997,2.71664863333159,1.0,0.5892298301738287,1.0519874597581782,-2.0163144642815354,-1.0351348803348568,-3.14,2.3569294300830315
84,0.9913297592242913,0.3115371052922024,0.9371827130882218,2.889768184732329,1.1601457272558942,1.5100537360934008,2.71649620213176,1.0,0.5895435784566923,1.0518377713930882,-2.016367456778928,-1.0355403849202494,-3.14,2.3565487026379914
85,0.9914973119488354,0.3116994310109096,0.937300834311299,2.8896502367264967,1.160010090198925,1.5100430993570724,2.716343420735733,1.0,0.589857557892648,1.0516877940452012,-2.016420437607529,-1.035946140125845,-3.14,2.3561676274731314
86,0.9916651230926348,0.3118619721957608,0.9374191326678385,2.88953211588514,1.1598742867133165,1.510032485273229,2.7161902884231552,1.0,0.5901717689297823,1.0515375271206153,-2.0164734064945438,-1.0363521461525047,-3.14,2.35578620421108
87,0.9918331933579895,0.3120247291215027,0.9375376087361194,2.8894138218921337,1.1597383166513358,1.510021893972274,2.7160368044722056,1.0,0.5904862120182017,1.0513869700243144,-2.016526363166065,-1.0367584032013342,-3.14,2.355404432474366
88,0.9920015234497999,0.31218770206316127,0.9376562630969432,2.889295354430676,1.1596021798654088,1.5100113255850018,2.7158829681595935,1.0,0.5908008876100456,1.0512361221601647,-2.016579307347071,-1.0371649114736856,-3.14,2.3550223118854197
89,0.9921701140755766,0.31235089129603755,0.9377750963336466,2.8891767131833004,1.1594658762081225,1.510000780242596,2.7157287787605564,1.0,0.5911157961594952,1.0510849829309161,-2.016632238761424,-1.0375716711711573,-3.14,2.354639842066575
90,0.9923389659454527,0.31251429709571205,0.9378941090321107,2.889057897831861,1.1593294055322259,1.5099902580766325,2.715574235548852,1.0,0.5914309381227855,1.050933551738198,-2.0166851571318642,-1.0379786824955946,-3.14,2.3542570226400708
91,0.9925080797721924,0.3126779197380431,0.9380133017807747,2.888938908057535,1.1591927676906335,1.5099797592190787,2.7154193377967566,1.0,0.5917463139582142,1.0507818279825174,-2.016738062180009,-1.0383859456490903,-3.14,2.353873853228053
92,0.9926774562712022,0.3128417594991677,0.9381326751706434,2.888819743540824,1.1590559625364238,1.5099692838022944,2.71526408477506,1.0,0.592061924126152,1.0506298110632586,-2.0167909536263484,-1.0387934608339846,-3.14,2.353490333452576
93,0.9928470961605428,0.3130058166555016,0.9382522297953043,2.888700403961547,1.158918989922844,1.5099588319590322,2.715108475753062,1.0,0.5923777690890563,1.05047750037868,-2.0168438311902444,-1.0392012282528673,-3.14,2.353106462935605
94,0.9930170001609379,0.3131700914837423,0.938371966250933,2.8885808889988382,1.1587818497033087,1.5099484038224387,2.7149525099985667,1.0,0.5926938493114771,1.0503248953259121,-2.0168966945899243,-1.0396092481085761,-3.14,2.352722241299016
95,0.9931871689957874,0.31333458426086463,0.9384918851363089,2.888461198331151,1.1586445417314026,1.509937999526056,2.71479618677788,1.0,0.5930101652600718,1.0501719953009565,-2.01694954354248,-1.040017520604199,-3.14,2.352337668164599
96,0.9933576033911756,0.31349929526412496,0.9386119870528238,2.88834133163625,1.1585070658608827,1.5099276192038207,2.714639505355804,1.0,0.5933267174036133,1.0500187996986825,-2.017002377763864,-1.0404260459430739,-3.14,2.3519527431540608
97,0.9935283040758838,0.3136642247710599,0.9387322726044957,2.8882212885912124,1.1583694219456788,1.5099172629900652,2.714482464995633,1.0,0.5936435062130021,1.0498653079128266,-2.017055196968887,-1.0408348243287886,-3.14,2.3515674658890235
98,0.9936992717814014,0.3138293730594889,0.9388527423979799,2.8881010688724205,1.1582316098398961,1.5099069310195181,2.714325064959149,1.0,0.5939605321612768,1.0497115193359907,-2.0171080008712154,-1.0412438559651827,-3.14,2.3511818359910293
99,0.9938705072419358,0.31399474040751174,0.9389733970425791,2.887980672155568,1.158093629397815,1.5098966234273055,2.7141673045066184,1.0,0.594277795723624,1.049557433359639,-2.017160789183366,-1.041653141056347,-3.14,2.3507958530815403
100,0.9940420111944245,0.3141603270935102,0.9390942371502565,2.887860098115652,1.1579554804738952,1.5098863403489504,2.714009182896787,1.0,0.594595297377392,1.049403049374096,-2.0172135616167037,-1.042062679806625,-3.14,2.350409516781942
101,0.9942137843785442,0.31432613339614945,0.9392152633356472,2.8877393464269723,1.1578171629227743,1.5098760819203756,2.713850699386874,1.0,0.594913037602099,1.049248366768545,-2.0172663178814405,-1.0424724724206123,-3.14,2.3500228267135443
102,0.9943858275367259,0.31449215959437676,0.9393364762160719,2.8876184167631287,1.1576786765992728,1.5098658482779024,2.7136918532325707,1.0,0.595231016879445,1.049093384931027,-2.0173190576866284,-1.0428825191031574,-3.14,2.349635782497582
103,0.9945581414141612,0.31465840596742256,0.9394578764115452,2.887497308797021,1.1575400213583933,1.5098556395582519,2.7135326436880325,1.0,0.5955492356933232,1.0489381032484377,-2.01737178074016,-1.043292820059363,-3.14,2.3492483837552185
104,0.9947307267588172,0.31482487279480204,0.9395794645447888,2.8873760222008453,1.1574011970553217,1.509845455898545,2.7133730700058774,1.0,0.5958676945298309,1.0487825211065251,-2.0174244867487627,-1.0437033754945855,-3.14,2.348860630107547
105,0.994903584321446,0.3149915603563142,0.939701241241245,2.887254556646091,1.1572622035454312,1.509835297436304,2.71321313143718,1.0,0.5961863938772803,1.0486266378898887,-2.017477175417998,-1.0441141856144358,-3.14,2.348472521175592
106,0.9950767148555967,0.3151584689320415,0.9398232071290887,2.887132911803541,1.1571230406842825,1.5098251643094538,2.713052827231467,1.0,0.5965053342262117,1.0484704529819768,-2.017529846452255,-1.0445252506247806,-3.14,2.3480840565803116
107,0.995250119117627,0.3153255988023547,0.9399453628392367,2.8870110873432657,1.1569837083276235,1.5098150566563204,2.712892156636713,1.0,0.5968245160694017,1.0483139657650844,-2.017582499554751,-1.0449365707317415,-3.14,2.3476952359425987
108,0.9954237978667134,0.3154929502479049,0.9400677090053631,2.8868890829346276,1.1568442063313975,1.509804974615633,2.7127311188993373,1.0,0.597143939901878,1.0481571756203523,-2.0176351344275254,-1.045348146141697,-3.14,2.3473060588832833
109,0.9955977518648637,0.3156605235496328,0.9401902462639095,2.8867668982462726,1.1567045345517357,1.5097949183265256,2.7125697132641955,1.0,0.5974636062209273,1.048000081927763,-2.017687750771438,-1.0457599770612813,-3.14,2.3469165250231345
110,0.9957719818769282,0.3158283189887655,0.9403129752540967,2.88664453294613,1.1565646928449649,1.509784887928535,2.7124079389745783,1.0,0.59778351552611,1.0478426840661403,-2.017740348286165,-1.0461720636973868,-3.14,2.346526633982863
111,0.9959464886706128,0.31599633684681544,0.94043589661794,2.8865219867014096,1.1564246810676098,1.5097748835616027,2.712245795272205,1.0,0.5981036683192692,1.0476849814131475,-2.017792926670197,-1.046584406257162,-3.14,2.34613638538312
112,0.9961212730164873,0.31616457740558246,0.9405590110002592,2.886399259178603,1.1562844990763896,1.5097649053660787,2.7120832813972213,1.0,0.5984240651045442,1.0475269733452837,-2.0178454856208337,-1.0469970049480153,-3.14,2.345745778844504
113,0.9962963356879995,0.3163330409471545,0.9406823190486904,2.8862763500434787,1.1561441467282243,1.5097549534827155,2.7119203965881917,1.0,0.5987447063883808,1.0473686592378835,-2.017898024834183,-1.0474098599776123,-3.14,2.3453548139875577
114,0.9964716774614873,0.3165017277539069,0.9408058214137012,2.8861532589610768,1.1560036238802358,1.5097450280526756,2.711757140082095,1.0,0.5990655926795443,1.047210038465114,-2.017950544005156,-1.0478229715538783,-3.14,2.3449634904327734
115,0.9966472991161888,0.3166706381085044,0.9409295187486003,2.8860299855957123,1.1558629303897476,1.5097351292175267,2.7115935111143217,1.0,0.5993867244891303,1.047051110399973,-2.0180030428274653,-1.048236339884998,-3.14,2.3445718078005937
116,0.9968232014342558,0.3168397722939003,0.941053411709553,2.8859065296109696,1.1557220661142873,1.5097252571192468,2.7114295089186675,1.0,0.5997081023305759,1.0468918744142868,-2.0180555209936197,-1.048649965179416,-3.14,2.3441797657114125
117,0.9969993852007635,0.31700913059333596,0.9411775009555903,2.885782890669703,1.1555810309115901,1.5097154119002212,2.71126513272733,1.0,0.6000297267196737,1.046732329878709,-2.0181079781949234,-1.0490638476458376,-3.14,2.343787363785579
118,0.9971758512037245,0.3171787132903444,0.9413017871486253,2.885659068434031,1.1554398246395983,1.5097055937032449,2.711100381770901,1.0,0.6003515981745814,1.0465724761627169,-2.0181604141214704,-1.049477987493229,-3.14,2.343394601643398
119,0.9973526002341004,0.3173485206687473,0.9414262709534638,2.8855350625653364,1.1552984471564631,1.5096958026715246,2.710935255278365,1.0,0.6006737172158358,1.04641231263461,-2.018212828462143,-1.049892384930818,-3.14,2.343001478905133
120,0.9975296330858126,0.31751855301265897,0.9415509530378163,2.8854108727242616,1.1551568983205482,1.509686038948676,2.710769752477092,1.0,0.6009960843663633,1.0462518386615087,-2.018265220904608,-1.050307040168094,-3.14,2.3426079951910066
121,0.9977069505557559,0.31768881060648274,0.9416758340723143,2.8852864985707107,1.1550151779904305,1.5096763026787265,2.710603872592834,1.0,0.6013187001514932,1.0460910536093513,-2.0183175911353133,-1.0507219534148093,-3.14,2.3422141501212046
122,0.9978845534438099,0.3178592937349148,0.9418009147305196,2.8851619397638424,1.1548732860249014,1.509666594006117,2.7104376148497176,1.0,0.601641565098969,1.045929956842892,-2.0183699388394833,-1.0511371248809784,-3.14,2.3418199433158757
123,0.9980624425528519,0.31803000268294285,0.9419261956889401,2.8850371959620698,1.1547312222829693,1.5096569130757005,2.710270978470243,1.0,0.6019646797389616,1.0457685477256993,-2.0184222637011184,-1.0515525547768796,-3.14,2.341425374395136
124,0.9982406186887677,0.31820093773584585,0.9420516776270405,2.8849122668230605,1.1545889866238626,1.5096472600327426,2.7101039626752765,1.0,0.6022880446040803,1.045606825620154,-2.0184745654029896,-1.0519682433130548,-3.14,2.341030442979069
125,0.9984190826604646,0.3183720991791974,0.9421773612272568,2.8847871520037285,1.1544465789070286,1.509637635022924,2.7099365666840454,1.0,0.6026116602293854,1.0454447898874466,-2.018526843626636,-1.0523841907003102,-3.14,2.340635148687728
126,0.9985978352798845,0.3185434872988636,0.9423032471750096,2.88466185116024,1.1543039989921358,1.5096280381923397,2.709768789714134,1.0,0.6029355271524026,1.045282439887574,-2.0185790980523612,-1.0528003971497168,-3.14,2.3402394911411397
127,0.9987768773620165,0.31871510238100537,0.9424293361587163,2.8845363639479995,1.1541612467390796,1.5096184696874992,2.7096006309814764,1.0,0.6032596459131326,1.0451197749793397,-2.01863132835923,-1.0532168628726106,-3.14,2.3398434699593036
128,0.9989562097249072,0.31888694471207424,0.9425556288698067,2.88441069002166,1.154018322007981,1.5096089296553314,2.7094320897003543,1.0,0.6035840170540661,1.0449567945203502,-2.018683534225064,-1.0536335880805932,-3.14,2.3394470847621966
129,0.999135833189676,0.3190590145788214,0.9426821260027323,2.884284829035112,1.1538752246591861,1.5095994182431778,2.70926316508339,1.0,0.6039086411201938,1.0447934978670133,-2.018735715326441,-1.054050572985532,-3.14,2.3390503351697736
130,0.9993157485805244,0.3192313122682892,0.9428088282549848,2.8841587806414855,1.1537319545532745,1.5095899355987987,2.709093856341543,1.0,0.604233518659023,1.044629884374536,-2.01878787133869,-1.054467817799562,-3.14,2.3386532208019704
131,0.9994959567247524,0.31940383806781647,0.9429357363271041,2.8840325444931456,1.1535885115510547,1.509580481870374,2.7089241626841014,1.0,0.6045586502205844,1.0444659533969218,-2.0188400019358865,-1.054885322735083,-3.14,2.3382557412787044
132,0.9996764584527695,0.31957659226503893,0.9430628509226976,2.8839061202416896,1.15344489551357,1.5095710572064998,2.7087540833186803,1.0,0.6048840363574516,1.0443017042869691,-2.018892106790851,-1.055303088004764,-3.14,2.337857896219879
133,0.9998572545981058,0.31974957514788727,0.9431901727484492,2.8837795075379473,1.1533011063020995,1.5095616617561929,2.708583617451215,1.0,0.6052096776247491,1.0441371363962686,-2.0189441855751453,-1.0557211138215414,-3.14,2.3374596852453835
134,1.0000383459974278,0.319922787004591,0.9433177025141355,2.8836527060319748,1.1531571437781576,1.50955229566889,2.7084127642859555,1.0,0.6055355745801673,1.0439722490752013,-2.0189962379590685,-1.0561394003986193,-3.14,2.3370611079750963
135,1.0002197334905487,0.32009622812367305,0.9434454409326383,2.883525715373057,1.1530130078035017,1.5095429590944485,2.708241523025462,1.0,0.6058617277839752,1.043807041672937,-2.019048263611655,-1.056557947949471,-3.14,2.3366621640288874
136,1.0004014179204428,0.3202698987939589,0.9435733887199595,2.8833985352097,1.1528686982401266,1.509533652183145,2.708069892870599,1.0,0.6061881377990324,1.0436415135374306,-2.019100262200669,-1.0569767566878385,-3.14,2.3362628530266196
137,1.0005834001332587,0.3204437993045683,0.9437015465952341,2.8832711651896306,1.1527242149502732,1.509524375085682,2.7078978730205288,1.0,0.6065148051908041,1.0434756640154208,-2.019152233392602,-1.0573958268277333,-3.14,2.3358631745881513
138,1.0007656809783303,0.3206179299449198,0.9438299152807446,2.883143604959798,1.152579557796427,1.5095151279531813,2.7077254626727103,1.0,0.6068417305273731,1.0433094924524282,-2.019204176852671,-1.057815158583437,-3.14,2.335463128333339
139,1.0009482613081926,0.32079229100473505,0.9439584955019334,2.883015854166362,1.1524347266413184,1.5095059109371882,2.7075526610228877,1.0,0.6071689143794518,1.0431429981927525,-2.019256092244812,-1.0582347521695015,-3.14,2.3350627138820377
140,1.0011311419785938,0.3209668827740301,0.9440872879874211,2.8828879124547,1.1522897213479304,1.5094967241896735,2.7073794672650897,1.0,0.6074963573203992,1.0429761805794697,-2.01930797923168,-1.0586546078007493,-3.14,2.3346619308541063
141,1.0013143238485067,0.3211417055431228,0.9442162934690161,2.8827597794694007,1.1521445417794958,1.5094875678630304,2.707205880591623,1.0,0.6078240599262308,1.0428090389544322,-2.0193598374746426,-1.0590747256922741,-3.14,2.3342607788694063
142,1.0014978077801453,0.32131675960263073,0.9443455126817313,2.8826314548542595,1.1519991877995008,1.5094784421100798,2.707031900193064,1.0,0.6081520227756329,1.0426415726582632,-2.019411666633777,-1.0594951060594413,-3.14,2.333859257547807
143,1.0016815946389752,0.321492045243475,0.9444749463637963,2.882502938252277,1.1518536592716857,1.509469347084066,2.7068575252582567,1.0,0.6084802464499766,1.0424737810303566,-2.0194634663678683,-1.0599157491178879,-3.14,2.3334573665091853
144,1.001865685293728,0.3216675627568742,0.9446045952566737,2.882374229305662,1.1517079560600494,1.5094602829386605,2.706682754974307,1.0,0.6088087315333315,1.0423056634088754,-2.0195152363344056,-1.0603366550835234,-3.14,2.33305510537343
145,1.0020500806164172,0.32184331243434977,0.9447344601050748,2.882245327655819,1.1515620780288511,1.5094512498279635,2.7065075885265735,1.0,0.6091374786124787,1.042137219130747,-2.019566976189576,-1.0607578241725302,-3.14,2.3326524737604424
146,1.0022347814823458,0.32201929456772577,0.9448645416569691,2.8821162329433556,1.15141602504261,1.5094422479064997,2.7063320250986673,1.0,0.6094664882769247,1.041968447531663,-2.0196186855882656,-1.0611792566013634,-3.14,2.33224947129014
147,1.002419788770126,0.3221955094491286,0.9449948406636041,2.8819869448080726,1.1512697969661085,1.5094332773292252,2.7061560638724416,1.0,0.6097957611189158,1.0417993479460754,-2.019670364184051,-1.0616009525867518,-3.14,2.3318460975824578
148,1.0026051033616905,0.3223719573709871,0.9451253578795171,2.881857462888964,1.1511233936643968,1.5094243382515238,2.7059797040279885,1.0,0.6101252977334515,1.0416299197071959,-2.019722011629199,-1.0620229123456986,-3.14,2.3314423522573517
149,1.0027907261423041,0.32254863862603317,0.9452560940625503,2.881727786824219,1.1509768150027906,1.509415430829209,2.7058029447436325,1.0,0.6104550987182968,1.041460162146992,-2.019773627574663,-1.0624451360954799,-3.14,2.331038234934799
150,1.0029766580005817,0.3227255535073034,0.9453870499738659,2.8815979162512075,1.1508300608468776,1.5094065552185254,2.7056257851959242,1.0,0.6107851646739999,1.0412900745961862,-2.019825211670078,-1.0628676240536477,-3.14,2.3306337452348025
151,1.0031628998284978,0.3229027023081376,0.9455182263779607,2.881467850806492,1.150683131062516,1.5093977115761483,2.705448224559637,1.0,0.6111154962039025,1.041119656384252,-2.0198767635637576,-1.0632903764380284,-3.14,2.330228882777392
152,1.0033494525214028,0.32308008532218113,0.9456496240426813,2.8813375901258143,1.1505360255158399,1.5093889000591836,2.7052702620077587,1.0,0.6114460939141554,1.0409489068394138,-2.0199282829026917,-1.0637133934667238,-3.14,2.329823647182627
153,1.0035363169780376,0.32325770284338334,0.9457812437392388,2.8812071338440988,1.1503887440732579,1.509380120825171,2.7050918967114863,1.0,0.6117769584137337,1.040777825288642,-2.0199797693325414,-1.0641366753581114,-3.14,2.329418038070598
154,1.0037234941005453,0.3234355551660006,0.9459130862422229,2.8810764815954446,1.1502412866014586,1.509371374032082,2.7049131278402205,1.0,0.6121080903144498,1.0406064110576514,-2.0200312224976367,-1.064560222330845,-3.14,2.329012055061432
155,1.0039109847944871,0.32361364258459296,0.9460451523296197,2.880945633013131,1.1500936529674108,1.5093626598383225,2.704733954561561,1.0,0.6124394902309679,1.0404346634709012,-2.0200826420409705,-1.0649840346038544,-3.14,2.32860569777529
156,1.004098789968856,0.3237919653940299,0.9461774427828247,2.880814587729603,1.1499458430383664,1.509353978402732,2.704554376041297,1.0,0.6127711587808187,1.0402625818515894,-2.0201340276041986,-1.0654081123963464,-3.14,2.328198965832374
157,1.0042869105360899,0.3239705238894828,0.9463099583866569,2.8806833453764833,1.1497978566818643,1.5093453298845863,2.7043743914434053,1.0,0.6131030965844131,1.0400901655216521,-2.020185378827633,-1.0658324559278047,-3.14,2.3277918588529274
158,1.0044753474120869,0.32414931836643596,0.9464426999293774,2.880551905584554,1.149649693765728,1.5093367144435943,2.7041939999300415,1.0,0.6134353042650578,1.039917413801761,-2.0202366953502406,-1.0662570654179904,-3.14,2.3273843764572364
159,1.004664101516221,0.32432834912067665,0.9465756682027028,2.880420267983767,1.1495013541580732,1.5093281322399037,2.7040132006615356,1.0,0.6137677824489697,1.039744326011321,-2.020287976809638,-1.0666819410869426,-3.14,2.326976518265635
160,1.0048531737713522,0.32450761644830173,0.9467088640018209,2.880288432203235,1.1493528377273068,1.5093195834340978,2.7038319927963856,1.0,0.6141005317652898,1.0395709014684666,-2.0203392228420873,-1.0671070831549783,-3.14,2.326568283898506
161,1.0050425651038464,0.324687120645718,0.9468422881254049,2.8801563978712275,1.1492041443421293,1.5093110681871973,2.70365037549125,1.0,0.6144335528460988,1.039397139490061,-2.020390433082496,-1.067532491842693,-3.14,2.326159672976283
162,1.005232276443586,0.3248668620096395,0.9469759413756336,2.880024164615171,1.1490552738715392,1.5093025866606613,2.7034683479009445,1.0,0.6147668463264311,1.039223039391694,-2.0204416071644093,-1.0679581673709604,-3.14,2.3257506851194534
163,1.0054223087239849,0.325046840837089,0.9471098245582009,2.879891732061648,1.1489062261848337,1.5092941390163874,2.7032859091784336,1.0,0.6151004128442917,1.0390486004876778,-2.020492744720009,-1.0683841099609341,-3.14,2.325341319948562
164,1.005612662882006,0.325227057425399,0.9472439384823357,2.8797590998363907,1.1487570011516115,1.5092857254167138,2.7031030584748246,1.0,0.615434253040668,1.0388738220910463,-2.0205438453801086,-1.0688103198340462,-3.14,2.3249315770842123
165,1.0058033398581723,0.3254075120722144,0.9473782839608171,2.8796262675642774,1.1486075986417736,1.5092773460244169,2.702919794939362,1.0,0.6157683675595479,1.038698703513551,-2.0205949087741497,-1.069236797212009,-3.14,2.324521456147069
166,1.0059943405965837,0.3255882050754873,0.9475128618099894,2.879493234869333,1.1484580185255302,1.5092690010027159,2.702736117719421,1.0,0.6161027570479332,1.0385232440656604,-2.0206459345301995,-1.0696635423168142,-3.14,2.324110956757861
167,1.006185666044932,0.3257691367334824,0.9476476728497778,2.8793600013747263,1.148308260673397,1.50926069051527,2.7025520259605025,1.0,0.6164374221558542,1.0383474430565558,-2.0206969222749454,-1.0700905553707338,-3.14,2.3237000785373843
168,1.0063773171545132,0.3259503073447763,0.947782717903707,2.8792265667027634,1.1481583249562013,1.5092524147261805,2.7023675188062244,1.0,0.6167723635363871,1.0381712997941301,-2.0207478716336924,-1.0705178365963206,-3.14,2.3232888211065035
169,1.0065692948802472,0.3261317172082545,0.947917997798914,2.879092930474891,1.1480082112450851,1.5092441737999926,2.7021825953983165,1.0,0.6171075818456684,1.0379948135849848,-2.0207987822303597,-1.070945386216408,-3.14,2.3228771840861557
170,1.0067616001806874,0.3263133666231169,0.9480535133661658,2.8789590923116855,1.1478579194115053,1.5092359679016942,2.7019972548766145,1.0,0.6174430777429092,1.0378179837344272,-2.020849653687476,-1.0713732044541102,-3.14,2.3224651670973526
171,1.006954234018042,0.32649525588887657,0.9481892654398762,2.8788250518328553,1.147707449327236,1.5092277971967176,2.7018114963790523,1.0,0.6177788518904126,1.0376408095464682,-2.0209004856261754,-1.0718012915328228,-3.14,2.322052769761182
172,1.0071471973581825,0.32667738530535684,0.9483252548581234,2.878690808657241,1.1475568008643737,1.5092196618509377,2.701625319041658,1.0,0.6181149049535881,1.0374632903238208,-2.020951277666197,-1.0722296476762232,-3.14,2.321639991698813
173,1.0073404911706643,0.326859755172697,0.9484614824626618,2.8785563624028043,1.1474059738953364,1.5092115620306774,2.701438721998544,1.0,0.6184512376009679,1.0372854253678954,-2.0210020294258757,-1.0726582731082703,-3.14,2.3212268325314964
174,1.0075341164287384,0.3270423657913455,0.9485979490989437,2.8784217126866336,1.1472549682928712,1.5092034979027047,2.7012517043819044,1.0,0.6187878505042221,1.0371072139787998,-2.021052740522144,-1.0730871680532053,-3.14,2.320813291880568
175,1.0077280741093704,0.3272252174620696,0.9487346556161331,2.878286859124934,1.1471037839300489,1.5091954696342347,2.701064265322004,1.0,0.6191247443381739,1.036928655455334,-2.021103410570523,-1.0735163327355512,-3.14,2.3203993693674514
176,1.0079223651932518,0.3274083104859489,0.948871602867123,2.8781518013330283,1.1469524206802744,1.5091874773929281,2.7008764039471758,1.0,0.6194619197808181,1.03674974909499,-2.0211540391851233,-1.0739457673801145,-3.14,2.3199850646136615
177,1.008116990664819,0.32759164516437844,0.9490087917085518,2.8780165389253534,1.1468008784172838,1.509179521346895,2.700688119383812,1.0,0.6197993775133334,1.0365704941939484,-2.0212046259786387,-1.0743754722119832,-3.14,2.319570377240806
178,1.0083119515122676,0.3277752217990654,0.9491462230008224,2.8778810715154597,1.146649157015152,1.509171601664694,2.700499410756359,1.0,0.620137118220102,1.0363908900470753,-2.0212551705623425,-1.0748054474565292,-3.14,2.319155306870589
179,1.0085072487275677,0.32795904069203663,0.949283897608115,2.877745398716003,1.146497256348289,1.5091637185153324,2.7003102771873078,1.0,0.6204751425887234,1.03621093594792,-2.021305672546084,-1.0752356933394074,-3.14,2.318739853124813
180,1.0087028833064797,0.32814310214563397,0.9494218163984073,2.877609520138743,1.146345176291447,1.509155872068268,2.70012071779719,1.0,0.6208134513100314,1.0360306311887124,-2.0213561315382855,-1.075666210086556,-3.14,2.318324015625383
181,1.0088988562485712,0.32832740646251174,0.9495599802434925,2.877473435394547,1.1461929167197247,1.5091480624934082,2.699930731704572,1.0,0.621152045078111,1.0358499750603622,-2.0214065471459373,-1.0760969979241968,-3.14,2.317907793994307
182,1.009095168557233,0.3285119539456448,0.949698390018993,2.8773371440933766,1.1460404775085635,1.5091402899611137,2.6997403180260435,1.0,0.6214909245903137,1.0356689668524526,-2.021456918974593,-1.0765280570788354,-3.14,2.3174911878537023
183,1.0092918212396915,0.3286967448983231,0.9498370466043793,2.877200645844293,1.145887858533757,1.509132554642194,2.6995494758762155,1.0,0.6218300905472741,1.0354876058532414,-2.0215072466283694,-1.0769593877772614,-3.14,2.317074196825794
184,1.0094888153070298,0.3288817796241545,0.9499759508829886,2.877063940255449,1.1457350596714484,1.5091248567079139,2.6993582043677113,1.0,0.6221695436529274,1.035305891349656,-2.0215575297099386,-1.0773909902465486,-3.14,2.316656820532922
185,1.009686151774201,0.3290670584270637,0.9501151037420396,2.8769270269340907,1.1455820807981358,1.5091171963299899,2.6991665026111593,1.0,0.622509284614525,1.0351238226272916,-2.0216077678205258,-1.077822864714055,-3.14,2.316239058597541
186,1.0098838316600454,0.329252581611295,0.950254506072654,2.8767899054865462,1.1454289217906757,1.5091095736805924,2.6989743697151862,1.0,0.6228493141426529,1.034941398970409,-2.0216579605599057,-1.078255011407424,-3.14,2.3158209106422247
187,1.010081855987306,0.32943834948140954,0.9503941587698701,2.876652575518232,1.145275582526283,1.5091019889323476,2.6987818047864116,1.0,0.623189632951246,1.0347586196619307,-2.0217081075263974,-1.0786874305545826,-3.14,2.3154023762896685
188,1.0102802257826442,0.3296243623422862,0.9505340627326625,2.8765150366336463,1.1451220628825385,1.5090944422583346,2.698588806929439,1.0,0.6235302417576065,1.0345754839834402,-2.0217582083168626,-1.079120122383743,-3.14,2.3149834551626927
189,1.0104789420766582,0.3298106204991251,0.9506742188639583,2.876377288436364,1.1449683627373843,1.5090869338320902,2.6983953752468497,1.0,0.6238711412824209,1.034391991215177,-2.021808262526699,-1.0795530871234023,-3.14,2.314564146884244
190,1.0106780059038996,0.3299971242574444,0.9508146280706585,2.8762393305290344,1.1448144819691342,1.509079463827607,2.698201508839196,1.0,0.6242123322497775,1.034208140636036,-2.0218582697498393,-1.0799863250023432,-3.14,2.314144451077401
191,1.010877418302887,0.33018387392308096,0.9509552912636531,2.876101162513383,1.1446604204564717,1.5090720324193345,2.698007206804994,1.0,0.6245538153871824,1.0340239315235633,-2.0219082295787443,-1.0804198362496331,-3.14,2.3137243673653742
192,1.0110771803161247,0.3303708698021926,0.9510962093578369,2.875962783990201,1.1445061780784553,1.5090646397821799,2.697812468240714,1.0,0.6248955914255766,1.0338393631539544,-2.0219581416044012,-1.0808536210946253,-3.14,2.313303895371512
193,1.0112772929901201,0.33055811220125797,0.9512373832721336,2.875824194559346,1.1443517547145192,1.5090572860915095,2.697617292240777,1.0,0.6252376610993545,1.0336544348020509,-2.0220080054163185,-1.0812876797669582,-3.14,2.312883034719301
194,1.0114777573754,0.33074560142707504,0.9513788139295108,2.8756853938197384,1.1441971502444792,1.5090499715231482,2.697421677897545,1.0,0.6255800251463814,1.0334691457413385,-2.0220578206025217,-1.081722012496556,-3.14,2.312461785032371
195,1.0116785745265264,0.3309333377867635,0.951520502256997,2.875546381369358,1.1440423645485323,1.5090426962533818,2.6972256243013155,1.0,0.6259226843080098,1.033283495243944,-2.0221075867495504,-1.0821566195136287,-3.14,2.312040145934497
196,1.0118797455021147,0.3311213215877619,0.9516624491857014,2.875407156805246,1.1438873975072623,1.5090354604589533,2.6970291305403133,1.0,0.6262656393290978,1.0330974825806323,-2.0221573034424556,-1.0825915010486722,-3.14,2.311618117049603
197,1.0120812713648495,0.33130955313783317,0.9518046556508334,2.87526771972349,1.143732249001642,1.5090282643170703,2.696832195700682,1.0,0.6266088909580263,1.0329111070208035,-2.022206970264791,-1.0830266573324676,-3.14,2.3111956980017645
198,1.0122831531815033,0.33149803274506057,0.951947122591719,2.8751280697192323,1.1435769189130343,1.5090211080054003,2.6966348188664786,1.0,0.6269524399467168,1.032724367832491,-2.0222565867986138,-1.0834620885960828,-3.14,2.3107728884152117
199,1.0124853920229535,0.33168676071784836,0.9520898509518217,2.874988206386662,1.1434214071231983,1.5090139917020742,2.6964369991196646,1.0,0.6272962870506502,1.032537264282358,-2.0223061526244774,-1.0838977950708715,-3.14,2.3103496879143326
200,1.0126879889641978,0.33187573736492526,0.9522328416787603,2.874848129319011,1.1432657135142894,1.5090069155856847,2.6962387355400996,1.0,0.6276404330288837,1.0323497956356948,-2.02235566732143,-1.0843337769884733,-3.14,2.309926096123676
201,1.0128909450843744,0.33206496299534005,0.9523760957243274,2.8747078381085536,1.1431098379688656,1.508999879835289,2.696040027205533,1.0,0.6279848786440699,1.0321619611564161,-2.0224051304670083,-1.0847700345808144,-3.14,2.3095021126679565
202,1.0130942614667762,0.3322544379184648,0.9525196140445085,2.874567332346601,1.142953780369888,1.508992884630409,2.695840873191597,1.0,0.6283296246624733,1.0319737601070587,-2.0224545416372353,-1.0852065680801068,-3.14,2.3090777371720543
203,1.0132979391988712,0.33244416244399755,0.9526633975995007,2.8744266116234964,1.142797540600723,1.5089859301510302,2.6956412725717978,1.0,0.62867467185399,1.0317851917487775,-2.022503900406615,-1.085643377718849,-3.14,2.308652969261021
204,1.01350197937232,0.33263413688195476,0.9528074473537347,2.874285675528618,1.1426411185451504,1.5089790165776058,2.6954412244175106,1.0,0.6290200209921654,1.0315962553413447,-2.022553206348127,-1.0860804637298256,-3.14,2.3082278085600825
205,1.0137063830829898,0.33282436154267925,0.9529517642758885,2.8741445236503713,1.14248451408736,1.5089721440910537,2.695240727797969,1.0,0.6293656728542125,1.0314069501431442,-2.022602459033226,-1.0865178263461075,-3.14,2.307802254694641
206,1.0139111514309784,0.3330148367368376,0.9530963493389131,2.874003155576184,1.1423277271119603,1.5089653128727591,2.695039781780259,1.0,0.6297116282210311,1.0312172754111717,-2.022651658031836,-1.086955465801052,-3.14,2.30737630729028
207,1.0141162855206247,0.3332055627754194,0.9532412035200466,2.8738615708925073,1.142170757503978,1.5089585231045757,2.694838385429311,1.0,0.6300578878772255,1.03102723040103,-2.022700802912344,-1.087393382328303,-3.14,2.306949965972766
208,1.0143217864605338,0.33339653996973867,0.9533863278008367,2.8737197691848104,1.1420136051488627,1.5089517749688246,2.6946365378078916,1.0,0.6304044526111241,1.0308368143669258,-2.0227498932415986,-1.08783157616179,-3.14,2.306523230368053
209,1.0145276553635905,0.3335877686314338,0.9535317231671607,2.8735777500375757,1.1418562699324915,1.508945068648297,2.694434237976596,1.0,0.6307513232147974,1.0306460265616681,-2.022798928584904,-1.0882700475357294,-3.14,2.306096100102285
210,1.0147338933469778,0.33377924907246775,0.9536773906092422,2.8734355130342997,1.1416987517411692,1.5089384043262517,2.694231484993841,1.0,0.6310985004840775,1.0304548662366662,-2.0228479085060185,-1.0887087966846234,-3.14,2.3056685748017993
211,1.0149405015321975,0.3339709816051286,0.9538233311216743,2.8732930577574862,1.1415410504616323,1.5089317821864208,2.694028277915855,1.0,0.6314459852185764,1.030263332641923,-2.022896832567147,-1.0891478238432606,-3.14,2.3052406540931316
212,1.0151474810450865,0.33416296654202815,0.9539695457034374,2.873150383788642,1.1413831659810576,1.5089252024130044,2.693824615796672,1.0,0.6317937782217059,1.0300714250260372,-2.0229457003289393,-1.0895871292467156,-3.14,2.3048123376030167
213,1.015354833015835,0.33435520419610526,0.9541160353579204,2.8730074907082774,1.141225098187056,1.508918665190677,2.6936204976881233,1.0,0.6321418803006966,1.0298791426361955,-2.022994511350484,-1.0900267131303496,-3.14,2.3043836249583944
214,1.0155625585790056,0.3345476948806224,0.9542628010929405,2.8728643780959024,1.1410668469676837,1.508912170704582,2.6934159226398293,1.0,0.6324902922666157,1.0296864847181741,-2.0230432651893064,-1.0904665757298093,-3.14,2.303954515786411
215,1.015770658873553,0.3347404389091679,0.9544098439207626,2.872721045530018,1.140908412211443,1.5089057191403406,2.6932108896991895,1.0,0.6328390149343898,1.0294934505163316,-2.0230919614013616,-1.0909067172810276,-3.14,2.303525009714424
216,1.0159791350428407,0.3349334365956566,0.9545571648581204,2.8725774925881185,1.140749793807285,1.5088993106840427,2.693005397911378,1.0,0.6331880491228197,1.0293000392736098,-2.023140599541033,-1.091347138020223,-3.14,2.303095106370005
217,1.0161879882346603,0.3351266882543287,0.9547047649262369,2.872433718846686,1.140590991644614,1.5088929455222553,2.6927994463193325,1.0,0.6335373956546045,1.0291062502315276,-2.0231891791611263,-1.0917878381839003,-3.14,2.302664805380944
218,1.0163972196012514,0.33532019419975034,0.954852645150846,2.872289723881188,1.1404320056132895,1.5088866238420202,2.6925930339637483,1.0,0.6338870553563591,1.0289120826301805,-2.023237699812865,-1.0922288180088495,-3.14,2.302234106375252
219,1.0166068302993188,0.3355139547468128,0.9550008065622102,2.8721455072660733,1.140272835603633,1.5088803458308546,2.6923861598830676,1.0,0.6342370290586334,1.028717535708237,-2.023286161045888,-1.0926700777321463,-3.14,2.3018030089811643
220,1.0168168214900533,0.3357079702107337,0.9551492501951443,2.8720010685747686,1.1401134815064284,1.508874111676751,2.6921788231134736,1.0,0.6345873175959332,1.028522608702934,-2.023334562408243,-1.0931116175911517,-3.14,2.3013715128271452
221,1.017027194339149,0.33590224090705856,0.9552979770890342,2.8718564073796724,1.139953943212926,1.508867921568181,2.6919710226888798,1.0,0.6349379218067405,1.028327300850076,-2.023382903446383,-1.0935534378235123,-3.14,2.300939617541892
222,1.0172379500168232,0.33609676715165876,0.9554469882878592,2.8717115232521566,1.1397942206148466,1.5088617756940919,2.691762757640924,1.0,0.6352888425335325,1.0281316113840306,-2.0234311837051635,-1.0939955386671594,-3.14,2.300507322754336
223,1.0174490896978365,0.33629154926073035,0.9555962848402125,2.87156641576256,1.139634313604387,1.5088556742439108,2.6915540269989586,1.0,0.6356400806228025,1.027935539537727,-2.023479402727836,-1.0944379203603096,-3.14,2.3000746280936486
224,1.0176606145615117,0.3364865875507981,0.9557458677993227,2.8714210844801857,1.1394742220742196,1.508849617407542,2.691344829790043,1.0,0.6359916369250798,1.0277390845426513,-2.0235275600560447,-1.094880583141464,-3.14,2.299641533189245
225,1.017872525791751,0.3366818823387116,0.9558957382230737,2.8712755289732974,1.1393139459174995,1.5088436053753722,2.691135165038933,1.0,0.6363435122949505,1.0275422456288443,-2.0235756552298216,-1.0953235272494086,-3.14,2.299208037670786
226,1.0180848245770606,0.3368774339416493,0.9560458971740291,2.8711297488091123,1.1391534850278673,1.5088376383382658,2.6909250317680744,1.0,0.6366957075910784,1.0273450220248985,-2.023623687787582,-1.0957667529232136,-3.14,2.298774141168184
227,1.0182975121105642,0.33707324267711514,0.9561963457194491,2.870983743553807,1.1389928392994502,1.5088317164875698,2.690714428997595,1.0,0.6370482236762239,1.027147412957954,-2.023671657266122,-1.0962102604022332,-3.14,2.2983398433116045
228,1.0185105895900286,0.3372693088629397,0.9563470849313181,2.870837512772504,1.1388320086268704,1.5088258400151122,2.6905033557452938,1.0,0.6374010614172675,1.0269494176536982,-2.023719563200611,-1.0966540499261062,-3.14,2.2979051437314713
229,1.0187240582178785,0.33746563281728087,0.9564981158863608,2.870691056029272,1.138670992905246,1.508820009113204,2.690291811026633,1.0,0.637754221685228,1.0267510353363594,-2.0237674051245893,-1.0970981217347546,-3.14,2.2974700420584706
230,1.0189379192012211,0.3376622148586231,0.9566494396660673,2.8705443728871245,1.1385097920301956,1.5088142239746392,2.6900797938547307,1.0,0.6381077053552846,1.0265522652287058,-2.0238151825699626,-1.0975424760683843,-3.14,2.2970345379235537
231,1.01915217375186,0.3378590553057782,0.9568010573567123,2.870397462908013,1.1383484058978408,1.5088084847926946,2.68986730324035,1.0,0.6384615133067971,1.0263531065520424,-2.0238628950670003,-1.0979871131674839,-3.14,2.2965986309579414
232,1.0193668230863226,0.3380561544778849,0.956952970049382,2.870250325652824,1.1381868344048123,1.5088027917611322,2.6896543381918927,1.0,0.6388156464233293,1.0261535585262056,-2.023910542144326,-1.0984320332728252,-3.14,2.296162320793128
233,1.0195818684258753,0.33825351269440834,0.9571051788399906,2.8701029606813773,1.138025077448252,1.5087971450741986,2.689440897715387,1.0,0.6391701055926676,1.0259536203695632,-2.023958123328918,-1.0988772366254633,-3.14,2.2957256070608847
234,1.019797310996545,0.338451130275141,0.9572576848293062,2.86995536755242,1.1378631349258177,1.5087915449266283,2.689226980814483,1.0,0.6395248917068443,1.0257532912990088,-2.0240056381461002,-1.0993227234667349,-3.14,2.2952884893932644
235,1.020013152029141,0.3386490075402018,0.9574104891229719,2.869807545823625,1.1377010067356879,1.5087859915136386,2.68901258649044,1.0,0.6398800056621572,1.0255525705299613,-2.0240530861195425,-1.099768494038259,-3.14,2.294850967422605
236,1.0202293927592712,0.338847144810036,0.9575635928315285,2.869659495051588,1.1375386927765636,1.508780485030936,2.6887977137421206,1.0,0.6402354483591929,1.0253514572763587,-2.0241004667712525,-1.1002145485819368,-3.14,2.2944130407815333
237,1.020446034427369,0.3390455424054173,0.9577169970704372,2.8695112147918187,1.1373761929476738,1.5087750256747154,2.6885823615659783,1.0,0.6405912207028481,1.0251499507506567,-2.0241477796215723,-1.1006608873399504,-3.14,2.293974709102969
238,1.0206630782787098,0.33924420064744365,0.9578707029601026,2.8693627045987418,1.1372135071487812,1.5087696136416597,2.6883665289560508,1.0,0.6409473236023517,1.0249480501638255,-2.0241950241891735,-1.1011075105547634,-3.14,2.29353597202013
239,1.020880525563432,0.33944311985754305,0.9580247116258944,2.869213964025692,1.1370506352801817,1.5087642491289395,2.68815021490395,1.0,0.6413037579712848,1.024745754725346,-2.0242421999910536,-1.10155441846912,-3.14,2.2930968291665343
240,1.0210983775365587,0.33964230035746534,0.9581790241981714,2.869064992624913,1.136887577242714,1.5087589323342177,2.6879334183988552,1.0,0.6416605247276053,1.0245430636432074,-2.02428930654253,-1.1020016113260447,-3.14,2.2926572801760057
241,1.0213166354580194,0.3398417424692911,0.9583336418123056,2.8689157899475477,1.1367243329377599,1.5087536634556453,2.6877161384274997,1.0,0.6420176247936683,1.024339976123904,-2.0243363433572363,-1.102449089368842,-3.14,2.292217324682677
242,1.0215353005926704,0.3400414465154255,0.9584885656087021,2.86876635554364,1.1365609022672483,1.5087484426918671,2.6874983739741647,1.0,0.6423750590962497,1.0241364913724296,-2.024383309947117,-1.1028968528410958,-3.14,2.291776962320996
243,1.0217543742103155,0.3402414128185992,0.9586437967328265,2.8686166889621285,1.1363972851336637,1.5087432702420174,2.687280124020669,1.0,0.6427328285665681,1.0239326085922775,-2.0244302058224246,-1.1033449019866701,-3.14,2.291336192725726
244,1.0219738575857267,0.34044164170186925,0.9587993363352248,2.8684667897508453,1.1362334814400454,1.5087381463057248,2.6870613875463603,1.0,0.6430909341403068,1.0237283269854363,-2.0244770304917123,-1.1037932370497068,-3.14,2.290895015531954
245,1.0221937519986692,0.34064213348861827,0.9589551855715492,2.868316657456508,1.1360694910899962,1.5087330710831102,2.6868421635281043,1.0,0.6434493767576362,1.023523645752386,-2.0245237834618313,-1.104241858274626,-3.14,2.2904534303750927
246,1.0224140587339168,0.3408428885025565,0.95911134560258,2.868166291624719,1.1359053139876811,1.508728044774789,2.6866224509402774,1.0,0.6438081573632382,1.023318564092094,-2.024570464237925,-1.104690765906126,-3.14,2.2900114368908855
247,1.0226347790812815,0.3410439070677163,0.9592678175942532,2.868015691799963,1.135740950037839,1.5087230675818708,2.6864022487547556,1.0,0.6441672769063272,1.0231130812020146,-2.024617072323425,-1.1051399601891827,-3.14,2.28956903471541
248,1.0228559143356268,0.34124518950845784,0.9594246027176779,2.867864857525597,1.1355763991457815,1.5087181397059612,2.6861815559409057,1.0,0.6445267363406748,1.0229071962780827,-2.024663607220046,-1.1055894413690486,-3.14,2.289126223485083
249,1.0230774657968968,0.34144673614946663,0.959581702149167,2.867713788343855,1.1354116612173972,1.5087132613491616,2.685960371465575,1.0,0.6448865366246311,1.022700908514712,-2.0247100684277806,-1.1060392096912524,-3.14,2.288683002836665
250,1.0232994347701325,0.3416485473157499,0.9597391170702583,2.867562483795838,1.1352467361591625,1.5087084327140698,2.6857386942930828,1.0,0.6452466787211498,1.0224942171047924,-2.0247564554448956,-1.1064892654015992,-3.14,2.2882393724072645
251,1.023521822565497,0.3418506233326423,0.9598968486677376,2.867410943421513,1.1350816238781378,1.5087036540037817,2.6855165233852105,1.0,0.6456071635978097,1.0222871212396842,-2.0248027677679263,-1.1069396087461691,-3.14,2.287795331834342
252,1.0237446304982964,0.3420529645258027,0.9600548981336654,2.8672591667597063,1.134916324281978,1.5086989254218897,2.685293857701191,1.0,0.6459679922268393,1.022079620109218,-2.024849004891673,-1.1073902399713174,-3.14,2.287350880755714
253,1.0239678598890043,0.34225557122121236,0.9602132666654006,2.867107153348104,1.1347508372789339,1.508694247172488,2.6850706961977004,1.0,0.6463291655851413,1.0218717129016877,-2.0248951663091934,-1.1078411593236732,-3.14,2.28690601880956
254,1.0241915120632807,0.3424584437451774,0.9603719554656254,2.8669549027232453,1.1345851627778587,1.5086896194601669,2.6848470378288467,1.0,0.6466906846543135,1.021663398803851,-2.0249412515118013,-1.1082923670501392,-3.14,2.286460745634422
255,1.024415588351997,0.3426615824243272,0.9605309657423693,2.866802414420518,1.1344193006882115,1.50868504249002,2.68462288154616,1.0,0.6470525504206763,1.0214546770009227,-2.024987259989059,-1.108743863397892,-3.14,2.2860150608692162
256,1.0246400900912571,0.34286498758561396,0.9606902987090351,2.8666496879741565,1.1342532509200638,1.508680516467639,2.684398226298585,1.0,0.6474147638752925,1.0212455466765749,-2.0250331912287747,-1.1091956486143797,-3.14,2.28556896415323
257,1.0248650186224204,0.34306865955631244,0.9608499555844232,2.866496722917238,1.134087013384101,1.5086760415991194,2.6841730710324683,1.0,0.6477773260139953,1.0210360070129292,-2.0250790447169944,-1.1096477229473227,-3.14,2.285122455126132
258,1.0250903752921268,0.3432725986640202,0.9610099375927584,2.8663435187816755,1.1339205879916305,1.508671618091058,2.683947414691549,1.0,0.6481402378374106,1.0208260571905567,-2.0251248199380005,-1.110100086644713,-3.14,2.284675533427975
259,1.025316161452316,0.3434768052366575,0.9611702459637109,2.8661900750982174,1.1337539746545842,1.5086672461505546,2.68372125621695,1.0,0.6485035003509811,1.020615696388473,-2.0251705163743052,-1.1105527399548125,-3.14,2.2842281986991995
260,1.0255423784602526,0.34368127960246375,0.9613308819324291,2.866036391396444,1.1335871732855254,1.508662925985213,2.6834945945471675,1.0,0.648867114564992,1.0204049237841364,-2.0252161335066448,-1.111005683126153,-3.14,2.2837804505806396
261,1.0257690276785496,0.343886022090002,0.9614918467395567,2.8658824672047585,1.1334201837976514,1.5086586578031416,2.6832674286180587,1.0,0.649231081494594,1.0201937385534425,-2.0252616708139763,-1.111458916407536,-3.14,2.2833322887135274
262,1.0259961104751907,0.3440910330281546,0.9616531416312659,2.8657283020503885,1.1332530061048014,1.5086544418129528,2.6830397573628346,1.0,0.6495954021598302,1.0199821398707218,-2.025307127773472,-1.1119124400480311,-3.14,2.282883712739499
263,1.0262236282235533,0.34429631274612443,0.9618147678592781,2.86557389545938,1.1330856401214577,1.508650278223767,2.682811579712049,1.0,0.6499600775856585,1.0197701269087358,-2.0253525038605136,-1.1123662542969759,-3.14,2.2824347223005965
264,1.0264515823024332,0.34450186157343504,0.9619767266808921,2.865419246956592,1.1329180857627543,1.5086461672452083,2.682582894593586,1.0,0.6503251088019782,1.019557698838674,-2.0253977985486875,-1.1128203594039745,-3.14,2.2819853170392754
265,1.026679974096068,0.34470767983992806,0.9621390193590106,2.8652643560656945,1.1327503429444798,1.5086421090874105,2.6823537009326537,1.0,0.650690496843656,1.0193448548301507,-2.0254430113097817,-1.1132747556188982,-3.14,2.281535496598409
266,1.0269088049941593,0.34491376787576444,0.9623016471621656,2.865109222309165,1.1325824115830834,1.5086381039610135,2.6821239976517695,1.0,0.6510562427505483,1.0191315940511998,-2.0254881416137778,-1.113729443191883,-3.14,2.2810852606212917
267,1.0271380763918991,0.3451201260114236,0.9624646113645443,2.8649538452082814,1.1324142915956796,1.5086341520771678,2.6818937836707524,1.0,0.6514223475675296,1.0189179156682737,-2.025533188928847,-1.1141844223733295,-3.14,2.280634608751646
268,1.027367789689991,0.34532675457770196,0.9626279132460174,2.864798224283121,1.1322459829000544,1.5086302536475316,2.6816630579067127,1.0,0.6517888123445159,1.0187038188462387,-2.0255781527213466,-1.1146396934139027,-3.14,2.2801835406336264
269,1.0275979462946765,0.34553365390571406,0.9627915540921652,2.864642359052555,1.132077485414669,1.508626408884273,2.6814318192740396,1.0,0.6521556381364922,1.018489302748371,-2.025623032455813,-1.1150952565645305,-3.14,2.2797320559118246
270,1.027828547617758,0.34574082432689046,0.9629555351943019,2.8644862490342438,1.1319087990586665,1.5086226180000724,2.6812000666843923,1.0,0.6525228260035367,1.0182743665363534,-2.025667827594957,-1.1155511120764028,-3.14,2.279280154231275
271,1.0280595950766227,0.3459482661729774,0.9631198578495066,2.864329893744636,1.1317399237518762,1.5086188812081203,2.680967799046689,1.0,0.6528903770108476,1.0180590093702722,-2.025712537599658,-1.1160072602009705,-3.14,2.278827835237458
272,1.028291090094269,0.34615597977603557,0.963284523360648,2.8641732926989625,1.13157085941482,1.5086151987221208,2.6807350152670963,1.0,0.6532582922287695,1.0178432304086134,-2.025757161928961,-1.1164637011899459,-3.14,2.278375098576308
273,1.0285230340993277,0.34636396546844217,0.9634495330364118,2.8640164454112296,1.1314016059687166,1.5086115707562895,2.680501714249017,1.0,0.6536265727328179,1.0176270288082592,-2.0258017000400694,-1.1169204352952995,-3.14,2.277921943894216
274,1.0287554285260898,0.3465722235828875,0.9636148881913285,2.8638593513942183,1.1312321633354883,1.5086079975253566,2.680267894893081,1.0,0.6539952196037077,1.017410403724484,-2.0258461513883406,-1.1173774627692612,-3.14,2.2774683708380365
275,1.0289882748145323,0.3467807544523751,0.9637805901458014,2.8637020101594803,1.1310625314377647,1.5086044792445663,2.680033556097135,1.0,0.6543642339273795,1.0171933543109513,-2.0258905154272804,-1.1178347838643186,-3.14,2.2770143790550916
276,1.0292215744103363,0.34698955841021983,0.963946640226134,2.8635444212173335,1.130892710198892,1.5086010161296772,2.679798696756229,1.0,0.6547336167950246,1.0169758797197106,-2.025934791608538,-1.1182923988332156,-3.14,2.2765599681931765
277,1.0294553287649204,0.3471986357900508,0.9641130397645565,2.863386584076855,1.1307226995429323,1.5085976083969654,2.679563315762609,1.0,0.6551033693031127,1.016757979101192,-2.025978979381901,-1.118750307928952,-3.14,2.276105137900566
278,1.0296895393354615,0.3474079869258059,0.9642797900992565,2.8632284982458818,1.1305524993946758,1.5085942562632222,2.6793274120057027,1.0,0.6554734925534192,1.016539651604205,-2.0260230781952897,-1.119208511404782,-3.14,2.2756498878260176
279,1.029924207584918,0.34761761215173376,0.9644468925744039,2.863070163231003,1.1303821096796431,1.508590959945756,2.6790909843721105,1.0,0.6558439876530523,1.0163208963759325,-2.0260670874947517,-1.1196670095142138,-3.14,2.27519421761878
280,1.0301593349820626,0.34782751180239346,0.9646143485401821,2.8629115785375543,1.130211530324092,1.5085877196623938,2.6788540317455927,1.0,0.6562148557144785,1.0161017125619292,-2.0261110067244568,-1.1201258025110075,-3.14,2.274738126928594
281,1.0303949230014993,0.34803768621265146,0.964782159352815,2.86275274366962,1.1300407612550214,1.508584535631482,2.6786165530070614,1.0,0.6565860978555534,1.015882099306116,-2.026154835326691,-1.1205848906491755,-3.14,2.2742816154057035
282,1.0306309731236936,0.3482481357176809,0.9649503263745955,2.862593658130026,1.12986980240018,1.5085814080718847,2.678378547034567,1.0,0.6569577151995458,1.0156620557507787,-2.0261985727418534,-1.1210442741829805,-3.14,2.273824682700857
283,1.0308674868349992,0.34845886065296483,0.965118850973914,2.862434321420329,1.1296986536880702,1.5085783372029873,2.6781400127032855,1.0,0.6573297088751667,1.0154415810365613,-2.0262422184084485,-1.1215039533669338,-3.14,2.2733673284653135
284,1.03110446562768,0.34866986135428946,0.9652877345252892,2.862274733040822,1.1295273150479557,1.5085753232446952,2.6779009488855117,1.0,0.6577020800165977,1.0152206743024659,-2.026285771763081,-1.1219639284557954,-3.14,2.2729095523508502
285,1.0313419109999398,0.3488811381577453,0.9654569784093952,2.8621148924905278,1.1293557864098656,1.508572366417437,2.6776613544506445,1.0,0.6580748297635177,1.0149993346858457,-2.026329232240451,-1.1224241997045725,-3.14,2.272451354009766
286,1.0315798244559473,0.34909269139972954,0.9656265840130897,2.8619547992671888,1.1291840677046012,1.5085694669421623,2.677421228265175,1.0,0.6584479592611321,1.0147775613224026,-2.026372599273348,-1.1228847673685176,-3.14,2.271992733094889
287,1.0318182075058604,0.3493045214169412,0.9657965527294472,2.861794452867269,1.1290121588637427,1.5085666250403431,2.6771805691926787,1.0,0.6588214696602003,1.0145553533461844,-2.026415872292648,-1.123345631703128,-3.14,2.27153368925958
288,1.0320570616658562,0.3495166285463786,0.9659668859577857,2.8616338527859493,1.1288400598196562,1.5085638409339779,2.6769393760938,1.0,0.6591953621170653,1.0143327098895798,-2.026459050727302,-1.1238067929641447,-3.14,2.2710742221577402
289,1.032296388458155,0.34972901312534516,0.9661375851036952,2.8614729985171183,1.1286677705054962,1.5085611148455873,2.6766976478262436,1.0,0.6595696377936807,1.0141096300833148,-2.026502134004338,-1.1242682514075504,-3.14,2.270614331443817
290,1.0325361894110474,0.3499416754914414,0.9663086515790719,2.8613118895533742,1.1284952908552162,1.5085584469982172,2.6764553832447606,1.0,0.6599442978576396,1.0138861130564503,-2.0265451215488506,-1.1247300072895687,-3.14,2.2701540167728074
291,1.0327764660589218,0.3501546159825667,0.9664800868021438,2.861150525386016,1.1283226208035735,1.5085558376154409,2.6762125812011393,1.0,0.6603193434822047,1.013662157936377,-2.026588012783996,-1.1251920608666632,-3.14,2.269693277800267
292,1.0330172199422913,0.3503678349369189,0.9666518921975027,2.8609889055050406,1.1281497602861337,1.5085532869213587,2.675969240544191,1.0,0.6606947758463364,1.01343776384881,-2.0266308071309864,-1.1256544123955354,-3.14,2.2692321141823144
293,1.0332584526078192,0.3505813326929897,0.9668240691961347,2.860827029399143,1.1279767092392805,1.508550795140597,2.675725360119742,1.0,0.6610705961347227,1.0132129299177894,-2.026673504009087,-1.126117062133124,-3.14,2.268770525575637
294,1.0335001656083482,0.35079510958956933,0.9669966192354505,2.8606648965557033,1.127803467600219,1.5085483624983098,2.675480938770616,1.0,0.6614468055378064,1.0129876552656734,-2.026716102835608,-1.1265800103366026,-3.14,2.2683085116374975
295,1.0337423605029272,0.3510091659657401,0.9671695437593145,2.860502506460788,1.1276300353069844,1.5085459892201827,2.6752359753366277,1.0,0.6618234052518177,1.012761939013134,-2.0267586030258986,-1.1270432572633797,-3.14,2.26784607202574
296,1.0339850388568386,0.3512235021608766,0.9673428442180791,2.8603398585991457,1.1274564122984476,1.5085436755324289,2.6749904686545682,1.0,0.6622003964788017,1.0125357802791553,-2.0268010039933424,-1.1275068031710962,-3.14,2.267383206398796
297,1.034228202241626,0.35143811851464507,0.967516522068613,2.8601769524542004,1.127282598514323,1.5085414216617938,2.6747444175581943,1.0,0.6625777804266496,1.0123091781810287,-2.026843305149351,-1.1279706483176244,-3.14,2.26691991441569
298,1.0344718522351213,0.3516530153670034,0.9676905787743317,2.860013787508048,1.1271085938951733,1.508539227835552,2.674497820878215,1.0,0.6629555583091268,1.0120821318343487,-2.02688550590336,-1.1284347929610663,-3.14,2.2664561957360467
299,1.0347159904214736,0.3518681930581955,0.9678650158052309,2.859850363241455,1.1269343983824178,1.5085370942815113,2.6742506774422807,1.0,0.6633337313459041,1.0118546403530095,-2.026927605662822,-1.1288992373597522,-3.14,2.2659920500200967
300,1.0349606183911761,0.3520836519287535,0.9680398346379167,2.859686679133851,1.1267600119183383,1.5085350212280122,2.674002986074972,1.0,0.6637123007625894,1.0116267028492014,-2.026969603833199,-1.1293639817722392,-3.14,2.265527476928683
301,1.0352057377410968,0.35229939231949714,0.9682150367556379,2.859522734663319,1.1265854344460884,1.5085330089039284,2.6737547455977837,1.0,0.6640912677907553,1.011398318433406,-2.0270114998179594,-1.12982902645731,-3.14,2.265062476123267
302,1.035451350074503,0.3525154145715264,0.9683906236483185,2.8593585293066073,1.1264106659096966,1.5085310575386688,2.673505954829118,1.0,0.664470633667973,1.011169486214393,-2.027053293018572,-1.130294371673971,-3.14,2.264597047265935
303,1.035697457001094,0.35273171902622946,0.9685665968125861,2.859194062539104,1.126235706254076,1.5085291673621757,2.673256612584267,1.0,0.6648503996378388,1.0109402052992165,-2.027094982834499,-1.1307600176814503,-3.14,2.264131190019405
304,1.035944060137025,0.3529483060252727,0.9687429577518087,2.85902933383485,1.1260605554250303,1.5085273386049278,2.6730067176754053,1.0,0.6652305669500094,1.010710474793211,-2.027136568663191,-1.1312259647391967,-3.14,2.263664904047033
305,1.0361911611049393,0.353165175910602,0.968919707976124,2.858864342666527,1.1258852133692618,1.508525571497941,2.672756268911573,1.0,0.6656111368602308,1.0104802937999866,-2.0271780499000793,-1.1316922131068776,-3.14,2.26319818901282
306,1.036438761533997,0.35338232902444344,0.9690968490024741,2.85869908850545,1.1257096800343787,1.5085238662727671,2.6725052650986667,1.0,0.6659921106303694,1.010249661421427,-2.0272194259385734,-1.1321587630443781,-3.14,2.262731044581417
307,1.0366868630599033,0.3535997657092985,0.9692743823546351,2.8585335708215713,1.1255339553689,1.5085222231614983,2.672253705039425,1.0,0.6663734895284449,1.0100185767576821,-2.027260696170051,-1.1326256148117984,-3.14,2.262263470418133
308,1.0369354673249371,0.3538174863079432,0.9694523095632536,2.85836778908347,1.125358039322267,1.508520642396763,2.672001587533418,1.0,0.666755274828661,1.0097870389071688,-2.0273018599838557,-1.1330927686694525,-3.14,2.2617954661889423
309,1.0371845759779799,0.35403549116342703,0.9696306321658773,2.8582017427583493,1.1251819318448473,1.5085191242117306,2.6717489113770334,1.0,0.6671374678114362,1.0095550469665637,-2.027342916767289,-1.1335602248778665,-3.14,2.26132703156049
310,1.0374341906745477,0.35425378061907364,0.9698093517069872,2.8580354313120293,1.1250056328879416,1.5085176688401103,2.6714956753634618,1.0,0.6675200697634373,1.009322600030799,-2.0273838659056054,-1.134027983697776,-3.14,2.2608581662000984
311,1.0376843130768187,0.35447235501847224,0.9699884697380348,2.8578688542089496,1.124829142403796,1.5085162765161528,2.671241878282689,1.0,0.6679030819776116,1.009089697193061,-2.0274247067820053,-1.134496045390126,-3.14,2.260388869775776
312,1.0379349448536648,0.35469121470548365,0.9701679878174737,2.8577020109121563,1.124652460345604,1.5085149474746502,2.670987518921479,1.0,0.6682865057532185,1.0088563375447839,-2.0274654387776287,-1.1349644102160674,-3.14,2.2599191419562223
313,1.0381860876806772,0.35491036002423143,0.97034790751079,2.857534900883305,1.124475586667519,1.508513681950938,2.6707325960633628,1.0,0.6686703423958614,1.008622520175647,-2.0275060612715516,-1.1354330784369555,-3.14,2.2594489824108352
314,1.0384377432402028,0.35512979131910627,0.9705282303905435,2.8573675235826497,1.124298521324658,1.5085124801808945,2.670477108488626,1.0,0.6690545932175223,1.0083882441735699,-2.0275465736407763,-1.1359020503143489,-3.14,2.258978390809719
315,1.0386899132213687,0.35534950893476036,0.9707089580363953,2.857199878469043,1.124121264273111,1.5085113424009422,2.670221054974295,1.0,0.6694392595365931,1.0081535086247084,-2.027586975260229,-1.1363713261100068,-3.14,2.2585073668236912
316,1.0389425993201165,0.3555695132161047,0.970890092035144,2.8570319649999316,1.1239438154699508,1.5085102688480487,2.6699644342941253,1.0,0.6698243426779078,1.0079183126134532,-2.0276272655027507,-1.1368409060858864,-3.14,2.2580359101242875
317,1.0391958032392308,0.3557898045083105,0.9710716339807621,2.856863782631348,1.1237661748732377,1.5085092597597272,2.669707245218586,1.0,0.670209843972779,1.0076826552224205,-2.027667443739093,-1.137310790504143,-3.14,2.2575640203837724
318,1.03944952668837,0.35601038315680433,0.9712535854744293,2.856695330817909,1.1235883424420292,1.508508315374038,2.66944948651485,1.0,0.6705957647590277,1.0074465355324533,-2.02770750933791,-1.137780979627126,-3.14,2.257091697275144
319,1.0397037713840993,0.35623124950726753,0.9714359481245657,2.85652660901281,1.123410318136388,1.5085074359295882,2.6691911569467774,1.0,0.6709821063810193,1.007209952622614,-2.027747461665754,-1.138251473717378,-3.14,2.2566189404721415
320,1.0399585390499169,0.3564524039056328,0.9716187235468708,2.856357616667823,1.1232321019173896,1.5085066216655332,2.668932255274907,1.0,0.6713688701896957,1.0069729055701824,-2.0277873000870685,-1.1387222730376312,-3.14,2.2561457496492547
321,1.0402138314162916,0.3566738466980829,0.9718019133643551,2.8561883532332883,1.1230536937471318,1.5085058728215772,2.6686727802564376,1.0,0.6717560575426108,1.0067353934506502,-2.027827023964181,-1.1391933778508074,-3.14,2.2556721244817286
322,1.040469650220688,0.35689557823104884,0.9719855192073763,2.8560188181581108,1.1228750935887417,1.5085051896379742,2.668412730645219,1.0,0.6721436698039631,1.0064974153377175,-2.027866632657299,-1.1396647884200144,-3.14,2.255198064645572
323,1.040725997207601,0.3571175988512058,0.9721695427136772,2.8558490108897594,1.1226963014063847,1.5085045723555275,2.6681521051917376,1.0,0.6725317083446305,1.0062589703032896,-2.027906125524502,-1.1401365050085437,-3.14,2.2547235698175654
324,1.040982874128588,0.3573399089054732,0.9723539855284182,2.8556789308742583,1.122517317165271,1.508504021215594,2.667890902643101,1.0,0.6729201745422059,1.0060200574174702,-2.0279455019217343,-1.1406085278798694,-3.14,2.2542486396752683
325,1.0412402827422993,0.3575625087410111,0.9725388493042152,2.8555085775561806,1.1223381408316684,1.5085035364600812,2.6676291217430266,1.0,0.67330906978103,1.0057806757485603,-2.0279847612028004,-1.1410808572976452,-3.14,2.2537732738970266
326,1.04149822481451,0.35778539870521764,0.9727241357011772,2.855337950378651,1.1221587723729065,1.5085031183314488,2.667366761231828,1.0,0.6736983954522279,1.0055408243630528,-2.028023902719359,-1.1415534935257017,-3.14,2.2532974721619805
327,1.0417567021181524,0.3580085791457259,0.9729098463869394,2.855167048783336,1.1219792117573888,1.508502767072711,2.6671038198464023,1.0,0.6740881529537431,1.005300502325629,-2.0280629258209135,-1.142026436828045,-3.14,2.2528212341500726
328,1.0420157164333501,0.358232050410405,0.9730959830367025,2.8549958722104365,1.1217994589545979,1.508502482927437,2.6668402963202134,1.0,0.6744783436903734,1.0050597086991526,-2.0281018298548097,-1.142499687468854,-3.14,2.252344559542055
329,1.042275269547446,0.3584558128473512,0.973282547333268,2.8548244200986943,1.121619513935108,1.50850226613975,2.6665761893832816,1.0,0.6748689690738054,1.0048184425446682,-2.0281406141662255,-1.1429732457124775,-3.14,2.2518674480194973
330,1.0425353632550387,0.35867986680489206,0.9734695409670766,2.8546526918853736,1.1214393766705917,1.5085021169543298,2.666311497762168,1.0,0.6752600305226515,1.0045767029213954,-2.0281792780981673,-1.1434471118234324,-3.14,2.251389899264796
331,1.0427959993580143,0.35890421263157973,0.9736569656362418,2.8544806870062667,1.1212590471338286,1.5085020356164127,2.6660462201799615,1.0,0.6756515294624835,1.0043344888867256,-2.0282178209914625,-1.143921286066401,-3.14,2.25091191296118
332,1.043057179665579,0.3591288506761888,0.9738448230465943,2.8543084048956855,1.1210785252987159,1.5085020223717935,2.6657803553562665,1.0,0.6760434673258716,1.0040917994962164,-2.0282562421847516,-1.1443957687062287,-3.14,2.2504334887927206
333,1.0433189059942913,0.359353781287715,0.974033114911713,2.854135844986456,1.1208978111402768,1.5085020774668245,2.6655139020071843,1.0,0.676435845552419,1.0038486338035892,-2.0282945410144833,-1.1448705600079214,-3.14,2.2499546264443393
334,1.0435811801680974,0.3595790048153713,0.9742218429529653,2.8539630067099155,1.1207169046346686,1.5085022011484184,2.665246858845305,1.0,0.6768286655887975,1.0036049908607239,-2.0283327168149072,-1.1453456602366423,-3.14,2.2494753256018147
335,1.0438440040183627,0.35980452160858384,0.9744110088995455,2.85378988949591,1.1205358057591952,1.5085023936640456,2.6649792245796906,1.0,0.6772219288887859,1.0033608697176555,-2.028370768918068,-1.1458210696577102,-3.14,2.248995585951793
336,1.0441073793839057,0.3600303320169931,0.9746006144885129,2.853616492772783,1.1203545144923122,1.50850265526174,2.6647109979158605,1.0,0.6776156369133056,1.0031162694225693,-2.028408696653798,-1.1462967885365964,-3.14,2.2485154071817948
337,1.0443713081110326,0.36025643639044486,0.9747906614648296,2.8534428159673793,1.1201730308136406,1.5085029861900965,2.6644421775557787,1.0,0.6780097911304586,1.002871189021797,-2.0284464993497093,-1.1467728171389222,-3.14,2.2480347889802235
338,1.04463579205357,0.36048283507899537,0.9749811515813995,2.853268858505031,1.1199913547039724,1.5085033866982707,2.6641727621978384,1.0,0.6784043930155627,1.002625627559812,-2.0284841763311903,-1.1472491557304558,-3.14,2.2475537310363745
339,1.0449008330729002,0.3607095284328975,0.9751720865991085,2.853094619809565,1.119809486145284,1.5085038570359843,2.6639027505368507,1.0,0.6787994440511923,1.002379584079226,-2.028521726921395,-1.14772580457711,-3.14,2.247072233040443
340,1.0451664330379953,0.3609365168026093,0.9753634682868613,2.8529200993032853,1.119627425120743,1.5085043974535208,2.663632141264026,1.0,0.6791949457272127,1.0021330576207848,-2.02855915044124,-1.148202763944939,-3.14,2.2465902946835334
341,1.0454325938254498,0.36116380053878294,0.9755552984216219,2.852745296406976,1.1194451716147196,1.50850500820173,2.6633609330669636,1.0,0.6795908995408202,1.0018860472233628,-2.0285964462093946,-1.1486800341001362,-3.14,2.246107915657667
342,1.0456993173195168,0.36139137999226184,0.9757475787884536,2.8525702105398993,1.1192627256127963,1.5085056895320275,2.6630891246296358,1.0,0.6799873069965789,1.00163855192396,-2.028633613542276,-1.1491576153090304,-3.14,2.2456250956557917
343,1.0459666054121441,0.3616192555140829,0.9759403111805576,2.8523948411197826,1.1190800871017768,1.508506441696394,2.662816714632373,1.0,0.6803841696064592,1.0013905707576976,-2.028670651754041,-1.1496355078380838,-3.14,2.2451418343717906
344,1.0462344600030058,0.36184742745546816,0.976133497399314,2.852219187562818,1.118897256069698,1.5085072649473796,2.6625437017518507,1.0,0.6807814888898769,1.0011421027578136,-2.028707560156581,-1.150113711953888,-3.14,2.24465813150049
345,1.0465028829995395,0.3620758961678216,0.976327139254321,2.8520432492836627,1.1187142325058381,1.5085081595381014,2.6622700846610736,1.0,0.6811792663737306,1.0008931469556581,-2.0287443380595125,-1.1505922279231624,-3.14,2.2441739867376693
346,1.0467718763169815,0.36230466200272765,0.9765212385634368,2.8518670256954253,1.11853101640073,1.5085091257222454,2.6619958620293622,1.0,0.6815775035924423,1.0006437023806904,-2.0287809847701728,-1.1510710560127497,-3.14,2.24368939978007
347,1.047041441878402,0.36253372531194894,0.976715797152818,2.8516905162096653,1.1183476077461667,1.508510163754069,2.661721032522337,1.0,0.6819762020879953,1.000393768060472,-2.0288174995936106,-1.151550196489614,-3.14,2.243204370325405
348,1.0473115816147414,0.36276308644741745,0.9769108168569635,2.8515137202363934,1.1181640065352163,1.5085112738883988,2.6614455948019042,1.0,0.6823753634099738,1.0001433430206657,-2.0288538818325805,-1.1520296496208366,-3.14,2.2427188980723662
349,1.0475822974648443,0.36299274576123747,0.9771062995187528,2.8513366371840556,1.1179802127622305,1.508512456380634,2.6611695475262427,1.0,0.6827749891156027,0.9998924262850294,-2.028890130787536,-1.1525094156736142,-3.14,2.2422329827206355
350,1.0478535913754974,0.3632227036056759,0.9773022469894875,2.851159266459541,1.1177962264228563,1.5085137114867448,2.6608928893497876,1.0,0.6831750807697866,0.9996410168754126,-2.0289262457566224,-1.152989494915254,-3.14,2.2417466239708936
351,1.048125465301464,0.36345296033316216,0.9774986611289359,2.850981607468169,1.1176120475140456,1.5085150394632763,2.6606156189232157,1.0,0.6835756399451507,0.9993891138117512,-2.028962226035668,-1.1534698876131717,-3.14,2.2412598215248294
352,1.0483979212055232,0.3636835162962829,0.97769554380537,2.850803659613688,1.1174276760340667,1.5085164405673475,2.660337734893431,1.0,0.68397666822208,0.9991367161120634,-2.0289980709181785,-1.153950594034888,-3.14,2.240772575085149
353,1.0486709610585032,0.36391437184778125,0.9778928968956122,2.850625422298268,1.117243111982514,1.5085179150566508,2.660059235903549,1.0,0.684378167188761,0.9988838227924467,-2.0290337796953315,-1.154431614448025,-3.14,2.240284884355586
354,1.0489445868393195,0.36414552734054617,0.9780907222850747,2.850446894922501,1.1170583553603215,1.5085194631894563,2.659780120592883,1.0,0.6847801384412221,0.9986304328670715,-2.0290693516559646,-1.1549129491203025,-3.14,2.2397967490409108
355,1.0492188005350118,0.36437698312761535,0.978289021867802,2.8502680768853907,1.116873406169772,1.50852108522461,2.6595003875969283,1.0,0.6851825835833725,0.9983765453481794,-2.029104786086573,-1.1553945983195357,-3.14,2.2393081688469403
356,1.0494936041407816,0.3646087395621679,0.9784877975465147,2.850088967584353,1.1166882644145084,1.508522781421534,2.659220035547348,1.0,0.6855855042270458,0.9981221592460762,-2.0291400822713004,-1.1558765623136307,-3.14,2.238819143480548
357,1.049768999660028,0.3648407969975182,0.9786870512326521,2.8499095664152096,1.1165029300995464,1.5085245520402315,2.6589390630719567,1.0,0.6859889019920401,0.9978672735691289,-2.0291752394919302,-1.1563588413705808,-3.14,2.238329672649672
358,1.0500449891043868,0.36507315578711735,0.978886784846415,2.84972987277218,1.1163174032312844,1.508526397341282,2.6586574687947055,1.0,0.6863927785061593,0.9976118873237625,-2.029210257027881,-1.156841435758464,-3.14,2.237839756063329
359,1.050321574493767,0.36530581628454245,0.9790870003168097,2.8495498860478814,1.1161316838175166,1.508528317585848,2.658375251335668,1.0,0.6867971354052561,0.9973559995144535,-2.029245134156196,-1.1573243457454383,-3.14,2.23734939343162
360,1.0505987578563885,0.36553877884349784,0.9792876995816905,2.849369605633323,1.1159457718674428,1.5085303130356698,2.658092409311024,1.0,0.6872019743332722,0.9970996091437269,-2.0292798701515395,-1.157807571599739,-3.14,2.236858584465743
361,1.0508765412288223,0.3657720438178074,0.9794888845878051,2.8491890309179,1.1157596673916805,1.5085323839530718,2.6578089413330446,1.0,0.6876072969422823,0.996842715212151,-2.0293144642861862,-1.158291113589674,-3.14,2.2363673288780026
362,1.0511549266560258,0.36600561156140843,0.979690557290838,2.8490081612893943,1.1155733704022799,1.5085345306009592,2.657524846010077,1.0,0.6880131048925352,0.9965853167183351,-2.0293489158300155,-1.158774971983621,-3.14,2.2358756263818194
363,1.0514339161913835,0.36623948242835375,0.9798927196554541,2.8488269961339596,1.1153868809127292,1.5085367532428227,2.6572401219465283,1.0,0.6884193998524973,0.9963274126589212,-2.029383224050503,-1.1592591470500224,-3.14,2.2353834766917418
364,1.0517135118967444,0.36647365677279886,0.9800953736553453,2.8486455348361255,1.1152001989379758,1.508539052142736,2.6569547677428504,1.0,0.6888261834988958,0.996069002028585,-2.029417388212714,-1.1597436390573836,-3.14,2.234890879523456
365,1.0519937158424597,0.36670813494900256,0.9802985212732735,2.8484637767787935,1.1150133244944298,1.5085414275653573,2.656668781995527,1.0,0.68923345751676,0.995810083820027,-2.0294514075792955,-1.1602284482742664,-3.14,2.2343978345937954
366,1.052274530107426,0.3669429173113201,0.9805021645011156,2.848281721343226,1.1148262575999812,1.5085438797759332,2.6563821632970526,1.0,0.6896412235994674,0.99555065702397,-2.0294852814104676,-1.1607135749692872,-3.14,2.233904341620753
367,1.052555956779119,0.3671780042141998,0.9807063053399117,2.8480993679090476,1.1146389982740106,1.5085464090402947,2.6560949102359226,1.0,0.6900494834487857,0.9952907206291554,-2.029519008964019,-1.1611990194111117,-3.14,2.233410400323491
368,1.0528379979536364,0.3674133960121755,0.980910945799906,2.847916715854236,1.1144515465374039,1.5085490156248627,2.655807021396614,1.0,0.6904582387749159,0.9950302736223378,-2.029552589495295,-1.1616847818684515,-3.14,2.2329160104223518
369,1.053120655735738,0.36764909305986465,0.981116087900598,2.8477337645551213,1.1142639024125611,1.508551699796645,2.6555184953595714,1.0,0.6908674912965386,0.9947693149882806,-2.029586022257193,-1.1621708626100595,-3.14,2.2324211716388684
370,1.0534039322388817,0.3678850957119604,0.981321733670784,2.8475505133863797,1.114076065923413,1.5085544618232405,2.6552293307011907,1.0,0.6912772427408561,0.9945078437097528,-2.0296193065001544,-1.1626572619047266,-3.14,2.231925883695777
371,1.0536878295852687,0.36812140432322765,0.981527885148607,2.8473669617210313,1.1138880370954303,1.508557301972838,2.654939525993804,1.0,0.6916874948436404,0.9942458587675225,-2.0296524414721553,-1.1631439800212766,-3.14,2.231430146317027
372,1.0539723499058786,0.36835801924849926,0.9817345443815995,2.8471831089304303,1.1136998159556404,1.5085602205142157,2.6546490798056612,1.0,0.6920982493492734,0.9939833591403554,-2.029685426418702,-1.163631017228562,-3.14,2.230933959227791
373,1.054257495340513,0.3685949408426656,0.981941713426736,2.8469989543842678,1.1135114025326385,1.5085632177167476,2.65435799070092,1.0,0.6925095080107958,0.9937203438050085,-2.029718260582818,-1.1641183737954601,-3.14,2.230437322154478
374,1.0545432680378353,0.3688321694606765,0.9821493943504731,2.8468144974505596,1.1133227968566,1.5085662938503983,2.6540662572396223,1.0,0.6929212725899502,0.9934568117362258,-2.029750943205041,-1.1646060499908681,-3.14,2.229940234824744
375,1.0548296701554105,0.36906970545752943,0.982357589228803,2.8466297374956504,1.1131339989592945,1.5085694491857262,2.6537738779776845,1.0,0.6933335448572276,0.9931927619067344,-2.0297834735234135,-1.1650940460836994,-3.14,2.2294426969675034
376,1.0551167038597482,0.36930754918826714,0.9825663001472983,2.8464446738842004,1.1129450088741009,1.5085726839938867,2.6534808514668775,1.0,0.6937463265919145,0.9929281932872407,-2.029815850773473,-1.165582362342878,-3.14,2.2289447083129406
377,1.0554043713263426,0.3695457010079708,0.9827755292011607,2.8462593059791867,1.1127558266360194,1.5085759985466283,2.6531871762548134,1.0,0.6941596195821357,0.9926631048464254,-2.0298480741882474,-1.1660709990373352,-3.14,2.2284462685925215
378,1.055692674739713,0.3697841612717537,0.9829852784952687,2.8460736331418985,1.1125664522816854,1.5085793931162979,2.652892850884928,1.0,0.694573425624905,0.9923974955509387,-2.0298801429982443,-1.166559956436004,-3.14,2.2279473775390053
379,1.0559816162934461,0.370022930334757,0.9831955501442253,2.8458876547319307,1.1123768858493832,1.5085828679758384,2.652597873896465,1.0,0.6949877465261665,0.9921313643653973,-2.029912056431445,-1.1670492348078148,-3.14,2.2274480348864563
380,1.056271198190239,0.3702620085521423,0.9834063462724092,2.8457013701071814,1.11218712737906,1.5085864233987927,2.6523022438244594,1.0,0.6954025841008471,0.9918647102523781,-2.0299438137132935,-1.1675388344216906,-3.14,2.2269482403702563
381,1.056561422641941,0.3705013962790862,0.9836176690140228,2.8455147786238455,1.1119971769123402,1.5085900596593027,2.6520059591997214,1.0,0.6958179401729001,0.9915975321724154,-2.0299754140666915,-1.1680287555465427,-3.14,2.2264479937271164
382,1.0568522918695942,0.3707410938707742,0.9838295205131392,2.8453278796364105,1.1118070344925404,1.5085937770321103,2.651709018548821,1.0,0.6962338165753532,0.9913298290839966,-2.03000685671199,-1.1685189984512652,-3.14,2.225947294695088
383,1.0571438081034752,0.3709811016823934,0.9840419029237549,2.845140672497658,1.1116167001646815,1.5085975757925574,2.651411420394072,1.0,0.6966502151503567,0.9910615999435575,-2.0300381408669796,-1.1690095634047302,-3.14,2.2254461430135772
384,1.0574359735831411,0.37122142006912673,0.984254818409838,2.8449531565586503,1.1114261739755067,1.5086014562165886,2.6511131632535134,1.0,0.6970671377492301,0.9907928437054774,-2.0300692657468837,-1.1695004506757827,-3.14,2.2249445384233546
385,1.0577287905574722,0.3714620493861488,0.9844682691453784,2.8447653311687304,1.1112354559734918,1.5086054185807525,2.6508142456408934,1.0,0.6974845862325136,0.9905235593220745,-2.030100230564348,-1.1699916605332366,-3.14,2.224442480666571
386,1.0580222612847094,0.3717029899886141,0.98468225731444,2.8445771956755213,1.1110445462088638,1.5086094631622,2.6505146660656567,1.0,0.6979025624700114,0.9902537457436041,-2.0301310345294357,-1.1704831932458677,-3.14,2.223939969486765
387,1.0583163880325046,0.3719442422316564,0.9848967851112073,2.8443887494249145,1.1108534447336127,1.5086135902386877,2.650214423032922,1.0,0.698321068340845,0.9899834019182504,-2.0301616768496165,-1.170975049082411,-3.14,2.2234370046288827
388,1.0586111730779606,0.3721858064703772,0.9851118547400399,2.844199991761071,1.1106621516015094,1.508617800088577,2.649913515043471,1.0,0.6987401057334997,0.9897125267921255,-2.0301921567297594,-1.1714672283115526,-3.14,2.222933585839283
389,1.0589066187076754,0.372427683059841,0.9853274684155234,2.844010922026416,1.110470666868119,1.5086220929908367,2.6496119405937293,1.0,0.699159676545875,0.9894411193092637,-2.0302224733721244,-1.1719597312019274,-3.14,2.2224297128657557
390,1.0592027272177855,0.3726698723550687,0.9855436283625207,2.8438215395616355,1.1102789905908148,1.508626469225042,2.64930969817575,1.0,0.6995797826853338,0.9891691784116168,-2.030252625976354,-1.1724525580221117,-3.14,2.2219253854575323
391,1.0594995009140113,0.37291237471102806,0.9857603368162206,2.843631843705669,1.1100871228287987,1.5086309290713773,2.6490067862771953,1.0,0.7000004260687518,0.9888967030390503,-2.0302826137394634,-1.1729457090406181,-3.14,2.221420603365299
392,1.0597969421117004,0.3731551904826314,0.9859775960221954,2.8434418337957075,1.1098950636431104,1.5086354728106357,2.6487032033813245,1.0,0.7004216086225667,0.9886236921293396,-2.0303124358558353,-1.1734391845258907,-3.14,2.2209153663412105
393,1.060095053135873,0.3733983200247228,0.986195408236448,2.843251509167189,1.1097028130966482,1.5086401007242214,2.6483989479669727,1.0,0.7008433322828315,0.9883501446181644,-2.0303420915172077,-1.1739329847462991,-3.14,2.220409674138904
394,1.0603938363212662,0.37364176369207297,0.9864137757254705,2.843060869153798,1.1095103712541818,1.5086448130941479,2.648094018508537,1.0,0.7012655989952626,0.9880760594391056,-2.0303715799126683,-1.1744271099701329,-3.14,2.2199035265135105
395,1.060693294012378,0.37388552183937407,0.9866327007662893,2.842869913087453,1.1093177381823702,1.5086496102030427,2.647788413475957,1.0,0.7016884107152901,0.9878014355236402,-2.030400900228644,-1.1749215604655958,-3.14,2.219396923221671
396,1.0609934285635159,0.374129594821228,0.9868521856465262,2.842678640298312,1.109124913949776,1.508654492334145,2.647482131334701,1.0,0.7021117694081124,0.9875262718011372,-2.0304300516488927,-1.1754163365008001,-3.14,2.218889864021547
397,1.0612942423388365,0.3743739829921401,0.9870722326644452,2.842487050114763,1.1089318986268841,1.508659459771308,2.6471751705457476,1.0,0.7025356770487428,0.9872505671988543,-2.030459033354496,-1.1759114383437608,-3.14,2.2183823486728373
398,1.0615957377123995,0.3746186867065155,0.9872928441290132,2.842295141863418,1.1087386922861149,1.5086645127990004,2.646867529565567,1.0,0.7029601356220659,0.9869743206419314,-2.030487844523848,-1.1764068662623899,-3.14,2.2178743769367903
399,1.061897917068205,0.3748637063186435,0.9875140223599483,2.842102914869115,1.1085452950018444,1.5086696517023066,2.6465592068461077,1.0,0.7033851471228876,0.9866975310533881,-2.030516484332649,-1.17690262052449,-3.14,2.2173659485762185
400,1.0622007828002453,0.37510904218269514,0.9877357696877758,2.8419103684549105,1.1083517068504192,1.5086748767669265,2.6462502008347784,1.0,0.7038107135559858,0.9864201973541198,-2.030544951953896,-1.1773987013977483,-3.14,2.216857063355512
401,1.062504337312549,0.3753546946527144,0.9879580884538851,2.841717501942077,1.1081579279101716,1.5086801882791774,2.6459405099744293,1.0,0.7042368369361656,0.9861423184628928,-2.0305732465578736,-1.1778951091497312,-3.14,2.216347721040653
402,1.062808583019228,0.3756006640826062,0.9881809810105829,2.8415243146500977,1.107963958261442,1.5086855865259963,2.645630132703337,1.0,0.7046635192883116,0.985863893296339,-2.030601367312145,-1.1783918440478773,-3.14,2.2158379213992303
403,1.0631135223445252,0.3758469508261341,0.9884044497211484,2.841330805896662,1.1077697979865884,1.5086910717949407,2.6453190674551843,1.0,0.7050907626474398,0.9855849207689517,-2.0306293133815423,-1.1788889063594918,-3.14,2.2153276642004545
404,1.0634191577228584,0.3760935552369046,0.9886284969598895,2.841136974997665,1.1075754471700132,1.5086966443741856,2.6450073126590494,1.0,0.7055185690587518,0.9853053997930852,-2.0306570839281606,-1.1793862963517394,-3.14,2.214816949215171
405,1.063725491598873,0.37634047766836626,0.9888531251121985,2.8409428212671997,1.1073809058981703,1.5087023045525294,2.6446948667393815,1.0,0.7059469405776894,0.9850253292789445,-2.0306846781113466,-1.179884014291639,-3.14,2.2143057762158755
406,1.0640325264274844,0.37658771847379363,0.9890783365746078,2.840748344017557,1.107186174259592,1.508708052619391,2.6443817281159894,1.0,0.7063758792699869,0.9847447081345863,-2.03071209508769,-1.1803820604460555,-3.14,2.2137941449767298
407,1.064340264673927,0.3768352780062821,0.9893041337548483,2.8405535425592228,1.1069912523449006,1.5087138888648142,2.644067895204021,1.0,0.7068053872117265,0.9844635352659118,-2.0307393340110145,-1.1808804350816953,-3.14,2.2132820552735746
408,1.0646487088138057,0.37708315661874037,0.9895305190719051,2.8403584162008633,1.1067961402468303,1.5087198135794664,2.6437533664139456,1.0,0.7072354664893943,0.9841818095766629,-2.030766394032369,-1.1813791384650985,-3.14,2.2127695068839475
409,1.0649578613331374,0.3773313546638764,0.9897574949560739,2.8401629642493393,1.1066008380602426,1.508725827054639,2.643438140151541,1.0,0.7076661191999322,0.9838995299684198,-2.0307932743000183,-1.181878170862632,-3.14,2.2122564995870952
410,1.0652677247284073,0.3775798724941932,0.9899850638490197,2.839967186009686,1.106405345882147,1.5087319295822512,2.643122214817872,1.0,0.708097347450795,0.9836166953405947,-2.0308199739594346,-1.1823775325404833,-3.14,2.2117430331639913
411,1.0655783015066098,0.37782871046197614,0.990213228203834,2.8397710807851198,1.1062096638117176,1.5087381214548479,2.6428055888092734,1.0,0.7085291533600048,0.983333304590429,-2.0308464921532874,-1.182877223764653,-3.14,2.2112291073973496
412,1.0658895941853042,0.37807786891928374,0.9904419904850935,2.8395746478770323,1.1060137919503128,1.5087444029656016,2.642488260517336,1.0,0.7089615390562102,0.9830493566129884,-2.0308728280214345,-1.1833772448009492,-3.14,2.210714722071642
413,1.0662016052926584,0.3783273482179395,0.9906713531689179,2.839377886584983,1.1058177304014947,1.5087507744083148,2.6421702283288853,1.0,0.7093945066787373,0.982764850301159,-2.0308989807009135,-1.1838775959149785,-3.14,2.2101998769731126
