jkpark150901/flame_robotics_drt/experiment/inspection_ik/session_20260722_135839/collision/inspection_ik_20260722_140809_dda_rb10_1300e_normalized_fallback_collision.csv
iteration,err_norm,position_error,orientation_error,tcp_x,tcp_y,tcp_z,q0_dda_joint_linear_track,q1_dda_joint_carriage,q2_dda_joint_base,q3_dda_joint_shoulder,q4_dda_joint_elbow,q5_dda_joint_wrist1,q6_dda_joint_wrist2,q7_dda_joint_wrist3
0,3.722329507356016,2.663251981784622,2.0943951023903686,0.47255,3.7499999999986655,2.697,0.0,0.0,0.0,0.0,0.0,0.0,0.0,0.0
1,2.9362509972139788,2.2254213454756955,1.6097670719447077,1.5575764371817886,3.81910988270572,2.690873435548436,1.064588010679794,-0.005951154158995156,-0.21619145016434163,0.06039547393957963,0.09634625885941304,0.1298003799987031,-0.2070233252357894,0.13667427334513446
2,3.2636091916519336,1.2412636608341456,2.760340597952094,1.2167493604262039,2.7064453782721136,1.290435262826645,1.1026329921803797,-1.0,-2.949213039060682,-0.24036519894703395,3.14,-0.6871629648453653,2.149646781533996,-1.6573083620918692
3,2.7938508669000166,0.8144381864890748,2.603749966552699,1.8437274033025135,2.6496667572496597,1.3865503344748844,1.7032868975357085,-1.0,-3.14,-0.6860785441399697,3.14,-1.0544101383747941,2.549931533409546,-1.4632534623653366
4,2.250773310312807,0.7664042658030464,2.0593113371720686,2.220138451463127,2.659012312352645,1.4449539903171706,2.059943737641511,-1.0,-3.14,-0.6611081738423966,3.14,-1.0278397932207621,3.14,-1.7550260320941877
5,1.9966222900882613,0.6499403889456683,1.8494722087207223,2.45899648050408,2.4762838923955632,1.5887330172845366,2.2984908338279917,-0.9874991532016998,-3.14,-0.4328629140694756,2.728537023169207,-0.8426201991887746,3.14,-2.158988778495988
6,1.8849214487089396,0.6685518991571152,1.725332967789294,2.670514902004863,2.297652087890924,1.693376890725596,2.5097446660397065,-1.0,-3.14,-0.2373913188164688,2.379571722891132,-0.6515392689140215,3.14,-2.4204584645637715
7,1.8697440191335508,0.7742866176851396,1.655248444914157,2.8587301346258065,2.1208483391613493,1.743629540186386,2.6976783112983265,-1.0,-3.14,0.015426523864104313,2.047333481105835,-0.5218637381546195,3.14,-2.5888448906061248
8,1.924079088177263,0.9338746556866515,1.6167977836020457,3.04112007454008,1.9465611221016843,1.7630656531911488,2.8797906718168513,-1.0,-3.14,0.26883415510358,1.7093200847277035,-0.4196765080091816,3.14,-2.7304988316585233
9,2.0288126036457257,1.1243015613597072,1.596029980707557,3.223393970435542,1.7870428579174669,1.7656257484293034,3.0618105101621937,-1.0,-3.14,0.513630700077578,1.35681047701976,-0.3292455053614002,3.14,-2.863516915337301
10,2.163823149878264,1.3241282998064912,1.5848770717240444,3.4042325079616793,1.6525207534699509,1.7597646984907545,3.242434800395286,-1.0,-3.14,0.7513219300282964,0.9848523103541873,-0.24276698679612968,3.14,-2.9953357600068222
11,2.3079483675659507,1.514076186575737,1.5788752764025793,3.5777924352244037,1.5559890607148468,1.7507423817616319,3.4158409859814967,-1.0,-3.14,0.9772940036744159,0.6038976301199831,-0.1576532099040071,3.14,-3.1261823032078304
12,2.4471927848670827,1.6772339053343341,1.584224240475893,3.7346657686200198,1.5078627139049425,1.742198777637638,3.5726376707135303,-1.0,-3.14,1.164714701838812,0.26884517816798387,-0.0809251442326262,3.14,-3.14
13,2.5642941078654906,1.809620968088445,1.5884793345884753,3.868984650754957,1.5015146792186318,1.756594693932915,3.7069464426197185,-1.0,-3.14,1.252785900615165,0.07228293141643588,-0.008832632916477054,3.14,-3.14
14,2.6537788263596305,1.910611933950729,1.5885407059536412,3.9729433122134434,1.5080503824667306,1.780761431277458,3.8109155131982146,-1.0,-3.14,1.259337468160567,0.014884008770194683,0.041527049223493456,3.14,-3.14
15,2.7172388887891925,1.9817246858162056,1.5877024216092022,4.0459461257185145,1.51483889193308,1.8016060283022577,3.8839291384563643,-1.0,-3.14,1.2450295916205791,0.004733994020626261,0.07272721070791596,3.14,-3.14
16,2.7610029365306916,2.030123188222791,1.5873102593360415,4.09545948173859,1.5201175080362854,1.8169023200025962,3.933450901490409,-1.0,-3.14,1.2324286601094487,0.0018364280274341333,0.09144220286419705,3.14,-3.14
17,2.7911620689078203,2.0630351179007653,1.5873174714649296,4.12903428593788,1.5241851409264733,1.8283104871716418,3.9670321840252805,-1.0,-3.14,1.2229285689881153,0.0003147604814175734,0.10240443465957712,3.14,-3.14
18,2.8120651050188163,2.0855512546241965,1.5875578797311043,4.151940493385697,1.5274670160558856,1.8373265071043234,3.989943618367707,-1.0,-3.14,1.215396831926702,-0.0004844093052009966,0.10875912385182504,3.14,-3.14
19,2.8266424099648955,2.101039069110975,1.587922329364992,4.16764570084988,1.530246675876016,1.8448467941679343,4.005653252870809,-1.0,-3.14,1.209097750589297,-0.0008724397719270245,0.11247955626486168,3.14,-3.14
20,2.836859390312483,2.1117279031198644,1.5883431211405952,4.178439191814785,1.5326881682785447,1.8513650911719637,4.01645063229063,-1.0,-3.14,1.2036223605457825,-0.001030503930197557,0.11473001156917809,3.14,-3.14
21,2.8440418558269616,2.1191071690924526,1.5887791630270485,4.185848567400134,1.534878783551794,1.8571413316365826,4.023863496770197,-1.0,-3.14,1.1987554033338284,-0.0010622239943985342,0.11616910366786623,3.14,-3.14
22,2.849093486433149,2.1241841725069444,1.589206191410977,4.190906660710377,1.5368626520115178,1.8623110576819828,4.028924749698326,-1.0,-3.14,1.1943860750714534,-0.0010267463427123809,0.11715850158978217,3.14,-3.14
23,2.8526377752006273,2.1276491689179333,1.5896104804941795,4.194321349957633,1.5386622091388804,1.866948884048043,4.032342305019115,-1.0,-3.14,1.1904548571655729,-0.0009576642298214732,0.11789255455514291,3.14,-3.14
24,2.8551101169885014,2.1299810712022738,1.589984869429328,4.196583924267888,1.54029035159507,1.8711023227387549,4.034607472398483,-1.0,-3.14,1.1869248321590082,-0.0008739563735886172,0.11847417190891,3.14,-3.14
25,2.856817846793292,2.131515736594002,1.590326267086752,4.198038967715935,1.541756671289769,1.8748083909525934,4.036064851187823,-1.0,-3.14,1.1837675060423714,-0.0007862443185730883,0.11895752345818957,3.14,-3.14
26,2.857979833741732,2.132490691592379,1.5906340836267212,4.198930114546239,1.5430702864398964,1.8781009295633535,4.036958090153774,-1.0,-3.14,1.1809565573163274,-0.0007003595736539129,0.11937137225148528,3.14,-3.14
27,2.858752989933774,2.1330749149542023,1.5909092391250648,4.199430539403998,1.5442408677499042,1.8810132481641837,4.037460379343629,-1.0,-3.14,1.178465607361447,-0.0006193763940294169,0.1197315132285506,3.14,-3.14
28,2.859250314153138,2.1333890210543327,1.5911535319626267,4.199663649131851,1.5452787893355993,1.8835786166944666,4.037695142122413,-1.0,-3.14,1.176267855094646,-0.0005447749535192816,0.12004725065973704,3.14,-3.14
29,2.8595533747657162,2.13351917101352,1.5913692333995653,4.199717370246233,1.5461949115278792,1.8858299024840512,4.0377503223033235,-1.0,-3.14,1.1743364540206214,-0.0004771122911651325,0.12032468822014952,3.14,-3.14
30,2.8597210744021972,2.1335268078074274,1.5915588263393554,4.199654166795762,1.5470002547690846,1.8877989788415606,4.037688401486736,-1.0,-3.14,1.1726450864410856,-0.00041641376397928335,0.12056835197173385,3.14,-3.14
31,2.859795882648907,2.133455557391199,1.5917248375817088,4.199518154858606,1.5477056857814948,1.8895161780153962,4.037553513057762,-1.0,-3.14,1.171168495186775,-0.0003624045311040454,0.12078196193298722,3.14,-3.14
32,2.859808314310466,2.133336171640206,1.5918697317377961,4.199340206080174,1.5483216640017328,1.8910098850691537,4.037376545320079,-1.0,-3.14,1.169882887060747,-0.00031464831638080556,0.12096878123033804,3.14,-3.14
33,2.8597801730104724,2.133190096476343,1.5919958464056014,4.199141635784346,1.5488580597053683,1.8923062871552727,4.037178829317515,-1.0,-3.14,1.1687661944863768,-0.0002726315150540985,0.12113176371495835,3.14,-3.14
34,2.859726914405523,2.1330320617129868,1.5921053552084794,4.198936881489884,1.5493240385771911,1.893429258794251,4.0369748171666,-1.0,-3.14,1.1677982121111157,-0.00023581443485227516,0.12127361091553311,3.14,-3.14
35,2.859659374902137,2.1328719672578327,1.5922002496879015,4.198735453732482,1.5497280011864825,1.894400353329755,4.03677403278224,-1.0,-3.14,1.166960634718091,-0.000203662351034367,0.12139679210979049,3.14,-3.14
36,2.859585039280046,2.132716259039883,1.5922823338661698,4.198543358269275,1.5500775646380305,1.8952388708650092,4.036582494052987,-1.0,-3.14,1.1662370229619388,-0.00017566391124350248,0.12150355230656869,3.14,-3.14
37,2.859508971153679,2.1325689326834087,1.5923532271689766,4.198364132173493,1.5503795747682156,1.8959619772455512,4.036403748955129,-1.0,-3.14,1.1656127198481827,-0.00015134148107038517,0.12159591861496279,3.14,-3.14
38,2.8594344958077196,2.132432264533513,1.5924143726775595,4.198199596925677,1.5506401391871143,1.8965848539686219,4.03623962869652,-1.0,-3.14,1.1650747362506577,-0.00013025630193156326,0.12167570868907106,3.14,-3.14
39,2.8593637006394954,2.1323073425204426,1.5924670485760855,4.1980504037006305,1.5508646735228777,1.8971208639275603,4.036090793077191,-1.0,-3.14,1.1646116193253873,-0.00011201030401364044,0.12174454192249942,3.14,-3.14
40,2.8592978010373113,2.132194449942969,1.5925123812985909,4.197916426011613,1.5510579550899006,1.8975817221489761,4.035957123219014,-1.0,-3.14,1.1642133138925206,-9.624578355867474e-05,0.12180385288557298,3.14,-3.14
41,2.8592374069256445,2.132093341208753,1.592551359340481,4.197797040331073,1.551224179765998,1.8979776640564812,4.035838002277024,-1.0,-3.14,1.1638710238232182,-8.2643751778225e-05,0.12185490616546558,3.14,-3.14
42,2.859182716011326,2.132003438322224,1.592584847033583,4.197691324667811,1.551367019112993,1.8983176063709966,4.0357325141075515,-1.0,-3.14,1.163577078133302,-7.092150005691284e-05,0.12189881179778206,3.14,-3.14
43,2.859133653007846,2.1319239693851424,1.5926135978257703,4.197598197250567,1.5514896757396102,1.8986092976647646,4.03563958203999,-1.0,-3.14,1.1633248047421219,-6.082975004442587e-05,0.12193654063473927,3.14,-3.14
44,2.8590899691270373,2.1318540648236612,1.5926382667805623,4.19751651168235,1.551594935630566,1.8988594569613129,4.035558064114458,-1.0,-3.14,1.163108413586422,-5.2149636769362856e-05,0.12196893917512631,3.14,-3.14
45,2.859051312432866,2.1317928229478045,1.592659422136483,4.197445120643425,1.5516852166977078,1.8990738997392105,4.035486816862119,-1.0,-3.14,1.1629228898785484,-4.4689689294049036e-05,0.12199674354227645,3.14,-3.14
46,2.859017276909213,2.1317393534038978,1.592677555853232,4.197382917040721,1.551762613190105,1.89925765135527,4.035424736525321,-1.0,-3.14,1.1627638976767465,-3.828291491745926e-05,0.12202059242525537,3.14,-3.14
47,2.858987436054365,2.1316928048205583,1.5926930931316625,4.197328859140724,1.551828935865625,1.8994150483335777,4.03537078425446,-1.0,-3.14,1.162627693520913,-3.278405190616052e-05,0.12204103889503946,3.14,-3.14
48,2.8589613652978767,2.1316523812716475,1.5927064009343823,4.197281984471146,1.5518857480055934,1.8995498282329188,4.035324000067017,-1.0,-3.14,1.1625110496241076,-2.806702711044787e-05,0.12205856107613891,3.14,-3.14
49,2.858938656406639,2.1316173509355623,1.592717795559027,4.197241415977995,1.5519343974693083,1.899665208954067,4.035283509055674,-1.0,-3.14,1.162411185955814,-2.402263502388333e-05,0.1220735717006415,3.14,-3.14
50,2.858918926207652,2.131587049408614,1.5927275493310105,4.197206362963525,1.5519760450540665,1.8997639584154193,4.035248522371435,-1.0,-3.14,1.162325710475251,-2.0556441438898955e-05,0.12208642660137518,3.14,-3.14
51,2.8589018213312714,2.131560879448712,1.5927358964899,4.197176118620827,1.5520116894623186,1.899848455536783,4.035218334797979,-1.0,-3.14,1.1622525667481778,-1.7586906005252813e-05,0.12209743221834884,3.14,-3.14
52,2.858887020216029,2.1315383084228374,1.592743038345805,4.1971500554583265,1.5520421891905913,1.8999207434455927,4.035192320211022,-1.0,-3.14,1.1621899881911617,-1.5043712412500369e-05,0.12210685220136504,3.14,-3.14
53,2.8588742332736126,2.1315188643622305,1.5927491477809754,4.197127619524304,1.552068281652418,1.8999825757714162,4.035169925833286,-1.0,-3.14,1.1621364582204579,-1.2866291697554906e-05,0.12211491319443123,3.14,-3.14
54,2.8588632018595814,2.131502131258415,1.5927543731684042,4.197108324061757,1.5520905998350032,1.9000354568327942,4.0351506659159035,-1.0,-3.14,1.1620906756294764,-1.10025225218178e-05,0.12212180988632215,3.14,-3.14
55,2.8588536965091818,2.131487744036008,1.5927588417745167,4.197091743020989,1.5521096867708035,1.900080676452255,4.0351341152740385,-1.0,-3.14,1.162051524572866,-9.407591790975599e-06,0.12212770940783074,3.14,-3.14
56,2.8588455147610543,2.1314753834953315,1.592762662707604,4.197077504710941,1.5521260080832153,1.9001193400652598,4.035119902958209,-1.0,-3.14,1.1620180485920995,-8.042999213296487e-06,0.12213275515091392,3.14,-3.14
57,2.8588384787920145,2.131464771415222,1.5927659294679857,4.197065285765882,1.5521399628422565,1.9001523947200591,4.035107706238266,-1.0,-3.14,1.16198942817416,-6.875690130775992e-06,0.12213707007882767,3.14,-3.14
58,2.858832433013766,2.1314556659332995,1.5927687221502158,4.197054805530296,1.5521518929426623,1.900180651499868,4.035097245003213,-1.0,-3.14,1.161964961389546,-5.8773019683484736e-06,0.12214075958994663,3.14,-3.14
59,2.8588272417303795,2.131447857269635,1.5927711093422179,4.197045820913527,1.5521620911941247,1.9002048048376037,4.0350882766287395,-1.0,-3.14,1.1619440472071687,-5.0235108125098335e-06,0.12214391399159982,3.14,-3.14
60,2.858822786918233,2.131441163824189,1.592773149761115,4.197038121730784,1.552170808292034,1.900225449137241,4.035080591329326,-1.0,-3.14,1.1619261711311586,-4.293465863658615e-06,0.12214661063415165,3.14,-3.14
61,2.8588189661639136,2.13143542865436,1.5927748936608133,4.1970315265239355,1.552178258817265,1.9002430930648917,4.035074007988594,-1.0,-3.14,1.1619108928478148,-3.669300731158053e-06,0.12214891574983266,3.14,-3.14
62,2.8588156907774227,2.131430516323278,1.5927763840420956,4.197025878840802,1.5521846263954755,1.9002581718268896,4.035068370446814,-1.0,-3.14,1.1618978356099317,-3.135711716392877e-06,0.1221508860355424,3.14,-3.14
63,2.8588128840856752,2.1314263100995654,1.5927776576921242,4.197021043942873,1.55219006813009,1.9002710577113417,4.0350635442156895,-1.0,-3.14,1.1618866771205867,-2.679594348614369e-06,0.12215257001405566,3.14,-3.14
64,2.8588104799030685,2.131422709483672,1.5927787460767882,4.1970169059068105,1.5521947184085212,1.9002820691333904,4.035059413585916,-1.0,-3.14,1.1618771417094476,-2.289730458308633e-06,0.12215400920373273,3.14,-3.14
65,2.858808421170822,2.1314196280330764,1.5927796761062738,4.197013365083364,1.5521986921682434,1.9002914783925424,4.035055879091298,-1.0,-3.14,1.161868993622,-1.9565190119000007e-06,0.12215523912298197,3.14,-3.14
66,2.8588066587536543,2.13141699145783,1.592780470791522,4.197010335877467,1.5522020876978448,1.900299518322393,4.0350528552933085,-1.0,-3.14,1.1618620312661445,-1.671744776453559e-06,0.12215629015229539,3.14,-3.14
67,2.858805150380874,2.1314147359584297,1.592781149806871,4.197007744814734,1.5522049890381422,1.9003063879885969,4.035050268851409,-1.0,-3.14,1.1618560822816688,-1.4283796445423457e-06,0.12215718827365651,3.14,-3.14
68,2.858803859718403,2.131412806779297,1.5927817299720923,4.197005528861674,1.5522074680395934,1.9003122575695568,4.035048056846543,-1.0,-3.14,1.1618509993164732,-1.2204121080889468e-06,0.12215795570446673,3.14,-3.14
69,2.858802755558322,2.131411156952945,1.5927822256652315,4.197003633969522,1.5522095861245728,1.9003172725357493,4.03504616532777,-1.0,-3.14,1.1618466564094356,-1.0427009822702748e-06,0.12215861144080993,3.14,-3.14
70,2.8588018111131817,2.131409746211957,1.5927826491760668,4.197002013814254,1.5522113957963604,1.9003215572274719,4.035044548054685,-1.0,-3.14,1.1618429458936814,-8.908499841698164e-07,0.12215917172285243,3.14,-3.14
71,2.858801003403022,2.131408540048035,1.5927830110086538,4.197000628708144,1.5522129419308794,1.9003252179168584,4.035043165411034,-1.0,-3.14,1.1618397757460668,-7.611002487275553e-07,0.12215965043340657,3.14,-3.14
72,2.8588003127241093,2.131407508899495,1.5927833201402248,4.19699944466079,1.5522142628821958,1.900328345427934,4.035041983467498,-1.0,-3.14,1.1618370673190899,-6.50238239988598e-07,0.12216005943915911,3.14,-3.14
73,2.8587997221892953,2.1314066274506036,1.59278358424269,4.196998432570082,1.5522153914284123,1.9003310173780685,4.035040973174175,-1.0,-3.14,1.161834753400441,-5.555168901567481e-07,0.12216040888273988,3.14,-3.14
74,2.8587992173310264,2.1314058740280872,1.5927838098721152,4.19699756752587,1.5522163555808555,1.9003333000952158,4.035040109665526,-1.0,-3.14,1.1618327765531549,-4.745880779584177e-07,0.1221607074326531,3.14,-3.14
75,2.858798785758887,2.1314052300818274,1.5927840026307716,4.196996828211161,1.5522171792761874,1.900335250257585,4.03503937166268,-1.0,-3.14,1.16183108769601,-4.0544483630285343e-07,0.12216096249711109,3.14,-3.14
76,2.858798416864582,2.131404679738418,1.5927841673057135,4.196996196387614,1.5522178829683018,1.9003369162957446,4.035038740959871,-1.0,-3.14,1.1618296448895655,-3.463718956461131e-07,0.12216118040695023,3.14,-3.14
77,2.858798101568007,2.1314042094176497,1.5927843079872668,4.196995656453773,1.5522184841344329,1.9003383395914368,4.03503820198348,-1.0,-3.14,1.1618284122981792,-2.959033700106911e-07,0.12216136657207526,3.14,-3.14
78,2.8587978320989214,2.1314038075032617,1.5927844281703294,4.196995195065979,1.5522189977078855,1.9003395555024751,4.035037741413631,-1.0,-3.14,1.1618273593025885,-2.5278656224196835e-07,0.12216152561524359,3.14,-3.14
79,2.8587976018093646,2.1314034640604764,1.5927845308409694,4.19699480081326,1.5522194364479622,1.9003405942388676,4.035037347859674,-1.0,-3.14,1.1618264597412868,-2.1595100582525114e-07,0.12216166148646065,3.14,-3.14
80,2.858797405012586,2.1314031705937664,1.5927846185504477,4.196994463938632,1.552219811256189,1.9003414816117103,4.035037011581985,-1.0,-3.14,1.1618256912620575,-1.8448199176693488e-07,0.12216177756078095,3.14,-3.14
81,2.8587972368448544,2.131402919839229,1.5927846934784866,4.196994176100271,1.5522201314466058,1.9003422396732708,4.035036724253579,-1.0,-3.14,1.161825034767715,-1.5759793208374114e-07,0.1221618767219182,3.14,-3.14
82,2.8587970931469266,2.131402705586706,1.5927847574873424,4.196993930166975,1.5522204049767896,1.9003428872640473,4.035036478755921,-1.0,-3.14,1.1618244739423895,-1.346310068127848e-07,0.12216196143371563,3.14,-3.14
83,2.858796970362447,2.1314025225274156,1.5927848121680186,4.196993720042979,1.5522206386452861,1.900343440480288,4.0350362690040775,-1.0,-3.14,1.1618239948466837,-1.1501061925409334e-07,0.12216203380123374,3.14,-3.14
84,2.8587968654509015,2.1314023661235093,1.5927848588797562,4.196993540518022,1.5522208382603369,1.900343913073515,4.03503608979704,-1.0,-3.14,1.1618235855717023,-9.824925301857518e-08,0.12216209562296214,3.14,-3.14
85,2.8587967758130475,2.1314022324964026,1.5927848987837812,4.196993387139015,1.5522210087840689,1.9003443167919383,4.035035936689618,-1.0,-3.14,1.161823235943404,-8.393038585773278e-08,0.12216214843544132,3.14,-3.14
86,2.8587966992270535,2.131402118331209,1.592784932872139,4.196993256100225,1.5522211544556979,1.9003446616721822,4.035035805882832,-1.0,-3.14,1.1618229372699713,-7.169815531760321e-08,0.122162193551396,3.14,-3.14
87,2.8587966337938533,2.131402020794981,1.5927849619923364,4.196993144149344,1.5522212788968144,1.9003449562885646,4.035035694130142,-1.0,-3.14,1.1618226821259454,-6.124853194587827e-08,0.1221622320923213,3.14,-3.14
88,2.858796577890358,2.131401937466762,1.5927849868683932,4.196993048507138,1.5522213852013338,1.9003452079660876,4.0350355986572435,-1.0,-3.14,1.1618224641677775,-5.232177248175535e-08,0.12216226501632944,3.14,-3.14
89,2.8587965301294442,2.131401866277774,1.5927850081188304,4.196992966798738,1.5522214760123636,1.9003454229624201,4.0350355170934735,-1.0,-3.14,1.1618222779762348,-4.4695971624932835e-08,0.12216229314194273,3.14,-3.14
90,2.8587964893256976,2.1314018054602433,1.5927850262720396,4.196992896994871,1.552221553587871,1.9003456066233835,4.035035447413158,-1.0,-3.14,1.161822118921751,-3.8181552408785797e-08,0.12216231716842459,3.14,-3.14
91,2.8587964544661384,2.1314017535036673,1.5927850417794134,4.196992837361631,1.5522216198567915,1.9003457635157979,4.035035387885462,-1.0,-3.14,1.1618219830493828,-3.261655849208728e-08,0.12216233769315099,3.14,-3.14
92,2.8587964246851665,2.13140170911741,1.5927850550265645,4.196992786417529,1.5522216764669676,1.9003458975409782,4.0350353370315215,-1.0,-3.14,1.1618218669805218,-2.7862630229693548e-08,0.12216235522645218,3.14,-3.14
93,2.8587963992431558,2.1314016711987294,1.5927850663429095,4.196992742896776,1.5522217248261043,1.9003460120316993,4.035035293587787,-1.0,-3.14,1.1618217678289229,-2.3801568680580873e-08,0.12216237020429403,3.14,-3.14
94,2.858796377508124,2.1314016388054418,1.5927850760098576,4.1969927057179,1.5522217661367557,1.9003461098350387,4.035035256474704,-1.0,-3.14,1.161821683128962,-2.033239798006565e-08,0.12216238299911139,3.14,-3.14
95,2.858796358940102,2.1314016111325707,1.5927850842678062,4.196992673956932,1.5522218014262226,1.9003461933831503,4.03503522476994,-1.0,-3.14,1.161821610774345,-1.736885649800341e-08,0.12216239392906568,3.14,-3.14
96,2.858796343077734,2.131401587492369,1.5927850913221169,4.196992646824473,1.552221831572087,1.900346264753727,4.0350351976854935,-1.0,-3.14,1.1618215489657475,-1.4837252893642413e-08,0.122162403265952,3.14,-3.14
97,2.8587963295268444,2.1314015672972655,1.5927850973482218,4.196992623646112,1.552221857324033,1.9003463257216535,4.035035174548145,-1.0,-3.14,1.1618214961660815,-1.267463504362127e-08,0.12216241124195497,3.14,-3.14
98,2.858796317950665,2.131401550045272,1.5927851024959838,4.196992603845678,1.55222187932248,1.9003463778031366,4.035035154782749,-1.0,-3.14,1.1618214510622797,-1.08272248221541e-08,0.12216241805542152,3.14,-3.14
99,2.8587963080614776,2.131401535307535,1.5927851068934245,4.196992586930944,1.5522218981145106,1.9003464222934012,4.035035137897943,-1.0,-3.14,1.1618214125326494,-9.249081183745297e-09,0.12216242387579108,3.14,-3.14
100,2.858796299613476,2.1314015227176735,1.5927851106499065,4.196992572481391,1.5522219141674727,1.9003464602988966,4.035035123473957,-1.0,-3.14,1.1618213796189802,-7.900959108091918e-09,0.1221624288478091,3.14,-3.14
101,2.8587962923966534,2.1314015119626846,1.5927851138588527,4.19699256013777,1.552221927880597,1.9003464927648077,4.035035111152176,-1.0,-3.14,1.1618213515027214,-6.749333141211576e-09,0.12216243309512442,3.14,-3.14
102,2.8587962862316054,2.1314015027751747,1.592785116600069,4.19699254959318,1.552221939594927,1.9003465204985583,4.035035100626243,-1.0,-3.14,1.161821327484625,-5.765563097561664e-09,0.12216243672336485,3.14,-3.14
103,2.858796280965063,2.13140149492671,1.5927851189417306,4.196992540585438,1.5522219496017984,1.900346544189889,4.035035091634438,-1.0,-3.14,1.1618213069673606,-4.925184002415549e-09,0.12216243982276308,3.14,-3.14
104,2.8587962764660846,2.131401488222142,1.5927851209420751,4.196992532890564,1.552221958150085,1.9003465644280084,4.03503508395318,-1.0,-3.14,1.1618212894406592,-4.207295734528448e-09,0.1221624424704007,3.14,-3.14
105,2.858796272622816,2.131401482494763,1.5927851226508516,4.196992526317224,1.5522219654523841,1.9003465817162464,4.035035077391469,-1.0,-3.14,1.161821274468626,-3.594045139792511e-09,0.12216244473212402,3.14,-3.14
106,2.858796269339694,2.1314014776021515,1.5927851241105586,4.196992520701957,1.5522219716903094,1.9003465964845694,4.035035071786137,-1.0,-3.14,1.1618212616788992,-3.0701805294069507e-09,0.12216244666418272,3.14,-3.14
107,2.858796266535084,2.1314014734226476,1.5927851253574998,4.19699251590513,1.5522219770190002,1.9003466091002754,4.035035066997796,-1.0,-3.14,1.161821250753391,-2.622673163465382e-09,0.12216244831462747,3.14,-3.14
108,2.8587962641392455,2.131401469852318,1.5927851264226878,4.196992511807457,1.5522219815709852,1.9003466198771257,4.035035062907373,-1.0,-3.14,1.1618212414203763,-2.2403941286768915e-09,0.1221624497245055,3.14,-3.14
109,2.858796262092605,2.1314014668023766,1.5927851273326143,4.196992508307037,1.5522219854594757,1.9003466290831479,4.035035059413147,-1.0,-3.14,1.1618212334477362,-1.9138350341890255e-09,0.12216245092888121,3.14,-3.14
110,2.8587962603442687,2.131401464196979,1.5927851281099106,4.196992505316822,1.5522219887811803,1.9003466369473043,4.035035056428223,-1.0,-3.14,1.161821226637185,-1.6348751335514934e-09,0.122162451957708,3.14,-3.14
111,2.858796258850758,2.131401461971332,1.592785128773908,4.196992502762448,1.5522219916187159,1.9003466436651832,4.035035053878367,-1.0,-3.14,1.1618212208193375,-1.3965760064815304e-09,0.12216245283657368,3.14,-3.14
112,2.858796257574933,2.131401460070085,1.5927851293411215,4.196992500580389,1.552221994042652,1.9003466494038657,4.035035051700169,-1.0,-3.14,1.1618212158494983,-1.193011319513503e-09,0.12216245358733636,3.14,-3.14
113,2.8587962564850655,2.1314014584459575,1.592785129825658,4.196992498716381,1.5522219961132757,1.9003466543060785,4.0350350498394585,-1.0,-3.14,1.1618212116040618,-1.0191180915297238e-09,0.12216245422866828,3.14,-3.14
114,2.858796255554052,2.131401457058558,1.5927851302395681,4.196992497124065,1.5522219978820853,1.9003466584937452,4.03503504824996,-1.0,-3.14,1.1618212079774402,-8.705713096268208e-10,0.1221624547765198,3.14,-3.14
115,2.858796254758743,2.131401455873383,1.592785130593147,4.196992495763843,1.5522219993930726,1.9003466620710172,4.035035046892144,-1.0,-3.14,1.161821204879435,-7.436769080154215e-10,0.1221624552445164,3.14,-3.14
116,2.8587962540793517,2.1314014548609546,1.5927851308951881,4.196992494601882,1.55222200068382,1.900346665126866,4.035035045732239,-1.0,-3.14,1.161821202232995,-6.352783514262483e-10,0.12216245564429801,3.14,-3.14
117,2.858796253498988,2.1314014539960966,1.5927851311532035,4.1969924936092875,1.552222001786426,1.9003466677372929,4.0350350447414005,-1.0,-3.14,1.1618211999723012,-5.426800106255835e-10,0.12216245598580734,3.14,-3.14
118,2.8587962530032174,2.1314014532573,1.5927851313736106,4.196992492761373,1.5522220027283167,1.9003466699672236,4.035035043894985,-1.0,-3.14,1.1618211980411264,-4.63578743339309e-10,0.12216245627753836,3.14,-3.14
119,2.858796252579708,2.1314014526261875,1.5927851315618913,4.196992492037047,1.552222003532917,1.9003466718721191,4.035035043171942,-1.0,-3.14,1.1618211963914402,-3.9600756976616467e-10,0.12216245652674662,3.14,-3.14
120,2.85879625221793,2.1314014520870668,1.5927851317227277,4.1969924914183006,1.5522220042202384,1.9003466734993564,4.03503504255429,-1.0,-3.14,1.1618211949822128,-3.3828531150132844e-10,0.12216245673962985,3.14,-3.14
121,2.8587962519088848,2.131401451626527,1.5927851318601207,4.196992490889741,1.5522220048073754,1.9003466748894067,4.035035042026665,-1.0,-3.14,1.161821193778395,-2.8897673887357974e-10,0.12216245692148345,3.14,-3.14
122,2.8587962516448826,2.1314014512331148,1.5927851319774875,4.196992490438223,1.5522220053089315,1.9003466760768435,4.035035041575947,-1.0,-3.14,1.1618211927500457,-2.4685538732800324e-10,0.12216245707683011,3.14,-3.14
123,2.8587962514193648,2.1314014508970485,1.5927851320777466,4.196992490052521,1.5522220057373808,1.9003466770911988,4.035035041190926,-1.0,-3.14,1.161821191871589,-2.108735115990512e-10,0.12216245720953342,3.14,-3.14
124,2.8587962512267167,2.131401450609965,1.592785132163392,4.196992489723037,1.5522220061033787,1.9003466779577016,4.0350350408620255,-1.0,-3.14,1.1618211911211767,-1.8013656963517975e-10,0.12216245732289388,3.14,-3.14
125,2.858796251062147,2.1314014503647263,1.5927851322365536,4.196992489441578,1.552222006416029,1.900346678697902,4.035035040581064,-1.0,-3.14,1.1618211904801448,-1.538798417599174e-10,0.12216245741973082,3.14,-3.14
126,2.8587962509215687,2.1314014501552356,1.5927851322990512,4.196992489201146,1.552222006683107,1.9003466793302104,4.035035040341057,-1.0,-3.14,1.1618211899325501,-1.314498846182832e-10,0.12216245750245253,3.14,-3.14
127,2.858796250801479,2.131401449976278,1.5927851323524391,4.1969924889957575,1.5522220069112551,1.900346679870353,4.035035040136033,-1.0,-3.14,1.1618211894647734,-1.1228999631735958e-10,0.12216245757311679,3.14,-3.14
128,2.858796250698893,2.1314014498234064,1.592785132398045,4.196992488820308,1.552222007106149,1.9003466803317646,4.035035039960893,-1.0,-3.14,1.1618211890651797,-9.592250921559463e-11,0.12216245763348103,3.14,-3.14
129,2.8587962506112614,2.1314014496928175,1.5927851324370037,4.196992488670431,1.552222007272634,1.9003466807259204,4.035035039811281,-1.0,-3.14,1.1618211887238308,-8.194082854124818e-11,0.12216245768504667,3.14,-3.14
130,2.8587962505364017,2.1314014495812628,1.5927851324702835,4.1969924885424,1.5522220074148527,1.9003466810626242,4.035035039683477,-1.0,-3.14,1.1618211884322371,-6.999706327277421e-11,0.1221624577290961,3.14,-3.14
131,2.8587962504724542,2.1314014494859674,1.5927851324987126,4.196992488433031,1.5522220075363422,1.9003466813502496,4.035035039574301,-1.0,-3.14,1.1618211881831464,-5.979424777753261e-11,0.12216245776672469,3.14,-3.14
132,2.858796250417826,2.131401449404563,1.5927851325229978,4.196992488339603,1.5522220076401227,1.900346681595951,4.035035039481039,-1.0,-3.14,1.161821187970363,-5.107865496063345e-11,0.12216245779886863,3.14,-3.14
133,2.8587962503711615,2.131401449335025,1.592785132543743,4.196992488259794,1.5522220077287758,1.9003466818058383,4.035035039401371,-1.0,-3.14,1.1618211877885953,-4.3633314297196736e-11,0.1221624578263272,3.14,-3.14
134,2.858796250331299,2.1314014492756206,1.5927851325614646,4.196992488191617,1.5522220078045077,1.9003466819851327,4.035035039333315,-1.0,-3.14,1.1618211876333222,-3.72733600672681e-11,0.1221624578497835,3.14,-3.14
135,2.8587962502972477,2.1314014492248776,1.592785132576603,4.196992488133379,1.5522220078692004,1.900346682138293,4.035035039275179,-1.0,-3.14,1.1618211875006816,-3.1840403482651373e-11,0.12216245786982079,3.14,-3.14
136,2.8587962502681585,2.131401449181529,1.5927851325895346,4.1969924880836285,1.5522220079244633,1.900346682269128,4.035035039225518,-1.0,-3.14,1.1618211873873752,-2.719919256706115e-11,0.12216245788693729,3.14,-3.14
137,2.8587962502433104,2.1314014491445006,1.5927851326005815,4.196992488041131,1.5522220079716709,1.9003466823808925,4.035035039183095,-1.0,-3.14,1.1618211872905841,-2.32347295869395e-11,0.12216245790155902,3.14,-3.14
138,2.858796250222083,2.131401449112868,1.5927851326100184,4.196992488004827,1.5522220080119973,1.9003466824763664,4.035035039146855,-1.0,-3.14,1.1618211872079014,-1.9847924320147698e-11,0.12216245791404949,3.14,-3.14
139,2.85879625020395,2.1314014490858475,1.5927851326180795,4.196992487973815,1.5522220080464466,1.9003466825579243,4.035035039115898,-1.0,-3.14,1.1618211871372703,-1.6954953485036613e-11,0.12216245792471925,3.14,-3.14
140,2.85879625018846,2.131401449062765,1.5927851326249656,4.196992487947323,1.5522220080758737,1.900346682627594,4.035035039089453,-1.0,-3.14,1.1618211870769346,-1.4483569831756912e-11,0.12216245793383375,3.14,-3.14
141,2.858796250175228,2.1314014490430466,1.592785132630848,4.1969924879246925,1.5522220081010119,1.9003466826871085,4.035035039066863,-1.0,-3.14,1.1618211870253936,-1.2372324306130219e-11,0.12216245794161985,3.14,-3.14
142,2.8587962501639255,2.1314014490262028,1.592785132635873,4.196992487905361,1.5522220081224862,1.900346682737948,4.035035039047566,-1.0,-3.14,1.1618211869813655,-1.0569193397657047e-11,0.1221624579482707,3.14,-3.14
143,2.8587962501542714,2.131401449011814,1.5927851326401656,4.196992487888847,1.5522220081408302,1.900346682781377,4.035035039031081,-1.0,-3.14,1.1618211869437545,-9.028284774735825e-12,0.12216245795395236,3.14,-3.14
144,2.8587962501460233,2.1314014489995237,1.5927851326438325,4.196992487874741,1.5522220081565004,1.9003466828184767,4.035035039016999,-1.0,-3.14,1.1618211869116257,-7.712597840335841e-12,0.12216245795880598,3.14,-3.14
145,2.8587962501389756,2.1314014489890227,1.5927851326469649,4.19699248786269,1.552222008169886,1.9003466828501683,4.03503503900497,-1.0,-3.14,1.1618211868841801,-6.588258593630544e-12,0.12216245796295201,3.14,-3.14
146,2.8587962501329556,2.1314014489800526,1.5927851326496407,4.196992487852395,1.552222008181321,1.9003466828772402,4.035035038994693,-1.0,-3.14,1.161821186860735,-5.628042770110528e-12,0.12216245796649355,3.14,-3.14
147,2.8587962501278157,2.131401448972391,1.5927851326519264,4.196992487843602,1.5522220081910891,1.9003466829003661,4.0350350389859155,-1.0,-3.14,1.1618211868407073,-4.807608674449734e-12,0.12216245796951897,3.14,-3.14
148,2.858796250123425,2.1314014489658475,1.592785132653879,4.196992487836091,1.5522220081994331,1.9003466829201212,4.0350350389784175,-1.0,-3.14,1.161821186823599,-4.106824077431123e-12,0.12216245797210357,3.14,-3.14
149,2.858796250119672,2.1314014489602555,1.592785132655547,4.196992487829673,1.5522220082065612,1.9003466829369964,4.035035038972011,-1.0,-3.14,1.1618211868089847,-3.5082410470665928e-12,0.1221624579743112,3.14,-3.14
150,2.8587962501164657,2.131401448955478,1.5927851326569717,4.196992487824191,1.55222200821265,1.9003466829514124,4.035035038966539,-1.0,-3.14,1.1618211867965,-2.9968366698873676e-12,0.12216245797619721,3.14,-3.14
151,2.8587962501137274,2.131401448951399,1.5927851326581892,4.196992487819509,1.5522220082178522,1.9003466829637272,4.0350350389618646,-1.0,-3.14,1.161821186785835,-2.5601045610768008e-12,0.12216245797780831,3.14,-3.14
152,2.8587962501113884,2.1314014489479134,1.5927851326592288,4.196992487815509,1.5522220082222953,1.9003466829742472,4.035035038957872,-1.0,-3.14,1.1618211867767245,-2.186926239499118e-12,0.12216245797918464,3.14,-3.14
153,2.858796250109392,2.131401448944936,1.592785132660117,4.196992487812092,1.552222008226091,1.9003466829832332,4.035035038954462,-1.0,-3.14,1.1618211867689425,-1.8680744334298423e-12,0.12216245798036027,3.14,-3.14
154,2.8587962501076856,2.1314014489423934,1.592785132660876,4.196992487809173,1.5522220082293328,1.9003466829909095,4.0350350389515475,-1.0,-3.14,1.1618211867622945,-1.5957402782029701e-12,0.12216245798136455,3.14,-3.14
155,2.8587962501062254,2.1314014489402195,1.592785132661524,4.196992487806678,1.5522220082321034,1.9003466829974673,4.035035038949058,-1.0,-3.14,1.1618211867566155,-1.363426554389366e-12,0.12216245798222253,3.14,-3.14
156,2.8587962501049815,2.1314014489383655,1.5927851326620777,4.19699248780455,1.552222008234469,1.900346683003069,4.0350350389469325,-1.0,-3.14,1.1618211867517643,-1.164498777360687e-12,0.12216245798295529,3.14,-3.14
157,2.8587962501039184,2.1314014489367796,1.5927851326625506,4.1969924878027305,1.5522220082364906,1.9003466830078544,4.035035038945116,-1.0,-3.14,1.16182118674762,-9.948084877631188e-13,0.12216245798358137,3.14,-3.14
158,2.8587962501030093,2.1314014489354256,1.5927851326629547,4.196992487801176,1.5522220082382172,1.9003466830119422,4.0350350389435645,-1.0,-3.14,1.1618211867440797,-8.498106823340264e-13,0.12216245798411612,3.14,-3.14
159,2.8587962501022326,2.131401448934268,1.5927851326633,4.1969924877998475,1.552222008239692,1.9003466830154343,4.0350350389422385,-1.0,-3.14,1.1618211867410555,-7.260432277156311e-13,0.12216245798457293,3.14,-3.14
160,2.8587962501015682,2.1314014489332793,1.5927851326635947,4.196992487798713,1.5522220082409524,1.900346683018417,4.035035038941107,-1.0,-3.14,1.1618211867384722,-6.199677321061499e-13,0.12216245798496324,3.14,-3.14
161,2.858796250101002,2.131401448932436,1.5927851326638465,4.196992487797745,1.5522220082420284,1.9003466830209652,4.03503503894014,-1.0,-3.14,1.1618211867362658,-5.297234894718868e-13,0.12216245798529651,3.14,-3.14
162,2.858796250100519,2.131401448931715,1.5927851326640616,4.196992487796917,1.5522220082429472,1.900346683023141,4.035035038939314,-1.0,-3.14,1.161821186734381,-4.5245843400709434e-13,0.12216245798558123,3.14,-3.14
163,2.858796250100105,2.131401448931098,1.5927851326642453,4.1969924877962095,1.5522220082437324,1.9003466830250004,4.035035038938608,-1.0,-3.14,1.161821186732771,-3.8647962825488505e-13,0.12216245798582459,3.14,-3.14
164,2.8587962500997524,2.1314014489305726,1.5927851326644022,4.196992487795606,1.5522220082444034,1.9003466830265887,4.0350350389380045,-1.0,-3.14,1.1618211867313954,-3.3023139995757857e-13,0.12216245798603244,3.14,-3.14
165,2.858796250099451,2.131401448930122,1.5927851326645364,4.1969924877950895,1.5522220082449767,1.9003466830279454,4.035035038937489,-1.0,-3.14,1.1618211867302206,-2.8211232179109213e-13,0.12216245798620971,3.14,-3.14
166,2.858796250099194,2.131401448929739,1.5927851326646512,4.19699248779465,1.5522220082454665,1.900346683029105,4.03503503893705,-1.0,-3.14,1.1618211867292165,-2.409632654065659e-13,0.12216245798636152,3.14,-3.14
167,2.8587962500989734,2.131401448929411,1.5927851326647489,4.196992487794273,1.5522220082458844,1.9003466830300946,4.035035038936673,-1.0,-3.14,1.1618211867283592,-2.0589963285355406e-13,0.12216245798649102,3.14,-3.14
168,2.8587962500987842,2.131401448929129,1.5927851326648323,4.19699248779395,1.552222008246242,1.9003466830309408,4.035035038936352,-1.0,-3.14,1.1618211867276267,-1.7599107111520863e-13,0.12216245798660158,3.14,-3.14
169,2.858796250098624,2.13140144892889,1.5927851326649038,4.1969924877936755,1.5522220082465465,1.900346683031663,4.035035038936077,-1.0,-3.14,1.161821186727001,-1.5007845184266969e-13,0.12216245798669612,3.14,-3.14
170,2.858796250098486,2.1314014489286857,1.5927851326649651,4.196992487793441,1.5522220082468081,1.9003466830322806,4.035035038935843,-1.0,-3.14,1.1618211867264663,-1.2836004699034744e-13,0.12216245798677687,3.14,-3.14
171,2.85879625009837,2.1314014489285116,1.592785132665017,4.196992487793241,1.5522220082470306,1.900346683032808,4.035035038935643,-1.0,-3.14,1.1618211867260095,-1.0964622483178046e-13,0.12216245798684588,3.14,-3.14
172,2.858796250098268,2.1314014489283606,1.5927851326650615,4.196992487793068,1.5522220082472211,1.9003466830332583,4.035035038935471,-1.0,-3.14,1.1618211867256194,-9.358619652455061e-14,0.12216245798690493,3.14,-3.14
173,2.8587962500981834,2.1314014489282336,1.5927851326650995,4.196992487792922,1.5522220082473832,1.9003466830336433,4.035035038935326,-1.0,-3.14,1.1618211867252861,-8.007320024705236e-14,0.12216245798695524,3.14,-3.14
174,2.858796250098111,2.131401448928125,1.592785132665132,4.196992487792798,1.5522220082475218,1.9003466830339717,4.035035038935201,-1.0,-3.14,1.1618211867250017,-6.828364480404317e-14,0.12216245798699814,3.14,-3.14
175,2.8587962500980484,2.1314014489280324,1.5927851326651599,4.196992487792691,1.5522220082476408,1.9003466830342526,4.035035038935095,-1.0,-3.14,1.1618211867247585,-5.847680890513643e-14,0.12216245798703493,3.14,-3.14
176,2.858796250097995,2.1314014489279534,1.5927851326651836,4.196992487792601,1.552222008247742,1.9003466830344922,4.035035038935004,-1.0,-3.14,1.161821186724551,-5.0012121620699044e-14,0.12216245798706629,3.14,-3.14
177,2.8587962500979502,2.131401448927886,1.5927851326652038,4.1969924877925235,1.5522220082478286,1.900346683034697,4.035035038934927,-1.0,-3.14,1.1618211867243735,-4.256929748591446e-14,0.12216245798709319,3.14,-3.14
178,2.8587962500979116,2.131401448927828,1.5927851326652211,4.196992487792457,1.5522220082479024,1.9003466830348725,4.03503503893486,-1.0,-3.14,1.1618211867242216,-3.6468621965599224e-14,0.12216245798711613,3.14,-3.14
179,2.858796250097877,2.131401448927778,1.5927851326652358,4.196992487792399,1.5522220082479654,1.9003466830350215,4.035035038934803,-1.0,-3.14,1.1618211867240924,-3.0871252175709995e-14,0.12216245798713544,3.14,-3.14
180,2.8587962500978494,2.1314014489277358,1.5927851326652485,4.196992487792351,1.5522220082480191,1.9003466830351492,4.035035038934755,-1.0,-3.14,1.1618211867239818,-2.6494017489883814e-14,0.12216245798715218,3.14,-3.14
181,2.8587962500978255,2.1314014489277,1.5927851326652593,4.1969924877923095,1.5522220082480658,1.9003466830352587,4.035035038934713,-1.0,-3.14,1.1618211867238872,-2.275735373369073e-14,0.12216245798716648,3.14,-3.14
182,2.8587962500978037,2.1314014489276687,1.5927851326652684,4.196992487792274,1.5522220082481053,1.9003466830353517,4.035035038934677,-1.0,-3.14,1.1618211867238064,-1.9234213620708683e-14,0.12216245798717887,3.14,-3.14
183,2.8587962500977864,2.1314014489276425,1.5927851326652764,4.196992487792244,1.5522220082481386,1.9003466830354314,4.035035038934647,-1.0,-3.14,1.1618211867237376,-1.6504161325367616e-14,0.12216245798718928,3.14,-3.14
184,2.858796250097771,2.131401448927619,1.592785132665283,4.196992487792217,1.5522220082481675,1.9003466830354996,4.0350350389346215,-1.0,-3.14,1.1618211867236785,-1.4185904627647826e-14,0.12216245798719814,3.14,-3.14
185,2.8587962500977575,2.1314014489276,1.5927851326652886,4.196992487792195,1.552222008248192,1.9003466830355575,4.035035038934599,-1.0,-3.14,1.1618211867236283,-1.2096423261939858e-14,0.12216245798720567,3.14,-3.14
186,2.858796250097747,2.1314014489275834,1.5927851326652938,4.196992487792176,1.5522220082482128,1.900346683035607,4.035035038934581,-1.0,-3.14,1.1618211867235855,-1.0311975672247652e-14,0.12216245798721213,3.14,-3.14
187,2.8587962500977375,2.1314014489275697,1.592785132665298,4.19699248779216,1.5522220082482314,1.9003466830356497,4.035035038934565,-1.0,-3.14,1.1618211867235484,-8.786806792168844e-15,0.12216245798721771,3.14,-3.14
188,2.8587962500977304,2.131401448927558,1.5927851326653015,4.196992487792147,1.552222008248246,1.900346683035686,4.035035038934551,-1.0,-3.14,1.1618211867235169,-7.581923376906585e-15,0.12216245798722251,3.14,-3.14
189,2.8587962500977233,2.131401448927548,1.5927851326653046,4.196992487792135,1.5522220082482594,1.900346683035717,4.03503503893454,-1.0,-3.14,1.16182118672349,-6.3465365840427494e-15,0.12216245798722655,3.14,-3.14
190,2.858796250097718,2.1314014489275395,1.5927851326653073,4.196992487792126,1.552222008248271,1.900346683035744,4.03503503893453,-1.0,-3.14,1.161821186723467,-5.583952144003345e-15,0.1221624579872301,3.14,-3.14
191,2.858796250097713,2.131401448927532,1.5927851326653095,4.196992487792117,1.5522220082482803,1.9003466830357665,4.035035038934521,-1.0,-3.14,1.1618211867234474,-4.5925923719521194e-15,0.12216245798723296,3.14,-3.14
192,2.858796250097709,2.1314014489275257,1.5927851326653115,4.19699248779211,1.5522220082482887,1.9003466830357858,4.035035038934514,-1.0,-3.14,1.1618211867234307,-4.013028197522172e-15,0.12216245798723534,3.14,-3.14
193,2.858796250097705,2.13140144892752,1.592785132665313,4.196992487792103,1.5522220082482958,1.9003466830358027,4.035035038934508,-1.0,-3.14,1.161821186723416,-3.4487157118930127e-15,0.12216245798723778,3.14,-3.14
194,2.8587962500977016,2.1314014489275146,1.5927851326653144,4.196992487792097,1.5522220082483016,1.9003466830358164,4.0350350389345016,-1.0,-3.14,1.1618211867234038,-2.7471380270567606e-15,0.12216245798723963,3.14,-3.14
195,2.858796250097699,2.131401448927511,1.5927851326653155,4.196992487792093,1.5522220082483065,1.9003466830358284,4.035035038934497,-1.0,-3.14,1.1618211867233939,-2.4878593174433632e-15,0.12216245798724107,3.14,-3.14
196,2.8587962500976962,2.131401448927507,1.5927851326653166,4.196992487792088,1.5522220082483105,1.9003466830358382,4.035035038934493,-1.0,-3.14,1.1618211867233852,-2.1980772302283895e-15,0.12216245798724219,3.14,-3.14
197,2.8587962500976936,2.131401448927504,1.5927851326653175,4.196992487792085,1.552222008248314,1.9003466830358469,4.035035038934489,-1.0,-3.14,1.1618211867233776,-1.6642681222008064e-15,0.12216245798724336,3.14,-3.14
198,2.8587962500976922,2.1314014489275017,1.5927851326653182,4.196992487792082,1.5522220082483171,1.9003466830358544,4.0350350389344865,-1.0,-3.14,1.1618211867233712,-1.588009678196866e-15,0.12216245798724437,3.14,-3.14
199,2.8587962500976905,2.131401448927499,1.5927851326653188,4.1969924877920795,1.5522220082483202,1.9003466830358604,4.035035038934484,-1.0,-3.14,1.1618211867233659,-1.2219691469779517e-15,0.1221624579872451,3.14,-3.14
200,2.85879625009769,2.1314014489274977,1.5927851326653193,4.196992487792078,1.5522220082483225,1.9003466830358662,4.035035038934482,-1.0,-3.14,1.161821186723361,-1.3134792797826802e-15,0.1221624579872458,3.14,-3.14
201,2.858796250097688,2.131401448927496,1.5927851326653197,4.196992487792076,1.5522220082483242,1.900346683035871,4.03503503893448,-1.0,-3.14,1.1618211867233568,-9.32187059762978e-16,0.1221624579872464,3.14,-3.14
202,2.8587962500976873,2.1314014489274946,1.5927851326653202,4.196992487792074,1.552222008248326,1.9003466830358753,4.0350350389344785,-1.0,-3.14,1.1618211867233532,-9.1693537096219e-16,0.12216245798724717,3.14,-3.14
203,2.858796250097687,2.1314014489274937,1.5927851326653206,4.196992487792073,1.5522220082483278,1.9003466830358786,4.035035038934478,-1.0,-3.14,1.16182118672335,-7.034117277511568e-16,0.12216245798724769,3.14,-3.14
204,2.858796250097687,2.131401448927493,1.5927851326653208,4.196992487792072,1.5522220082483291,1.9003466830358815,4.035035038934477,-1.0,-3.14,1.1618211867233477,-5.051397733409116e-16,0.122162457987248,3.14,-3.14
205,2.858796250097686,2.1314014489274924,1.592785132665321,4.1969924877920715,1.55222200824833,1.9003466830358844,4.035035038934476,-1.0,-3.14,1.1618211867233452,-5.508948397432758e-16,0.1221624579872485,3.14,-3.14
206,2.8587962500976856,2.1314014489274915,1.5927851326653213,4.196992487792071,1.552222008248331,1.9003466830358862,4.035035038934475,-1.0,-3.14,1.1618211867233437,-5.051397733409116e-16,0.12216245798724874,3.14,-3.14
207,2.8587962500976847,2.1314014489274906,1.5927851326653215,4.19699248779207,1.5522220082483318,1.9003466830358882,4.035035038934474,-1.0,-3.14,1.1618211867233421,-3.526228853330307e-16,0.12216245798724884,3.14,-3.14
208,2.8587962500976842,2.1314014489274897,1.5927851326653217,4.196992487792069,1.5522220082483322,1.9003466830358897,4.035035038934473,-1.0,-3.14,1.1618211867233406,-2.7636444132909026e-16,0.12216245798724906,3.14,-3.14
209,2.858796250097684,2.131401448927489,1.5927851326653217,4.196992487792068,1.5522220082483327,1.9003466830358913,4.035035038934472,-1.0,-3.14,1.1618211867233392,-2.7636444132909026e-16,0.12216245798724931,3.14,-3.14
210,2.858796250097683,2.1314014489274884,1.592785132665322,4.196992487792067,1.5522220082483336,1.9003466830358926,4.035035038934471,-1.0,-3.14,1.1618211867233381,-2.001059973251498e-16,0.12216245798724942,3.14,-3.14
211,2.858796250097683,2.1314014489274884,1.592785132665322,4.196992487792067,1.5522220082483336,1.9003466830358926,4.035035038934471,-1.0,-3.14,1.161821186723338,-9.33441757196332e-17,0.12216245798724935,3.14,-3.14
212,2.858796250097683,2.1314014489274884,1.592785132665322,4.196992487792067,1.5522220082483336,1.9003466830358933,4.035035038934471,-1.0,-3.14,1.1618211867233375,-6.284079811805702e-17,0.1221624579872494,3.14,-3.14
213,2.858796250097684,2.1314014489274884,1.592785132665322,4.196992487792067,1.5522220082483336,1.9003466830358935,4.035035038934471,-1.0,-3.14,1.1618211867233372,-1.708573171569276e-17,0.12216245798724945,3.14,-3.14
214,2.858796250097684,2.1314014489274884,1.5927851326653222,4.196992487792067,1.5522220082483345,1.9003466830358944,4.035035038934471,-1.0,-3.14,1.1618211867233366,-7.809248691884511e-17,0.1221624579872497,3.14,-3.14
215,2.858796250097684,2.1314014489274884,1.5927851326653222,4.196992487792067,1.5522220082483345,1.900346683035895,4.035035038934471,-1.0,-3.14,1.161821186723336,-1.3909924212199745e-16,0.12216245798724977,3.14,-3.14
216,2.8587962500976825,2.1314014489274875,1.5927851326653222,4.196992487792066,1.5522220082483345,1.9003466830358955,4.0350350389344705,-1.0,-3.14,1.1618211867233355,5.917271228824768e-17,0.12216245798724988,3.14,-3.14
217,2.858796250097683,2.1314014489274875,1.5927851326653224,4.196992487792066,1.552222008248335,1.9003466830358964,4.0350350389344705,-1.0,-3.14,1.161821186723335,-7.809248691884511e-17,0.12216245798724987,3.14,-3.14
218,2.858796250097683,2.1314014489274875,1.5927851326653224,4.196992487792066,1.5522220082483358,1.9003466830358966,4.0350350389344705,-1.0,-3.14,1.1618211867233346,-1.8340429149046684e-18,0.12216245798724987,3.14,-3.14
219,2.858796250097683,2.1314014489274875,1.5927851326653224,4.196992487792066,1.5522220082483358,1.9003466830358968,4.0350350389344705,-1.0,-3.14,1.1618211867233343,-1.7085731715692756e-17,0.12216245798724991,3.14,-3.14
220,2.858796250097683,2.1314014489274875,1.5927851326653224,4.196992487792066,1.5522220082483358,1.9003466830358975,4.0350350389344705,-1.0,-3.14,1.161821186723334,4.392102348745959e-17,0.12216245798725005,3.14,-3.14
221,2.8587962500976833,2.1314014489274875,1.5927851326653224,4.196992487792066,1.5522220082483362,1.900346683035898,4.0350350389344705,-1.0,-3.14,1.1618211867233335,-7.809248691884511e-17,0.12216245798725014,3.14,-3.14
222,2.8587962500976825,2.1314014489274875,1.5927851326653226,4.196992487792066,1.5522220082483362,1.9003466830358984,4.0350350389344705,-1.0,-3.14,1.161821186723333,-4.7589109317268934e-17,0.12216245798725019,3.14,-3.14
223,2.8587962500976816,2.1314014489274875,1.5927851326653224,4.196992487792066,1.5522220082483362,1.9003466830358984,4.0350350389344705,-1.0,-3.14,1.161821186723333,8.967608988982386e-17,0.1221624579872503,3.14,-3.14
224,2.8587962500976816,2.1314014489274875,1.5927851326653224,4.196992487792066,1.5522220082483362,1.9003466830358984,4.0350350389344705,-1.0,-3.14,1.161821186723333,8.967608988982386e-17,0.12216245798725026,3.14,-3.14
225,2.8587962500976816,2.1314014489274875,1.5927851326653224,4.196992487792066,1.5522220082483362,1.9003466830358984,4.0350350389344705,-1.0,-3.14,1.161821186723333,1.0492777869061195e-16,0.12216245798725028,3.14,-3.14
226,2.8587962500976825,2.131401448927488,1.5927851326653226,4.196992487792066,1.5522220082483367,1.9003466830358988,4.0350350389344705,-1.0,-3.14,1.1618211867233328,-3.233742051648084e-17,0.12216245798725026,3.14,-3.14
227,2.858796250097682,2.131401448927488,1.5927851326653226,4.196992487792066,1.5522220082483367,1.900346683035899,4.0350350389344705,-1.0,-3.14,1.1618211867233326,5.917271228824768e-17,0.12216245798725031,3.14,-3.14
228,2.8587962500976825,2.131401448927488,1.5927851326653226,4.196992487792066,1.5522220082483367,1.900346683035899,4.0350350389344705,-1.0,-3.14,1.1618211867233326,1.3417645885883422e-17,0.12216245798725028,3.14,-3.14
229,2.858796250097682,2.131401448927488,1.5927851326653226,4.196992487792066,1.5522220082483367,1.9003466830358995,4.0350350389344705,-1.0,-3.14,1.1618211867233323,7.442440108903577e-17,0.12216245798725041,3.14,-3.14
230,2.858796250097682,2.131401448927488,1.5927851326653226,4.196992487792066,1.5522220082483367,1.9003466830358995,4.0350350389344705,-1.0,-3.14,1.1618211867233323,-3.233742051648084e-17,0.1221624579872504,3.14,-3.14
231,2.858796250097682,2.131401448927488,1.5927851326653226,4.196992487792066,1.5522220082483367,1.9003466830358995,4.0350350389344705,-1.0,-3.14,1.1618211867233323,-7.80924869188451e-17,0.12216245798725038,3.14,-3.14
232,2.858796250097682,2.131401448927488,1.5927851326653226,4.196992487792066,1.5522220082483367,1.9003466830358995,4.0350350389344705,-1.0,-3.14,1.1618211867233321,1.2017946749140005e-16,0.1221624579872504,3.14,-3.14
233,2.8587962500976816,2.131401448927488,1.5927851326653226,4.196992487792066,1.5522220082483367,1.9003466830358995,4.0350350389344705,-1.0,-3.14,1.1618211867233321,-6.2840798118057e-17,0.12216245798725045,3.14,-3.14
234,2.8587962500976825,2.131401448927488,1.5927851326653226,4.196992487792066,1.5522220082483367,1.9003466830358995,4.0350350389344705,-1.0,-3.14,1.1618211867233323,1.0492777869061195e-16,0.12216245798725038,3.14,-3.14
235,2.858796250097682,2.131401448927488,1.5927851326653226,4.196992487792066,1.5522220082483367,1.900346683035899,4.0350350389344705,-1.0,-3.14,1.1618211867233326,1.2017946749140005e-16,0.12216245798725038,3.14,-3.14
236,2.858796250097682,2.131401448927488,1.5927851326653226,4.196992487792066,1.5522220082483367,1.900346683035899,4.0350350389344705,-1.0,-3.14,1.1618211867233326,-1.7085731715692747e-17,0.12216245798725044,3.14,-3.14
237,2.8587962500976816,2.131401448927488,1.5927851326653226,4.196992487792066,1.5522220082483367,1.900346683035899,4.0350350389344705,-1.0,-3.14,1.1618211867233326,-3.233742051648084e-17,0.12216245798725038,3.14,-3.14
238,2.858796250097683,2.131401448927488,1.5927851326653226,4.196992487792066,1.5522220082483367,1.9003466830358988,4.0350350389344705,-1.0,-3.14,1.1618211867233326,1.2017946749140005e-16,0.12216245798725048,3.14,-3.14
239,2.8587962500976816,2.131401448927488,1.5927851326653226,4.196992487792066,1.5522220082483367,1.900346683035899,4.0350350389344705,-1.0,-3.14,1.1618211867233326,-1.2384755332120936e-16,0.12216245798725035,3.14,-3.14
240,2.858796250097683,2.1314014489274875,1.5927851326653226,4.196992487792066,1.5522220082483367,1.9003466830358984,4.0350350389344705,-1.0,-3.14,1.1618211867233328,1.0492777869061195e-16,0.12216245798725037,3.14,-3.14
241,2.8587962500976825,2.131401448927488,1.5927851326653226,4.196992487792066,1.5522220082483367,1.900346683035899,4.0350350389344705,-1.0,-3.14,1.1618211867233326,-9.334417571963318e-17,0.12216245798725048,3.14,-3.14
242,2.858796250097682,2.131401448927488,1.5927851326653226,4.196992487792066,1.5522220082483367,1.900346683035899,4.0350350389344705,-1.0,-3.14,1.1618211867233326,-1.7085731715692734e-17,0.12216245798725044,3.14,-3.14
243,2.8587962500976816,2.131401448927488,1.5927851326653226,4.196992487792066,1.5522220082483367,1.900346683035899,4.0350350389344705,-1.0,-3.14,1.1618211867233326,-3.2337420516480825e-17,0.12216245798725038,3.14,-3.14
244,2.858796250097683,2.131401448927488,1.5927851326653226,4.196992487792066,1.5522220082483367,1.9003466830358988,4.0350350389344705,-1.0,-3.14,1.1618211867233326,1.2017946749140005e-16,0.12216245798725048,3.14,-3.14
245,2.8587962500976816,2.131401448927488,1.5927851326653226,4.196992487792066,1.5522220082483367,1.900346683035899,4.0350350389344705,-1.0,-3.14,1.1618211867233326,-1.2384755332120936e-16,0.12216245798725035,3.14,-3.14
246,2.858796250097683,2.1314014489274875,1.5927851326653226,4.196992487792066,1.5522220082483367,1.9003466830358984,4.0350350389344705,-1.0,-3.14,1.1618211867233328,1.0492777869061195e-16,0.12216245798725037,3.14,-3.14
247,2.8587962500976825,2.131401448927488,1.5927851326653226,4.196992487792066,1.5522220082483367,1.900346683035899,4.0350350389344705,-1.0,-3.14,1.1618211867233326,-9.334417571963318e-17,0.12216245798725048,3.14,-3.14
248,2.858796250097682,2.131401448927488,1.5927851326653226,4.196992487792066,1.5522220082483367,1.900346683035899,4.0350350389344705,-1.0,-3.14,1.1618211867233326,-1.7085731715692734e-17,0.12216245798725044,3.14,-3.14
249,2.8587962500976816,2.131401448927488,1.5927851326653226,4.196992487792066,1.5522220082483367,1.900346683035899,4.0350350389344705,-1.0,-3.14,1.1618211867233326,-3.2337420516480825e-17,0.12216245798725038,3.14,-3.14
250,2.858796250097683,2.131401448927488,1.5927851326653226,4.196992487792066,1.5522220082483367,1.9003466830358988,4.0350350389344705,-1.0,-3.14,1.1618211867233326,1.2017946749140005e-16,0.12216245798725048,3.14,-3.14
251,2.8587962500976816,2.131401448927488,1.5927851326653226,4.196992487792066,1.5522220082483367,1.900346683035899,4.0350350389344705,-1.0,-3.14,1.1618211867233326,-1.2384755332120936e-16,0.12216245798725035,3.14,-3.14
252,2.858796250097683,2.1314014489274875,1.5927851326653226,4.196992487792066,1.5522220082483367,1.9003466830358984,4.0350350389344705,-1.0,-3.14,1.1618211867233328,1.0492777869061195e-16,0.12216245798725037,3.14,-3.14
253,2.8587962500976825,2.131401448927488,1.5927851326653226,4.196992487792066,1.5522220082483367,1.900346683035899,4.0350350389344705,-1.0,-3.14,1.1618211867233326,-9.334417571963318e-17,0.12216245798725048,3.14,-3.14
254,2.858796250097682,2.131401448927488,1.5927851326653226,4.196992487792066,1.5522220082483367,1.900346683035899,4.0350350389344705,-1.0,-3.14,1.1618211867233326,-1.7085731715692734e-17,0.12216245798725044,3.14,-3.14
255,2.8587962500976816,2.131401448927488,1.5927851326653226,4.196992487792066,1.5522220082483367,1.900346683035899,4.0350350389344705,-1.0,-3.14,1.1618211867233326,-3.2337420516480825e-17,0.12216245798725038,3.14,-3.14
256,2.858796250097683,2.131401448927488,1.5927851326653226,4.196992487792066,1.5522220082483367,1.9003466830358988,4.0350350389344705,-1.0,-3.14,1.1618211867233326,1.2017946749140005e-16,0.12216245798725048,3.14,-3.14
257,2.8587962500976816,2.131401448927488,1.5927851326653226,4.196992487792066,1.5522220082483367,1.900346683035899,4.0350350389344705,-1.0,-3.14,1.1618211867233326,-1.2384755332120936e-16,0.12216245798725035,3.14,-3.14
258,2.858796250097683,2.1314014489274875,1.5927851326653226,4.196992487792066,1.5522220082483367,1.9003466830358984,4.0350350389344705,-1.0,-3.14,1.1618211867233328,1.0492777869061195e-16,0.12216245798725037,3.14,-3.14
259,2.8587962500976825,2.131401448927488,1.5927851326653226,4.196992487792066,1.5522220082483367,1.900346683035899,4.0350350389344705,-1.0,-3.14,1.1618211867233326,-9.334417571963318e-17,0.12216245798725048,3.14,-3.14
260,2.858796250097682,2.131401448927488,1.5927851326653226,4.196992487792066,1.5522220082483367,1.900346683035899,4.0350350389344705,-1.0,-3.14,1.1618211867233326,-1.7085731715692734e-17,0.12216245798725044,3.14,-3.14
261,2.8587962500976816,2.131401448927488,1.5927851326653226,4.196992487792066,1.5522220082483367,1.900346683035899,4.0350350389344705,-1.0,-3.14,1.1618211867233326,-3.2337420516480825e-17,0.12216245798725038,3.14,-3.14
262,2.858796250097683,2.131401448927488,1.5927851326653226,4.196992487792066,1.5522220082483367,1.9003466830358988,4.0350350389344705,-1.0,-3.14,1.1618211867233326,1.2017946749140005e-16,0.12216245798725048,3.14,-3.14
263,2.8587962500976816,2.131401448927488,1.5927851326653226,4.196992487792066,1.5522220082483367,1.900346683035899,4.0350350389344705,-1.0,-3.14,1.1618211867233326,-1.2384755332120936e-16,0.12216245798725035,3.14,-3.14
264,2.858796250097683,2.1314014489274875,1.5927851326653226,4.196992487792066,1.5522220082483367,1.9003466830358984,4.0350350389344705,-1.0,-3.14,1.1618211867233328,1.0492777869061195e-16,0.12216245798725037,3.14,-3.14
265,2.8587962500976825,2.131401448927488,1.5927851326653226,4.196992487792066,1.5522220082483367,1.900346683035899,4.0350350389344705,-1.0,-3.14,1.1618211867233326,-9.334417571963318e-17,0.12216245798725048,3.14,-3.14
266,2.858796250097682,2.131401448927488,1.5927851326653226,4.196992487792066,1.5522220082483367,1.900346683035899,4.0350350389344705,-1.0,-3.14,1.1618211867233326,-1.7085731715692734e-17,0.12216245798725044,3.14,-3.14
267,2.8587962500976816,2.131401448927488,1.5927851326653226,4.196992487792066,1.5522220082483367,1.900346683035899,4.0350350389344705,-1.0,-3.14,1.1618211867233326,-3.2337420516480825e-17,0.12216245798725038,3.14,-3.14
268,2.858796250097683,2.131401448927488,1.5927851326653226,4.196992487792066,1.5522220082483367,1.9003466830358988,4.0350350389344705,-1.0,-3.14,1.1618211867233326,1.2017946749140005e-16,0.12216245798725048,3.14,-3.14
269,2.8587962500976816,2.131401448927488,1.5927851326653226,4.196992487792066,1.5522220082483367,1.900346683035899,4.0350350389344705,-1.0,-3.14,1.1618211867233326,-1.2384755332120936e-16,0.12216245798725035,3.14,-3.14
270,2.858796250097683,2.1314014489274875,1.5927851326653226,4.196992487792066,1.5522220082483367,1.9003466830358984,4.0350350389344705,-1.0,-3.14,1.1618211867233328,1.0492777869061195e-16,0.12216245798725037,3.14,-3.14
271,2.8587962500976825,2.131401448927488,1.5927851326653226,4.196992487792066,1.5522220082483367,1.900346683035899,4.0350350389344705,-1.0,-3.14,1.1618211867233326,-9.334417571963318e-17,0.12216245798725048,3.14,-3.14
272,2.858796250097682,2.131401448927488,1.5927851326653226,4.196992487792066,1.5522220082483367,1.900346683035899,4.0350350389344705,-1.0,-3.14,1.1618211867233326,-1.7085731715692734e-17,0.12216245798725044,3.14,-3.14
273,2.8587962500976816,2.131401448927488,1.5927851326653226,4.196992487792066,1.5522220082483367,1.900346683035899,4.0350350389344705,-1.0,-3.14,1.1618211867233326,-3.2337420516480825e-17,0.12216245798725038,3.14,-3.14
274,2.858796250097683,2.131401448927488,1.5927851326653226,4.196992487792066,1.5522220082483367,1.9003466830358988,4.0350350389344705,-1.0,-3.14,1.1618211867233326,1.2017946749140005e-16,0.12216245798725048,3.14,-3.14
275,2.8587962500976816,2.131401448927488,1.5927851326653226,4.196992487792066,1.5522220082483367,1.900346683035899,4.0350350389344705,-1.0,-3.14,1.1618211867233326,-1.2384755332120936e-16,0.12216245798725035,3.14,-3.14
276,2.858796250097683,2.1314014489274875,1.5927851326653226,4.196992487792066,1.5522220082483367,1.9003466830358984,4.0350350389344705,-1.0,-3.14,1.1618211867233328,1.0492777869061195e-16,0.12216245798725037,3.14,-3.14
277,2.8587962500976825,2.131401448927488,1.5927851326653226,4.196992487792066,1.5522220082483367,1.900346683035899,4.0350350389344705,-1.0,-3.14,1.1618211867233326,-9.334417571963318e-17,0.12216245798725048,3.14,-3.14
278,2.858796250097682,2.131401448927488,1.5927851326653226,4.196992487792066,1.5522220082483367,1.900346683035899,4.0350350389344705,-1.0,-3.14,1.1618211867233326,-1.7085731715692734e-17,0.12216245798725044,3.14,-3.14
279,2.8587962500976816,2.131401448927488,1.5927851326653226,4.196992487792066,1.5522220082483367,1.900346683035899,4.0350350389344705,-1.0,-3.14,1.1618211867233326,-3.2337420516480825e-17,0.12216245798725038,3.14,-3.14
280,2.858796250097683,2.131401448927488,1.5927851326653226,4.196992487792066,1.5522220082483367,1.9003466830358988,4.0350350389344705,-1.0,-3.14,1.1618211867233326,1.2017946749140005e-16,0.12216245798725048,3.14,-3.14
281,2.8587962500976816,2.131401448927488,1.5927851326653226,4.196992487792066,1.5522220082483367,1.900346683035899,4.0350350389344705,-1.0,-3.14,1.1618211867233326,-1.2384755332120936e-16,0.12216245798725035,3.14,-3.14
282,2.858796250097683,2.1314014489274875,1.5927851326653226,4.196992487792066,1.5522220082483367,1.9003466830358984,4.0350350389344705,-1.0,-3.14,1.1618211867233328,1.0492777869061195e-16,0.12216245798725037,3.14,-3.14
283,2.8587962500976825,2.131401448927488,1.5927851326653226,4.196992487792066,1.5522220082483367,1.900346683035899,4.0350350389344705,-1.0,-3.14,1.1618211867233326,-9.334417571963318e-17,0.12216245798725048,3.14,-3.14
284,2.858796250097682,2.131401448927488,1.5927851326653226,4.196992487792066,1.5522220082483367,1.900346683035899,4.0350350389344705,-1.0,-3.14,1.1618211867233326,-1.7085731715692734e-17,0.12216245798725044,3.14,-3.14
285,2.8587962500976816,2.131401448927488,1.5927851326653226,4.196992487792066,1.5522220082483367,1.900346683035899,4.0350350389344705,-1.0,-3.14,1.1618211867233326,-3.2337420516480825e-17,0.12216245798725038,3.14,-3.14
286,2.858796250097683,2.131401448927488,1.5927851326653226,4.196992487792066,1.5522220082483367,1.9003466830358988,4.0350350389344705,-1.0,-3.14,1.1618211867233326,1.2017946749140005e-16,0.12216245798725048,3.14,-3.14
287,2.8587962500976816,2.131401448927488,1.5927851326653226,4.196992487792066,1.5522220082483367,1.900346683035899,4.0350350389344705,-1.0,-3.14,1.1618211867233326,-1.2384755332120936e-16,0.12216245798725035,3.14,-3.14
288,2.858796250097683,2.1314014489274875,1.5927851326653226,4.196992487792066,1.5522220082483367,1.9003466830358984,4.0350350389344705,-1.0,-3.14,1.1618211867233328,1.0492777869061195e-16,0.12216245798725037,3.14,-3.14
289,2.8587962500976825,2.131401448927488,1.5927851326653226,4.196992487792066,1.5522220082483367,1.900346683035899,4.0350350389344705,-1.0,-3.14,1.1618211867233326,-9.334417571963318e-17,0.12216245798725048,3.14,-3.14
290,2.858796250097682,2.131401448927488,1.5927851326653226,4.196992487792066,1.5522220082483367,1.900346683035899,4.0350350389344705,-1.0,-3.14,1.1618211867233326,-1.7085731715692734e-17,0.12216245798725044,3.14,-3.14
291,2.8587962500976816,2.131401448927488,1.5927851326653226,4.196992487792066,1.5522220082483367,1.900346683035899,4.0350350389344705,-1.0,-3.14,1.1618211867233326,-3.2337420516480825e-17,0.12216245798725038,3.14,-3.14
292,2.858796250097683,2.131401448927488,1.5927851326653226,4.196992487792066,1.5522220082483367,1.9003466830358988,4.0350350389344705,-1.0,-3.14,1.1618211867233326,1.2017946749140005e-16,0.12216245798725048,3.14,-3.14
293,2.8587962500976816,2.131401448927488,1.5927851326653226,4.196992487792066,1.5522220082483367,1.900346683035899,4.0350350389344705,-1.0,-3.14,1.1618211867233326,-1.2384755332120936e-16,0.12216245798725035,3.14,-3.14
294,2.858796250097683,2.1314014489274875,1.5927851326653226,4.196992487792066,1.5522220082483367,1.9003466830358984,4.0350350389344705,-1.0,-3.14,1.1618211867233328,1.0492777869061195e-16,0.12216245798725037,3.14,-3.14
295,2.8587962500976825,2.131401448927488,1.5927851326653226,4.196992487792066,1.5522220082483367,1.900346683035899,4.0350350389344705,-1.0,-3.14,1.1618211867233326,-9.334417571963318e-17,0.12216245798725048,3.14,-3.14
296,2.858796250097682,2.131401448927488,1.5927851326653226,4.196992487792066,1.5522220082483367,1.900346683035899,4.0350350389344705,-1.0,-3.14,1.1618211867233326,-1.7085731715692734e-17,0.12216245798725044,3.14,-3.14
297,2.8587962500976816,2.131401448927488,1.5927851326653226,4.196992487792066,1.5522220082483367,1.900346683035899,4.0350350389344705,-1.0,-3.14,1.1618211867233326,-3.2337420516480825e-17,0.12216245798725038,3.14,-3.14
298,2.858796250097683,2.131401448927488,1.5927851326653226,4.196992487792066,1.5522220082483367,1.9003466830358988,4.0350350389344705,-1.0,-3.14,1.1618211867233326,1.2017946749140005e-16,0.12216245798725048,3.14,-3.14
299,2.8587962500976816,2.131401448927488,1.5927851326653226,4.196992487792066,1.5522220082483367,1.900346683035899,4.0350350389344705,-1.0,-3.14,1.1618211867233326,-1.2384755332120936e-16,0.12216245798725035,3.14,-3.14
300,2.858796250097683,2.1314014489274875,1.5927851326653226,4.196992487792066,1.5522220082483367,1.9003466830358984,4.0350350389344705,-1.0,-3.14,1.1618211867233328,1.0492777869061195e-16,0.12216245798725037,3.14,-3.14
301,2.8587962500976825,2.131401448927488,1.5927851326653226,4.196992487792066,1.5522220082483367,1.900346683035899,4.0350350389344705,-1.0,-3.14,1.1618211867233326,-9.334417571963318e-17,0.12216245798725048,3.14,-3.14
302,2.858796250097682,2.131401448927488,1.5927851326653226,4.196992487792066,1.5522220082483367,1.900346683035899,4.0350350389344705,-1.0,-3.14,1.1618211867233326,-1.7085731715692734e-17,0.12216245798725044,3.14,-3.14
303,2.8587962500976816,2.131401448927488,1.5927851326653226,4.196992487792066,1.5522220082483367,1.900346683035899,4.0350350389344705,-1.0,-3.14,1.1618211867233326,-3.2337420516480825e-17,0.12216245798725038,3.14,-3.14
304,2.858796250097683,2.131401448927488,1.5927851326653226,4.196992487792066,1.5522220082483367,1.9003466830358988,4.0350350389344705,-1.0,-3.14,1.1618211867233326,1.2017946749140005e-16,0.12216245798725048,3.14,-3.14
305,2.8587962500976816,2.131401448927488,1.5927851326653226,4.196992487792066,1.5522220082483367,1.900346683035899,4.0350350389344705,-1.0,-3.14,1.1618211867233326,-1.2384755332120936e-16,0.12216245798725035,3.14,-3.14
306,2.858796250097683,2.1314014489274875,1.5927851326653226,4.196992487792066,1.5522220082483367,1.9003466830358984,4.0350350389344705,-1.0,-3.14,1.1618211867233328,1.0492777869061195e-16,0.12216245798725037,3.14,-3.14
307,2.8587962500976825,2.131401448927488,1.5927851326653226,4.196992487792066,1.5522220082483367,1.900346683035899,4.0350350389344705,-1.0,-3.14,1.1618211867233326,-9.334417571963318e-17,0.12216245798725048,3.14,-3.14
308,2.858796250097682,2.131401448927488,1.5927851326653226,4.196992487792066,1.5522220082483367,1.900346683035899,4.0350350389344705,-1.0,-3.14,1.1618211867233326,-1.7085731715692734e-17,0.12216245798725044,3.14,-3.14
309,2.8587962500976816,2.131401448927488,1.5927851326653226,4.196992487792066,1.5522220082483367,1.900346683035899,4.0350350389344705,-1.0,-3.14,1.1618211867233326,-3.2337420516480825e-17,0.12216245798725038,3.14,-3.14
310,2.858796250097683,2.131401448927488,1.5927851326653226,4.196992487792066,1.5522220082483367,1.9003466830358988,4.0350350389344705,-1.0,-3.14,1.1618211867233326,1.2017946749140005e-16,0.12216245798725048,3.14,-3.14
311,2.8587962500976816,2.131401448927488,1.5927851326653226,4.196992487792066,1.5522220082483367,1.900346683035899,4.0350350389344705,-1.0,-3.14,1.1618211867233326,-1.2384755332120936e-16,0.12216245798725035,3.14,-3.14
312,2.858796250097683,2.1314014489274875,1.5927851326653226,4.196992487792066,1.5522220082483367,1.9003466830358984,4.0350350389344705,-1.0,-3.14,1.1618211867233328,1.0492777869061195e-16,0.12216245798725037,3.14,-3.14
313,2.8587962500976825,2.131401448927488,1.5927851326653226,4.196992487792066,1.5522220082483367,1.900346683035899,4.0350350389344705,-1.0,-3.14,1.1618211867233326,-9.334417571963318e-17,0.12216245798725048,3.14,-3.14
314,2.858796250097682,2.131401448927488,1.5927851326653226,4.196992487792066,1.5522220082483367,1.900346683035899,4.0350350389344705,-1.0,-3.14,1.1618211867233326,-1.7085731715692734e-17,0.12216245798725044,3.14,-3.14
315,2.8587962500976816,2.131401448927488,1.5927851326653226,4.196992487792066,1.5522220082483367,1.900346683035899,4.0350350389344705,-1.0,-3.14,1.1618211867233326,-3.2337420516480825e-17,0.12216245798725038,3.14,-3.14
316,2.858796250097683,2.131401448927488,1.5927851326653226,4.196992487792066,1.5522220082483367,1.9003466830358988,4.0350350389344705,-1.0,-3.14,1.1618211867233326,1.2017946749140005e-16,0.12216245798725048,3.14,-3.14
317,2.8587962500976816,2.131401448927488,1.5927851326653226,4.196992487792066,1.5522220082483367,1.900346683035899,4.0350350389344705,-1.0,-3.14,1.1618211867233326,-1.2384755332120936e-16,0.12216245798725035,3.14,-3.14
318,2.858796250097683,2.1314014489274875,1.5927851326653226,4.196992487792066,1.5522220082483367,1.9003466830358984,4.0350350389344705,-1.0,-3.14,1.1618211867233328,1.0492777869061195e-16,0.12216245798725037,3.14,-3.14
319,2.8587962500976825,2.131401448927488,1.5927851326653226,4.196992487792066,1.5522220082483367,1.900346683035899,4.0350350389344705,-1.0,-3.14,1.1618211867233326,-9.334417571963318e-17,0.12216245798725048,3.14,-3.14
320,2.858796250097682,2.131401448927488,1.5927851326653226,4.196992487792066,1.5522220082483367,1.900346683035899,4.0350350389344705,-1.0,-3.14,1.1618211867233326,-1.7085731715692734e-17,0.12216245798725044,3.14,-3.14
321,2.8587962500976816,2.131401448927488,1.5927851326653226,4.196992487792066,1.5522220082483367,1.900346683035899,4.0350350389344705,-1.0,-3.14,1.1618211867233326,-3.2337420516480825e-17,0.12216245798725038,3.14,-3.14
322,2.858796250097683,2.131401448927488,1.5927851326653226,4.196992487792066,1.5522220082483367,1.9003466830358988,4.0350350389344705,-1.0,-3.14,1.1618211867233326,1.2017946749140005e-16,0.12216245798725048,3.14,-3.14
323,2.8587962500976816,2.131401448927488,1.5927851326653226,4.196992487792066,1.5522220082483367,1.900346683035899,4.0350350389344705,-1.0,-3.14,1.1618211867233326,-1.2384755332120936e-16,0.12216245798725035,3.14,-3.14
324,2.858796250097683,2.1314014489274875,1.5927851326653226,4.196992487792066,1.5522220082483367,1.9003466830358984,4.0350350389344705,-1.0,-3.14,1.1618211867233328,1.0492777869061195e-16,0.12216245798725037,3.14,-3.14
325,2.8587962500976825,2.131401448927488,1.5927851326653226,4.196992487792066,1.5522220082483367,1.900346683035899,4.0350350389344705,-1.0,-3.14,1.1618211867233326,-9.334417571963318e-17,0.12216245798725048,3.14,-3.14
326,2.858796250097682,2.131401448927488,1.5927851326653226,4.196992487792066,1.5522220082483367,1.900346683035899,4.0350350389344705,-1.0,-3.14,1.1618211867233326,-1.7085731715692734e-17,0.12216245798725044,3.14,-3.14
327,2.8587962500976816,2.131401448927488,1.5927851326653226,4.196992487792066,1.5522220082483367,1.900346683035899,4.0350350389344705,-1.0,-3.14,1.1618211867233326,-3.2337420516480825e-17,0.12216245798725038,3.14,-3.14
328,2.858796250097683,2.131401448927488,1.5927851326653226,4.196992487792066,1.5522220082483367,1.9003466830358988,4.0350350389344705,-1.0,-3.14,1.1618211867233326,1.2017946749140005e-16,0.12216245798725048,3.14,-3.14
329,2.8587962500976816,2.131401448927488,1.5927851326653226,4.196992487792066,1.5522220082483367,1.900346683035899,4.0350350389344705,-1.0,-3.14,1.1618211867233326,-1.2384755332120936e-16,0.12216245798725035,3.14,-3.14
330,2.858796250097683,2.1314014489274875,1.5927851326653226,4.196992487792066,1.5522220082483367,1.9003466830358984,4.0350350389344705,-1.0,-3.14,1.1618211867233328,1.0492777869061195e-16,0.12216245798725037,3.14,-3.14
331,2.8587962500976825,2.131401448927488,1.5927851326653226,4.196992487792066,1.5522220082483367,1.900346683035899,4.0350350389344705,-1.0,-3.14,1.1618211867233326,-9.334417571963318e-17,0.12216245798725048,3.14,-3.14
332,2.858796250097682,2.131401448927488,1.5927851326653226,4.196992487792066,1.5522220082483367,1.900346683035899,4.0350350389344705,-1.0,-3.14,1.1618211867233326,-1.7085731715692734e-17,0.12216245798725044,3.14,-3.14
333,2.8587962500976816,2.131401448927488,1.5927851326653226,4.196992487792066,1.5522220082483367,1.900346683035899,4.0350350389344705,-1.0,-3.14,1.1618211867233326,-3.2337420516480825e-17,0.12216245798725038,3.14,-3.14
334,2.858796250097683,2.131401448927488,1.5927851326653226,4.196992487792066,1.5522220082483367,1.9003466830358988,4.0350350389344705,-1.0,-3.14,1.1618211867233326,1.2017946749140005e-16,0.12216245798725048,3.14,-3.14
335,2.8587962500976816,2.131401448927488,1.5927851326653226,4.196992487792066,1.5522220082483367,1.900346683035899,4.0350350389344705,-1.0,-3.14,1.1618211867233326,-1.2384755332120936e-16,0.12216245798725035,3.14,-3.14
336,2.858796250097683,2.1314014489274875,1.5927851326653226,4.196992487792066,1.5522220082483367,1.9003466830358984,4.0350350389344705,-1.0,-3.14,1.1618211867233328,1.0492777869061195e-16,0.12216245798725037,3.14,-3.14
337,2.8587962500976825,2.131401448927488,1.5927851326653226,4.196992487792066,1.5522220082483367,1.900346683035899,4.0350350389344705,-1.0,-3.14,1.1618211867233326,-9.334417571963318e-17,0.12216245798725048,3.14,-3.14
338,2.858796250097682,2.131401448927488,1.5927851326653226,4.196992487792066,1.5522220082483367,1.900346683035899,4.0350350389344705,-1.0,-3.14,1.1618211867233326,-1.7085731715692734e-17,0.12216245798725044,3.14,-3.14
339,2.8587962500976816,2.131401448927488,1.5927851326653226,4.196992487792066,1.5522220082483367,1.900346683035899,4.0350350389344705,-1.0,-3.14,1.1618211867233326,-3.2337420516480825e-17,0.12216245798725038,3.14,-3.14
340,2.858796250097683,2.131401448927488,1.5927851326653226,4.196992487792066,1.5522220082483367,1.9003466830358988,4.0350350389344705,-1.0,-3.14,1.1618211867233326,1.2017946749140005e-16,0.12216245798725048,3.14,-3.14
341,2.8587962500976816,2.131401448927488,1.5927851326653226,4.196992487792066,1.5522220082483367,1.900346683035899,4.0350350389344705,-1.0,-3.14,1.1618211867233326,-1.2384755332120936e-16,0.12216245798725035,3.14,-3.14
342,2.858796250097683,2.1314014489274875,1.5927851326653226,4.196992487792066,1.5522220082483367,1.9003466830358984,4.0350350389344705,-1.0,-3.14,1.1618211867233328,1.0492777869061195e-16,0.12216245798725037,3.14,-3.14
343,2.8587962500976825,2.131401448927488,1.5927851326653226,4.196992487792066,1.5522220082483367,1.900346683035899,4.0350350389344705,-1.0,-3.14,1.1618211867233326,-9.334417571963318e-17,0.12216245798725048,3.14,-3.14
344,2.858796250097682,2.131401448927488,1.5927851326653226,4.196992487792066,1.5522220082483367,1.900346683035899,4.0350350389344705,-1.0,-3.14,1.1618211867233326,-1.7085731715692734e-17,0.12216245798725044,3.14,-3.14
345,2.8587962500976816,2.131401448927488,1.5927851326653226,4.196992487792066,1.5522220082483367,1.900346683035899,4.0350350389344705,-1.0,-3.14,1.1618211867233326,-3.2337420516480825e-17,0.12216245798725038,3.14,-3.14
346,2.858796250097683,2.131401448927488,1.5927851326653226,4.196992487792066,1.5522220082483367,1.9003466830358988,4.0350350389344705,-1.0,-3.14,1.1618211867233326,1.2017946749140005e-16,0.12216245798725048,3.14,-3.14
347,2.8587962500976816,2.131401448927488,1.5927851326653226,4.196992487792066,1.5522220082483367,1.900346683035899,4.0350350389344705,-1.0,-3.14,1.1618211867233326,-1.2384755332120936e-16,0.12216245798725035,3.14,-3.14
348,2.858796250097683,2.1314014489274875,1.5927851326653226,4.196992487792066,1.5522220082483367,1.9003466830358984,4.0350350389344705,-1.0,-3.14,1.1618211867233328,1.0492777869061195e-16,0.12216245798725037,3.14,-3.14
349,2.8587962500976825,2.131401448927488,1.5927851326653226,4.196992487792066,1.5522220082483367,1.900346683035899,4.0350350389344705,-1.0,-3.14,1.1618211867233326,-9.334417571963318e-17,0.12216245798725048,3.14,-3.14
350,2.858796250097682,2.131401448927488,1.5927851326653226,4.196992487792066,1.5522220082483367,1.900346683035899,4.0350350389344705,-1.0,-3.14,1.1618211867233326,-1.7085731715692734e-17,0.12216245798725044,3.14,-3.14
351,2.8587962500976816,2.131401448927488,1.5927851326653226,4.196992487792066,1.5522220082483367,1.900346683035899,4.0350350389344705,-1.0,-3.14,1.1618211867233326,-3.2337420516480825e-17,0.12216245798725038,3.14,-3.14
352,2.858796250097683,2.131401448927488,1.5927851326653226,4.196992487792066,1.5522220082483367,1.9003466830358988,4.0350350389344705,-1.0,-3.14,1.1618211867233326,1.2017946749140005e-16,0.12216245798725048,3.14,-3.14
353,2.8587962500976816,2.131401448927488,1.5927851326653226,4.196992487792066,1.5522220082483367,1.900346683035899,4.0350350389344705,-1.0,-3.14,1.1618211867233326,-1.2384755332120936e-16,0.12216245798725035,3.14,-3.14
354,2.858796250097683,2.1314014489274875,1.5927851326653226,4.196992487792066,1.5522220082483367,1.9003466830358984,4.0350350389344705,-1.0,-3.14,1.1618211867233328,1.0492777869061195e-16,0.12216245798725037,3.14,-3.14
355,2.8587962500976825,2.131401448927488,1.5927851326653226,4.196992487792066,1.5522220082483367,1.900346683035899,4.0350350389344705,-1.0,-3.14,1.1618211867233326,-9.334417571963318e-17,0.12216245798725048,3.14,-3.14
356,2.858796250097682,2.131401448927488,1.5927851326653226,4.196992487792066,1.5522220082483367,1.900346683035899,4.0350350389344705,-1.0,-3.14,1.1618211867233326,-1.7085731715692734e-17,0.12216245798725044,3.14,-3.14
357,2.8587962500976816,2.131401448927488,1.5927851326653226,4.196992487792066,1.5522220082483367,1.900346683035899,4.0350350389344705,-1.0,-3.14,1.1618211867233326,-3.2337420516480825e-17,0.12216245798725038,3.14,-3.14
358,2.858796250097683,2.131401448927488,1.5927851326653226,4.196992487792066,1.5522220082483367,1.9003466830358988,4.0350350389344705,-1.0,-3.14,1.1618211867233326,1.2017946749140005e-16,0.12216245798725048,3.14,-3.14
359,2.8587962500976816,2.131401448927488,1.5927851326653226,4.196992487792066,1.5522220082483367,1.900346683035899,4.0350350389344705,-1.0,-3.14,1.1618211867233326,-1.2384755332120936e-16,0.12216245798725035,3.14,-3.14
360,2.858796250097683,2.1314014489274875,1.5927851326653226,4.196992487792066,1.5522220082483367,1.9003466830358984,4.0350350389344705,-1.0,-3.14,1.1618211867233328,1.0492777869061195e-16,0.12216245798725037,3.14,-3.14
361,2.8587962500976825,2.131401448927488,1.5927851326653226,4.196992487792066,1.5522220082483367,1.900346683035899,4.0350350389344705,-1.0,-3.14,1.1618211867233326,-9.334417571963318e-17,0.12216245798725048,3.14,-3.14
362,2.858796250097682,2.131401448927488,1.5927851326653226,4.196992487792066,1.5522220082483367,1.900346683035899,4.0350350389344705,-1.0,-3.14,1.1618211867233326,-1.7085731715692734e-17,0.12216245798725044,3.14,-3.14
363,2.8587962500976816,2.131401448927488,1.5927851326653226,4.196992487792066,1.5522220082483367,1.900346683035899,4.0350350389344705,-1.0,-3.14,1.1618211867233326,-3.2337420516480825e-17,0.12216245798725038,3.14,-3.14
364,2.858796250097683,2.131401448927488,1.5927851326653226,4.196992487792066,1.5522220082483367,1.9003466830358988,4.0350350389344705,-1.0,-3.14,1.1618211867233326,1.2017946749140005e-16,0.12216245798725048,3.14,-3.14
365,2.8587962500976816,2.131401448927488,1.5927851326653226,4.196992487792066,1.5522220082483367,1.900346683035899,4.0350350389344705,-1.0,-3.14,1.1618211867233326,-1.2384755332120936e-16,0.12216245798725035,3.14,-3.14
366,2.858796250097683,2.1314014489274875,1.5927851326653226,4.196992487792066,1.5522220082483367,1.9003466830358984,4.0350350389344705,-1.0,-3.14,1.1618211867233328,1.0492777869061195e-16,0.12216245798725037,3.14,-3.14
367,2.8587962500976825,2.131401448927488,1.5927851326653226,4.196992487792066,1.5522220082483367,1.900346683035899,4.0350350389344705,-1.0,-3.14,1.1618211867233326,-9.334417571963318e-17,0.12216245798725048,3.14,-3.14
368,2.858796250097682,2.131401448927488,1.5927851326653226,4.196992487792066,1.5522220082483367,1.900346683035899,4.0350350389344705,-1.0,-3.14,1.1618211867233326,-1.7085731715692734e-17,0.12216245798725044,3.14,-3.14
369,2.8587962500976816,2.131401448927488,1.5927851326653226,4.196992487792066,1.5522220082483367,1.900346683035899,4.0350350389344705,-1.0,-3.14,1.1618211867233326,-3.2337420516480825e-17,0.12216245798725038,3.14,-3.14
370,2.858796250097683,2.131401448927488,1.5927851326653226,4.196992487792066,1.5522220082483367,1.9003466830358988,4.0350350389344705,-1.0,-3.14,1.1618211867233326,1.2017946749140005e-16,0.12216245798725048,3.14,-3.14
371,2.8587962500976816,2.131401448927488,1.5927851326653226,4.196992487792066,1.5522220082483367,1.900346683035899,4.0350350389344705,-1.0,-3.14,1.1618211867233326,-1.2384755332120936e-16,0.12216245798725035,3.14,-3.14
372,2.858796250097683,2.1314014489274875,1.5927851326653226,4.196992487792066,1.5522220082483367,1.9003466830358984,4.0350350389344705,-1.0,-3.14,1.1618211867233328,1.0492777869061195e-16,0.12216245798725037,3.14,-3.14
373,2.8587962500976825,2.131401448927488,1.5927851326653226,4.196992487792066,1.5522220082483367,1.900346683035899,4.0350350389344705,-1.0,-3.14,1.1618211867233326,-9.334417571963318e-17,0.12216245798725048,3.14,-3.14
374,2.858796250097682,2.131401448927488,1.5927851326653226,4.196992487792066,1.5522220082483367,1.900346683035899,4.0350350389344705,-1.0,-3.14,1.1618211867233326,-1.7085731715692734e-17,0.12216245798725044,3.14,-3.14
375,2.8587962500976816,2.131401448927488,1.5927851326653226,4.196992487792066,1.5522220082483367,1.900346683035899,4.0350350389344705,-1.0,-3.14,1.1618211867233326,-3.2337420516480825e-17,0.12216245798725038,3.14,-3.14
376,2.858796250097683,2.131401448927488,1.5927851326653226,4.196992487792066,1.5522220082483367,1.9003466830358988,4.0350350389344705,-1.0,-3.14,1.1618211867233326,1.2017946749140005e-16,0.12216245798725048,3.14,-3.14
377,2.8587962500976816,2.131401448927488,1.5927851326653226,4.196992487792066,1.5522220082483367,1.900346683035899,4.0350350389344705,-1.0,-3.14,1.1618211867233326,-1.2384755332120936e-16,0.12216245798725035,3.14,-3.14
378,2.858796250097683,2.1314014489274875,1.5927851326653226,4.196992487792066,1.5522220082483367,1.9003466830358984,4.0350350389344705,-1.0,-3.14,1.1618211867233328,1.0492777869061195e-16,0.12216245798725037,3.14,-3.14
379,2.8587962500976825,2.131401448927488,1.5927851326653226,4.196992487792066,1.5522220082483367,1.900346683035899,4.0350350389344705,-1.0,-3.14,1.1618211867233326,-9.334417571963318e-17,0.12216245798725048,3.14,-3.14
380,2.858796250097682,2.131401448927488,1.5927851326653226,4.196992487792066,1.5522220082483367,1.900346683035899,4.0350350389344705,-1.0,-3.14,1.1618211867233326,-1.7085731715692734e-17,0.12216245798725044,3.14,-3.14
381,2.8587962500976816,2.131401448927488,1.5927851326653226,4.196992487792066,1.5522220082483367,1.900346683035899,4.0350350389344705,-1.0,-3.14,1.1618211867233326,-3.2337420516480825e-17,0.12216245798725038,3.14,-3.14
382,2.858796250097683,2.131401448927488,1.5927851326653226,4.196992487792066,1.5522220082483367,1.9003466830358988,4.0350350389344705,-1.0,-3.14,1.1618211867233326,1.2017946749140005e-16,0.12216245798725048,3.14,-3.14
383,2.8587962500976816,2.131401448927488,1.5927851326653226,4.196992487792066,1.5522220082483367,1.900346683035899,4.0350350389344705,-1.0,-3.14,1.1618211867233326,-1.2384755332120936e-16,0.12216245798725035,3.14,-3.14
384,2.858796250097683,2.1314014489274875,1.5927851326653226,4.196992487792066,1.5522220082483367,1.9003466830358984,4.0350350389344705,-1.0,-3.14,1.1618211867233328,1.0492777869061195e-16,0.12216245798725037,3.14,-3.14
385,2.8587962500976825,2.131401448927488,1.5927851326653226,4.196992487792066,1.5522220082483367,1.900346683035899,4.0350350389344705,-1.0,-3.14,1.1618211867233326,-9.334417571963318e-17,0.12216245798725048,3.14,-3.14
386,2.858796250097682,2.131401448927488,1.5927851326653226,4.196992487792066,1.5522220082483367,1.900346683035899,4.0350350389344705,-1.0,-3.14,1.1618211867233326,-1.7085731715692734e-17,0.12216245798725044,3.14,-3.14
387,2.8587962500976816,2.131401448927488,1.5927851326653226,4.196992487792066,1.5522220082483367,1.900346683035899,4.0350350389344705,-1.0,-3.14,1.1618211867233326,-3.2337420516480825e-17,0.12216245798725038,3.14,-3.14
388,2.858796250097683,2.131401448927488,1.5927851326653226,4.196992487792066,1.5522220082483367,1.9003466830358988,4.0350350389344705,-1.0,-3.14,1.1618211867233326,1.2017946749140005e-16,0.12216245798725048,3.14,-3.14
389,2.8587962500976816,2.131401448927488,1.5927851326653226,4.196992487792066,1.5522220082483367,1.900346683035899,4.0350350389344705,-1.0,-3.14,1.1618211867233326,-1.2384755332120936e-16,0.12216245798725035,3.14,-3.14
390,2.858796250097683,2.1314014489274875,1.5927851326653226,4.196992487792066,1.5522220082483367,1.9003466830358984,4.0350350389344705,-1.0,-3.14,1.1618211867233328,1.0492777869061195e-16,0.12216245798725037,3.14,-3.14
391,2.8587962500976825,2.131401448927488,1.5927851326653226,4.196992487792066,1.5522220082483367,1.900346683035899,4.0350350389344705,-1.0,-3.14,1.1618211867233326,-9.334417571963318e-17,0.12216245798725048,3.14,-3.14
392,2.858796250097682,2.131401448927488,1.5927851326653226,4.196992487792066,1.5522220082483367,1.900346683035899,4.0350350389344705,-1.0,-3.14,1.1618211867233326,-1.7085731715692734e-17,0.12216245798725044,3.14,-3.14
393,2.8587962500976816,2.131401448927488,1.5927851326653226,4.196992487792066,1.5522220082483367,1.900346683035899,4.0350350389344705,-1.0,-3.14,1.1618211867233326,-3.2337420516480825e-17,0.12216245798725038,3.14,-3.14
394,2.858796250097683,2.131401448927488,1.5927851326653226,4.196992487792066,1.5522220082483367,1.9003466830358988,4.0350350389344705,-1.0,-3.14,1.1618211867233326,1.2017946749140005e-16,0.12216245798725048,3.14,-3.14
395,2.8587962500976816,2.131401448927488,1.5927851326653226,4.196992487792066,1.5522220082483367,1.900346683035899,4.0350350389344705,-1.0,-3.14,1.1618211867233326,-1.2384755332120936e-16,0.12216245798725035,3.14,-3.14
396,2.858796250097683,2.1314014489274875,1.5927851326653226,4.196992487792066,1.5522220082483367,1.9003466830358984,4.0350350389344705,-1.0,-3.14,1.1618211867233328,1.0492777869061195e-16,0.12216245798725037,3.14,-3.14
397,2.8587962500976825,2.131401448927488,1.5927851326653226,4.196992487792066,1.5522220082483367,1.900346683035899,4.0350350389344705,-1.0,-3.14,1.1618211867233326,-9.334417571963318e-17,0.12216245798725048,3.14,-3.14
398,2.858796250097682,2.131401448927488,1.5927851326653226,4.196992487792066,1.5522220082483367,1.900346683035899,4.0350350389344705,-1.0,-3.14,1.1618211867233326,-1.7085731715692734e-17,0.12216245798725044,3.14,-3.14
399,2.8587962500976816,2.131401448927488,1.5927851326653226,4.196992487792066,1.5522220082483367,1.900346683035899,4.0350350389344705,-1.0,-3.14,1.1618211867233326,-3.2337420516480825e-17,0.12216245798725038,3.14,-3.14
400,2.858796250097683,2.131401448927488,1.5927851326653226,4.196992487792066,1.5522220082483367,1.9003466830358988,4.0350350389344705,-1.0,-3.14,1.1618211867233326,1.2017946749140005e-16,0.12216245798725048,3.14,-3.14
401,2.8587962500976816,2.131401448927488,1.5927851326653226,4.196992487792066,1.5522220082483367,1.900346683035899,4.0350350389344705,-1.0,-3.14,1.1618211867233326,-1.2384755332120936e-16,0.12216245798725035,3.14,-3.14
402,2.858796250097683,2.1314014489274875,1.5927851326653226,4.196992487792066,1.5522220082483367,1.9003466830358984,4.0350350389344705,-1.0,-3.14,1.1618211867233328,1.0492777869061195e-16,0.12216245798725037,3.14,-3.14
403,2.8587962500976825,2.131401448927488,1.5927851326653226,4.196992487792066,1.5522220082483367,1.900346683035899,4.0350350389344705,-1.0,-3.14,1.1618211867233326,-9.334417571963318e-17,0.12216245798725048,3.14,-3.14
404,2.858796250097682,2.131401448927488,1.5927851326653226,4.196992487792066,1.5522220082483367,1.900346683035899,4.0350350389344705,-1.0,-3.14,1.1618211867233326,-1.7085731715692734e-17,0.12216245798725044,3.14,-3.14
405,2.8587962500976816,2.131401448927488,1.5927851326653226,4.196992487792066,1.5522220082483367,1.900346683035899,4.0350350389344705,-1.0,-3.14,1.1618211867233326,-3.2337420516480825e-17,0.12216245798725038,3.14,-3.14
406,2.858796250097683,2.131401448927488,1.5927851326653226,4.196992487792066,1.5522220082483367,1.9003466830358988,4.0350350389344705,-1.0,-3.14,1.1618211867233326,1.2017946749140005e-16,0.12216245798725048,3.14,-3.14
407,2.8587962500976816,2.131401448927488,1.5927851326653226,4.196992487792066,1.5522220082483367,1.900346683035899,4.0350350389344705,-1.0,-3.14,1.1618211867233326,-1.2384755332120936e-16,0.12216245798725035,3.14,-3.14
408,2.858796250097683,2.1314014489274875,1.5927851326653226,4.196992487792066,1.5522220082483367,1.9003466830358984,4.0350350389344705,-1.0,-3.14,1.1618211867233328,1.0492777869061195e-16,0.12216245798725037,3.14,-3.14
409,2.8587962500976825,2.131401448927488,1.5927851326653226,4.196992487792066,1.5522220082483367,1.900346683035899,4.0350350389344705,-1.0,-3.14,1.1618211867233326,-9.334417571963318e-17,0.12216245798725048,3.14,-3.14
410,2.858796250097682,2.131401448927488,1.5927851326653226,4.196992487792066,1.5522220082483367,1.900346683035899,4.0350350389344705,-1.0,-3.14,1.1618211867233326,-1.7085731715692734e-17,0.12216245798725044,3.14,-3.14
411,2.8587962500976816,2.131401448927488,1.5927851326653226,4.196992487792066,1.5522220082483367,1.900346683035899,4.0350350389344705,-1.0,-3.14,1.1618211867233326,-3.2337420516480825e-17,0.12216245798725038,3.14,-3.14
412,2.858796250097683,2.131401448927488,1.5927851326653226,4.196992487792066,1.5522220082483367,1.9003466830358988,4.0350350389344705,-1.0,-3.14,1.1618211867233326,1.2017946749140005e-16,0.12216245798725048,3.14,-3.14
413,2.8587962500976816,2.131401448927488,1.5927851326653226,4.196992487792066,1.5522220082483367,1.900346683035899,4.0350350389344705,-1.0,-3.14,1.1618211867233326,-1.2384755332120936e-16,0.12216245798725035,3.14,-3.14
414,2.858796250097683,2.1314014489274875,1.5927851326653226,4.196992487792066,1.5522220082483367,1.9003466830358984,4.0350350389344705,-1.0,-3.14,1.1618211867233328,1.0492777869061195e-16,0.12216245798725037,3.14,-3.14
415,2.8587962500976825,2.131401448927488,1.5927851326653226,4.196992487792066,1.5522220082483367,1.900346683035899,4.0350350389344705,-1.0,-3.14,1.1618211867233326,-9.334417571963318e-17,0.12216245798725048,3.14,-3.14
416,2.858796250097682,2.131401448927488,1.5927851326653226,4.196992487792066,1.5522220082483367,1.900346683035899,4.0350350389344705,-1.0,-3.14,1.1618211867233326,-1.7085731715692734e-17,0.12216245798725044,3.14,-3.14
417,2.8587962500976816,2.131401448927488,1.5927851326653226,4.196992487792066,1.5522220082483367,1.900346683035899,4.0350350389344705,-1.0,-3.14,1.1618211867233326,-3.2337420516480825e-17,0.12216245798725038,3.14,-3.14
418,2.858796250097683,2.131401448927488,1.5927851326653226,4.196992487792066,1.5522220082483367,1.9003466830358988,4.0350350389344705,-1.0,-3.14,1.1618211867233326,1.2017946749140005e-16,0.12216245798725048,3.14,-3.14
419,2.8587962500976816,2.131401448927488,1.5927851326653226,4.196992487792066,1.5522220082483367,1.900346683035899,4.0350350389344705,-1.0,-3.14,1.1618211867233326,-1.2384755332120936e-16,0.12216245798725035,3.14,-3.14
420,2.858796250097683,2.1314014489274875,1.5927851326653226,4.196992487792066,1.5522220082483367,1.9003466830358984,4.0350350389344705,-1.0,-3.14,1.1618211867233328,1.0492777869061195e-16,0.12216245798725037,3.14,-3.14
421,2.8587962500976825,2.131401448927488,1.5927851326653226,4.196992487792066,1.5522220082483367,1.900346683035899,4.0350350389344705,-1.0,-3.14,1.1618211867233326,-9.334417571963318e-17,0.12216245798725048,3.14,-3.14
422,2.858796250097682,2.131401448927488,1.5927851326653226,4.196992487792066,1.5522220082483367,1.900346683035899,4.0350350389344705,-1.0,-3.14,1.1618211867233326,-1.7085731715692734e-17,0.12216245798725044,3.14,-3.14
423,2.8587962500976816,2.131401448927488,1.5927851326653226,4.196992487792066,1.5522220082483367,1.900346683035899,4.0350350389344705,-1.0,-3.14,1.1618211867233326,-3.2337420516480825e-17,0.12216245798725038,3.14,-3.14
424,2.858796250097683,2.131401448927488,1.5927851326653226,4.196992487792066,1.5522220082483367,1.9003466830358988,4.0350350389344705,-1.0,-3.14,1.1618211867233326,1.2017946749140005e-16,0.12216245798725048,3.14,-3.14
425,2.8587962500976816,2.131401448927488,1.5927851326653226,4.196992487792066,1.5522220082483367,1.900346683035899,4.0350350389344705,-1.0,-3.14,1.1618211867233326,-1.2384755332120936e-16,0.12216245798725035,3.14,-3.14
426,2.858796250097683,2.1314014489274875,1.5927851326653226,4.196992487792066,1.5522220082483367,1.9003466830358984,4.0350350389344705,-1.0,-3.14,1.1618211867233328,1.0492777869061195e-16,0.12216245798725037,3.14,-3.14
427,2.8587962500976825,2.131401448927488,1.5927851326653226,4.196992487792066,1.5522220082483367,1.900346683035899,4.0350350389344705,-1.0,-3.14,1.1618211867233326,-9.334417571963318e-17,0.12216245798725048,3.14,-3.14
428,2.858796250097682,2.131401448927488,1.5927851326653226,4.196992487792066,1.5522220082483367,1.900346683035899,4.0350350389344705,-1.0,-3.14,1.1618211867233326,-1.7085731715692734e-17,0.12216245798725044,3.14,-3.14
429,2.8587962500976816,2.131401448927488,1.5927851326653226,4.196992487792066,1.5522220082483367,1.900346683035899,4.0350350389344705,-1.0,-3.14,1.1618211867233326,-3.2337420516480825e-17,0.12216245798725038,3.14,-3.14
430,2.858796250097683,2.131401448927488,1.5927851326653226,4.196992487792066,1.5522220082483367,1.9003466830358988,4.0350350389344705,-1.0,-3.14,1.1618211867233326,1.2017946749140005e-16,0.12216245798725048,3.14,-3.14
431,2.8587962500976816,2.131401448927488,1.5927851326653226,4.196992487792066,1.5522220082483367,1.900346683035899,4.0350350389344705,-1.0,-3.14,1.1618211867233326,-1.2384755332120936e-16,0.12216245798725035,3.14,-3.14
432,2.858796250097683,2.1314014489274875,1.5927851326653226,4.196992487792066,1.5522220082483367,1.9003466830358984,4.0350350389344705,-1.0,-3.14,1.1618211867233328,1.0492777869061195e-16,0.12216245798725037,3.14,-3.14
433,2.8587962500976825,2.131401448927488,1.5927851326653226,4.196992487792066,1.5522220082483367,1.900346683035899,4.0350350389344705,-1.0,-3.14,1.1618211867233326,-9.334417571963318e-17,0.12216245798725048,3.14,-3.14
434,2.858796250097682,2.131401448927488,1.5927851326653226,4.196992487792066,1.5522220082483367,1.900346683035899,4.0350350389344705,-1.0,-3.14,1.1618211867233326,-1.7085731715692734e-17,0.12216245798725044,3.14,-3.14
435,2.8587962500976816,2.131401448927488,1.5927851326653226,4.196992487792066,1.5522220082483367,1.900346683035899,4.0350350389344705,-1.0,-3.14,1.1618211867233326,-3.2337420516480825e-17,0.12216245798725038,3.14,-3.14
436,2.858796250097683,2.131401448927488,1.5927851326653226,4.196992487792066,1.5522220082483367,1.9003466830358988,4.0350350389344705,-1.0,-3.14,1.1618211867233326,1.2017946749140005e-16,0.12216245798725048,3.14,-3.14
437,2.8587962500976816,2.131401448927488,1.5927851326653226,4.196992487792066,1.5522220082483367,1.900346683035899,4.0350350389344705,-1.0,-3.14,1.1618211867233326,-1.2384755332120936e-16,0.12216245798725035,3.14,-3.14
438,2.858796250097683,2.1314014489274875,1.5927851326653226,4.196992487792066,1.5522220082483367,1.9003466830358984,4.0350350389344705,-1.0,-3.14,1.1618211867233328,1.0492777869061195e-16,0.12216245798725037,3.14,-3.14
439,2.8587962500976825,2.131401448927488,1.5927851326653226,4.196992487792066,1.5522220082483367,1.900346683035899,4.0350350389344705,-1.0,-3.14,1.1618211867233326,-9.334417571963318e-17,0.12216245798725048,3.14,-3.14
440,2.858796250097682,2.131401448927488,1.5927851326653226,4.196992487792066,1.5522220082483367,1.900346683035899,4.0350350389344705,-1.0,-3.14,1.1618211867233326,-1.7085731715692734e-17,0.12216245798725044,3.14,-3.14
441,2.8587962500976816,2.131401448927488,1.5927851326653226,4.196992487792066,1.5522220082483367,1.900346683035899,4.0350350389344705,-1.0,-3.14,1.1618211867233326,-3.2337420516480825e-17,0.12216245798725038,3.14,-3.14
442,2.858796250097683,2.131401448927488,1.5927851326653226,4.196992487792066,1.5522220082483367,1.9003466830358988,4.0350350389344705,-1.0,-3.14,1.1618211867233326,1.2017946749140005e-16,0.12216245798725048,3.14,-3.14
443,2.8587962500976816,2.131401448927488,1.5927851326653226,4.196992487792066,1.5522220082483367,1.900346683035899,4.0350350389344705,-1.0,-3.14,1.1618211867233326,-1.2384755332120936e-16,0.12216245798725035,3.14,-3.14
444,2.858796250097683,2.1314014489274875,1.5927851326653226,4.196992487792066,1.5522220082483367,1.9003466830358984,4.0350350389344705,-1.0,-3.14,1.1618211867233328,1.0492777869061195e-16,0.12216245798725037,3.14,-3.14
445,2.8587962500976825,2.131401448927488,1.5927851326653226,4.196992487792066,1.5522220082483367,1.900346683035899,4.0350350389344705,-1.0,-3.14,1.1618211867233326,-9.334417571963318e-17,0.12216245798725048,3.14,-3.14
446,2.858796250097682,2.131401448927488,1.5927851326653226,4.196992487792066,1.5522220082483367,1.900346683035899,4.0350350389344705,-1.0,-3.14,1.1618211867233326,-1.7085731715692734e-17,0.12216245798725044,3.14,-3.14
447,2.8587962500976816,2.131401448927488,1.5927851326653226,4.196992487792066,1.5522220082483367,1.900346683035899,4.0350350389344705,-1.0,-3.14,1.1618211867233326,-3.2337420516480825e-17,0.12216245798725038,3.14,-3.14
448,2.858796250097683,2.131401448927488,1.5927851326653226,4.196992487792066,1.5522220082483367,1.9003466830358988,4.0350350389344705,-1.0,-3.14,1.1618211867233326,1.2017946749140005e-16,0.12216245798725048,3.14,-3.14
449,2.8587962500976816,2.131401448927488,1.5927851326653226,4.196992487792066,1.5522220082483367,1.900346683035899,4.0350350389344705,-1.0,-3.14,1.1618211867233326,-1.2384755332120936e-16,0.12216245798725035,3.14,-3.14
450,2.858796250097683,2.1314014489274875,1.5927851326653226,4.196992487792066,1.5522220082483367,1.9003466830358984,4.0350350389344705,-1.0,-3.14,1.1618211867233328,1.0492777869061195e-16,0.12216245798725037,3.14,-3.14
451,2.8587962500976825,2.131401448927488,1.5927851326653226,4.196992487792066,1.5522220082483367,1.900346683035899,4.0350350389344705,-1.0,-3.14,1.1618211867233326,-9.334417571963318e-17,0.12216245798725048,3.14,-3.14
452,2.858796250097682,2.131401448927488,1.5927851326653226,4.196992487792066,1.5522220082483367,1.900346683035899,4.0350350389344705,-1.0,-3.14,1.1618211867233326,-1.7085731715692734e-17,0.12216245798725044,3.14,-3.14
453,2.8587962500976816,2.131401448927488,1.5927851326653226,4.196992487792066,1.5522220082483367,1.900346683035899,4.0350350389344705,-1.0,-3.14,1.1618211867233326,-3.2337420516480825e-17,0.12216245798725038,3.14,-3.14
454,2.858796250097683,2.131401448927488,1.5927851326653226,4.196992487792066,1.5522220082483367,1.9003466830358988,4.0350350389344705,-1.0,-3.14,1.1618211867233326,1.2017946749140005e-16,0.12216245798725048,3.14,-3.14
455,2.8587962500976816,2.131401448927488,1.5927851326653226,4.196992487792066,1.5522220082483367,1.900346683035899,4.0350350389344705,-1.0,-3.14,1.1618211867233326,-1.2384755332120936e-16,0.12216245798725035,3.14,-3.14
456,2.858796250097683,2.1314014489274875,1.5927851326653226,4.196992487792066,1.5522220082483367,1.9003466830358984,4.0350350389344705,-1.0,-3.14,1.1618211867233328,1.0492777869061195e-16,0.12216245798725037,3.14,-3.14
457,2.8587962500976825,2.131401448927488,1.5927851326653226,4.196992487792066,1.5522220082483367,1.900346683035899,4.0350350389344705,-1.0,-3.14,1.1618211867233326,-9.334417571963318e-17,0.12216245798725048,3.14,-3.14
