jkpark150901/flame_robotics_drt/experiment/inspection_ik/session_20260716_141644/fallback/inspection_ik_20260716_141937_dda_rb10_1300e_normalized_fallback.csv
iteration,err_norm,position_error,orientation_error,tcp_x,tcp_y,tcp_z,q0_dda_joint_linear_track,q1_dda_joint_carriage,q2_dda_joint_base,q3_dda_joint_shoulder,q4_dda_joint_elbow,q5_dda_joint_wrist1,q6_dda_joint_wrist2,q7_dda_joint_wrist3
0,1.575507125293484,0.10959648699767158,1.570797326010228,6.259384867788674,1.906957138788355,1.60011606167395,5.1604643578414535,-0.9970044480679839,-2.1422578500559704,1.0036985501371605,0.8379101620602925,0.22497745590557122,-0.9338284291519887,-0.73796061452266
1,1.167106520016405,0.4501693913240746,1.0746541477223546,5.989056123826077,2.2576512051360598,1.6285695180754594,5.510464357841453,-0.9647307023486148,-2.1843697228867516,0.12202214406890599,1.9369101620602924,1.3239774559055713,0.16517157084669298,-1.5499470457042401
2,1.5897848588808254,0.325648455571102,1.5504279808826749,6.014875872946309,1.8894178622027735,1.924081829588648,5.54905461901601,-0.9823653511743073,-2.5994626788047026,0.2857331734865017,1.3924706485709462,0.5638583897910944,-0.9338284291788455,-0.45094704570423993
3,1.1244900731775314,0.18864942478834132,1.1082306789546341,6.1058235049742535,1.9998518247088206,1.6516029062105868,5.322362728064582,-0.9911826755829588,-2.1992228698386924,0.7225728664438795,1.018870537370209,1.6628583897913978,0.16517157082115452,-1.2591521253423132
4,1.7778504352509523,0.29696881724571783,1.7466587791423198,6.075101971000666,1.9745448925361317,1.9325600524078255,5.549191633541161,-0.6411826755827825,-2.6696114349193465,0.8223805559570143,0.6055534568807563,0.5638583897913978,-0.9338284291516921,-0.16015212534231305
5,1.3662174022271636,0.27386664024922047,1.3351244512031322,6.034856760161177,2.0587255648442238,1.7491366108563164,5.636041643639618,-0.8205913377913913,-2.608835997409046,0.5583266765501227,1.1110533730909762,1.6628583897913978,0.1651715708483079,-1.259152125342313
6,1.7166536240436974,0.1917445455539273,1.7030220448649873,6.143550243505983,1.9022278799356716,1.8624400605369051,5.749650289328174,-0.7120415791711301,-2.7755758455760318,0.7341028182228185,0.8415184848387735,0.5798667011972682,-0.9338284291516921,-0.16015212534231282
7,1.321426205201202,0.27700523858624415,1.2896984593788585,6.0458790418012835,2.0833225580193053,1.7160389779745682,5.595464781018585,-0.856020789585565,-2.516927354300958,0.5075919193821707,1.2578696074844666,1.6788667011972682,0.1651715708483079,-1.2591521253423128
8,1.727334296685787,0.22406899431018423,1.7089620967811494,6.114916047327992,1.9163485281629042,1.880730102302919,5.7054856943720935,-0.703473563947474,-2.7609670968652615,0.7288811210084307,0.8242823513251056,0.5798667011972682,-0.9338284291219918,-0.1601521253423126
9,1.3244314875323093,0.2690080677212552,1.2944298367437346,6.04307021850424,2.0667699151084045,1.71527796840281,5.590820216166572,-0.8517367819737369,-2.529911961585279,0.540837114316293,1.2060601079362299,1.6788667011972682,0.16517157087800816,-1.2591521253423126
10,1.7252337201055117,0.21370820015622888,1.7084238026876757,6.129134753169757,1.9134934635764442,1.8790139753989612,5.72315902084814,-0.7060795985709715,-2.7638967481038708,0.7278687955614926,0.82825550634269,0.5798667011972682,-0.9338284290914747,-0.16015212534231238
11,1.3246417033612068,0.27276298308730024,1.2937981909936822,6.042827509255715,2.0725681954559647,1.7182715813686373,5.593770317322499,-0.8530397992854857,-2.528121591031318,0.5265498707618745,1.2232101376111262,1.6788667011972682,0.16517157090324153,-1.2591521253423124
12,1.7257179969775238,0.21668859632602017,1.7084748205008493,6.123353439858258,1.9137689687189468,1.8782431799693693,5.716506019043592,-0.7048300256811291,-2.7634968583244555,0.7303757506148087,0.8253973867556192,0.5798667011972682,-0.9338284291271524,-0.1601521253423117
13,1.3245382499847465,0.2714034327810489,1.29401323181431,6.043192973468527,2.0708804803438783,1.7166240166488056,5.592833415686575,-0.8524150128405645,-2.5284464667497875,0.5317413878784621,1.2181008334978911,1.6788667011972682,0.16517157087284762,-1.2591521253423117
14,1.7255342019292437,0.2158095514417445,1.7084153482334843,6.125551745463064,1.9138002095818825,1.8788728630086156,5.719061002740116,-0.7055642404088265,-2.7635402622526692,0.7285425885074391,0.8273958664140204,0.5798667011972682,-0.9338284290967573,-0.1601521253423115
15,1.3244853841337914,0.27180960730279796,1.2938604424273206,6.043015889054276,2.071289145589395,1.717305746638794,5.593022730367543,-0.8527821202044132,-2.5282673446684423,0.5299517488346615,1.219642004507258,1.6788667011972682,0.1651715709085333,-1.2591521253423115
16,1.7256216401535505,0.21608325393922773,1.708465118804581,6.124756815858726,1.9137788392681392,1.878592104951555,5.718098237327058,-0.7052053744910298,-2.7635263946533675,0.7294514157377443,0.8263616521789708,0.5798667011972682,-0.9338284291218684,-0.16015212534231127
17,1.3245448679099496,0.2716966060880762,1.2939493963756958,6.043079743985903,2.0711974174181766,1.7170616042818012,5.5930094312765215,-0.8526026872455149,-2.528380801625589,0.5305571906561459,1.2191475036846757,1.6788667011972682,0.1651715708781316,-1.2591521253423112
18,1.7255811240905616,0.21598854919760616,1.7084374776365532,6.12503987253497,1.9137808049950151,1.878696257320924,5.71845746957475,-0.7053613358440864,-2.763537484796218,0.7290702000636867,0.826814458991994,0.5798667011972682,-0.9338284291218684,-0.16015212534231105
19,1.3245113143820553,0.27172770551903047,1.2939072245109875,6.043059148737517,2.0712180323838925,1.7171439925620444,5.592999552060901,-0.8526806679220432,-2.5283222555481184,0.5303491003154841,1.2193204956607981,1.6788667011972682,0.1651715708781316,-1.259152125342311
20,1.7255983011347744,0.2160235438070031,1.708449890039145,6.124939456401425,1.913782904524588,1.8786610380113902,5.7183252276417225,-0.7052999269555381,-2.7635306664086916,0.7292149826104686,0.8266364665029766,0.5798667011972682,-0.9338284290914687,-0.16015212534231082
21,1.3245260966785115,0.2717183852459171,1.293924698370053,6.043065497498587,2.071212212457708,1.7171166062087422,5.593005964265528,-0.8526499634777691,-2.5283479699093334,0.5304223517759867,1.219256433560473,1.6788667011972682,0.16517157090323997,-1.2591521253423108
22,1.7255915386523846,0.21601019774768107,1.7084449587772124,6.124975359453555,1.9137812448588143,1.87867260779519,5.718373543868118,-0.70532275308554,-2.763533969547099,0.7291627953413786,0.8267021905684901,0.5798667011972682,-0.93382842909676,-0.1601521253423106
23,1.3245203567735724,0.27172154790568775,1.2939180377514472,6.043063505868425,2.0712144029646993,1.7171258803705496,5.593003348842857,-0.85266137654277,-2.5283377938914198,0.5303959263988627,1.2192807326836772,1.6788667011972682,0.16517157090323997,-1.2591521253423106
24,1.7255940674126138,0.21601528597477648,1.7084467839680582,6.1249623947258724,1.9137820520053868,1.8786687661677979,5.718355959869247,-0.7053145359427878,-2.763532587560109,0.7291811943038549,0.8266786892092279,0.5798667011972682,-0.9338284290663603,-0.16015212534231038
25,1.3245224387331895,0.2717203652095535,1.2939204585439004,6.0430641657965,2.0712134620256837,1.717122636091996,5.593004242148723,-0.852657267971394,-2.5283415729920304,0.5304056106756462,1.2192715245423402,1.6788667011972682,0.16517157092834855,-1.2591521253423104
26,1.725593149420948,0.21601336996164638,1.7084461323356384,6.124967116598931,1.9137817265592971,1.8786700863704515,5.718362355611297,-0.705317460968317,-2.763533116356594,0.7291747153128862,0.8266870102898298,0.5798667011972682,-0.9338284290716514,-0.1601521253423106
27,1.3245217063713144,0.27172082461992675,1.2939195973154358,6.043063932869507,2.071213862446112,1.7171238060614047,5.593003960206133,-0.8526587304841585,-2.528340215767506,0.5304020373744536,1.2192749753611212,1.6788667011972682,0.16517157092305745,-1.2591521253423106
28,1.7255934785472955,0.2160140810461244,1.708446362332448,6.124965388064806,1.9137818457498759,1.8786696154855032,5.718360026889617,-0.7053164179331539,-2.763532924042592,0.7291770198965091,0.8266840522672296,0.5798667011972682,-0.9338284290769425,-0.16015212534231038
29,1.3245219626718094,0.2717206466616809,1.2939199027443538,6.0430640187446425,2.071213700563909,1.7171233760027167,5.593004047937895,-0.852658208966577,-2.528340697563057,0.5304033562552961,1.2192736982175387,1.6788667011972682,0.16517157092305745,-1.2591521253423104
30,1.7255933606147726,0.21601382006537803,1.7084462808131682,6.124966022085238,1.9137818040233405,1.8786697879246241,5.718360876160239,-0.705316792906403,-2.7635329923849383,0.7291761893098496,0.8266851145626792,0.5798667011972682,-0.9338284290769425,-0.16015212534231016
31,1.324521872082751,0.27172071430337685,1.2939197936454339,6.0430639865151345,2.0712137628271403,1.7171235352574945,5.593004019659003,-0.8526583964532015,-2.5283405261092096,0.5304028708071822,1.219274166417907,1.6788667011972682,0.16517157091776635,-1.2591521253423101
32,1.7255934030494613,0.21601391520173666,1.7084463099778935,6.124965789611647,1.9137818184531838,1.8786697240212158,5.71836056610441,-0.7053166570133038,-2.7635329681954706,0.7291764916023067,0.8266847295312085,0.5798667011972682,-0.9338284290822336,-0.16015212534230994
33,1.3245219045191339,0.2717206890600708,1.29391983296453,6.043063998633894,2.0712137396888965,1.717123476311905,5.593004029287479,-0.8526583285066519,-2.52834058759183,0.530403048880091,1.2192739957069254,1.6788667011972682,0.16517157091776635,-1.25915212534231
34,1.7255933877541167,0.2160138806585597,1.708446299496891,6.124965874694285,1.9137818134456575,1.8786697477504877,5.718360679303137,-0.7053167064548744,-2.7635329768259926,0.7291763811538473,0.8266848696804314,0.5798667011972682,-0.9338284290822336,-0.16015212534230971
35,1.3245218928363414,0.2717206983885509,1.2939198187421896,6.043063994081399,2.0712137481441024,1.7171234980457597,5.593004025896333,-0.8526583532274372,-2.5283405654516695,0.5304029837370691,1.21927405782268,1.6788667011972682,0.16517157091776635,-1.2591521253423097
36,1.7255933932929777,0.21601389318308445,1.7084463032918764,6.124965843606608,1.91378181519679,1.878669738959481,5.7183606379340715,-0.7053166884048206,-2.763532973686531,0.7291764216476553,0.8266848184241316,0.5798667011972682,-0.9338284290822336,-0.1601521253423095
37,1.3245218970767565,0.27172069496342194,1.2939198239147123,6.043063995785533,2.0712137450821837,1.7171234900737478,5.593004027142197,-0.8526583442024103,-2.5283405734828666,0.5304030075204247,1.219274035217377,1.6788667011972682,0.16517157091776635,-1.2591521253423095
38,1.725593391214022,0.21601388859033752,1.7084463018521043,6.124965855024903,1.913781814565449,1.878669742197376,5.71836065315798,-0.705316695109599,-2.7635329748353437,0.7291764065661369,0.8266848375644151,0.5798667011972682,-0.9338284290822336,-0.16015212534230927
39,1.3245218954641322,0.2717206961871032,1.2939198219665644,6.043063995172345,2.071213746167139,1.717123492993295,5.593004026620465,-0.8526583475547995,-2.5283405704578428,0.5304029988293122,1.219274043465538,1.6788667011972682,0.16517157091776635,-1.2591521253423092
40,1.7255933920094786,0.21601389031556686,1.708446302407136,6.124965850792101,1.913781814813446,1.8786697410255122,5.718360647511983,-0.7053166926315602,-2.7635329744029753,0.7291764121102497,0.8266848305051178,0.5798667011972682,-0.9338284291126333,-0.16015212534230905
41,1.3245218960511758,0.2717206957153868,1.293919822681588,6.043063995404154,2.0712137457405784,1.7171234919189335,5.593004026845932,-0.8526583463157801,-2.5283405716203964,0.530403002058051,1.2192740403789704,1.6788667011972682,0.16517157088207557,-1.259152125342309
42,1.7255933917416049,0.2160138896590857,1.7084463022311605,6.124965852371988,1.913781814720319,1.878669741446896,5.718360649661837,-0.7053166935139792,-2.7635329746148716,0.7291764101188843,0.8266848330413828,0.5798667011972682,-0.9338284291179244,-0.16015212534230883
43,1.3245218958582525,0.27172069591872605,1.2939198224354098,6.043063995309517,2.0712137459344704,1.7171234923143368,5.593004026804437,-0.8526583467569896,-2.528340571227404,0.5304030008094902,1.2192740416110315,1.6788667011972682,0.16517157088207557,-1.2591521253423088
44,1.725593391829127,0.21601388988532239,1.7084463022870913,6.124965851814493,1.9137818147506178,1.8786697412913818,5.7183606489186385,-0.7053166932126381,-2.76353297455052,0.7291764107976453,0.8266848321935656,0.5798667011972682,-0.9338284291179244,-0.1601521253423086
45,1.3245218959137772,0.27172069584107666,1.2939198225109427,6.043063995350102,2.0712137458658844,1.7171234921721985,5.59300402681022,-0.8526583466063191,-2.528340571346654,0.5304030012517111,1.219274041178761,1.6788667011972682,0.16517157088207557,-1.2591521253423086
46,1.7255933918021702,0.2160138898069648,1.708446302271099,6.124965852006729,1.9137818147424608,1.8786697413444706,5.718360649191637,-0.7053166933112018,-2.7635329745875015,0.7291764105635485,0.8266848324867273,0.5798667011972682,-0.9338284291179244,-0.16015212534230838
47,1.3245218959002962,0.2717206958787349,1.2939198224882387,6.043063995328459,2.0712137458975635,1.7171234922190115,5.593004026813431,-0.8526583466556009,-2.528340571314476,0.5304030010853235,1.219274041354152,1.6788667011972682,0.16517157087678447,-1.2591521253423084
48,1.725593391845922,0.21601388986085163,1.7084463023072385,6.124965851891366,1.9137818147455772,1.8786697413214584,5.718360649040639,-0.7053166932270033,-2.7635329745851105,0.729176410759942,0.8266848322112769,0.5798667011972682,-0.9338284291232155,-0.16015212534230816
49,1.3245218959359886,0.27172069588066217,1.2939198225242896,6.043063995319908,2.071213745890681,1.7171234921926481,5.593004026834555,-0.8526583466135016,-2.528340571378363,0.5304030011622674,1.2192740412818055,1.6788667011972682,0.16517157087149337,-1.2591521253423081
50,1.7255933918426085,0.2160138898254939,1.7084463023091112,6.124965851954952,1.9137818147387136,1.8786697413271192,5.718360649119283,-0.7053166932437479,-2.763532974594729,0.7291764107315231,0.8266848322483858,0.5798667011972682,-0.9338284291285066,-0.16015212534230794
51,1.3245218959349643,0.27172069588591363,1.293919822522037,6.0430639953292635,2.0712137459109674,1.7171234922086158,5.593004026858859,-0.852658346621874,-2.528340571373154,0.5304030011012503,1.219274041348601,1.6788667011972682,0.16517157087149337,-1.259152125342308
52,1.7255933918079251,0.21601388984496356,1.708446302271295,6.124965851921942,1.9137818147307601,1.8786697413260705,5.718360649146231,-0.7053166933209416,-2.7635329746214867,0.7291764105497757,0.8266848325347669,0.5798667011972682,-0.9338284291285066,-0.16015212534230772
53,1.324521895885969,0.27172069585802094,1.2939198224786923,6.043063995332114,2.071213745869719,1.7171234921833913,5.593004026791883,-0.8526583466604708,-2.5283405713052134,0.5304030011525416,1.2192740413152763,1.6788667011972682,0.16517157086620227,-1.2591521253423077
54,1.725593391859432,0.21601388986958042,1.7084463023193417,6.124965851897605,1.9137818147433672,1.8786697413376716,5.718360649090253,-0.7053166932707394,-2.763532974610672,0.7291764106472985,0.8266848323686482,0.5798667011972682,-0.9338284291641974,-0.1601521253423075
55,1.3245218959082032,0.27172069585370023,1.2939198225020494,6.0430639953342755,2.0712137458651103,1.7171234921902327,5.593004026863236,-0.8526583466353697,-2.52834057139429,0.5304030011546983,1.2192740412961076,1.6788667011972682,0.16517157083051148,-1.2591521253423075
56,1.7255933918317092,0.21601388980171532,1.7084463023016823,6.124965852002928,1.9137818147416246,1.8786697413347693,5.718360649252975,-0.7053166933121814,-2.763532974645433,0.7291764105331422,0.8266848325520755,0.5798667011972682,-0.9338284291694885,-0.16015212534230727
57,1.3245218958975495,0.27172069587595393,1.2939198224862256,6.043063995334529,2.071213745901379,1.7171234922096592,5.593004026864755,-0.8526583466560906,-2.5283405713556557,0.5304030010553574,1.219274041418088,1.6788667011972682,0.16517157083580258,-1.2591521253423072
58,1.7255933918968984,0.21601388985757103,1.7084463023589629,6.12496585190969,1.9137818147570724,1.8786697413313778,5.718360649093871,-0.7053166932143804,-2.763532974620179,0.729176410745541,0.8266848322258579,0.5798667011972682,-0.9338284291945971,-0.16015212534230705
59,1.324521895939424,0.27172069587629627,1.2939198225285835,6.043063995327194,2.0712137458926128,1.7171234922024232,5.593004026931383,-0.8526583466071902,-2.5283405714692506,0.5304030011081338,1.2192740413454732,1.6788667011972682,0.1651715708054029,-1.259152125342307
60,1.7255933918398783,0.2160138898043103,1.7084463023096046,6.124965851981322,1.913781814733773,1.878669741321215,5.718360649277124,-0.7053166933249502,-2.7635329746836272,0.7291764105008595,0.8266848326235741,0.5798667011972682,-0.9338284291945971,-0.16015212534230683
61,1.3245218958843892,0.27172069586341563,1.2939198224759008,6.0430639953430605,2.071213745892674,1.717123492191922,5.59300402688697,-0.8526583466624751,-2.5283405713702285,0.5304030010576128,1.2192740414473329,1.6788667011972682,0.1651715708054029,-1.2591521253423068
62,1.7255933918593998,0.21601388982657213,1.7084463023257859,6.124965851968786,1.9137818147513657,1.878669741338992,5.718360649247057,-0.7053166932959134,-2.7635329746729216,0.7291764105354219,0.8266848325446695,0.5798667011972682,-0.9338284291945971,-0.1601521253423066
63,1.3245218959016378,0.2717206958734222,1.2939198224909805,6.0430639953313126,2.071213745893407,1.7171234921996525,5.593004026888741,-0.8526583466479567,-2.528340571393523,0.5304030010687472,1.2192740414145922,1.6788667011972682,0.165171570810694,-1.2591521253423066
64,1.7255933918500534,0.21601388982799266,1.7084463023161773,6.124965851954978,1.9137818147367134,1.8786697413304152,5.718360649245487,-0.7053166933146764,-2.763532974681226,0.729176410520621,0.8266848325793701,0.5798667011972682,-0.933828429189306,-0.16015212534230638
65,1.324521895893597,0.2717206958654791,1.2939198224847228,6.043063995333233,2.0712137458833197,1.7171234921880527,5.593004026876321,-0.8526583466573382,-2.5283405713797107,0.5304030010837497,1.2192740414132288,1.6788667011972682,0.165171570810694,-1.2591521253423064
66,1.7255933918286814,0.21601388982225528,1.7084463022956107,6.124965851950737,1.913781814730462,1.8786697413199585,5.718360649235331,-0.7053166933144716,-2.763532974675943,0.7291764105382775,0.8266848325637621,0.5798667011972682,-0.9338284291589063,-0.16015212534230572
67,1.324521895897643,0.2717206958759189,1.2939198224866097,6.04306399532723,2.071213745892855,1.717123492184254,5.593004026838302,-0.8526583466572357,-2.5283405713418463,0.5304030010925317,1.2192740414084962,1.6788667011972682,0.16517157084109368,-1.2591521253423057
68,1.7255933918988957,0.21601388984943487,1.70844630236212,6.124965851928566,1.91378181476377,1.8786697413357227,5.718360649108616,-0.705316693173075,-2.763532974625145,0.7291764108276256,0.8266848320882328,0.5798667011972682,-0.9338284291589063,-0.1601521253423055
69,1.3245218959667584,0.271720695910822,1.2939198225486768,6.043063995313988,2.071213745931998,1.717123492209836,5.593004026928356,-0.8526583465865375,-2.528340571466839,0.5304030010749146,1.2192740413859509,1.6788667011972682,0.16517157083051126,-1.2591521253423055
70,1.7255933918542028,0.21601388984194336,1.7084463023184135,6.124965851906916,1.9137818147269532,1.8786697413104083,5.718360649142422,-0.7053166932740286,-2.763532974650742,0.729176410656929,0.8266848323918947,0.5798667011972682,-0.9338284291694887,-0.16015212534230527
71,1.324521895913669,0.2717206958742115,1.2939198225032469,6.0430639953237195,2.0712137458856663,1.7171234921785297,5.59300402685904,-0.8526583466370143,-2.528340571385047,0.5304030011248873,1.2192740413670193,1.6788667011972682,0.16517157083051126,-1.2591521253423053
72,1.7255933918758561,0.21601388983819708,1.7084463023406151,6.124965851938193,1.9137818147449912,1.8786697413297733,5.718360649164695,-0.7053166932378587,-2.763532974649256,0.7291764107032368,0.8266848322923689,0.5798667011972682,-0.9338284291694887,-0.16015212534230505
73,1.3245218959418055,0.2717206958946808,1.2939198225270345,6.043063995317233,2.071213745910085,1.7171234921984644,5.593004026898906,-0.8526583466189294,-2.528340571426853,0.5304030010811172,1.2192740413982919,1.6788667011972682,0.16517157083051126,-1.259152125342305
74,1.725593391832484,0.21601388981086442,1.7084463023010834,6.124965851975744,1.9137818147266912,1.8786697413254425,5.718360649245984,-0.7053166933222994,-2.763532974663658,0.7291764105349677,0.8266848325621841,0.5798667011972682,-0.9338284291694887,-0.16015212534230483
75,1.324521895895007,0.27172069588102366,1.2939198224826027,6.043063995321082,2.0712137458927797,1.7171234921936254,5.593004026844457,-0.8526583466611497,-2.5283405713511806,0.5304030010729546,1.2192740414209164,1.6788667011972682,0.16517157083051126,-1.2591521253423048
76,1.7255933918935027,0.21601388987514275,1.7084463023528143,6.124965851878649,1.9137818147474672,1.878669741329536,5.71836064909099,-0.7053166932133331,-2.7635329746448005,0.7291764107590288,0.826684832205234,0.5798667011972682,-0.9338284291694887,-0.1601521253423046
77,1.3245218959514204,0.2717206958827652,1.2939198225396207,6.0430639953229734,2.0712137458985413,1.7171234921849912,5.5930040269017525,-0.8526583466066666,-2.5283405714408085,0.5304030011285433,1.219274041348796,1.6788667011972682,0.16517157083580236,-1.2591521253423046
78,1.7255933918612834,0.21601388983393988,1.70844630232655,6.124965851940165,1.9137818147306669,1.8786697413264781,5.718360649187902,-0.705316693270027,-2.7635329746604795,0.7291764106540135,0.8266848323736876,0.5798667011972682,-0.9338284291641976,-0.16015212534230439
79,1.3245218959301748,0.2717206958820536,1.293919822518202,6.043063995326652,2.0712137459019644,1.7171234921904237,5.593004026888671,-0.8526583466350135,-2.528340571401771,0.5304030010840838,1.2192740414096375,1.6788667011972682,0.16517157083580236,-1.2591521253423044
80,1.725593391852533,0.21601388982093647,1.708446302319737,6.124965851966302,1.9137818147389498,1.8786697413303128,5.718360649199207,-0.7053166932739451,-2.763532974644257,0.7291764106328111,0.8266848324015941,0.5798667011972682,-0.9338284291641976,-0.16015212534230416
81,1.3245218959144094,0.2717206958810009,1.2939198225023276,6.043063995331895,2.0712137459066327,1.7171234922013878,5.5930040268837065,-0.8526583466369726,-2.528340571386807,0.5304030010707514,1.2192740414092258,1.6788667011972682,0.16517157083051126,-1.2591521253423041
82,1.7255933918613586,0.21601388983206823,1.7084463023270422,6.124965851951959,1.9137818147570862,1.8786697413324005,5.718360649157913,-0.7053166932466646,-2.7635329746254715,0.7291764106645976,0.8266848323492895,0.5798667011972682,-0.9338284291694887,-0.16015212534230394
83,1.3245218959223735,0.2717206958855824,1.2939198225091963,6.043063995323081,2.0712137459023365,1.717123492207309,5.593004026886593,-0.8526583466233323,-2.528340571410956,0.5304030010881537,1.2192740413692806,1.6788667011972682,0.16517157082522016,-1.259152125342304
84,1.7255933918781377,0.2160138898568552,1.7084463023401022,6.1249658519025685,1.913781814739854,1.878669741325493,5.718360649168559,-0.7053166932510121,-2.7635329746796238,0.7291764106681596,0.8266848323537416,0.5798667011972682,-0.9338284291747798,-0.16015212534230372
85,1.3245218959396927,0.27172069589306197,1.2939198225254256,6.0430639953108045,2.0712137458997977,1.7171234921794738,5.593004026887395,-0.852658346625506,-2.528340571424264,0.5304030010999977,1.219274041404858,1.6788667011972682,0.16517157082522016,-1.2591521253423037
86,1.725593391857425,0.2160138898222319,1.7084463023244332,6.1249658519687715,1.9137818147403443,1.878669741333877,5.718360649212894,-0.7053166932801591,-2.7635329746518917,0.729176410610723,0.8266848324321241,0.5798667011972682,-0.9338284291747798,-0.1601521253423035
87,1.3245218959167573,0.27172069589239334,1.293919822502008,6.043063995314327,2.0712137459023148,1.717123492201986,5.593004026871879,-0.8526583466400796,-2.5283405713932616,0.5304030010685215,1.219274041411301,1.6788667011972682,0.16517157082522016,-1.2591521253423035
88,1.7255933918557116,0.21601388982109657,1.7084463023229821,6.124965851952513,1.9137818147328463,1.878669741319794,5.718360649209796,-0.7053166932784282,-2.7635329746657633,0.7291764106250884,0.8266848324291883,0.5798667011972682,-0.9338284291747798,-0.16015212534230328
89,1.324521895918321,0.27172069588357367,1.293919822505755,6.0430639953234095,2.071213745900118,1.717123492192421,5.593004026881483,-0.8526583466392141,-2.5283405713959333,0.5304030010789588,1.219274041413287,1.6788667011972682,0.16517157082522016,-1.2591521253423033
90,1.7255933918547042,0.21601388984353298,1.7084463023185517,6.124965851922526,1.9137818147322747,1.8786697413246445,5.718360649176469,-0.7053166932902568,-2.7635329746593245,0.7291764106013466,0.8266848324596624,0.5798667011972682,-0.9338284291747798,-0.1601521253423035
91,1.324521895904422,0.2717206958642745,1.293919822495993,6.043063995332455,2.0712137458804265,1.717123492185305,5.593004026880246,-0.8526583466451284,-2.5283405713951015,0.5304030011072896,1.2192740413810137,1.6788667011972682,0.16517157081463774,-1.2591521253423035
92,1.7255933918769484,0.21601388982778733,1.7084463023431904,6.124965851964383,1.913781814744616,1.8786697413373157,5.718360649227289,-0.7053166932621274,-2.7635329746727613,0.7291764106339016,0.8266848323918653,0.5798667011972682,-0.9338284291853622,-0.16015212534230328
93,1.3245218959283158,0.27172069589801884,1.29391982251252,6.043063995314406,2.0712137459117126,1.7171234922022525,5.593004026900982,-0.8526583466310638,-2.528340571421711,0.5304030010521582,1.2192740414364203,1.6788667011972682,0.16517157081463774,-1.2591521253423033
94,1.7255933918750572,0.21601388984841072,1.7084463023383263,6.124965851913108,1.9137818147402277,1.8786697413230662,5.718360649176697,-0.7053166932605432,-2.76353297467528,0.7291764106460393,0.826684832392653,0.5798667011972682,-0.9338284291853622,-0.1601521253423035
95,1.3245218959257166,0.2717206958814395,1.293919822513825,6.043063995321566,2.071213745894623,1.7171234921821426,5.593004026894601,-0.8526583466302716,-2.5283405714207556,0.5304030010985235,1.2192740414013181,1.6788667011972682,0.16517157081463774,-1.2591521253423035
96,1.7255933918489528,0.21601388981472147,1.7084463023171106,6.124965851977595,1.9137818147437944,1.878669741331155,5.718360649167844,-0.7053166932585829,-2.7635329746117683,0.729176410674779,0.8266848323338796,0.5798667011972682,-0.9338284291549626,-0.16015212534230328
97,1.32452189592682,0.2717206958837672,1.29391982251416,6.043063995331624,2.071213745910299,1.7171234922136456,5.59300402688664,-0.8526583466292914,-2.528340571393163,0.5304030010706589,1.2192740413862444,1.6788667011972682,0.16517157084503742,-1.2591521253423033
98,1.7255933918293413,0.21601388984207429,1.7084463022933307,6.124965851916861,1.9137818147303687,1.8786697413183497,5.718360649174168,-0.70531669330853,-2.7635329746550954,0.7291764105632973,0.8266848325264556,0.5798667011972682,-0.9338284291549626,-0.16015212534230305
99,1.3245218958978682,0.27172069585669467,1.2939198224912047,6.043063995338594,2.0712137458763076,1.7171234921778797,5.59300402684105,-0.852658346654265,-2.528340571347048,0.5304030011313283,1.2192740413588612,1.6788667011972682,0.16517157084503742,-1.259152125342303
100,1.7255933918486464,0.21601388983143252,1.7084463023142376,6.12496585196455,1.913781814751965,1.8786697413418119,5.718360649144123,-0.7053166932636282,-2.763532974598639,0.729176410650088,0.8266848323577678,0.5798667011972682,-0.9338284291549626,-0.16015212534230283
101,1.3245218959215395,0.27172069588295933,1.2939198225088206,6.043063995321697,2.0712137458958573,1.7171234922143546,5.593004026857526,-0.8526583466318141,-2.5283405713825107,0.5304030010985343,1.2192740413403589,1.6788667011972682,0.16517157085032852,-1.2591521253423028
102,1.7255933918377444,0.21601388983271474,1.7084463023031762,6.124965851940477,1.9137818147391361,1.8786697413248175,5.718360649152166,-0.7053166932779512,-2.76353297462419,0.7291764106323334,0.8266848324088044,0.5798667011972682,-0.9338284291496715,-0.1601521253423026
103,1.3245218959146723,0.2717206958719517,1.2939198225046569,6.043063995333185,2.0712137458936235,1.7171234921955894,5.593004026857297,-0.8526583466389757,-2.5283405713673592,0.53040300110812,1.219274041361769,1.6788667011972682,0.16517157085032852,-1.2591521253423026
104,1.7255933918368638,0.21601388985085557,1.7084463022994754,6.124965851921886,1.913781814740978,1.878669741333146,5.718360649155288,-0.705316693293675,-2.7635329746363384,0.729176410584203,0.8266848324726761,0.5798667011972682,-0.9338284291496715,-0.1601521253423024
105,1.3245218959153326,0.2717206958744809,1.2939198225047126,6.04306399531795,2.071213745878174,1.717123492186053,5.593004026835167,-0.8526583466468375,-2.5283405713658063,0.5304030011289556,1.2192740413469747,1.6788667011972682,0.16517157085032852,-1.2591521253423024
106,1.7255933918378543,0.2160138898168374,1.7084463023056806,6.124965851967537,1.9137818147397698,1.8786697413260212,5.7183606491499175,-0.7053166932696955,-2.7635329746025215,0.729176410661823,0.8266848323609002,0.5798667011972682,-0.9338284291496715,-0.16015212534230217
107,1.3245218959108838,0.27172069587534925,1.2939198224998567,6.043063995332859,2.0712137458981763,1.7171234922097391,5.593004026862091,-0.8526583466348477,-2.528340571372045,0.5304030010952054,1.2192740413544327,1.6788667011972682,0.16517157084503742,-1.2591521253423021
108,1.7255933918434465,0.21601388984430295,1.7084463023071865,6.124965851925112,1.9137818147462182,1.878669741327123,5.7183606491395444,-0.7053166932720563,-2.763532974626501,0.7291764106284452,0.826684832412124,0.5798667011972682,-0.9338284291549626,-0.16015212534230194
109,1.324521895909879,0.27172069586746345,1.2939198225007655,6.0430639953326315,2.0712137458855784,1.7171234921931906,5.593004026851846,-0.8526583466360281,-2.528340571370066,0.5304030011277626,1.2192740413345484,1.6788667011972682,0.16517157084503742,-1.259152125342302
110,1.7255933918613207,0.21601388984112577,1.7084463023254925,6.124965851936123,1.9137818147391301,1.8786697413321074,5.718360649170485,-0.7053166932579785,-2.7635329746498614,0.7291764106685319,0.826684832342349,0.5798667011972682,-0.9338284291549626,-0.16015212534230172
111,1.3245218959344034,0.27172069589011755,1.2939198225205686,6.043063995316159,2.0712137459013173,1.7171234921941394,5.593004026869123,-0.8526583466289892,-2.5283405713976346,0.5304030010980714,1.2192740413804386,1.6788667011972682,0.16517157084503742,-1.2591521253423017
112,1.7255933918653577,0.21601388981382294,1.7084463023337475,6.124965851979947,1.9137818147414116,1.8786697413319737,5.718360649165671,-0.7053166932626256,-2.7635329746100155,0.7291764106715588,0.8266848323402592,0.5798667011972682,-0.9338284291853622,-0.1601521253423015
113,1.3245218959218,0.27172069588211556,1.2939198225092456,6.043063995324815,2.0712137458985014,1.717123492215801,5.593004026906497,-0.8526583466313128,-2.528340571425931,0.5304030010659214,1.2192740413876968,1.6788667011972682,0.16517157081463774,-1.2591521253423015
114,1.7255933919097746,0.21601388983803585,1.7084463023748786,6.124965851925164,1.9137818147526406,1.8786697413188918,5.718360649152298,-0.7053166931796712,-2.763532974667642,0.7291764108158849,0.826684832132194,0.5798667011972682,-0.9338284291853622,-0.16015212534230128
115,1.3245218959660814,0.2717206959134997,1.2939198225476058,6.043063995315544,2.0712137459390156,1.7171234921978982,5.593004026947276,-0.8526583465898356,-2.528340571476551,0.5304030010552708,1.2192740414399603,1.6788667011972682,0.16517157081463774,-1.2591521253423013
116,1.7255933918634465,0.21601388982744799,1.7084463023297691,6.124965851941129,1.913781814730701,1.8786697413189435,5.718360649250733,-0.7053166932872597,-2.7635329747075863,0.729176410587735,0.8266848324897895,0.5798667011972682,-0.9338284291853622,-0.16015212534230105
117,1.3245218959140084,0.27172069589159203,1.2939198224997541,6.043063995317755,2.0712137459064754,1.7171234921804641,5.593004026879485,-0.8526583466436298,-2.5283405713917695,0.5304030010660515,1.2192740414568355,1.6788667011972682,0.16517157081463774,-1.259152125342301
118,1.7255933918809165,0.2160138898195017,1.7084463023485719,6.124965851964501,1.9137818147472658,1.8786697413267093,5.718360649194722,-0.7053166932352172,-2.763532974653758,0.7291764107015619,0.8266848323005449,0.5798667011972682,-0.9338284291853622,-0.16015212534230083
119,1.324521895936997,0.2717206958941677,1.2939198225222326,6.043063995325023,2.0712137459191213,1.717123492206751,5.59300402692547,-0.8526583466176085,-2.528340571439799,0.5304030010521932,1.2192740414275365,1.6788667011972682,0.16517157081463774,-1.2591521253423008
120,1.725593391893947,0.2160138898521303,1.7084463023567384,6.124965851918004,1.9137818147485575,1.8786697413313806,5.7183606491897825,-0.705316693260404,-2.76353297468187,0.7291764106233466,0.8266848324191356,0.5798667011972682,-0.9338284292157619,-0.1601521253423006
121,1.324521895915324,0.2717206958720857,1.2939198225052515,6.043063995328611,2.0712137458881967,1.7171234921872687,5.593004026931858,-0.852658346630202,-2.528340571454634,0.530403001084188,1.2192740414120389,1.6788667011972682,0.16517157077894695,-1.2591521253423006
122,1.72559339187696,0.21601388982323788,1.7084463023438463,6.124965851968362,1.9137818147366543,1.8786697413349867,5.718360649338242,-0.7053166933173636,-2.763532974748434,0.7291764104807155,0.8266848326381515,0.5798667011972682,-0.933828429221053,-0.1601521253423004
123,1.3245218958995497,0.27172069588464826,1.2939198224865422,6.04306399532166,2.071213745900005,1.7171234921832461,5.593004026911977,-0.8526583466586818,-2.528340571413438,0.5304030010307405,1.2192740415058925,1.6788667011972682,0.16517157077894695,-1.2591521253423004
124,1.725593391875203,0.21601388982412434,1.7084463023420888,6.124965851956457,1.9137818147399606,1.8786697413265148,5.718360649290379,-0.7053166933027532,-2.7635329747224913,0.7291764105205466,0.82668483258749,0.5798667011972682,-0.933828429221053,-0.16015212534230017
125,1.3245218959019558,0.2717206958833962,1.293919822489203,6.043063995318723,2.07121374589409,1.7171234921827192,5.593004026913804,-0.8526583466513766,-2.528340571427352,0.5304030010481434,1.2192740414785996,1.6788667011972682,0.16517157077365585,-1.2591521253423001
126,1.7255933918966089,0.21601388981858477,1.708446302364461,6.124965851967823,1.9137818147430485,1.8786697413283502,5.718360649313657,-0.7053166933007371,-2.763532974734921,0.7291764105116911,0.8266848326017204,0.5798667011972682,-0.9338284292567438,-0.16015212534229994
127,1.3245218958922405,0.271720695869927,1.293919822482271,6.043063995333068,2.0712137458903745,1.717123492189939,5.593004026962404,-0.8526583466503685,-2.5283405714640197,0.530403001027891,1.2192740414947287,1.6788667011972682,0.16517157073796507,-1.2591521253423
128,1.7255933919313462,0.21601388983097186,1.708446302397552,6.1249658519471275,1.9137818147469587,1.8786697413275641,5.718360649314133,-0.7053166932797222,-2.763532974760935,0.7291764105399756,0.826684832561372,0.5798667011972682,-0.9338284292924346,-0.16015212534229972
129,1.3245218958961535,0.27172069585887104,1.2939198224888688,6.043063995347046,2.071213745890813,1.7171234921828797,5.593004027016531,-0.8526583466398612,-2.5283405715104457,0.5304030010230787,1.219274041514385,1.6788667011972682,0.16517157070756538,-1.2591521253422997
130,1.7255933919016422,0.21601388980135502,1.7084463023720307,6.124965852001237,1.9137818147401866,1.8786697413330213,5.718360649432613,-0.7053166933431265,-2.7635329747954622,0.7291764103854694,0.8266848327960002,0.5798667011972682,-0.9338284292924346,-0.1601521253422995
131,1.3245218958696636,0.2717206958695899,1.2939198224594715,6.043063995333898,2.0712137458910957,1.717123492185835,5.5930040269802195,-0.8526583466715633,-2.528340571464745,0.5304030009817683,1.2192740415746872,1.6788667011972682,0.16517157070227428,-1.2591521253422995
132,1.7255933919341058,0.21601388981834657,1.7084463024021632,6.124965851972388,1.9137818147518364,1.8786697413313225,5.718360649407199,-0.7053166932871138,-2.763532974813258,0.7291764104841694,0.8266848326440621,0.5798667011972682,-0.9338284292977257,-0.16015212534229928
133,1.3245218959110374,0.27172069589434705,1.2939198224959805,6.043063995316111,2.0712137459088416,1.7171234921810443,5.593004027011078,-0.8526583466435569,-2.5283405715204945,0.5304030009778921,1.2192740415903232,1.6788667011972682,0.16517157070227428,-1.2591521253422993
134,1.7255933919205426,0.21601388980847197,1.7084463023900032,6.124965851984762,1.9137818147397272,1.8786697413290319,5.718360649390963,-0.7053166933117643,-2.763532974785564,0.7291764104674223,0.8266848326735016,0.5798667011972682,-0.9338284292977257,-0.16015212534229906
135,1.3245218958843108,0.27172069586283115,1.2939198224759654,6.043063995346953,2.0712137458971327,1.7171234921852998,5.593004027020302,-0.8526583466558821,-2.528340571498365,0.5304030009833067,1.219274041572926,1.6788667011972682,0.16517157069698318,-1.259152125342299
136,1.725593391964469,0.21601388984075065,1.7084463024292658,6.124965851940891,1.9137818147542527,1.8786697413348097,5.718360649376665,-0.7053166932498212,-2.76353297482591,0.729176410562806,0.8266848325163649,0.5798667011972682,-0.9338284293030168,-0.16015212534229883
137,1.3245218959400649,0.2717206959134146,1.2939198225212145,6.043063995300316,2.0712137459198448,1.7171234921752034,5.59300402703415,-0.8526583466249106,-2.528340571564522,0.5304030009741498,1.2192740416074663,1.6788667011972682,0.16517157069698318,-1.2591521253422988
138,1.7255933919227522,0.21601388983463704,1.7084463023882337,6.124965851933527,1.9137818147252803,1.878669741322306,5.718360649417763,-0.7053166933401555,-2.7635329748457726,0.7291764104027716,0.8266848327846366,0.5798667011972682,-0.9338284293030168,-0.1601521253422986
139,1.324521895880093,0.2717206958710969,1.2939198224700892,6.043063995325939,2.07121374588455,1.7171234921538565,5.593004026985028,-0.8526583466700777,-2.5283405714828784,0.5304030010060435,1.2192740415977292,1.6788667011972682,0.16517157069169208,-1.2591521253422986
140,1.7255933919418998,0.21601388984256006,1.7084463024061918,6.124965851942282,1.913781814739103,1.878669741338842,5.718360649408422,-0.7053166933156572,-2.7635329748347877,0.7291764104354874,0.8266848327107823,0.5798667011972682,-0.9338284293083079,-0.1601521253422984
141,1.3245218959031597,0.2717206958809227,1.2939198224910715,6.043063995317643,2.0712137458892403,1.7171234921679843,5.593004027004272,-0.8526583466578286,-2.5283405715157925,0.5304030009970768,1.2192740415847616,1.6788667011972682,0.16517157069698318,-1.2591521253422984
142,1.725593391950512,0.2160138898190975,1.708446302418565,6.1249658519660555,1.9137818147489336,1.8786697413273616,5.7183606493858585,-0.7053166932623964,-2.763532974810368,0.729176410552398,0.826684832543039,0.5798667011972682,-0.9338284293030168,-0.16015212534229817
143,1.324521895917931,0.2717206958971326,1.2939198225024489,6.043063995322566,2.0712137459219053,1.7171234921820173,5.593004027034418,-0.8526583466311982,-2.528340571536724,0.5304030009672899,1.2192740416051273,1.6788667011972682,0.16517157069698318,-1.2591521253422981
144,1.7255933919086035,0.2160138898086451,1.7084463023780116,6.124965851982425,1.913781814740133,1.878669741327377,5.718360649404157,-0.7053166933363688,-2.763532974790619,0.7291764104039654,0.8266848327757133,0.5798667011972682,-0.9338284293030168,-0.16015212534229795
145,1.3245218958703362,0.27172069585846853,1.2939198224627386,6.043063995343715,2.0712137458858546,1.7171234921807956,5.593004026995819,-0.8526583466681844,-2.528340571476446,0.5304030009944347,1.2192740415638685,1.6788667011972682,0.16517157069698318,-1.259152125342298
146,1.7255933919617246,0.21601388986342274,1.7084463024231724,6.124965851895616,1.9137818147517336,1.878669741327878,5.718360649328362,-0.7053166932548465,-2.7635329748225947,0.7291764105578418,0.826684832533787,0.5798667011972682,-0.9338284293030168,-0.16015212534229772
147,1.3245218959199392,0.271720695887093,1.2939198225068567,6.04306399531692,2.071213745898809,1.717123492161031,5.593004027015795,-0.8526583466274232,-2.5283405715426457,0.5304030010277699,1.2192740415490442,1.6788667011972682,0.16517157069698318,-1.2591521253422977
148,1.7255933919261983,0.216013889800057,1.7084463023969314,6.124965851997629,1.9137818147397556,1.878669741328509,5.718360649439609,-0.7053166933109044,-2.763532974815774,0.729176410454214,0.8266848326953652,0.5798667011972682,-0.9338284293030168,-0.1601521253422975
149,1.3245218958949294,0.2717206958803693,1.2939198224828483,6.043063995334497,2.071213745909841,1.7171234921830492,5.593004027028884,-0.8526583466554523,-2.528340571510612,0.5304030009549792,1.2192740416225645,1.6788667011972682,0.16517157069169208,-1.2591521253422975
150,1.7255933919382427,0.21601388982736816,1.7084463024049823,6.124965851950885,1.9137818147477696,1.8786697413259137,5.718360649429984,-0.7053166932984658,-2.763532974848263,0.7291764104484303,0.8266848327084712,0.5798667011972682,-0.9338284293083079,-0.16015212534229728
151,1.3245218959030318,0.2717206958975055,1.2939198224872754,6.043063995308519,2.071213745904737,1.7171234921662133,5.593004027004581,-0.8526583466492329,-2.528340571520113,0.5304030009810798,1.2192740416132906,1.6788667011972682,0.16517157068640098,-1.2591521253422973
152,1.7255933919442266,0.21601388983996386,1.708446302409071,6.124965851920218,1.9137818147275865,1.878669741318435,5.718360649396302,-0.7053166933092528,-2.7635329748492916,0.7291764104701387,0.8266848326852686,0.5798667011972682,-0.933828429313599,-0.16015212534229706
153,1.3245218959032747,0.27172069587988523,1.293919822491626,6.043063995319233,2.071213745890244,1.7171234921541394,5.5930040270132055,-0.8526583466546265,-2.528340571524417,0.5304030010035875,1.2192740416007866,1.6788667011972682,0.16517157068640098,-1.259152125342297
154,1.7255933919523174,0.21601388983568082,1.7084463024176926,6.124965851948797,1.91378181473402,1.878669741335436,5.718360649419605,-0.7053166933047106,-2.7635329748443236,0.7291764104693607,0.826684832662846,0.5798667011972682,-0.933828429313599,-0.16015212534229684
155,1.3245218959117946,0.2717206958928744,1.29391982249714,6.0430639953087075,2.0712137458972464,1.7171234921679381,5.593004027018458,-0.8526583466523553,-2.52834057153684,0.5304030009803495,1.2192740416110794,1.6788667011972682,0.16517157068640098,-1.2591521253422968
156,1.7255933919443152,0.21601388982212283,1.7084463024119194,6.124965851944784,1.9137818147345436,1.8786697413148876,5.718360649417208,-0.7053166932936927,-2.763532974849092,0.7291764104908655,0.8266848326577094,0.5798667011972682,-0.933828429313599,-0.16015212534229661
157,1.3245218959117484,0.27172069589602216,1.29391982249661,6.043063995315357,2.0712137459114737,1.7171234921621075,5.593004027019124,-0.8526583466468464,-2.5283405715248692,0.5304030009744096,1.2192740416324128,1.6788667011972682,0.16517157069169208,-1.2591521253422966
158,1.7255933919178505,0.21601388979798725,1.7084463023888443,6.124965852002778,1.9137818147414776,1.8786697413298894,5.718360649475833,-0.7053166933334416,-2.7635329748338875,0.7291764103862628,0.8266848328004012,0.5798667011972682,-0.9338284293083079,-0.1601521253422964
159,1.3245218958782348,0.2717206958784265,1.2939198224663246,6.043063995332739,2.071213745904414,1.717123492180804,5.593004027010326,-0.8526583466667208,-2.5283405714896214,0.5304030009541705,1.2192740416279337,1.6788667011972682,0.16517157068640098,-1.2591521253422964
160,1.7255933919938347,0.21601388984795786,1.7084463024577874,6.124965851922764,1.9137818147594972,1.8786697413293907,5.718360649335485,-0.7053166931997544,-2.763532974822459,0.7291764106729768,0.8266848323520476,0.5798667011972682,-0.933828429313599,-0.16015212534229617
161,1.3245218959476912,0.2717206959107948,1.2939198225295572,6.043063995310772,2.0712137459290663,1.7171234921799572,5.593004027071906,-0.8526583465998772,-2.5283405716025005,0.530403000979655,1.2192740415882726,1.6788667011972682,0.16517157068110988,-1.2591521253422961
162,1.7255933919157518,0.2160138898165184,1.708446302383949,6.124965851951174,1.9137818147149346,1.878669741313599,5.718360649484946,-0.7053166933717038,-2.7635329748809863,0.7291764103328339,0.8266848329076746,0.5798667011972682,-0.9338284293188901,-0.16015212534229595
163,1.3245218958710054,0.27172069587252795,1.2939198224606372,6.043063995323887,2.0712137458845197,1.717123492147113,5.593004026979122,-0.8526583466858519,-2.5283405714678526,0.5304030009867805,1.2192740416416066,1.6788667011972682,0.16517157068640098,-1.259152125342296
164,1.7255933919605535,0.21601388984328593,1.7084463024248906,6.1249658519384385,1.91378181474829,1.8786697413363411,5.7183606494155015,-0.7053166932808338,-2.763532974852626,0.7291764104886048,0.8266848326314189,0.5798667011972682,-0.933828429313599,-0.16015212534229573
165,1.3245218959224123,0.2717206959026957,1.2939198225057795,6.043063995304948,2.0712137459085858,1.7171234921669576,5.593004027020548,-0.852658346640417,-2.5283405715432217,0.5304030009802058,1.2192740416135723,1.6788667011972682,0.16517157069169208,-1.2591521253422957
166,1.7255933919037494,0.216013889830258,1.70844630236977,6.124965851939894,1.913781814717459,1.8786697413220892,5.718360649438694,-0.7053166933845774,-2.763532974846233,0.7291764103135725,0.826684832925204,0.5798667011972682,-0.9338284293083079,-0.1601521253422955
167,1.324521895857085,0.2717206958485883,1.2939198224518056,6.0430639953378735,2.071213745863268,1.7171234921486647,5.593004026967807,-0.8526583466922887,-2.5283405714531324,0.5304030010214318,1.2192740415831693,1.6788667011972682,0.16517157069169208,-1.2591521253422955
168,1.7255933919361501,0.21601388980835853,1.7084463024055883,6.12496585200578,1.9137818147516688,1.8786697413451257,5.71836064943105,-0.7053166933034932,-2.7635329748009614,0.7291764104519806,0.826684832676188,0.5798667011972682,-0.9338284293083079,-0.16015212534229528
169,1.324521895896363,0.27172069588754233,1.293919822482456,6.043063995326266,2.0712137459103124,1.717123492195357,5.59300402703013,-0.8526583466517466,-2.5283405715222167,0.5304030009468143,1.2192740416112047,1.6788667011972682,0.16517157068640098,-1.2591521253422953
170,1.7255933919576836,0.21601388984366207,1.708446302422102,6.124965851918286,1.913781814743029,1.8786697413210014,5.718360649377371,-0.7053166932726952,-2.763532974842193,0.7291764105252054,0.8266848325953731,0.5798667011972682,-0.933828429313599,-0.16015212534229506
171,1.3245218959139027,0.2717206958878974,1.2939198225005863,6.043063995318599,2.071213745902379,1.7171234921604195,5.5930040270259855,-0.8526583466363475,-2.5283405715421177,0.5304030010028731,1.219274041589611,1.6788667011972682,0.16517157068640098,-1.259152125342295
172,1.7255933919796633,0.2160138898299434,1.7084463024462155,6.124965851950421,1.913781814755002,1.8786697413285443,5.718360649405145,-0.7053166932287916,-2.7635329748490522,0.7291764105999313,0.8266848324677367,0.5798667011972682,-0.933828429313599,-0.16015212534229484
173,1.3245218959487655,0.2717206959191339,1.2939198225288695,6.043063995306763,2.071213745937698,1.7171234921773815,5.593004027068995,-0.8526583466143958,-2.5283405715874587,0.5304030009461844,1.2192740416474945,1.6788667011972682,0.16517157068640098,-1.2591521253422948
174,1.725593391934832,0.2160138898249912,1.7084463024018595,6.124965851946003,1.9137818147273218,1.878669741319817,5.718360649436799,-0.7053166933247974,-2.763532974856419,0.729176410429544,0.8266848327469872,0.5798667011972682,-0.933828429313599,-0.16015212534229462
175,1.3245218958929985,0.2717206958805471,1.2939198224810613,6.043063995323012,2.0712137458961335,1.7171234921581582,5.59300402700193,-0.8526583466623987,-2.5283405714999243,0.5304030009881189,1.219274041618115,1.6788667011972682,0.16517157069169208,-1.2591521253422946
176,1.7255933919362378,0.21601388982575784,1.708446302403136,6.124965851962594,1.9137818147462584,1.8786697413332314,5.718360649424494,-0.7053166933072389,-2.7635329748317057,0.7291764104396667,0.8266848327120333,0.5798667011972682,-0.9338284293083079,-0.1601521253422944
177,1.324521895897228,0.2717206958847292,1.2939198224842057,6.0430639953222585,2.0712137459013467,1.717123492173957,5.593004027010741,-0.8526583466536195,-2.5283405715119724,0.5304030009792909,1.2192740416013073,1.6788667011972682,0.16517157069169208,-1.2591521253422944
178,1.7255933919233435,0.2160138898295197,1.7084463023897267,6.124965851942631,1.9137818147444774,1.8786697413222302,5.718360649345531,-0.7053166932819179,-2.7635329747894177,0.729176410526021,0.8266848325894858,0.5798667011972682,-0.9338284292779082,-0.16015212534229417
179,1.3245218959054648,0.271720695883162,1.2939198224929491,6.043063995325511,2.0712137459029574,1.7171234921757292,5.593004026985974,-0.852658346640959,-2.528340571492481,0.530403001014245,1.2192740415435506,1.6788667011972682,0.16517157072209177,-1.2591521253422941
180,1.7255933919257644,0.21601388981642725,1.7084463023941525,6.124965851967396,1.913781814750072,1.878669741324968,5.718360649332713,-0.7053166932657693,-2.7635329747618873,0.7291764105656955,0.8266848325234812,0.5798667011972682,-0.9338284292779082,-0.1601521253422935
181,1.324521895914334,0.27172069588826614,1.2939198225006923,6.043063995327342,2.0712137459132354,1.7171234921885195,5.593004027005476,-0.8526583466328846,-2.5283405715085663,0.5304030009946438,1.219274041549974,1.6788667011972682,0.16517157072209177,-1.2591521253422935
182,1.7255933919138715,0.2160138898430108,1.708446302378052,6.124965851929427,1.91378181474018,1.8786697413291478,5.7183606493145085,-0.7053166932804974,-2.763532974774078,0.7291764105482831,0.8266848325424956,0.5798667011972682,-0.9338284292475085,-0.16015212534229328
183,1.324521895918737,0.2717206958865556,1.2939198225056983,6.043063995319817,2.0712137459012094,1.7171234921726983,5.593004026959932,-0.8526583466402486,-2.528340571474612,0.5304030010354065,1.2192740415174017,1.6788667011972682,0.16517157075249145,-1.2591521253422933
184,1.7255933918954591,0.2160138898302878,1.7084463023614123,6.124965851949347,1.913781814727683,1.8786697413292346,5.7183606493214105,-0.7053166933175579,-2.763532974755302,0.7291764104980332,0.8266848326211511,0.5798667011972682,-0.9338284292475085,-0.16015212534229306
185,1.3245218959041292,0.27172069588531106,1.2939198224909825,6.0430639953113765,2.07121374588791,1.7171234921754752,5.593004026932678,-0.8526583466587789,-2.528340571452165,0.530403001034387,1.219274041513592,1.6788667011972682,0.16517157075249145,-1.259152125342293
186,1.7255933918943152,0.21601388980784939,1.7084463023637724,6.124965851982736,1.9137818147412775,1.8786697413265614,5.718360649313122,-0.7053166932907808,-2.7635329747252584,0.7291764105449368,0.8266848325513385,0.5798667011972682,-0.9338284292475085,-0.16015212534229284
187,1.3245218958994656,0.27172069586953007,1.2939198224897532,6.043063995343446,2.0712137459030693,1.7171234921969614,5.593004026972243,-0.8526583466453904,-2.5283405714584006,0.5304030010147638,1.219274041502986,1.6788667011972682,0.16517157075249145,-1.2591521253422928
188,1.7255933918869992,0.2160138898390451,1.708446302351665,6.124965851943756,1.9137818147504724,1.8786697413350615,5.718360649264208,-0.7053166932793866,-2.763532974715268,0.7291764105560865,0.826684832519569,0.5798667011972682,-0.9338284292171088,-0.16015212534229262
189,1.3245218959090002,0.2717206958832591,1.2939198224963528,6.0430639953208525,2.0712137458964985,1.7171234921864729,5.593004026919477,-0.8526583466396933,-2.528340571437494,0.5304030010591987,1.2192740414537049,1.6788667011972682,0.16517157077760003,-1.2591521253422926
190,1.725593391877488,0.21601388981164835,1.708446302346183,6.124965851984566,1.9137818147376942,1.878669741333019,5.7183606493032695,-0.7053166933035669,-2.763532974710531,0.7291764105305802,0.8266848325628251,0.5798667011972682,-0.9338284292224,-0.1601521253422924
191,1.3245218959047653,0.2717206958740666,1.2939198224941424,6.043063995336626,2.071213745901713,1.7171234921942664,5.5930040269422605,-0.8526583466517834,-2.528340571432336,0.5304030010244488,1.2192740414942973,1.6788667011972682,0.16517157077760003,-1.2591521253422924
192,1.7255933918753583,0.21601388982047645,1.7084463023427945,6.124965851965878,1.9137818147425145,1.8786697413292428,5.718360649280559,-0.7053166932998338,-2.76353297470686,0.7291764105294863,0.8266848325697912,0.5798667011972682,-0.9338284292224,-0.16015212534229217
193,1.324521895896769,0.271720695867911,1.2939198224873918,6.0430639953388345,2.0712137458945126,1.7171234921926446,5.593004026929902,-0.8526583466499169,-2.5283405714241676,0.5304030010461931,1.2192740414625096,1.6788667011972682,0.16517157077760003,-1.2591521253422922
194,1.7255933918951996,0.2160138898236747,1.7084463023622725,6.124965851962849,1.9137818147509542,1.878669741330581,5.718360649270829,-0.705316693260458,-2.7635329747114636,0.7291764106024458,0.8266848324535525,0.5798667011972682,-0.9338284292224,-0.16015212534229195
195,1.3245218959288454,0.27172069590269027,1.2939198225121047,6.043063995311305,2.0712137459157596,1.7171234921932963,5.593004026940403,-0.852658346630229,-2.5283405714610234,0.5304030010256785,1.2192740414942245,1.6788667011972682,0.16517157077760003,-1.259152125342292
196,1.725593391938278,0.2160138898482184,1.7084463024019045,6.124965851913407,1.9137818147421677,1.87866974132298,5.71836064923642,-0.7053166932291407,-2.763532974739511,0.7291764106850841,0.8266848323370422,0.5798667011972682,-0.9338284292527996,-0.16015212534229173
197,1.3245218959419536,0.27172069589279313,1.29391982252775,6.0430639953161265,2.0712137459063547,1.7171234921796223,5.593004026990068,-0.8526583466145703,-2.5283405715226634,0.530403001045875,1.2192740414866405,1.6788667011972682,0.16517157074720035,-1.2591521253422917
198,1.7255933918822253,0.21601388980704828,1.708446302351625,6.124965851986098,1.9137818147270975,1.878669741328785,5.718360649359044,-0.7053166933384089,-2.763532974749834,0.7291764104514811,0.8266848326951853,0.5798667011972682,-0.9338284292527996,-0.1601521253422915
199,1.3245218958836984,0.2717206958720712,1.2939198224731392,6.043063995327801,2.071213745887146,1.7171234921863832,5.593004026943664,-0.8526583466692044,-2.528340571439706,0.5304030010131557,1.2192740415256569,1.6788667011972682,0.16517157074190925,-1.2591521253422915
200,1.7255933919137476,0.21601388982179315,1.7084463023813423,6.124965851949342,1.913781814748971,1.8786697413175093,5.7183606492911565,-0.7053166932578739,-2.763532974743814,0.7291764105961324,0.8266848324845282,0.5798667011972682,-0.9338284292580907,-0.16015212534229128
201,1.3245218959159326,0.27172069588950054,1.2939198225020812,6.043063995324208,2.071213745911316,1.717123492184839,5.593004026976219,-0.852658346628937,-2.528340571487083,0.530403001022051,1.2192740415143808,1.6788667011972682,0.16517157074190925,-1.2591521253422913
202,1.725593391933556,0.21601388982197192,1.7084463024011654,6.124965851955431,1.9137818147485626,1.878669741322599,5.7183606493373595,-0.7053166932662944,-2.763532974776783,0.7291764105603808,0.8266848325359674,0.5798667011972682,-0.9338284292884904,-0.16015212534229106
203,1.3245218959124267,0.27172069588026343,1.2939198225006043,6.043063995333567,2.0712137459083797,1.7171234921844236,5.593004027020983,-0.8526583466331472,-2.52834057152081,0.5304030009978501,1.219274041552181,1.6788667011972682,0.16517157071150956,-1.259152125342291
204,1.725593391939167,0.21601388982163414,1.70844630240669,6.124965851968756,1.9137818147469088,1.8786697413328355,5.718360649399663,-0.7053166932770738,-2.763532974814175,0.7291764105202337,0.8266848325846698,0.5798667011972682,-0.9338284292884904,-0.16015212534229084
205,1.3245218959153064,0.2717206959055975,1.2939198224977926,6.043063995307641,2.0712137459163054,1.7171234921808503,5.593004027001435,-0.8526583466385369,-2.5283405715176994,0.5304030009755795,1.2192740415946741,1.6788667011972682,0.16517157070621846,-1.2591521253422908
206,1.725593391911882,0.21601388982402095,1.708446302378943,6.124965851947253,1.9137818147265078,1.8786697413196036,5.718360649420812,-0.705316693340846,-2.7635329748355764,0.7291764104030596,0.826684832787193,0.5798667011972682,-0.9338284292937815,-0.16015212534229062
207,1.324521895883333,0.2717206958795963,1.2939198224714281,6.0430639953201855,2.071213745890822,1.7171234921585208,5.593004026968105,-0.852658346670423,-2.528340571467424,0.530403001001027,1.2192740415975691,1.6788667011972682,0.16517157070621846,-1.2591521253422906
208,1.7255933919225386,0.2160138898129667,1.7084463023913785,6.12496585197333,1.9137818147418422,1.8786697413255973,5.718360649375104,-0.7053166932997313,-2.763532974784836,0.7291764104916353,0.8266848326399987,0.5798667011972682,-0.9338284292937815,-0.1601521253422904
209,1.3245218958903957,0.2717206958758951,1.2939198224791533,6.043063995332394,2.071213745899611,1.7171234921843843,5.593004027003857,-0.8526583466498656,-2.5283405714990588,0.5304030009909806,1.2192740415626324,1.6788667011972682,0.16517157070092736,-1.2591521253422904
210,1.725593391958737,0.21601388983742245,1.7084463024240306,6.124965851940722,1.913781814750418,1.8786697413305753,5.718360649371391,-0.7053166932534188,-2.763532974821452,0.7291764105653078,0.8266848325180108,0.5798667011972682,-0.9338284292990726,-0.16015212534229062
211,1.3245218959311154,0.27172069591074566,1.293919822512723,6.043063995301705,2.071213745917273,1.7171234921749006,5.59300402702399,-0.8526583466267095,-2.528340571553509,0.5304030009806392,1.219274041597539,1.6788667011972682,0.16517157069563626,-1.2591521253422906
212,1.7255933919028688,0.21601388980790326,1.7084463023722967,6.124965851975737,1.9137818147230132,1.8786697413217996,5.718360649436693,-0.7053166933648621,-2.763532974819344,0.7291764103614716,0.8266848328501959,0.5798667011972682,-0.9338284293043637,-0.1601521253422904
213,1.3245218958638845,0.2717206958557741,1.293919822456912,6.043063995340706,2.071213745877979,1.7171234921687368,5.593004026983534,-0.8526583466824311,-2.5283405714626834,0.5304030009962138,1.2192740415845873,1.6788667011972682,0.16517157069563626,-1.2591521253422904
214,1.7255933919590494,0.21601388982662342,1.7084463024259682,6.124965851967433,1.9137818147530181,1.8786697413379145,5.718360649393659,-0.7053166932872459,-2.7635329748088218,0.7291764104835576,0.8266848326388625,0.5798667011972682,-0.9338284293347634,-0.16015212534229017
215,1.3245218958999763,0.27172069588072667,1.293919822487619,6.043063995320681,2.071213745892174,1.7171234921844758,5.593004027049426,-0.8526583466436229,-2.5283405715648724,0.5304030009771876,1.2192740415820245,1.6788667011972682,0.16517157065994548,-1.2591521253422902
216,1.7255933919598045,0.21601388982416847,1.7084463024271273,6.124965851949892,1.9137818147375236,1.878669741321447,5.718360649459476,-0.7053166933033951,-2.763532974877769,0.7291764104460524,0.8266848327209899,0.5798667011972682,-0.9338284293400545,-0.16015212534228995
217,1.3245218959024814,0.271720695890367,1.293919822488475,6.043063995318854,2.0712137459068733,1.7171234921588014,5.593004027048091,-0.8526583466516975,-2.5283405715493696,0.5304030009579463,1.2192740416633556,1.6788667011972682,0.16517157065994548,-1.25915212534229
218,1.725593391965617,0.21601388982554226,1.70844630243263,6.124965851966724,1.9137818147426588,1.878669741336387,5.718360649468187,-0.705316693302668,-2.7635329748696305,0.7291764104405897,0.8266848327087768,0.5798667011972682,-0.9338284293400545,-0.16015212534228973
219,1.3245218959119516,0.27172069589719894,1.2939198224963309,6.043063995309605,2.071213745905502,1.7171234921696885,5.593004027054279,-0.852658346651334,-2.5283405715659923,0.5304030009466316,1.2192740416601873,1.6788667011972682,0.16517157065994548,-1.2591521253422897
220,1.7255933919381734,0.21601388980514166,1.7084463024081797,6.124965851984603,1.9137818147311951,1.8786697413249924,5.718360649510267,-0.7053166933460951,-2.763532974879116,0.7291764103572796,0.8266848328552271,0.5798667011972682,-0.9338284293400545,-0.1601521253422895
221,1.3245218958794278,0.2717206958784439,1.2939198224676587,6.043063995328254,2.071213745899173,1.7171234921666807,5.593004027028581,-0.8526583466730475,-2.5283405715110576,0.5304030009465391,1.2192740416665757,1.6788667011972682,0.16517157066523658,-1.2591521253422895
222,1.725593391972661,0.21601388984417955,1.7084463024369603,6.124965851940602,1.9137818147561418,1.8786697413388875,5.718360649427511,-0.7053166932774072,-2.7635329748610507,0.7291764104737303,0.8266848326529157,0.5798667011972682,-0.9338284293347634,-0.1601521253422893
223,1.324521895909296,0.27172069589433334,1.2939198224942983,6.043063995314413,2.0712137459070554,1.717123492170561,5.593004027045284,-0.8526583466387037,-2.5283405715601206,0.5304030009706031,1.2192740416202594,1.6788667011972682,0.16517157066523658,-1.2591521253422893
224,1.7255933919344508,0.2160138898054758,1.7084463024043952,6.124965851981181,1.9137818147295274,1.8786697413227644,5.71836064951,-0.7053166933472539,-2.763532974881446,0.7291764103571967,0.8266848328580256,0.5798667011972682,-0.9338284293347634,-0.16015212534228906
225,1.324521895874117,0.2717206958737102,1.2939198224633968,6.0430639953333,2.0712137458981426,1.717123492163277,5.593004027032159,-0.8526583466736269,-2.5283405715097858,0.5304030009489944,1.21927404166897,1.6788667011972682,0.16517157065994548,-1.259152125342289
226,1.7255933919573136,0.2160138898229321,1.7084463024247907,6.124965851972636,1.9137818147608492,1.878669741337018,5.718360649472379,-0.7053166932973446,-2.763532974864,0.7291764104122018,0.8266848327524033,0.5798667011972682,-0.9338284293400545,-0.16015212534228884
227,1.3245218958981884,0.2717206958906967,1.2939198224838384,6.0430639953209715,2.071213745909501,1.7171234921744472,5.593004027049345,-0.8526583466486723,-2.5283405715487857,0.5304030009491962,1.2192740416467238,1.6788667011972682,0.16517157065994548,-1.2591521253422888
228,1.7255933919785496,0.21601388985912373,1.7084463024407306,6.124965851897898,1.9137818147478083,1.8786697413243563,5.718360649406588,-0.7053166932740446,-2.763532974883274,0.7291764104898399,0.826684832648299,0.5798667011972682,-0.9338284293400545,-0.16015212534228862
229,1.3245218959103868,0.2717206958892827,1.2939198224968127,6.043063995314796,2.071213745900219,1.7171234921480791,5.593004027049863,-0.8526583466370223,-2.528340571570043,0.5304030009936902,1.2192740416265744,1.6788667011972682,0.16517157065465438,-1.2591521253422886
230,1.7255933919294513,0.21601388980553057,1.7084463023993242,6.124965851988165,1.9137818147331642,1.8786697413282436,5.718360649477551,-0.7053166933322278,-2.7635329748510236,0.7291764104006525,0.8266848327806708,0.5798667011972682,-0.9338284293149459,-0.1601521253422884
231,1.3245218958858973,0.2717206958844452,1.2939198224728519,6.043063995326733,2.071213745906846,1.7171234921722631,5.5930040270195995,-0.852658346666114,-2.528340571503432,0.5304030009482652,1.21927404165377,1.6788667011972682,0.16517157067976296,-1.2591521253422884
232,1.725593391940655,0.21601388981381675,1.7084463024094567,6.124965851971992,1.9137818147467516,1.8786697413254214,5.7183606494521335,-0.7053166933030925,-2.7635329748489306,0.729176410439238,0.8266848327245357,0.5798667011972682,-0.933828429320237,-0.16015212534228818
233,1.324521895891655,0.2717206958826896,1.2939198224791015,6.043063995330862,2.0712137459093447,1.7171234921730403,5.593004027034884,-0.8526583466515463,-2.5283405715229166,0.5304030009601058,1.2192740416328645,1.6788667011972682,0.16517157067447186,-1.2591521253422882
234,1.7255933919977064,0.21601388986593212,1.708446302458984,6.124965851896339,1.9137818147666317,1.8786697413310591,5.71836064936296,-0.7053166932122057,-2.7635329748614725,0.7291764106058821,0.8266848324558798,0.5798667011972682,-0.9338284293255281,-0.16015212534228795
235,1.3245218959489473,0.27172069591970116,1.2939198225289614,6.043063995294274,2.071213745922898,1.7171234921616623,5.593004027055347,-0.8526583466061028,-2.528340571602244,0.530403000989701,1.2192740416075964,1.6788667011972682,0.16517157067447186,-1.259152125342288
236,1.7255933919624016,0.21601388982947864,1.7084463024288412,6.124965851940117,1.9137818147233927,1.8786697413210303,5.718360649434846,-0.7053166932984778,-2.7635329748705546,0.7291764104959858,0.826684832642109,0.5798667011972682,-0.9338284293255281,-0.16015212534228773
237,1.3245218959096419,0.2717206958920685,1.2939198224953397,6.04306399531516,2.0712137459048154,1.7171234921589626,5.593004027035087,-0.8526583466492389,-2.52834057154359,0.5304030009720022,1.2192740416413592,1.6788667011972682,0.16517157067447186,-1.2591521253422877
238,1.7255933919395319,0.2160138898083691,1.7084463024090373,6.124965851982761,1.9137818147324375,1.878669741327603,5.718360649474779,-0.7053166933270487,-2.7635329748560022,0.729176410412407,0.8266848327639938,0.5798667011972682,-0.9338284293255281,-0.1601521253422875
239,1.3245218958909852,0.27172069588691417,1.293919822477428,6.043063995321969,2.0712137459047257,1.717123492170715,5.593004027032097,-0.8526583466635244,-2.528340571523718,0.5304030009463448,1.2192740416592223,1.6788667011972682,0.16517157066918076,-1.2591521253422875
240,1.7255933919901518,0.21601388985771167,1.7084463024525545,6.124965851909387,1.9137818147537795,1.8786697413314497,5.718360649385219,-0.7053166932421322,-2.7635329748639137,0.7291764105631795,0.826684832522711,0.5798667011972682,-0.9338284293308192,-0.1601521253422873
241,1.3245218959356722,0.2717206959042999,1.293919822518911,6.043063995304947,2.071213745911407,1.717123492163211,5.593004027059475,-0.8526583466210661,-2.5283405715931506,0.5304030009853924,1.2192740416111494,1.6788667011972682,0.16517157066918076,-1.2591521253422873
242,1.7255933919586923,0.21601388980543143,1.7084463024288052,6.124965851979511,1.9137818147362162,1.8786697413211089,5.718360649482547,-0.7053166932920545,-2.763532974875746,0.7291764104778127,0.8266848326709191,0.5798667011972682,-0.9338284293308192,-0.16015212534228707
243,1.3245218959112046,0.2717206959035958,1.2939198224942845,6.043063995315939,2.071213745924351,1.7171234921713494,5.593004027052528,-0.8526583466460272,-2.5283405715486276,0.5304030009303538,1.2192740416836954,1.6788667011972682,0.16517157066918076,-1.259152125342287
244,1.7255933919588666,0.21601388982817252,1.7084463024255094,6.124965851952786,1.9137818147386663,1.8786697413288223,5.7183606494431976,-0.705316693300315,-2.7635329748618314,0.7291764104593736,0.8266848326890993,0.5798667011972682,-0.9338284293308192,-0.16015212534228684
245,1.3245218959098466,0.2717206958972527,1.2939198224942368,6.04306399530939,2.071213745905432,1.7171234921669503,5.5930040270314985,-0.8526583466501575,-2.5283405715446885,0.5304030009636407,1.2192740416391308,1.6788667011972682,0.16517157067447186,-1.2591521253422868
246,1.7255933919935893,0.21601388985892608,1.7084463024558134,6.124965851899124,1.9137818147456636,1.8786697413251654,5.718360649400864,-0.7053166932382486,-2.7635329748887645,0.7291764105793933,0.8266848325056018,0.5798667011972682,-0.9338284293255281,-0.16015212534228662
247,1.3245218959422225,0.2717206959093519,1.2939198225247055,6.043063995307841,2.0712137459240934,1.7171234921517118,5.5930040270644605,-0.8526583466191243,-2.528340571587814,0.5304030009761126,1.219274041648978,1.6788667011972682,0.16517157067447186,-1.2591521253422866
248,1.725593391942323,0.2160138897952832,1.7084463024138223,6.12496585200553,1.9137818147368313,1.8786697413288092,5.71836064948784,-0.7053166933145921,-2.7635329748506394,0.7291764104347834,0.8266848327272373,0.5798667011972682,-0.9338284293255281,-0.1601521253422864
249,1.3245218959021583,0.2717206958996679,1.2939198224858162,6.043063995316219,2.071213745917796,1.7171234921807834,5.593004027039343,-0.8526583466572961,-2.5283405715320053,0.5304030009245302,1.2192740416748844,1.6788667011972682,0.16517157067447186,-1.2591521253422864
250,1.7255933919330564,0.21601388981975136,1.708446302400864,6.124965851958483,1.9137818147310652,1.8786697413228952,5.718360649462367,-0.705316693338849,-2.7635329748623714,0.7291764103835062,0.826684832815848,0.5798667011972682,-0.9338284293255281,-0.16015212534228618
251,1.3245218958869096,0.2717206958814709,1.2939198224745672,6.043063995318595,2.0712137458917406,1.717123492160471,5.5930040270108865,-0.8526583466694245,-2.528340571511019,0.5304030009729914,1.219274041636808,1.6788667011972682,0.16517157067447186,-1.2591521253422862
252,1.7255933919732471,0.21601388981477937,1.7084463024420586,6.124965851975327,1.913781814747836,1.8786697413292617,5.718360649452574,-0.7053166932862551,-2.763532974854661,0.72917641047478,0.826684832666376,0.5798667011972682,-0.9338284293559278,-0.16015212534228596
253,1.3245218959057985,0.27172069589001085,1.2939198224916382,6.043063995322693,2.071213745910393,1.7171234921797764,5.593004027075947,-0.8526583466431276,-2.528340571576635,0.5304030009393479,1.2192740416514298,1.6788667011972682,0.16517157064936328,-1.259152125342286
254,1.7255933919537616,0.21601388979315228,1.7084463024257757,6.124965852004301,1.913781814742601,1.8786697413248743,5.718360649522162,-0.7053166933431878,-2.763532974873299,0.7291764103393652,0.8266848328868049,0.5798667011972682,-0.9338284293810364,-0.16015212534228573
255,1.324521895856483,0.27172069585138015,1.2939198224503583,6.04306399535729,2.071213745892213,1.7171234921762186,5.5930040270951435,-0.8526583466715939,-2.5283405715532106,0.5304030009258538,1.2192740416778398,1.6788667011972682,0.1651715706136725,-1.2591521253422857
256,1.7255933919803343,0.21601388979406425,1.7084463024523855,6.124965852015612,1.9137818147658372,1.8786697413340998,5.718360649573878,-0.7053166933260916,-2.763532974907561,0.7291764103078116,0.8266848329263414,0.5798667011972682,-0.9338284294167272,-0.1601521253422855
257,1.324521895858615,0.27172069585779685,1.2939198224510307,6.043063995357138,2.0712137459024005,1.717123492181247,5.59300402713596,-0.8526583466630457,-2.52834057159223,0.5304030008951038,1.219274041715489,1.6788667011972682,0.1651715705832728,-1.2591521253422855
258,1.725593392040876,0.216013889863156,1.7084463025027108,6.124965851906868,1.9137818147633805,1.8786697413360183,5.718360649525063,-0.7053166932597386,-2.7635329749795,0.7291764104390349,0.8266848327179567,0.5798667011972682,-0.9338284294167272,-0.1601521253422853
259,1.3245218959250913,0.2717206959034898,1.293919822508598,6.043063995308332,2.071213745915431,1.7171234921431273,5.5930040271499655,-0.8526583466298693,-2.5283405716690583,0.5304030009206394,1.2192740417492307,1.6788667011972682,0.1651715705832728,-1.2591521253422853
260,1.7255933919911537,0.21601388980150907,1.7084463024620486,6.124965851988378,1.9137818147383248,1.878669741323063,5.718360649592825,-0.7053166933349618,-2.763532974951737,0.729176410330072,0.8266848329067924,0.5798667011972682,-0.9338284294167272,-0.1601521253422855
261,1.3245218958813472,0.2717206958871462,1.2939198224676405,6.043063995321178,2.0712137459045277,1.7171234921605494,5.593004027112908,-0.8526583466674809,-2.5283405716006273,0.530403000892963,1.219274041759889,1.6788667011972682,0.1651715705885639,-1.2591521253422855
262,1.7255933920194164,0.21601388983257497,1.70844630248576,6.124965851943402,1.9137818147484613,1.8786697413265887,5.7183606495622525,-0.7053166932877868,-2.763532974975302,0.729176410408532,0.8266848327784586,0.5798667011972682,-0.9338284294114361,-0.1601521253422853
263,1.3245218959097151,0.2717206958990314,1.2939198224939634,6.043063995315846,2.0712137459176363,1.7171234921501,5.593004027138566,-0.8526583466438934,-2.5283405716389105,0.5304030009011738,1.2192740417671903,1.6788667011972682,0.1651715705885639,-1.2591521253422853
264,1.725593391979313,0.2160138898258667,1.708446302446304,6.1249658519588746,1.9137818147298078,1.8786697413310762,5.718360649639924,-0.7053166933840537,-2.763532975001166,0.7291764102073199,0.8266848330876556,0.5798667011972682,-0.9338284294114361,-0.16015212534228507
265,1.3245218958678393,0.2717206958791837,1.2939198224559834,6.043063995317058,2.071213745887119,1.717123492134191,5.593004027083698,-0.8526583466920268,-2.5283405715705767,0.5304030009101173,1.2192740417840278,1.6788667011972682,0.1651715705885639,-1.259152125342285
266,1.7255933920032949,0.21601388981565137,1.7084463024720242,6.124965851981082,1.913781814749964,1.8786697413348687,5.718360649614802,-0.7053166933187296,-2.7635329749769353,0.7291764103295235,0.8266848328908045,0.5798667011972682,-0.9338284294114361,-0.1601521253422853
267,1.324521895886772,0.2717206958942983,1.2939198224716826,6.043063995321645,2.071213745917192,1.7171234921556735,5.59300402713236,-0.8526583466593648,-2.5283405716161305,0.5304030008780733,1.2192740417927297,1.6788667011972682,0.16517157057798149,-1.2591521253422853
268,1.725593392008332,0.21601388981644865,1.7084463024770635,6.124965851963666,1.9137818147414012,1.8786697413223787,5.7183606495984325,-0.7053166933170738,-2.7635329749820223,0.7291764103507802,0.82668483287571,0.5798667011972682,-0.9338284294220185,-0.1601521253422855
269,1.3245218958937048,0.27172069589310993,1.2939198224790052,6.043063995318573,2.0712137459113915,1.7171234921510228,5.593004027129177,-0.8526583466585369,-2.5283405716207996,0.5304030008922718,1.2192740417793586,1.6788667011972682,0.1651715705832726,-1.2591521253422855
270,1.725593392013609,0.21601388981382386,1.7084463024827194,6.124965851972081,1.9137818147418204,1.8786697413257005,5.718360649595502,-0.7053166933040808,-2.763532974976348,0.7291764103844611,0.8266848328178595,0.5798667011972682,-0.9338284294167274,-0.1601521253422853
271,1.324521895905928,0.2717206959102605,1.2939198224874426,6.043063995302545,2.0712137459184423,1.7171234921557172,5.593004027127935,-0.8526583466520403,-2.5283405716351632,0.5304030008816052,1.2192740417873011,1.6788667011972682,0.1651715705832726,-1.2591521253422853
272,1.7255933919903188,0.21601388979649377,1.7084463024619145,6.124965851999099,1.9137818147341301,1.8786697413253501,5.7183606496008474,-0.705316693341155,-2.763532974948858,0.7291764103268386,0.8266848329086809,0.5798667011972682,-0.9338284294167274,-0.16015212534228507
273,1.3245218958752478,0.27172069587738423,1.2939198224636352,6.043063995332666,2.071213745903324,1.7171234921646252,5.593004027127287,-0.8526583466705775,-2.5283405716020586,0.5304030008851139,1.219274041764176,1.6788667011972682,0.1651715705832726,-1.259152125342285
274,1.725593391984489,0.2160138897900591,1.7084463024570877,6.124965852011462,1.91378181474761,1.878669741326414,5.718360649626362,-0.7053166933385763,-2.7635329749561315,0.7291764102967844,0.826684832954317,0.5798667011972682,-0.9338284294167274,-0.16015212534228485
275,1.3245218958737999,0.27172069587655623,1.2939198224624102,6.043063995338823,2.071213745909996,1.7171234921660887,5.593004027134432,-0.8526583466692881,-2.5283405715992644,0.5304030008754586,1.2192740417768322,1.6788667011972682,0.1651715705832726,-1.2591521253422848
276,1.7255933920075948,0.21601388983034261,1.7084463024741376,6.124965851952477,1.9137818147429277,1.8786697413311786,5.718360649594733,-0.7053166933251006,-2.763532974984631,0.7291764103269663,0.8266848329003755,0.5798667011972682,-0.9338284294167274,-0.16015212534228507
277,1.324521895892444,0.27172069589319997,1.2939198224776973,6.043063995312982,2.0712137459043705,1.7171234921467475,5.593004027112173,-0.8526583466625504,-2.5283405716116447,0.5304030009059293,1.219274041766121,1.6788667011972682,0.1651715705885637,-1.259152125342285
278,1.7255933920092048,0.21601388980159236,1.70844630248016,6.124965851991397,1.9137818147454675,1.8786697413252826,5.718360649601502,-0.7053166932970354,-2.7635329749660436,0.7291764103978806,0.8266848327969731,0.5798667011972682,-0.9338284294114363,-0.16015212534228485
279,1.3245218959033076,0.27172069591044634,1.2939198224846766,6.043063995309382,2.0712137459272615,1.7171234921666114,5.593004027137185,-0.8526583466485177,-2.528340571633853,0.5304030008655338,1.2192740417917682,1.6788667011972682,0.1651715705832726,-1.2591521253422848
280,1.7255933919978765,0.21601388981349862,1.7084463024669403,6.124965851970399,1.9137818147357835,1.8786697413241904,5.718360649615643,-0.7053166933374438,-2.763532974985392,0.7291764103134093,0.8266848329313465,0.5798667011972682,-0.9338284294167274,-0.16015212534228462
281,1.3245218958765712,0.2717206958834024,1.2939198224638495,6.043063995326972,2.071213745906518,1.7171234921482732,5.593004027122409,-0.8526583466687219,-2.5283405716018095,0.5304030008918332,1.219274041785123,1.6788667011972682,0.16517157057798149,-1.2591521253422846
282,1.7255933919880755,0.21601388982480246,1.7084463024553884,6.124965851954049,1.9137818147373582,1.8786697413255713,5.718360649555037,-0.7053166933251587,-2.7635329749503303,0.7291764103572485,0.8266848328586605,0.5798667011972682,-0.9338284293916188,-0.1601521253422844
283,1.324521895888126,0.271720695888366,1.2939198224743156,6.0430639953154985,2.0712137458994375,1.7171234921523002,5.593004027091985,-0.8526583466625793,-2.528340571592772,0.5304030009234538,1.2192740417279657,1.6788667011972682,0.16517157060309007,-1.2591521253422844
284,1.7255933920097375,0.21601388984023484,1.708446302474821,6.124965851942332,1.9137818147496604,1.8786697413354827,5.718360649506189,-0.7053166932902691,-2.7635329749275535,0.7291764104243109,0.8266848327401741,0.5798667011972682,-0.9338284293969099,-0.16015212534228418
285,1.324521895911749,0.2717206958980422,1.2939198224959556,6.043063995305395,2.071213745901798,1.717123492159825,5.593004027111114,-0.8526583466451345,-2.528340571632538,0.5304030009283506,1.2192740417053227,1.6788667011972682,0.16517157060309007,-1.2591521253422842
286,1.7255933920017938,0.216013889806174,1.708446302472093,6.124965851968081,1.913781814733628,1.8786697413130693,5.718360649546625,-0.7053166932912602,-2.7635329749445856,0.7291764104505631,0.8266848327301881,0.5798667011972682,-0.9338284293969099,-0.1601521253422835
287,1.3245218959013965,0.2717206958999387,1.2939198224852588,6.043063995318577,2.071213745922379,1.7171234921579672,5.593004027122751,-0.8526583466456301,-2.52834057161607,0.5304030008967582,1.2192740417594403,1.6788667011972682,0.16517157059779897,-1.2591521253422835
288,1.7255933920140787,0.2160138898125817,1.7084463024833867,6.124965851977232,1.9137818147491943,1.8786697413279128,5.7183606495801635,-0.7053166932809687,-2.7635329749634043,0.7291764104294325,0.8266848327431018,0.5798667011972682,-0.933828429402201,-0.1601521253422833
289,1.3245218959136293,0.27172069591619685,1.2939198224939792,6.043063995307144,2.0712137459340423,1.7171234921618457,5.5930040271286865,-0.8526583466404843,-2.528340571628823,0.5304030008762244,1.2192740417848535,1.6788667011972682,0.16517157059779897,-1.2591521253422833
290,1.7255933920176194,0.216013889851008,1.7084463024811594,6.124965851902932,1.913781814733904,1.8786697413185467,5.718360649541182,-0.705316693296479,-2.7635329749924495,0.7291764104135884,0.826684832780966,0.5798667011972682,-0.933828429402201,-0.16015212534228307
291,1.324521895909926,0.2717206959056208,1.2939198224927844,6.043063995297406,2.071213745905082,1.7171234921317287,5.593004027102744,-0.8526583466482395,-2.528340571627422,0.5304030009341422,1.2192740417504733,1.6788667011972682,0.16517157059250787,-1.259152125342283
292,1.7255933920234912,0.21601388980769184,1.7084463024935048,6.124965851989092,1.9137818147416494,1.8786697413314015,5.718360649577075,-0.7053166932781961,-2.7635329749548974,0.7291764104590193,0.8266848326922971,0.5798667011972682,-0.9338284294074921,-0.16015212534228285
293,1.3245218959207612,0.27172069591465575,1.2939198225014077,6.043063995306507,2.071213745930284,1.7171234921700351,5.593004027146827,-0.852658346639098,-2.5283405716510523,0.5304030008692364,1.2192740417796828,1.6788667011972682,0.16517157059250787,-1.2591521253422828
294,1.725593392025217,0.21601388983549047,1.708446302491238,6.124965851927193,1.913781814743559,1.8786697413176192,5.718360649504153,-0.7053166932647036,-2.7635329749496016,0.7291764104887495,0.826684832664856,0.5798667011972682,-0.9338284294074921,-0.16015212534228263
295,1.3245218959208855,0.27172069590197084,1.2939198225045845,6.043063995310642,2.0712137459156166,1.7171234921507477,5.59300402713909,-0.8526583466323518,-2.528340571654243,0.5304030009197452,1.2192740417363024,1.6788667011972682,0.16517157059250787,-1.2591521253422826
296,1.7255933919920323,0.2160138898220779,1.7084463024597052,6.124965851962147,1.9137818147323296,1.8786697413287334,5.718360649599967,-0.7053166933471055,-2.7635329749764734,0.7291764103031967,0.8266848329402889,0.5798667011972682,-0.9338284294074921,-0.1601521253422824
297,1.3245218958865046,0.27172069588937836,1.2939198224725006,6.043063995313623,2.0712137458988726,1.7171234921471747,5.593004027102635,-0.8526583466735527,-2.528340571597716,0.5304030009027131,1.2192740417707066,1.6788667011972682,0.16517157059250787,-1.2591521253422824
298,1.725593392006847,0.2160138898016282,1.7084463024778083,6.124965851984755,1.9137818147439993,1.8786697413201037,5.71836064962214,-0.7053166932980245,-2.763532974988363,0.7291764103874548,0.8266848328201992,0.5798667011972682,-0.9338284294074921,-0.16015212534228218
299,1.3245218959040597,0.27172069592112924,1.2939198224832291,6.043063995301915,2.071213745935616,1.7171234921551572,5.593004027121809,-0.8526583466490123,-2.528340571619838,0.5304030008635316,1.2192740418177186,1.6788667011972682,0.16517157058721676,-1.2591521253422822
300,1.7255933920025228,0.21601388984590872,1.7084463024668066,6.124965851900568,1.9137818147238055,1.878669741310555,5.718360649552269,-0.7053166933337687,-2.7635329749955138,0.7291764103453174,0.8266848328999661,0.5798667011972682,-0.9338284294127832,-0.1601521253422824
301,1.3245218958900542,0.27172069588305076,1.293919822477771,6.043063995311591,2.0712137458868085,1.7171234921232805,5.593004027097634,-0.8526583466668843,-2.528340571607784,0.5304030009467797,1.2192740417463899,1.6788667011972682,0.16517157058721676,-1.2591521253422824
302,1.7255933919823565,0.21601388980281278,1.7084463024527312,6.124965852012537,1.9137818147360266,1.8786697413440436,5.718360649673224,-0.705316693378097,-2.7635329749844058,0.7291764102160991,0.8266848330559687,0.5798667011972682,-0.9338284294127832,-0.16015212534228218
303,1.3245218958697444,0.2717206958834885,1.2939198224567368,6.043063995325973,2.0712137459047897,1.7171234921605742,5.593004027105595,-0.8526583466890485,-2.528340571573306,0.5304030008657825,1.2192740418038057,1.6788667011972682,0.16517157059250787,-1.2591521253422822
304,1.725593392021595,0.21601388982889771,1.708446302488522,6.124965851955721,1.9137818147549033,1.8786697413314277,5.718360649515647,-0.7053166932683517,-2.7635329749306505,0.7291764104629095,0.8266848326861627,0.5798667011972682,-0.9338284294074921,-0.16015212534228196
305,1.3245218959125569,0.27172069589831005,1.293919822496709,6.043063995313884,2.0712137459131017,1.717123492166896,5.593004027143166,-0.8526583466341758,-2.528340571655437,0.5304030009092938,1.2192740417210826,1.6788667011972682,0.16517157058721676,-1.259152125342282
306,1.725593391990312,0.21601388979775155,1.708446302461691,6.124965852000313,1.9137818147307057,1.8786697413280626,5.718360649637315,-0.7053166933778809,-2.7635329749692117,0.7291764102358065,0.8266848330497674,0.5798667011972682,-0.9338284294431829,-0.16015212534228174
307,1.3245218958514542,0.27172069586128456,1.2939198224430988,6.0430639953377385,2.0712137458837727,1.717123492155741,5.593004027136369,-0.8526583466889405,-2.528340571606154,0.5304030008843394,1.2192740417808343,1.6788667011972682,0.16517157055152598,-1.2591521253422817
308,1.7255933920336386,0.21601388984028858,1.708446302498846,6.12496585193689,1.9137818147479033,1.878669741331293,5.718360649616698,-0.7053166933163177,-2.763532975019469,0.7291764103185996,0.8266848329159124,0.5798667011972682,-0.933828429448474,-0.16015212534228151
309,1.324521895886486,0.2717206958872162,1.2939198224730657,6.043063995318705,2.071213745902325,1.7171234921397287,5.593004027150841,-0.8526583466581589,-2.5283405716481777,0.5304030008975443,1.2192740417910208,1.6788667011972682,0.16517157055152598,-1.2591521253422815
310,1.7255933920261632,0.21601388982846093,1.708446302493166,6.124965851944615,1.9137818147433026,1.8786697413225026,5.718360649648671,-0.7053166933254121,-2.763532975037989,0.7291764102977022,0.8266848329608969,0.5798667011972682,-0.933828429448474,-0.1601521253422813
311,1.3245218958909226,0.27172069590042225,1.2939198224746624,6.043063995307493,2.071213745909615,1.7171234921350838,5.593004027145099,-0.852658346662706,-2.528340571645322,0.5304030008796858,1.2192740418288586,1.6788667011972682,0.16517157055152598,-1.2591521253422813
312,1.7255933920317938,0.21601388982258196,1.7084463024995944,6.124965851960979,1.9137818147343988,1.878669741328365,5.718360649648728,-0.7053166933270758,-2.7635329750269166,0.7291764103213066,0.8266848329157395,0.5798667011972682,-0.933828429448474,-0.16015212534228151
313,1.3245218958994909,0.27172069589816644,1.2939198224837274,6.043063995308915,2.0712137459073268,1.7171234921446035,5.593004027156858,-0.8526583466635379,-2.5283405716567833,0.530403000872218,1.2192740418225232,1.6788667011972682,0.16517157055681708,-1.2591521253422815
314,1.7255933919957935,0.21601388978776204,1.7084463024687193,6.124965852014213,1.9137818147361103,1.878669741326131,5.718360649684829,-0.7053166933648506,-2.763532974999422,0.7291764102390188,0.8266848330474185,0.5798667011972682,-0.9338284294431829,-0.1601521253422813
315,1.3245218958647667,0.27172069588564474,1.2939198224511648,6.043063995323087,2.07121374590466,1.7171234921582688,5.593004027134348,-0.8526583466824253,-2.5283405716087874,0.530403000855816,1.2192740418220844,1.6788667011972682,0.16517157055681708,-1.2591521253422813
316,1.725593392032954,0.21601388981782085,1.7084463025015766,6.124965851967734,1.9137818147437802,1.8786697413272733,5.718360649670202,-0.7053166933391624,-2.7635329750341024,0.7291764102653465,0.826684833007026,0.5798667011972682,-0.9338284294735826,-0.16015212534228107
317,1.3245218958718015,0.2717206958884615,1.2939198224577648,6.043063995314838,2.071213745899165,1.7171234921425513,5.593004027165822,-0.8526583466695812,-2.528340571660475,0.5304030008682808,1.2192740418306085,1.6788667011972682,0.1651715705211263,-1.259152125342281
318,1.725593392037997,0.21601388979218164,1.7084463025104815,6.124965852017132,1.9137818147461239,1.8786697413336988,5.718360649735552,-0.7053166933645492,-2.7635329750411355,0.7291764101947846,0.8266848331116086,0.5798667011972682,-0.9338284295092734,-0.16015212534228085
319,1.3245218958544767,0.27172069586929426,1.2939198224443307,6.043063995336583,2.0712137458954065,1.717123492157827,5.593004027214487,-0.8526583466822746,-2.5283405716803533,0.5304030008264531,1.2192740418659644,1.6788667011972682,0.16517157049072662,-1.2591521253422808
320,1.7255933920566986,0.21601388981766162,1.708446302525504,6.124965851969553,1.9137818147540888,1.8786697413281002,5.718360649736216,-0.7053166933349995,-2.7635329750879745,0.7291764102232814,0.8266848330747207,0.5798667011972682,-0.9338284295092734,-0.16015212534228063
321,1.3245218958732259,0.2717206958927034,1.2939198224583417,6.043063995315972,2.071213745907847,1.71712349213876,5.593004027206314,-0.8526583466674997,-2.5283405716944047,0.5304030008361531,1.2192740418877823,1.6788667011972682,0.16517157049072662,-1.2591521253422806
322,1.7255933920652338,0.21601388981366373,1.7084463025346326,6.124965851973833,1.9137818147462404,1.8786697413267113,5.718360649748417,-0.7053166933281952,-2.763532975099304,0.7291764102530879,0.8266848330299248,0.5798667011972682,-0.9338284295092734,-0.1601521253422804
323,1.3245218958821445,0.2717206959067051,1.2939198224642632,6.043063995305355,2.0712137459170856,1.717123492137434,5.593004027212976,-0.8526583466640976,-2.5283405717074254,0.530403000818908,1.2192740419177825,1.6788667011972682,0.16517157048543551,-1.2591521253422804
324,1.7255933920973434,0.21601388982618788,1.7084463025651164,6.12496585194419,1.9137818147497998,1.8786697413189961,5.718360649696549,-0.7053166932696675,-2.7635329750994173,0.7291764103859645,0.8266848328327752,0.5798667011972682,-0.9338284295145645,-0.16015212534228018
325,1.3245218959156728,0.27172069592464076,1.2939198224943547,6.043063995296766,2.0712137459355335,1.717123492135448,5.5930040272442865,-0.8526583466348338,-2.528340571754836,0.5304030008182079,1.2192740419228063,1.6788667011972682,0.16517157048543551,-1.2591521253422802
326,1.7255933920853157,0.21601388982877523,1.7084463025525087,6.1249658519490255,1.9137818147409091,1.8786697413265103,5.718360649716188,-0.7053166933084447,-2.763532975101836,0.7291764103127194,0.8266848329371511,0.5798667011972682,-0.9338284295145645,-0.16015212534227996
327,1.324521895906835,0.2717206959157441,1.2939198224873156,6.043063995294103,2.0712137459174844,1.717123492131587,5.593004027230062,-0.8526583466542224,-2.5283405717423584,0.5304030008239403,1.2192740419211636,1.6788667011972682,0.16517157048543551,-1.25915212534228
328,1.7255933920486664,0.2160138897984483,1.70844630252016,6.124965851999887,1.9137818147288066,1.878669741328691,5.718360649785432,-0.7053166933773953,-2.7635329750983777,0.729176410176501,0.8266848331476657,0.5798667011972682,-0.9338284295145645,-0.16015212534227974
329,1.324521895864041,0.27172069589280434,1.2939198224489992,6.043063995314813,2.071213745906509,1.7171234921382699,5.5930040272056845,-0.8526583466886977,-2.528340571680862,0.5304030008046122,1.2192740419391332,1.6788667011972682,0.16517157048543551,-1.2591521253422797
330,1.725593392064545,0.21601388981948863,1.7084463025331482,6.124965851957354,1.913781814746696,1.8786697413210294,5.71836064972387,-0.7053166933281768,-2.763532975092947,0.7291764102547518,0.826684833035648,0.5798667011972682,-0.9338284295145645,-0.16015212534227952
331,1.3245218958810563,0.2717206958929509,1.2939198224663326,6.043063995316687,2.0712137459094535,1.7171234921330802,5.593004027216006,-0.8526583466640885,-2.5283405717046294,0.5304030008382926,1.2192740418954875,1.6788667011972682,0.16517157049072662,-1.2591521253422795
332,1.72559339205789,0.21601388979563385,1.7084463025300047,6.124965852002587,1.913781814744121,1.8786697413266218,5.718360649783422,-0.7053166933668519,-2.763532975095014,0.7291764101663278,0.8266848331685317,0.5798667011972682,-0.933828429539673,-0.1601521253422793
333,1.324521895856906,0.2717206958811429,1.2939198224442814,6.043063995325092,2.0712137459005246,1.7171234921433873,5.593004027237011,-0.8526583466834259,-2.5283405717091845,0.5304030008039667,1.2192740419285288,1.6788667011972682,0.16517157046032693,-1.2591521253422793
334,1.7255933921136384,0.21601388984997336,1.7084463025779228,6.124965851912444,1.9137818147594439,1.8786697413237594,5.718360649710192,-0.7053166932748907,-2.7635329751340514,0.7291764103327182,0.8266848329116643,0.5798667011972682,-0.933828429539673,-0.16015212534227907
335,1.3245218959136442,0.27172069591491826,1.2939198224945552,6.043063995298628,2.0712137459224436,1.7171234921234488,5.593004027261568,-0.8526583466374453,-2.52834057177712,0.5304030008307157,1.2192740419249755,1.6788667011972682,0.16517157046561803,-1.259152125342279
336,1.7255933920725992,0.21601388981244837,1.7084463025421548,6.124965851976191,1.9137818147352448,1.878669741327478,5.7183606497834525,-0.7053166933565427,-2.7635329751226445,0.7291764101991624,0.8266848331154368,0.5798667011972682,-0.9338284295343819,-0.16015212534227885
337,1.3245218958697427,0.2717206958816897,1.2939198224573931,6.0430639953276035,2.071213745905203,1.7171234921330545,5.593004027248397,-0.8526583466782713,-2.528340571718497,0.5304030008080629,1.2192740419425565,1.6788667011972682,0.16517157046561803,-1.2591521253422788
338,1.7255933920987054,0.21601388981006286,1.7084463025688907,6.124965851978661,1.9137818147500956,1.878669741325793,5.718360649771707,-0.7053166933231844,-2.7635329751195052,0.7291764102454436,0.8266848330476957,0.5798667011972682,-0.9338284295647816,-0.16015212534227863
339,1.324521895878132,0.2717206958888608,1.293919822464134,6.043063995322207,2.071213745909618,1.7171234921406027,5.593004027288299,-0.8526583466615922,-2.5283405717716034,0.5304030007951119,1.2192740419466346,1.6788667011972682,0.16517157043521835,-1.2591521253422786
340,1.7255933920982451,0.21601388981525527,1.7084463025675647,6.1249658519714565,1.9137818147458288,1.8786697413268718,5.718360649828111,-0.7053166933410127,-2.7635329751675055,0.7291764101884819,0.8266848331354931,0.5798667011972682,-0.9338284295647816,-0.16015212534227885
341,1.3245218958792735,0.2717206959014292,1.2939198224626525,6.043063995310098,2.071213745915074,1.7171234921270553,5.593004027268041,-0.8526583466705063,-2.5283405717535037,0.5304030007863021,1.219274041987727,1.6788667011972682,0.16517157044050945,-1.2591521253422788
342,1.725593392113586,0.21601388984281736,1.7084463025787382,6.124965851930203,1.9137818147412764,1.8786697413294737,5.718360649820852,-0.705316693330875,-2.763532975199903,0.7291764102081358,0.826684833100634,0.5798667011972682,-0.9338284295594905,-0.16015212534227863
343,1.3245218958900074,0.2717206959129868,1.2939198224710946,6.043063995293899,2.0712137459136413,1.7171234921097103,5.593004027261354,-0.8526583466654375,-2.528340571767438,0.5304030008016529,1.2192740419967416,1.6788667011972682,0.16517157043521835,-1.2591521253422786
344,1.7255933921246194,0.2160138898215519,1.7084463025930543,6.124965851964121,1.913781814737981,1.8786697413294033,5.718360649847381,-0.7053166933431172,-2.763532975193843,0.7291764101892813,0.8266848331331895,0.5798667011972682,-0.9338284295951813,-0.1601521253422784
345,1.3245218958780312,0.27172069589214365,1.2939198224634856,6.043063995316217,2.071213745907969,1.717123492122679,5.5930040273148816,-0.8526583466715586,-2.528340571797558,0.5304030007723214,1.2192740420165262,1.6788667011972682,0.16517157040481867,-1.2591521253422784
346,1.7255933921091984,0.21601388981638175,1.7084463025782872,6.124965851971616,1.9137818147351333,1.8786697413288715,5.718360649924429,-0.7053166933804216,-2.7635329752399023,0.7291764100823988,0.8266848333014872,0.5798667011972682,-0.9338284295951813,-0.16015212534227818
347,1.3245218958658411,0.27172069589578135,1.2939198224505128,6.0430639953135685,2.0712137459110997,1.7171234921093512,5.593004027296486,-0.8526583466902108,-2.528340571766545,0.5304030007544622,1.219274042071405,1.6788667011972682,0.16517157040481867,-1.2591521253422782
348,1.7255933921293758,0.21601388979525094,1.708446302601788,6.124965852015785,1.9137818147483374,1.8786697413364615,5.718360649934527,-0.7053166933596622,-2.7635329752168087,0.7291764101128075,0.8266848332457306,0.5798667011972682,-0.933828429625581,-0.16015212534227796
349,1.3245218958587748,0.2717206958928516,1.2939198224436597,6.043063995322719,2.0712137459171505,1.7171234921349288,5.593004027347526,-0.8526583466798311,-2.5283405718105536,0.530403000718592,1.2192740420766248,1.6788667011972682,0.16517157036912788,-1.259152125342278
350,1.7255933921183528,0.21601388976845487,1.7084463025948409,6.124965852045394,1.9137818147498253,1.878669741325699,5.718360650014705,-0.7053166933719829,-2.763532975254415,0.7291764100595193,0.8266848333446666,0.5798667011972682,-0.9338284296308721,-0.16015212534227774
351,1.3245218958545628,0.2717206959054653,1.2939198224367658,6.043063995324258,2.0712137459401703,1.7171234921320806,5.593004027349726,-0.8526583466859914,-2.52834057179072,0.5304030006751712,1.2192740421520467,1.6788667011972682,0.16517157036912788,-1.2591521253422777
352,1.7255933921392992,0.21601388980249514,1.7084463026108174,6.124965851992637,1.9137818147496781,1.878669741327253,5.718360649935461,-0.7053166933719723,-2.7635329752351514,0.7291764100695618,0.8266848333292321,0.5798667011972682,-0.9338284296612718,-0.16015212534227752
353,1.3245218958490028,0.2717206958799669,1.293919822436759,6.043063995328567,2.0712137459041684,1.717123492120953,5.593004027365342,-0.8526583466859862,-2.5283405718267056,0.5304030007272765,1.2192740420884842,1.6788667011972682,0.1651715703440193,-1.2591521253422775
354,1.7255933921724063,0.21601388981512623,1.7084463026421544,6.124965851972186,1.9137818147586698,1.878669741326768,5.718360649981409,-0.7053166933183417,-2.76353297530407,0.7291764101434104,0.8266848332137058,0.5798667011972682,-0.9338284296559807,-0.1601521253422773
355,1.3245218958891831,0.2717206959262865,1.293919822467343,6.043063995298351,2.0712137459414177,1.7171234921116432,5.593004027381683,-0.8526583466591708,-2.5283405718658374,0.5304030006953557,1.2192740421580925,1.6788667011972682,0.1651715703440193,-1.2591521253422773
356,1.7255933921714637,0.21601388980680708,1.7084463026424968,6.124965851972337,1.9137818147443164,1.878669741316832,5.718360649955921,-0.7053166933182946,-2.7635329752876476,0.7291764101858703,0.8266848331609589,0.5798667011972682,-0.9338284296559807,-0.16015212534227707
357,1.3245218958921567,0.27172069591911335,1.2939198224719703,6.0430639953054035,2.0712137459387616,1.717123492113361,5.593004027395258,-0.8526583466591473,-2.5283405718742276,0.5304030006953693,1.2192740421547001,1.6788667011972682,0.1651715703440193,-1.259152125342277
358,1.725593392137722,0.2160138898045798,1.708446302608838,6.124965851987503,1.9137818147475267,1.878669741325921,5.71836064995751,-0.7053166933473229,-2.7635329752633786,0.7291764101205607,0.826684833248234,0.5798667011972682,-0.933828429625581,-0.16015212534227685
359,1.324521895875432,0.2717206959042918,1.293919822458337,6.043063995317469,2.0712137459300033,1.7171234921162584,5.593004027353145,-0.8526583466736615,-2.5283405718168295,0.5304030007159486,1.2192740421178538,1.6788667011972682,0.16517157037441899,-1.2591521253422768
360,1.7255933921554594,0.21601388982532047,1.7084463026235928,6.1249658519526955,1.9137818147527748,1.8786697413245335,5.718360649901831,-0.705316693313723,-2.7635329752554534,0.729176410193318,0.8266848331361036,0.5798667011972682,-0.933828429625581,-0.16015212534227663
361,1.3245218958924885,0.2717206959236408,1.2939198224711577,6.043063995290666,2.0712137459268645,1.7171234921128793,5.593004027342424,-0.8526583466568616,-2.528340571846758,0.5304030007401956,1.219274042085151,1.6788667011972682,0.16517157036912788,-1.2591521253422766
362,1.7255933921114843,0.21601388978619435,1.7084463025852386,6.124965852002023,1.9137818147255838,1.8786697413148539,5.718360649996415,-0.705316693405126,-2.7635329752721787,0.7291764100281294,0.8266848334089579,0.5798667011972682,-0.9338284296308721,-0.16015212534227596
363,1.3245218958431226,0.27172069588345704,1.2939198224302957,6.043063995330202,2.0712137459126314,1.7171234921090677,5.5930040273321655,-0.852658346702563,-2.5283405717749683,0.5304030007173504,1.2192740421293737,1.6788667011972682,0.16517157036912788,-1.259152125342276
364,1.725593392102059,0.21601388977758806,1.7084463025770935,6.124965852035873,1.9137818147502343,1.878669741329785,5.718360649978231,-0.7053166933995227,-2.7635329752230433,0.7291764100076773,0.8266848334202563,0.5798667011972682,-0.9338284296308721,-0.16015212534227574
365,1.3245218958260383,0.2717206958777677,1.293919822413916,6.043063995337575,2.0712137459118907,1.7171234921320995,5.593004027329167,-0.8526583466997614,-2.5283405717669836,0.530403000712208,1.2192740420921064,1.6788667011972682,0.16517157036383678,-1.2591521253422757
366,1.7255933921495374,0.21601388979760994,1.7084463026218122,6.12496585200518,1.913781814758569,1.8786697413306268,5.718360650003218,-0.7053166933627139,-2.7635329752812314,0.7291764100475635,0.8266848333594565,0.5798667011972682,-0.9338284296665629,-0.16015212534227552
367,1.324521895857545,0.27172069590818837,1.293919822439048,6.04306399530584,2.0712137459208897,1.7171234921216503,5.593004027364339,-0.8526583466813569,-2.5283405718396454,0.5304030006960294,1.2192740421366959,1.6788667011972682,0.1651715703334371,-1.2591521253422755
