jkpark150901/flame_robotics_drt/experiment/inspection_ik/session_20260716_113329/fallback/inspection_ik_20260716_113616_dda_rb10_1300e_raw_fallback.csv
iteration,err_norm,position_error,orientation_error,tcp_x,tcp_y,tcp_z,q0_dda_joint_linear_track,q1_dda_joint_carriage,q2_dda_joint_base,q3_dda_joint_shoulder,q4_dda_joint_elbow,q5_dda_joint_wrist1,q6_dda_joint_wrist2,q7_dda_joint_wrist3
0,5.156334310537529,4.581373719352002,1.7177794673188065,0.47255,3.7499999999986655,2.697,0.0,0.0,0.0,0.0,0.0,0.0,0.0,0.0
1,4.050541870681639,3.493127172661953,1.579991296658469,1.512791780332413,3.3251139367377087,2.6688247387494766,1.073558156214107,-0.1317184829752015,-0.117690139899757,-0.155659092660166,-0.0749551781444809,0.00014411492083307546,-0.09710912693570316,0.015574935200762098
2,4.725614734850657,2.756591472415598,3.1375956245047125,3.41123473842584,4.292026484957756,0.7761556433858161,3.153908196094158,1.0,-2.8794108405260554,-3.14,-1.4017843300027522,3.14,2.496317739464696,1.5015469344815535
3,3.8798351529757467,2.536737651987253,2.308070001630673,4.738129442753067,4.2975258703561785,0.7797388630463693,4.579114793243484,1.0,-3.14,-3.14,-1.5183204594873456,3.14,2.967601557271607,2.0874016688223627
4,3.486730865226778,2.389276507758408,2.0155748909422537,5.781107161880689,3.623624710563948,0.5168192402195573,5.620566157069697,0.2529328582825656,-3.14,-3.14,-1.059710607113172,2.689276252106212,3.097496750438313,2.5509759787770276
5,3.352596899772837,2.327854337415953,1.938075210699854,6.262774951529384,2.8728440489180507,0.3952148259770051,6.102585442898473,-0.5931106702345318,-3.14,-3.14,-0.7824904294720942,2.4146785172962453,3.0682301320182774,2.685639321861964
6,3.287713129130328,2.2139746177357242,1.9828718767429299,6.349964134128384,2.415165993133847,0.4608718904593744,6.190398639363193,-1.0,-3.14,-3.14,-0.9146181256604049,2.567888940776383,3.0092017085018306,2.6132292389545184
7,3.250544567159163,2.1362842603939116,2.019200271961384,6.307863525108395,2.3736856956469685,0.5265318324406741,6.148532901122361,-1.0,-3.14,-3.14,-1.04082516925439,2.7288679924223245,2.9908614463102015,2.5787054643273755
8,3.22322679794178,2.1029482408871565,2.022913418323748,6.283385076086305,2.3628382536818604,0.5474253902278788,6.123941625928177,-1.0,-3.14,-3.14,-1.075125935100625,2.802796472964769,2.9964350698147357,2.6055706397355047
9,3.196980744669268,2.07991444798748,2.017879664114895,6.264515031837447,2.357016805244791,0.5593254141777863,6.104924967123029,-1.0,-3.14,-3.14,-1.0925344093822953,2.8565640207789995,3.0048410300774098,2.645230465335628
10,3.1711768513628398,2.060359596845035,2.0099225135853556,6.248948787677874,2.351874444226866,0.570103316054654,6.089258058083069,-1.0,-3.14,-3.14,-1.107900236176898,2.9047050287279417,3.010802853582485,2.6868681266566794
11,3.1457088517218588,2.0423597422652082,2.0007449792510434,6.235820269368644,2.3464465872527756,0.5817449036636613,6.076085368034734,-1.0,-3.14,-3.14,-1.1244740750382385,2.952374455238748,3.0131663964570063,2.7284841325930764
12,3.120404276737036,2.0252511395504778,1.9907937543227616,6.224424346123557,2.34068176093022,0.5943927984185314,6.06469473137706,-1.0,-3.14,-3.14,-1.1421026891197243,3.001677070879141,3.0121986897091713,2.770800808848091
13,3.0949314458371058,2.008631454362809,1.9801033163771562,6.214014271089025,2.334712200574828,0.6076747996862477,6.054330099702063,-1.0,-3.14,-3.14,-1.1598314943427572,3.0536115928309546,3.008587023856916,2.8152196989789213
14,3.068799505525251,1.992092815001193,1.9685431320635407,6.203834144120291,2.328620230507463,0.6211795648141338,6.04422781720264,-1.0,-3.14,-3.14,-1.1767903013331023,3.1087777380058483,3.003026173959089,2.8631207380390244
15,3.029902558866881,1.9769036189426223,1.9421971088329069,6.193171786294253,2.3240540713211075,0.6318002871397546,6.033673114953857,-1.0,-3.14,-3.14,-1.192449331214174,3.14,2.996046311159705,2.915667766096311
16,2.9699220938884388,1.9587600956197837,1.8960082880777436,6.181283112167146,2.3191082708280355,0.6462024731186731,6.0220567777019305,-1.0,-3.14,-3.14,-1.2220478587223569,3.14,2.980280687237331,2.96019307243375
17,2.897991118476602,1.9317699751475172,1.8448051927360691,6.168028371931625,2.3107403414393186,0.6751222499831148,6.009449129952873,-1.0,-3.14,-3.14,-1.28033886618596,3.14,2.9481010676615593,2.9842778565552233
18,2.8202643977707686,1.8989184244655606,1.7922111033541634,6.153935243856719,2.3023818162083565,0.7154252152544958,5.996487097090871,-1.0,-3.14,-3.14,-1.359641670480422,3.14,2.902269806065765,2.994846389447818
19,2.742996012633189,1.8630615268337491,1.7424642965198347,6.139442628312112,2.2971488907807958,0.7640416989526628,5.9837583948812,-1.0,-3.14,-3.14,-1.4532137085648114,3.14,2.8447341397147383,2.9977838934359453
20,2.671070058629436,1.8264907215428527,1.6992186197659396,6.124695319802448,2.2973464099740046,0.8181585776088737,5.971588660876634,-1.0,-3.14,-3.14,-1.5558947444911053,3.14,2.7765253295626815,2.998511282822116
21,2.6073363550937345,1.79047430335633,1.6651133354391559,6.109194808687368,2.3044740937278325,0.8755120991874092,5.959696173701756,-1.0,-3.14,-3.14,-1.664554094950035,3.14,2.697903035357762,3.0024899269165726
22,2.552680457834073,1.75493591773715,1.6420100168974627,6.091425065319839,2.3196014471567836,0.9345869065117768,5.946818018081147,-1.0,-3.14,-3.14,-1.7783668591730233,3.14,2.6086605413872777,3.0156270205668734
23,2.5067644610354844,1.718331192187082,1.631808932497886,6.0684856526301525,2.343957923039972,0.99462043625446,5.930320362385724,-1.0,-3.14,-3.14,-1.8990800317257868,3.14,2.5086080686735834,3.044626958457614
24,2.4697001081552084,1.6778292146883176,1.6379323072204808,6.03578021893199,2.3796880426234694,1.0553876257665151,5.905811071215428,-1.0,-3.14,-3.14,-2.031537843736996,3.14,2.3983538589193305,3.097285957582078
25,2.463827737743049,1.6302215640589464,1.6875744595412892,5.986958617556579,2.430956546519654,1.1167164439661732,5.866912158500266,-1.0,-3.14,-3.14,-2.1849965377081735,3.14,2.2805714827486807,3.14
26,2.514279885651646,1.58074842207952,1.7973966458396429,5.9220169668493785,2.5026807269779336,1.1750183632658577,5.812136216495419,-1.0,-3.14,-3.14,-2.368967865071516,3.14,2.1715158885764243,3.14
27,2.6275694150421485,1.5513857381144789,1.9467744366717696,5.853524538735478,2.6072578750239086,1.2253521099813947,5.751102253066265,-1.0,-3.14,-3.14,-2.6104002517534366,3.14,2.0973272390951405,3.14
28,2.914438865998269,1.5931192235474285,2.1970571972644084,5.7910070321836455,2.8009414286825383,1.2457009622892214,5.691238563077415,-1.0,-3.14,-3.14,-3.0305045553096144,3.14,2.074155564122322,3.14
29,2.8753920544764866,1.5908416629524489,2.1431788870944484,5.7587811015321435,2.8380076691430745,1.2374394461860696,5.640058918859214,-1.0,-3.14,-3.14,-3.14,3.14,2.2729335185018473,3.14
30,2.622799146302872,1.569154119507791,1.8859567176072325,5.730049401912279,2.845473295227161,1.2546418041464573,5.5912531167212185,-1.0,-3.14,-2.9287225307772196,-3.1343527271825575,3.14,2.5296943401064365,3.14
31,2.4194833659780945,1.4874905981495452,1.7337786710169827,5.66967402985484,2.8496750203368175,1.5353555037928963,5.526962588009651,-1.0,-3.14,-0.9837217327779473,-3.14,3.14,2.59112662918552,3.14
32,2.4639437542868303,1.5101073101831861,1.7601551000146014,5.5846992033702785,2.9547572027611264,1.3746453735892015,5.442265305743033,-1.0,-3.14,-1.137048004999061,-2.7983408430386194,3.0222913440934693,2.5893180834706144,3.14
33,2.4792730836300287,1.5099183785102892,1.7784531177970795,5.499680239653771,2.9969326987442955,1.234376986890084,5.355807095928587,-1.0,-3.14,-1.3815488649748469,-2.560796293322255,3.0494385324686983,2.614526014736132,3.14
34,2.46006306206328,1.4732163615767395,1.7913719191328823,5.425159114696016,2.975640998781617,1.1412392114081833,5.279402858378825,-1.0,-3.14,-1.5936197327643202,-2.4395480659619517,3.1388080067265234,2.6470513770848854,3.14
35,2.3995929374471165,1.4367337527122377,1.7573820822305188,5.373456877203781,2.940463171492377,1.081282018158463,5.225922313867487,-1.0,-3.14,-1.7644386024069012,-2.3854533707981984,3.14,2.679217344166402,3.14
36,2.3206373270444747,1.3925945732550116,1.7071059829631474,5.346425691919861,2.8985936299647297,1.0762288941036748,5.198061992751539,-1.0,-3.14,-1.878717539316629,-2.4224882300557096,3.14,2.694138078713596,3.14
37,2.2416728369359045,1.3530549180597247,1.6511816779323796,5.339989085348416,2.8676066991820015,1.1133131454901828,5.192231304604046,-1.0,-3.14,-1.9473629432278583,-2.523433764421859,3.14,2.6812876641106187,3.14
38,2.181530966254171,1.3260226741261443,1.6050910140522936,5.343137052159768,2.8582935477461984,1.179170332767804,5.197613117856977,-1.0,-3.14,-1.9712347632585896,-2.6646725855607176,3.14,2.639509457809541,3.14
39,2.150778195628125,1.3136049688346139,1.5798705514384812,5.345386332231381,2.8720562647262566,1.261977341569101,5.203622905047,-1.0,-3.14,-1.9427195858593904,-2.826282962902089,3.14,2.5763075042123935,3.14
40,2.1431347564842493,1.3103197745750714,1.5734244065380814,5.341615588796216,2.8976627395317625,1.3514393271419864,5.204502394459051,-1.0,-3.14,-1.8560231158687603,-2.9860619968239757,3.14,2.5061377963652642,3.14
41,2.1403063701512757,1.305774721537194,1.5737896228719703,5.333341962078011,2.915793158483675,1.43516260406113,5.200570535537317,-1.0,-3.14,-1.7243025309806348,-3.1167856153750817,3.14,2.4460680546063553,3.14
42,2.1302074767588213,1.292370342277042,1.573870146998736,5.325274126253297,2.910391349289948,1.472454490791071,5.195556253102433,-1.0,-3.14,-1.581312564838374,-3.14,3.14,2.4059324630915238,3.14
43,2.1251190403868008,1.28097386756955,1.5778594534366837,5.3209289857213635,2.9013272145548274,1.4903422204082684,5.192333197898509,-1.0,-3.14,-1.4746663815669314,-3.14,3.14,2.3914851179147663,3.14
44,2.126468131002558,1.2737913361672817,1.585559160208892,5.318879050661749,2.8941410036025808,1.4942087053598692,5.190297276520396,-1.0,-3.14,-1.4015895865310837,-3.124842450925275,3.14,2.3911640631896742,3.14
45,2.1367846954219876,1.2725634265198007,1.5985715156885625,5.317922057861498,2.891547202708024,1.478746785990762,5.188769742006997,-1.0,-3.14,-1.3569996061971146,-3.0785595676740876,3.14,2.3983333140764183,3.14
46,2.1558615489045194,1.2782787861257234,1.615850375705076,5.316744777124212,2.8956521902630783,1.4481803973597542,5.186611247208686,-1.0,-3.14,-1.3425803409473984,-3.009008037681212,3.14,2.4109715052048806,3.14
47,2.180204313511157,1.289607729864165,1.6345405935011534,5.314123384658242,2.905291710877628,1.407275455327282,5.182733283998986,-1.0,-3.14,-1.3577081398995348,-2.925651106239534,3.14,2.4275134183646325,3.14
48,2.2040317992126433,1.3031158203873776,1.6509133606726425,5.309351723841695,2.91666566979096,1.3615407631324405,5.176525605423049,-1.0,-3.14,-1.3980697573630843,-2.8400272356821437,3.14,2.446820925757905,3.14
49,2.2216235715688812,1.3146034191906637,1.6619000472172079,5.302624660890572,2.925297502456291,1.31719106611673,5.168267953308659,-1.0,-3.14,-1.454959831131609,-2.764327371293711,3.14,2.467828693337644,3.14
50,2.2297297903670077,1.321124348651559,1.6661467604858264,5.295129753053717,2.9284770557607285,1.2801003618354396,5.159253511553672,-1.0,-3.14,-1.5175093140216576,-2.708273312802088,3.14,2.4891248877486607,3.14
51,2.2281734753669924,1.322032862237836,1.6638722718990313,5.288582143602345,2.9262040860603133,1.2543617771351048,5.151332973768717,-1.0,-3.14,-1.5763767453356945,-2.6768725867581167,3.14,2.5087708363204637,3.14
52,2.2188575161256274,1.318489502601886,1.6562183036507736,5.284435748452913,2.9203350349115,1.2416911018238712,5.146108679434847,-1.0,-3.14,-1.625562437798705,-2.670498379007185,3.14,2.5244748213436936,3.14
53,2.20464043520795,1.3124041400832749,1.644875499797637,5.283294133073313,2.9133037466466947,1.2417840237629332,5.144312524252604,-1.0,-3.14,-1.661856115800666,-2.6862534092046295,3.14,2.5340993533957783,3.14
54,2.188604316482548,1.3056149173083906,1.6319038856526447,5.284796223007016,2.9072303464205467,1.2529534415008456,5.145656888371502,-1.0,-3.14,-1.683614229257598,-2.719328468459315,3.14,2.5363331477342275,3.14
55,2.1734689288369315,1.2994247952676403,1.6194071467630455,5.287928868012515,2.9034011388035807,1.2726312695523596,5.14912445359184,-1.0,-3.14,-1.6900987638751288,-2.7639254164876195,3.14,2.5311986501976063,3.14
56,2.1610676449013417,1.2944285372636226,1.6090521088022254,5.29153959491838,2.902036452673429,1.2977051973773708,5.1534771423647,-1.0,-3.14,-1.6815706325943238,-2.8138248286296887,3.14,2.520123310502364,3.14
57,2.15212252883152,1.290606637337071,1.601725455394479,5.294776924592881,2.90242236026997,1.3247904078444714,5.157712108366455,-1.0,-3.14,-1.6597430735854786,-2.86284404828802,3.14,2.505547012500936,3.14
58,2.146501225524655,1.2876400396297674,1.5975651255023249,5.297273826038697,2.903422561665424,1.3505316752342607,5.161278644062088,-1.0,-3.14,-1.6280288629001276,-2.905394992394102,3.14,2.4902450348923417,3.14
59,2.143779581441543,1.2852877219540706,1.5962917173248625,5.299058880387844,2.9041340622882243,1.3719788952761558,5.1640325968254555,-1.0,-3.14,-1.5911836259642689,-2.9371314945577334,3.14,2.476640393749046,3.14
60,2.1436896332668405,1.283609249382363,1.5975405654240251,5.300325420055138,2.904300257162461,1.3869717780350244,5.166041729178177,-1.0,-3.14,-1.5544079242908744,-2.9554516117085416,3.14,2.466362933383571,3.14
61,2.146183917100116,1.2829237234498194,1.60097678921076,5.301224584023622,2.9042724748453,1.3943881341861255,5.167393612650963,-1.0,-3.14,-1.5223699903552186,-2.9596449935541753,3.14,2.4601587901751865,3.14
62,2.1511939891227128,1.2835833222116197,1.606214360118873,5.301774350956632,2.9046454938365787,1.3941685966637873,5.168098077390908,-1.0,-3.14,-1.4985577710109552,-2.9507094054232033,3.14,2.458057943298711,3.14
63,2.158337716906123,1.2857245184879986,1.6126915961719237,5.301881201526933,2.9058477482622367,1.3871642746765798,5.168091651930052,-1.0,-3.14,-1.4850165441201078,-2.93101234312105,3.14,2.459627790010879,3.14
64,2.1667778872417713,1.2891219016022866,1.6196303928905489,5.30142450366607,2.9078941491112014,1.3749119343929477,5.167304873795381,-1.0,-3.14,-1.482312462229027,-2.903921609486064,3.14,2.464187828043295,3.14
65,2.175307382030989,1.2931988174864135,1.6261217825639622,5.300352545125081,2.9103748894790513,1.3593988514189994,5.165746733873675,-1.0,-3.14,-1.4896084740793025,-2.8734032261628153,3.14,2.470940144893769,3.14
66,2.1826219680921075,1.2971867583897196,1.6313021371742902,5.298751102680653,2.912647690161,1.3428171105486864,5.1635674561381215,-1.0,-3.14,-1.5048709352223077,-2.843537818124082,3.14,2.4790258945853796,3.14
67,2.1876562656704075,1.3003638863288132,1.6345378304902647,5.296856747097888,2.914121553330099,1.3272931447275114,5.161069280743797,-1.0,-3.14,-1.525257565537933,-2.817974083746503,3.14,2.487545495625952,3.14
68,2.1898342911534994,1.3022627889832217,1.6355413586198606,5.295004946758417,2.9144862219871905,1.314616078280951,5.158652147475425,-1.0,-3.14,-1.5476378199098353,-2.799438734407346,3.14,2.4955856891903903,3.14
69,2.18914730214823,1.302759875095394,1.6343912263966653,5.293531715891915,2.9137886157522725,1.3060257083890612,5.156711024699924,-1.0,-3.14,-1.5690906555133473,-2.789441401422667,3.14,2.502282540630254,3.14
70,2.186069349223433,1.3020333710050103,1.631475251307081,5.292672270126391,2.9123557700945497,1.3021104952076648,5.155528307159879,-1.0,-3.14,-1.587241114403063,-2.7882289773765305,3.14,2.5069229481838295,3.14
71,2.1813784998424044,1.3004412403093226,1.627389396918415,5.292501261713584,2.91063497722714,1.302819944839306,5.155207421956042,-1.0,-3.14,-1.6004115110602135,-2.794942505398172,3.14,2.509059828649526,3.14
72,2.175953902008905,1.2983862247776352,1.6228160116411479,5.292935430055099,2.9090320368039753,1.3075596648015178,5.155670677363771,-1.0,-3.14,-1.607654193569765,-2.8078874835694636,3.14,2.508599791141146,3.14
73,2.1706006371786635,1.296215908603327,1.6184026848928417,5.293787916103686,2.9078032539858185,1.3153315011261,5.156712443847726,-1.0,-3.14,-1.6087390180854244,-2.8248443695089853,3.14,2.5058253609231804,3.14
74,2.1659372166547666,1.2941777209233616,1.6146669836178134,5.294842559742612,2.907025328309041,1.32489303094216,5.158076809772783,-1.0,-3.14,-1.6041205670245546,-2.8433796958278394,3.14,2.5013361298166936,3.14
75,2.162359597652856,1.292424464490505,1.6119477699174982,5.29591478100082,2.9066373256416838,1.3349221845020063,5.159525848164077,-1.0,-3.14,-1.59486506980603,-2.8611391655358687,3.14,2.4959233159001717,3.14
76,2.160067427186309,1.2910486244198636,1.610405183809799,5.296880001815899,2.9065227765613666,1.3441760715561741,5.160877753866428,-1.0,-3.14,-1.5825082196784312,-2.876105862498493,3.14,2.49041529770863,3.14
77,2.159115994436544,1.2901171783380694,1.6100509224495416,5.297670284179048,2.9065871082683588,1.3516300136019983,5.162013060306126,-1.0,-3.14,-1.5688415011031405,-2.8868003262955044,3.14,2.485537842108274,3.14
78,2.159456940273564,1.2896856855591348,1.6107838322608412,5.298253718270419,2.906794978043516,1.3565800793613974,5.1628611475149775,-1.0,-3.14,-1.555660823865326,-2.892399885979623,3.14,2.4818209465974816,3.14
79,2.160951715542858,1.2897870185509044,1.612415843612331,5.298613727551307,2.9071588198946685,1.3586960700304838,5.163382974899841,-1.0,-3.14,-1.544529152576091,-2.892767512679567,3.14,2.479562332945594,3.14
80,2.1633672237848094,1.290406135418498,1.614689053704726,5.29873910060036,2.907696756213597,1.3580217717923266,5.163561031630138,-1.0,-3.14,-1.5365958483828193,-2.8883974751556996,3.14,2.4788377360919998,3.14
81,2.1663761149186542,1.2914593196291784,1.6172940222792185,5.298626420908737,2.9083898414934195,1.35492953835847,5.163399324223387,-1.0,-3.14,-1.532493051627042,-2.88029562500734,3.14,2.4795386191261173,3.14
82,2.1695802500199517,1.2927927808803916,1.6198980607720723,5.298289762211387,2.9091628208861087,1.350041650060572,5.162929603325039,-1.0,-3.14,-1.532311029809165,-2.8698140940466406,3.14,2.481419270798722,3.14
83,2.1725612786613158,1.294205305866079,1.6221843432886787,5.297769894916526,2.9098965748909404,1.3441313950510327,5.162217022676797,-1.0,-3.14,-1.5356453093810651,-2.858459471900103,3.14,2.484142472200769,3.14
84,2.1749468053903103,1.2954882884833103,1.6238945055397325,5.297136360188889,2.910463827227382,1.3380159208016973,5.161358984684967,-1.0,-3.14,-1.5417030236806049,-2.847695521931213,3.14,2.4873205861129497,3.14
85,2.176472063959942,1.2964689507758058,1.6248637612877161,5.296479404224946,2.9107698605427106,1.3324530182685832,5.160474167418471,-1.0,-3.14,-1.5494490009988877,-2.8387651502078923,3.14,2.4905536659024867,3.14
86,2.177018537266665,1.29704199092488,1.625039552448571,5.295893431036259,2.9107801672916853,1.3280542865651461,5.159683273146857,-1.0,-3.14,-1.5577655798270504,-2.832556162220265,3.14,2.4934670038992324,3.14
87,2.176620262523627,1.2971809141494326,1.6244801542951548,5.295457481029083,2.9105254037841677,1.3252252520562429,5.159086994064832,-1.0,-3.14,-1.5655996868739133,-2.829527772551054,3.14,2.4957482402769657,3.14
88,2.1754398969727573,1.2969291177988516,1.6233352148213982,5.295219565500935,2.91008512793252,1.3241382012573366,5.15874820830522,-1.0,-3.14,-1.5720783106971914,-2.829702066950224,3.14,2.49718063055617,3.14
89,2.173724816341973,1.2963777474430047,1.6218139295180594,5.2951899095713255,2.909559848122528,1.3247374055263397,5.158683781458258,-1.0,-3.14,-1.5765847628260066,-2.8327123612875313,3.14,2.497666501815171,3.14
90,2.1717565577008546,1.2956398319005686,1.6201481852114163,5.295344317155878,2.909043216483551,1.3267714800885408,5.158867509284219,-1.0,-3.14,-1.5787967314610059,-2.8378929761147926,3.14,2.4972348983253965,3.14
91,2.1698054475796598,1.2948285126156187,1.618557917096845,5.29563499741315,2.908603438346119,1.3298450165226035,5.159241713140951,-1.0,-3.14,-1.5786903371079593,-2.8443928608694544,3.14,2.496030248287858,3.14
92,2.1680979163240126,1.2940432278566119,1.6172243097973051,5.296004069471671,2.9082775020727687,1.3334809858730368,5.15973263039407,-1.0,-3.14,-1.576514046777432,-2.8512966882659714,3.14,2.4942835049365897,3.14
93,2.1667986121628844,1.2933636272512612,1.616273659898436,5.296395222154765,2.908076239501648,1.3371857579189634,5.1602647449121095,-1.0,-3.14,-1.572735985054353,-2.857739313401671,3.14,2.4922717136894588,3.14
94,2.1660048848619247,1.292848339576712,1.6157716263541522,5.296761009235069,2.9079946041269196,1.340509297734381,5.160771029113633,-1.0,-3.14,-1.5679699861284457,-2.863001956965074,3.14,2.490274533273158,3.14
95,2.1657490340600143,1.2925351766821322,1.6157254563295338,5.297065685103893,2.9080210234682817,1.3430941606779607,5.161198458886207,-1.0,-3.14,-1.5628890975725638,-2.866581338793953,3.14,2.4885360509938463,3.14
96,2.1660042829941295,1.2924406385327805,1.6160912827783545,5.2972851402463315,2.9081419681376657,1.3447085527854152,5.1615099342642266,-1.0,-3.14,-1.558138027804454,-2.8682266001107037,3.14,2.4872376915350936,3.14
97,2.1666926940303015,1.292558649243151,1.6167844209181004,5.29740587813732,2.9083414370608094,1.3452609927280996,5.161684336076669,-1.0,-3.14,-1.5542564198161206,-2.8679429816415096,3.14,2.4864844322570203,3.14
98,2.1676954206795283,1.2928600783489523,1.617691738079272,5.297424321622586,2.9085979403008815,1.344796654308131,5.161716019919698,-1.0,-3.14,-1.5516225507690717,-2.865965160040244,3.14,2.486303354393192,3.14
99,2.1688664426451645,1.2932949982763748,1.6186857340605512,5.2973466831716225,2.9088824933030555,1.3434777534896596,5.161614153550607,-1.0,-3.14,-1.5504231087436706,-2.862706256390745,3.14,2.4866516825222043,3.14
100,2.1700500176706785,1.293798752138124,1.6196396924513596,5.297188795409689,2.909160052919112,1.3415519952354444,5.161401528759799,-1.0,-3.14,-1.550650365795963,-2.8586906208433227,3.14,2.487431005015897,3.14
101,2.171100274411531,1.2943013341185994,1.6204425253148602,5.296975017377203,2.909394647030432,1.3393140314377963,5.161112183643698,-1.0,-3.14,-1.5521241778436523,-2.8544796531292707,3.14,2.4885048516482215,3.14
102,2.171899814552721,1.2947381452089388,1.6210113519348437,5.296735628514323,2.9095564272280017,1.337065189163767,5.160787418394596,-1.0,-3.14,-1.5545331728179868,-2.850600158218749,3.14,2.4897175787772854,3.14
103,2.172373755219402,1.2950595461613656,1.6212998661079119,5.296502775683988,2.9096279421499265,1.3350764766999976,5.16047039450273,-1.0,-3.14,-1.557487501684314,-2.8474838998831276,3.14,2.490913085249972,3.14
104,2.172496527988572,1.2952370127984354,1.62130121536349,5.296305713256793,2.909607344106554,1.333559070147193,5.160200156428097,-1.0,-3.14,-1.560574885867396,-2.8454249941387677,3.14,2.4919520743406176,3.14
105,2.1722905253670164,1.2952648435408014,1.6210451797197114,5.29616646197321,2.9095075970514213,1.3326451744478969,5.160006293068743,-1.0,-3.14,-1.5634124557580906,-2.8445588096318364,3.14,2.4927265021960787,3.14
106,2.1718176062121506,1.2951577165267283,1.620590521605031,5.2960969479518525,2.9093522993064957,1.3323805277630592,5.15990538754609,-1.0,-3.14,-1.5656886932053136,-2.8448627105101325,3.14,2.4931697868921368,3.14
107,2.1711658765395714,1.2949453990656379,1.6200141759193996,5.296098218621953,2.9091697902592224,1.3327281759991905,5.159899921885282,-1.0,-3.14,-1.567192030854768,-2.846175995605034,3.14,2.4932615623445544,3.14
108,2.1704347143467113,1.2946662865264906,1.6193993017382158,5.296161690030197,2.9089874514857206,1.3335817707562507,5.15997962281552,-1.0,-3.14,-1.5678247400699523,-2.8482342583402382,3.14,2.4930263683067215,3.14
109,2.1697207281870905,1.2943612211497713,1.6188241106133847,5.2962718348185645,2.9088276186395383,1.334785705803975,5.160124634610492,-1.0,-3.14,-1.5676023935994858,-2.850712277292205,3.14,2.4925265852018423,3.14
110,2.1691065067793884,1.2940684662032504,1.6183529203888227,5.296409465350055,2.9087056423455153,1.3361589366107791,5.160309590582295,-1.0,-3.14,-1.5666404689788995,-2.8532693462501877,3.14,2.4918508989598784,3.14
111,2.168653014246428,1.293820101303151,1.6180302357967218,5.296554837891156,2.9086297974526785,1.3375192761947983,5.160507678938224,-1.0,-3.14,-1.565130714999695,-2.855591461103313,3.14,2.491100316063346,3.14
112,2.168395654359477,1.2936396963153125,1.617878028773915,5.296690093796685,2.908602256971843,1.3387052594730042,5.160694067145011,-1.0,-3.14,-1.5633107812632956,-2.8574258054108963,3.14,2.4903740261456355,3.14
113,2.1683435541347995,1.2935409980159793,1.617895933725773,5.296800890802252,2.9086203250260607,1.339593250111224,5.160848395689113,-1.0,-3.14,-1.5614311953055362,-2.8586043548516322,3.14,2.4897571806327474,3.14
114,2.1684814917130475,1.2935274604930498,1.6180638338344409,5.296877318615485,2.9086774500156354,1.3401082529550459,5.160956329463507,-1.0,-3.14,-1.5597238872177843,-2.8590549934814127,3.14,2.4893120431684195,3.14
115,2.1687739571104325,1.293592616386934,1.618346240813829,5.296914279301507,2.9087639727532792,1.3402277931349382,5.16101029211759,-1.0,-3.14,-1.5583760103627626,-2.8588001276683626,3.14,2.489073191779694,3.14
116,2.1691708941857595,1.2937213739492484,1.6186978640077496,5.2969114724830675,2.9088678660122174,1.3399791136756132,5.161009519183006,-1.0,-3.14,-1.5575118420383465,-2.857944223554959,3.14,2.4890467335089315,3.14
117,2.169614611807001,1.293892261062267,1.61906975117968,5.296873034970211,2.908975767592113,1.3394307155663234,5.160959515356096,-1.0,-3.14,-1.557184251558587,-2.856652838500149,3.14,2.4892129703848074,3.14
118,2.1700471812943087,1.2940804459394746,1.6194153504889015,5.296806820995537,2.909074425573584,1.3386798346342943,5.160870962082571,-1.0,-3.14,-1.557375831008456,-2.8551264707499033,3.14,2.4895316678348935,3.14
119,2.170417462574029,1.2942611403427169,1.6196958316506636,5.296723314681783,2.909152397606239,1.3378377728065236,5.160758136675768,-1.0,-3.14,-1.5580085180448344,-2.853572863915845,3.14,2.489948979493244,3.14
120,2.170686851320263,1.2944128451546464,1.6198840683125841,5.296634236819518,2.909201634850512,1.3370150660425133,5.160636974199556,-1.0,-3.14,-1.5589595724864629,-2.8521812628691485,3.14,2.490405100444483,3.14
121,2.170832988951759,1.294519901036035,1.6199668512978769,5.296551004641242,2.9092185383620683,1.3363082931737758,5.160522994044899,-1.0,-3.14,-1.560081205142384,-2.8511015596098432,3.14,2.4908417912572003,3.14
122,2.170851013275929,1.2945739616347927,1.6199451576626007,5.296483275487881,2.9092042100157323,1.335789949182822,5.160429376748751,-1.0,-3.14,-1.5612210294781854,-2.850430380633855,3.14,2.491209009797844,3.14
123,2.17075236030991,1.2945742546907835,1.6198325914880916,5.296437815275688,2.9091638588575393,1.3355022860726735,5.160365475964555,-1.0,-3.14,-1.562240769209208,-2.8502050924872124,3.14,2.4914700120287248,3.14
124,2.170561536711306,1.2945267500477937,1.6196523739209234,5.296417871329763,2.909105559919661,1.3354554439494226,5.160335975856261,-1.0,-3.14,-1.563031203108152,-2.850405608252379,3.14,2.491604456232614,3.14
125,2.170311565618772,1.2944425370270998,1.6194334379353235,5.296423117580375,2.909038707141689,1.3356296369824743,5.1603407762802584,-1.0,-3.14,-1.5635220326725188,-2.850962922651307,3.14,2.4916092778267354,3.14
126,2.170038916549944,1.2943357896592949,1.6192062494284092,5.296450117843416,2.9089725182323574,1.3359806938129335,5.1603755472711885,-1.0,-3.14,-1.5636861013812189,-2.8517726014140052,3.14,2.49149737997399,3.14
127,2.1697786707769757,1.2942216740922388,1.6189989324744554,5.296493159254887,2.9089148567685603,1.336447926753524,5.160432782119936,-1.0,-3.14,-1.5635380916599557,-2.852711057367742,3.14,2.4912944684455733,3.14
128,2.169560498875411,1.2941144659205097,1.618834149513999,5.296545266084603,2.908871492085482,1.3369631396913153,5.160503121000351,-1.0,-3.14,-1.5631284246078174,-2.8536523636390316,3.14,2.491034593946065,3.14
129,2.1694058050667375,1.2940260422111864,1.6187270168450678,5.296599214776915,2.908845783529899,1.3374595792769746,5.160576718245534,-1.0,-3.14,-1.5625335527799187,-2.8544835471024363,3.14,2.490755103574136,3.14
130,2.1693261822612633,1.293964827957039,1.6186841616366596,5.296648416775424,2.9088386953460352,1.3378797690255777,5.1606444703408165,-1.0,-3.14,-1.561844138546424,-2.8551167130143056,3.14,2.490491720530811,3.14
131,2.169323155434866,1.2939352224453073,1.618703877208244,5.296687592249967,2.908849031969975,1.3381814104475556,5.160698984202848,-1.0,-3.14,-1.5611527260881601,-2.8554969024851826,3.14,2.4902743734893162,3.14
132,2.1693890744377566,1.2939375008842575,1.618777221217121,5.296713205568465,2.9088738117709534,1.3383408500788234,5.160735224897669,-1.0,-3.14,-1.5605424349482258,-2.855605201127178,3.14,2.4901242163515396,3.14
133,2.169508937963958,1.29396816430715,1.6188898264115341,5.296723663554251,2.9089087374544365,1.3383539528720778,5.1607508270891795,-1.0,-3.14,-1.560077942480461,-2.8554572247161447,3.14,2.4900520609068257,3.14
134,2.1696628727229013,1.2940206823613896,1.619024149681925,5.296719292440832,2.9089487450858393,1.3382345480793012,5.160746084405837,-1.0,-3.14,-1.5597996235057088,-2.8550976392272873,3.14,2.4900582329731376,3.14
135,2.1698289491542697,1.2940865355498163,1.6191618672943444,5.296702117182839,2.908988609551552,1.3380108864751834,5.160723651407354,-1.0,-3.14,-1.55972124031549,-2.8545917754713006,3.14,2.490133688135001,3.14
136,2.169985992609958,1.2941564237547614,1.619286131504089,5.29667547540593,2.909023559618266,1.3377207403825397,5.1606880106014295,-1.0,-3.14,-1.5598310953717631,-2.8540156383721857,3.14,2.490262101024283,3.14
137,2.170116058824217,1.294221480741609,1.6193834378241034,5.296643511176108,2.9090498293627434,1.3374058754912863,5.1606447750738695,-1.0,-3.14,-1.5600961383385277,-2.853445673794943,3.14,2.4904225733809,3.14
138,2.170206294152354,1.294274332595805,1.6194449131609931,5.296610608648341,2.9090650633168,1.337106623627237,5.160599913804665,-1.0,-3.14,-1.5604682088156674,-2.852949548975464,3.14,2.4905925844034456,3.14
139,2.170249993631298,1.2943098664875212,1.6194669179665406,5.296580836514392,2.90906850940053,1.3368571979146522,5.160558996265369,-1.0,-3.14,-1.5608914249749162,-2.852578953169777,3.14,2.4907508238028684,3.14
140,2.170246790001784,1.2943256293256644,1.619450949816374,5.2965574748566855,2.9090609729378034,1.3366822354330306,5.16052654989931,-1.0,-3.14,-1.5613097013336723,-2.8523650765487667,3.14,2.4908795964411707,3.14
141,2.170202032180422,1.2943218404967978,1.6194029270107264,5.296542683488811,2.9090445533529774,1.33659485347821,5.160505606085073,-1.0,-3.14,-1.5616734803380614,-2.852317030914582,3.14,2.490966561794879,3.14
142,2.170125518457572,1.294301063322394,1.6193320045070627,5.2965373467525305,2.9090222263500713,1.336596292784147,5.160497479341146,-1.0,-3.14,-1.5619449616192238,-2.852423090320868,3.14,2.4910056655916533,3.14
143,2.170029819843034,1.2942676236413133,1.6192491201163213,5.2965410996944025,2.9089973565287894,1.3366770222043,5.1605017871258685,-1.0,-3.14,-1.5621013718767254,-2.8526543010752574,3.14,2.490997226227175,3.14
144,2.1699284546217097,1.2942268852092322,1.6191654819209194,5.296552511928803,2.908973224814162,1.3368190172077656,5.16051668176025,-1.0,-3.14,-1.5621360991389943,-2.8529697735855404,3.14,2.490947243281545,3.14
145,2.1698341591436936,1.2941844915628151,1.6190911903095673,5.29656938463021,2.908952636271269,1.336998814658379,5.160539238927997,-1.0,-3.14,-1.562057783732725,-2.8533228414384286,3.14,2.490866086156894,3.14
146,2.1697574527712065,1.2941456685500197,1.6190341469898308,5.296589106275182,2.908937646212353,1.3371908959974423,5.160565932963488,-1.0,-3.14,-1.5618876871812872,-2.8536672581165368,3.14,2.4907667851378186,3.14
147,2.1697056305837266,1.2941146582765404,1.6189993486079244,5.296609013716407,2.908929415690151,1.3373709594505503,5.160593128007946,-1.0,-3.14,-1.5616558291094564,-2.8539626872235084,3.14,2.4906631767733023,3.14
148,2.1696822487274146,1.2940943298264844,1.6189886040212145,5.296626714011558,2.9089281879306568,1.337518701731584,5.160617523349264,-1.0,-3.14,-1.561396478260327,-2.8541789061776233,3.14,2.490568148378185,3.14
149,2.1696871034316545,1.2940859881807005,1.619000659847877,5.296640335237661,2.9089333666862736,1.3376198283209546,5.160636506690594,-1.0,-3.14,-1.5611436022811345,-2.85429835799637,3.14,2.490492187171571,3.14
150,2.169716650919511,1.2940893812686216,1.619031674036166,5.296648687930127,2.9089436737160437,1.3376671330186611,5.160648386743827,-1.0,-3.14,-1.5609268260294618,-2.854316920574648,3.14,2.490442377639082,3.14
151,2.1697647740112633,1.2941028858909678,1.6190759447727974,5.2966513308182135,2.908957361856329,1.337660615338873,5.160652493643378,-1.0,-3.14,-1.5607683322159815,-2.8542429883983416,3.14,2.4904219180369283,3.14
152,2.1698237731673617,1.294123836406368,1.6191267832535838,5.296648544595336,2.9089724594301187,1.3376067226172645,5.1606491508254,-1.0,-3.14,-1.5606809805134403,-2.8540951526559546,3.14,2.490430155094435,3.14
153,2.169885445865303,1.2941489466224236,1.6191774137570973,5.296641225764673,2.908987020179067,1.3375168993568174,5.160639534747964,-1.0,-3.14,-1.5606677451606332,-2.853898903336994,3.14,2.4904630740780473,3.14
154,2.1699421193229096,1.2941747671285857,1.6192217924012526,5.296630719396841,2.9089993516878843,1.337405690248948,5.160625448945718,-1.0,-3.14,-1.5607224004675913,-2.8536828501670146,3.14,2.49051413531967,3.14
155,2.169987517681481,1.2941981191951017,1.6192552553743145,5.29661861476904,2.909008196537118,1.3372886710693526,5.160609046040018,-1.0,-3.14,-1.5608312394772041,-2.853474965664268,3.14,2.490575320752554,3.14
156,2.1700173741901247,1.2942164531634102,1.6192749357084724,5.296606530711201,2.9090128457639595,1.3371804736221906,5.16059253482539,-1.0,-3.14,-1.5609755087230102,-2.8532992989118795,3.14,2.4906382450832116,3.14
157,2.170029737889405,1.2942280931444186,1.619279921119676,5.2965959173273385,2.9090131736722027,1.3370931317244668,5.160577908806981,-1.0,-3.14,-1.5611341897149986,-2.853173505409963,3.14,2.4906951943625373,3.14
158,2.1700249671666447,1.2942323483801388,1.6192711596443279,5.296587897197849,2.909009594947379,1.3370349128252057,5.160566727392194,-1.0,-3.14,-1.5612867562120483,-2.8531074040030444,3.14,2.490739977145506,3.14
159,2.170005442978829,1.294229491398173,1.619251150254805,5.2965831625009825,2.909002956697589,1.3370097241998178,5.160559971917688,-1.0,-3.14,-1.5614155796991371,-2.8531026259718044,3.14,2.490768506530222,3.14
160,2.1699750667705713,1.2942206206695037,1.619223478533262,5.296581935767554,2.908994386779315,1.3370171042927936,5.160557987184786,-1.0,-3.14,-1.5615077331767018,-2.8531532830001956,3.14,2.4907790708289808,3.14
161,2.169938628236031,1.2942074382919344,1.61919227039841,5.2965839927490235,2.908985123881605,1.337052738457787,5.160560507067414,-1.0,-3.14,-1.561556042066056,-2.8532474659799396,3.14,2.490772291644696,3.14
162,2.1699011346203605,1.2941919800217732,1.6191616390951722,5.296588737746689,2.908976354060856,1.3371093819062538,5.160566751993228,-1.0,-3.14,-1.5615593367114227,-2.853369306878478,3.14,2.4907508058182595,3.14
163,2.1698671871589412,1.29417633585765,1.6191351931144693,5.296595315962927,2.908969073757798,1.3371780363039705,5.160575578220124,-1.0,-3.14,-1.5615219605614241,-2.8535012969566558,3.14,2.490718737693373,3.14
164,2.1698404742254165,1.294162395400825,1.6191156576300783,5.296602744602997,2.9089639925201234,1.33724921234336,5.160585654662974,-1.0,-3.14,-1.5614526708028347,-2.853626556640562,3.14,2.4906810471851784,3.14
165,2.1698234284300084,1.2941516448806272,1.6191046423530544,5.296610044517501,2.9089614814577085,1.3373141180609833,5.1605956426163475,-1.0,-3.14,-1.5613631262105843,-2.8537307905613605,3.14,2.4906428456699237,3.14
166,2.1698170699966277,1.2941450335441016,1.6191025674758979,5.296616356568388,2.9089615671401203,1.337365638470133,5.160604356489407,-1.0,-3.14,-1.5612661860165356,-2.8538037271661256,3.14,2.4906087660336262,3.14
167,2.1698210344947824,1.2941429173171395,1.6191087393482526,5.296621030824498,2.9089639657943156,1.3373990112123386,5.160610888686301,-1.0,-3.14,-1.5611742431114812,-2.8538399250625144,3.14,2.490582457324977,3.14
168,2.169833761922643,1.2941450782092316,1.6191215508353671,5.296623681349222,2.9089681493021162,1.3374121493286573,5.1606146880157455,-1.0,-3.14,-1.561097787782357,-2.8538389162939706,3.14,2.4905662515619253,3.14
169,2.169852807991514,1.294150809606453,1.6191387694002843,5.29662420408837,2.9089734323961762,1.3374056096191458,5.160615587591858,-1.0,-3.14,-1.5610443502584166,-2.853804739077785,3.14,2.4905610241123153,3.14
170,2.1698752283372014,1.2941590510147831,1.6191578695681013,5.296622759741673,2.908979069393828,1.3373822476446602,5.160613784376366,-1.0,-3.14,-1.561017909410613,-2.853744980014669,3.14,2.4905662433859157,3.14
171,2.169897982759774,1.294168551525246,1.6191763656853366,5.296619727190136,2.9089843487370226,1.337346633640441,5.160609777772613,-1.0,-3.14,-1.5610187897158838,-2.8536694919140944,3.14,2.4905801834202266,3.14
172,2.169918309346929,1.294178039663112,1.6191921053174407,5.2966156358193786,2.9089886746006353,1.3373043244577056,5.160604278620072,-1.0,-3.14,-1.5610440074646235,-2.8535889748635586,3.14,2.4906002565023027,3.14
173,2.169934026718097,1.2941863784709122,1.619203492272525,5.296611086740103,2.908991626950759,1.3372610939165652,5.160598102279889,-1.0,-3.14,-1.561087977207059,-2.8535136049505176,3.14,2.4906234134393626,3.14
174,2.1699437352807527,1.2941926884082489,1.6192096197425865,5.296606673337022,2.908992994564813,1.337222218182899,5.160592060103334,-1.0,-3.14,-1.5611434555273487,-2.8534518700341125,3.14,2.4906465567288167,3.14
175,2.16994690347695,1.294196426303554,1.6192103068100567,5.296602910759498,2.9089927793025496,1.3371918960260814,5.160586862457856,-1.0,-3.14,-1.5612025837968444,-2.853409730406694,3.14,2.490666916135318,3.14
176,2.169943840431449,1.2941974152561926,1.6192060439202944,5.296600182032897,2.908991173774385,1.337172859236608,5.16058304386784,-1.0,-3.14,-1.5612578944385027,-2.8533901708048517,3.14,2.490682345873085,3.14
177,2.169935570177898,1.2941958270476863,1.6191978633775355,5.296598705713267,2.9089885178633024,1.3371661998587212,5.16058091712087,-1.0,-3.14,-1.5613031640618524,-2.853393156253805,3.14,2.490691516073523,3.14
178,2.169923633103832,1.294192124354434,1.6191871583526878,5.296598526847853,2.9089852418035327,1.337171412090212,5.160580558949545,-1.0,-3.14,-1.5613340275796166,-2.853415954447648,3.14,2.4906939865827473,3.14
179,2.1699098464000475,1.294186974188025,1.6191754776636815,5.296599529908901,2.908981804431535,1.337186621198758,5.160581825730427,-1.0,-3.14,-1.5613483051118477,-2.85345374734086,3.14,2.4906901664139474,3.14
180,2.1698960568178927,1.2941811461830184,1.6191643236145368,5.296601469764989,2.908978634819094,1.337208952312711,5.160584394098342,-1.0,-3.14,-1.561346032888568,-2.8535004281325373,3.14,2.490681175566875,3.14
181,2.1698839162888897,1.2941754095964082,1.6191549768687774,5.296604014950468,2.9089760840335854,1.3372349801630343,5.160587818863749,-1.0,-3.14,-1.561329225629689,-2.8535494685971834,3.14,2.4906686359766868,3.14
182,2.16987470481884,1.2941704414313004,1.619148366477957,5.296606796635906,2.9089743916429587,1.3372611973745625,5.160591599353369,-1.0,-3.14,-1.561301427057452,-2.853594745462525,3.14,2.4906544241495823,3.14
183,2.1698692167122173,1.294166755368104,1.6191449958003898,5.296609456775158,2.9089736692087618,1.3372844432645143,5.160595245275649,-1.0,-3.14,-1.5612671245727796,-2.8536312312024057,3.14,2.4906404192807985,3.14
184,2.169867716887446,1.2941646576692636,1.619144927199887,5.2966116897644655,2.908973900736992,1.337302245952647,5.160598334279036,-1.0,-3.14,-1.5612311124187754,-2.853655480829902,3.14,2.4906282776384994,3.14
185,2.169869965008964,1.2941642324078284,1.6191478210964267,5.29661327337472,2.9089749581226414,1.3373130459385612,5.160600555245136,-1.0,-3.14,-1.5611978850115864,-2.8536658778988704,3.14,2.4906192575550032,3.14
186,2.169875297391743,1.294165354701969,1.619153018949529,5.2966140864608375,2.908976628164652,1.3373162868473032,5.160601733711034,-1.0,-3.14,-1.5611711299719615,-2.853662635608421,3.14,2.490614110662995,3.14
187,2.1698827508675507,1.2941677274948888,1.6191596556398904,5.2966141127731525,2.908978646804015,1.337312376455843,5.1606018383137675,-1.0,-3.14,-1.561153371165195,-2.8536475786446274,3.14,2.4906130453687267,3.14
188,2.169891209480252,1.2941709350948734,1.6191667847493534,5.296613431887251,2.908980735864314,1.3373025363216111,5.160600969497756,-1.0,-3.14,-1.5611457887890574,-2.8536237549474177,3.14,2.490615759246043,3.14
189,2.169899554134187,1.2941745053737432,1.6191735004262116,5.296612199665062,2.908982637736301,1.3372885697510344,5.1605993336800315,-1.0,-3.14,-1.5611482194597608,-2.8535949417907,3.14,2.4906215291462472,3.14
190,2.1699067969955927,1.2941779722853541,1.6191790416218346,5.296610621641594,2.9089841440995494,1.337272584501172,5.160597207453068,-1.0,-3.14,-1.561159317327847,-2.853565116462915,3.14,2.4906293421284316,3.14
191,2.16991218612238,1.2941809311525796,1.6191828680596287,5.296608923228434,2.908985115826088,1.3372567082029119,5.160594897120113,-1.0,-3.14,-1.5611768399278334,-2.8535379586952443,3.14,2.490638047248766,3.14
192,2.1699152708523664,1.2941830808027661,1.6191847017807512,5.2966073206205095,2.9089854925274117,1.3372428313690121,5.160592698881333,-1.0,-3.14,-1.561198011333215,-2.8535164411238183,3.14,2.490646507876431,3.14
193,2.1699159241763852,1.2941842488322488,1.619184532878203,5.296605995826272,2.908985291612936,1.337232405874866,5.160590864377788,-1.0,-3.14,-1.5612199109337181,-2.853502547600104,3.14,2.4906537362814,3.14
194,2.1699143239035283,1.2941843987194896,1.619182592479421,5.296605078405123,2.9089845980362012,1.337226317215525,5.160589575181446,-1.0,-3.14,-1.5612398385503004,-2.853497139645922,3.14,2.490658996263933,3.14
195,2.169910899215083,1.294183619850124,1.6191792996591796,5.296604635422811,2.908983546945171,1.3372248380734937,5.1605889283740485,-1.0,-3.14,-1.5612556146534535,-2.853499971451226,3.14,2.4906618648939736,3.14
196,2.169906252689554,1.2941821034781573,1.6191751914021155,5.296604669981106,2.908982302105149,1.3372276601946433,5.160588933794228,-1.0,-3.14,-1.5612657865813333,-2.8535098359644846,3.14,2.4906622502458418,3.14
197,2.1699010697700367,1.2941801090215141,1.6191708458127232,5.296605127596592,2.908981033176776,1.3372339925032812,5.160589522057339,-1.0,-3.14,-1.5612697259791988,-2.8535248107539353,3.14,2.4906603676065187,3.14
198,2.1698960278780874,1.2941779257746093,1.6191668085024686,5.296605908825313,2.908979894728818,1.3372427067235448,5.160590561241821,-1.0,-3.14,-1.5612676172568472,-2.85354256366694,3.14,2.4906566813579585,3.14
199,2.1698917161108078,1.2941758351142352,1.6191635306463734,5.296606885944694,2.9089790093257824,1.3372525080575515,5.160591879312753,-1.0,-3.14,-1.5612603499217177,-2.8535606753678975,3.14,2.4906518231045816,3.14
200,2.169888574013708,1.2941740776623176,1.619161324896696,5.296607921252098,2.9089784562692524,1.3372621078350675,5.16059328897681,-1.0,-3.14,-1.5612493377947692,-2.853576938340928,3.14,2.4906464983658223,3.14
201,2.1698868547282966,1.2941728287952188,1.6191603425423675,5.296608884611899,2.9089782667148767,1.3372703772456611,5.160594611728313,-1.0,-3.14,-1.561236294449343,-2.853589599023805,3.14,2.4906413942346637,3.14
202,2.1698866143359763,1.2941721845342036,1.61916057239968,5.296609668232375,2.908978425050286,1.3372764657306366,5.160595698294023,-1.0,-3.14,-1.561222996372929,-2.853597520063067,3.14,2.4906370989801165,3.14
203,2.169887725901904,1.2941721584041306,1.6191618592702084,5.2966101972042,2.908978875696162,1.3372798735745386,5.160596443416298,-1.0,-3.14,-1.5612110635148186,-2.853600251669383,3.14,2.490634041976006,3.14
204,2.169889913936957,1.294172688484337,1.6191639376933893,5.296610434995058,2.908979533949063,1.3372804748232991,5.160596793810414,-1.0,-3.14,-1.561201781684956,-2.8535980130976575,3.14,2.4906324590098814,3.14
205,2.1698928030128024,1.2941736527453316,1.6191664753452712,5.296610383779524,2.9089802991581823,1.3372784930138315,5.160596749068308,-1.0,-3.14,-1.5611959836835705,-2.8535915959315514,3.14,2.490632384445459,3.14
206,2.169895973232849,1.294174889975109,1.6191691198768259,5.296610080108533,2.9089810684309296,1.337274437590933,5.160596356143927,-1.0,-3.14,-1.5611939972266402,-2.8535822089884526,3.14,2.490633668337931,3.14
207,2.169899015204232,1.294176223208799,1.619171543225178,5.296609586923014,2.908981749182492,1.3372690127678077,5.160595698752286,-1.0,-3.14,-1.5611956588757456,-2.853571289569183,3.14,2.490636013815902,3.14
208,2.1699015779809514,1.2941774825928578,1.6191734783579719,5.296608983246589,2.9089822691496394,1.3372630126502982,5.160594883481259,-1.0,-3.14,-1.561200385350951,-2.853560307207582,3.14,2.4906390281156985,3.14
209,2.1699034049691637,1.2941785249991025,1.6191747448438183,5.2966083530313375,2.908982582928628,1.3372572166357481,5.160594024620673,-1.0,-3.14,-1.5612072876346739,-2.853550584222003,3.14,2.4906422797206242,3.14
210,2.1699043547506283,1.2941792483727466,1.6191752613575283,5.29660777458039,2.908982674608178,1.3372522975894154,5.160593229659197,-1.0,-3.14,-1.561215309684048,-2.853543152800158,3.14,2.4906453541240205,3.14
211,2.1699044059085497,1.2941795996428707,1.6191750449931148,5.296607311755688,2.908982556583263,1.3372487524539005,5.160592587117669,-1.0,-3.14,-1.5612233725382385,-2.8535386618939937,3.14,2.490647901686869,3.14
212,2.1699036469578172,1.2941795759224424,1.619174198853363,5.296607007840191,2.9089822650898114,1.3372468612424668,5.160592157934088,-1.0,-3.14,-1.5612305059879283,-2.8535373398344843,3.14,2.4906496726919736,3.14
213,2.1699022541559536,1.2941792195622706,1.619172890637427,5.2966068825140855,2.9089818533428993,1.3372466763396067,5.160591971062138,-1.0,-3.14,-1.5612359533454945,-2.853539011276784,3.14,2.4906505367424825,3.14
214,2.169900461134767,1.2941786083032731,1.619171325741988,5.296606931981417,2.9089813833593765,1.3372480401985467,5.160592023369072,-1.0,-3.14,-1.5612392396013444,-2.8535431607224444,3.14,2.4906504858257685,3.14
215,2.169898524858571,1.2941778422280337,1.619169718679342,5.2966071318999015,2.9089809175901618,1.3372506263245063,5.16059228339239,-1.0,-3.14,-1.5612401986606783,-2.853549030101631,3.14,2.490649622391625,3.14
216,2.169896692378334,1.2941770294151087,1.6191682664161335,5.296607442465721,2.9089805113890206,1.3372539961813095,5.160592698097073,-1.0,-3.14,-1.5612389607085413,-2.8535557351366987,3.14,2.4906481354484478,3.14
217,2.169895172281519,1.2941762721516057,1.6191671266252092,5.296607814814644,2.908980207132269,1.337257663526939,5.160593201505392,-1.0,-3.14,-1.561235905415059,-2.8535623845686056,3.14,2.490646268802587,3.14
218,2.1698941137610177,1.2941756552948511,1.6191664029376827,5.29660819783219,2.908980030516885,1.3372611576884663,5.1605937239663495,-1.0,-3.14,-1.5612315901820937,-2.8535681876621295,3.14,2.4906442860749376,3.14
219,2.169893595004389,1.2941752379479383,1.619166138222982,5.296608544513431,2.908979989246676,1.3372640783080572,5.160594200886298,-1.0,-3.14,-1.5612266646533777,-2.853572538346446,3.14,2.490642437027779,3.14
220,2.1698936213094626,1.2941750490948398,1.6191663158547176,5.2966088171587975,2.9089800740088294,1.3372661358999915,5.160594579932259,-1.0,-3.14,-1.5612217831748894,-2.8535750683727747,3.14,2.490640929100093,3.14
221,2.1698941321262457,1.2941750873000144,1.6191668679687838,5.296608990907512,2.9089802613813704,1.3372671748544347,5.160594826007246,-1.0,-3.14,-1.5612175259083987,-2.853575666384285,3.14,2.4906399070137413,3.14
222,2.1698950152421674,1.294175324081166,1.6191676889881395,5.29660905536181,2.9089805181209454,1.337267177980692,5.160594923637603,-1.0,-3.14,-1.5612143371384486,-2.8535744642034304,3.14,2.4906394420431472,3.14
223,2.1698961256611216,1.2941757101660383,1.6191686522402922,5.296609014309127,2.908980806174407,1.3372662539896518,5.160594876759633,-1.0,-3.14,-1.5612124863543564,-2.8535717954312645,3.14,2.490639531214788,3.14
224,2.1698973064226186,1.2941761835817813,1.6191696273521818,5.296608883775612,2.9089810877401554,1.3372646112115654,5.160594706204889,-1.0,-3.14,-1.5612120543722772,-2.8535681342336776,3.14,2.4906401054851224,3.14
225,2.1698984086641095,1.2941766784158846,1.6191704962575264,5.296608688819136,2.9089813297691074,1.3372625221472159,5.160594445427027,-1.0,-3.14,-1.5612129435232946,-2.85356402373399,3.14,2.4906410449707694,3.14
226,2.169899308602865,1.2941771331283956,1.6191711660453023,5.296608459577781,2.908981507425035,1.3372602840645456,5.160594135166394,-1.0,-3.14,-1.561214908152196,-2.853560003684896,3.14,2.4906421986636613,3.14
227,2.1698999197264435,1.294177497466031,1.6191715774423998,5.296608227124985,2.908981606198089,1.3372581807777553,5.160593817802751,-1.0,-3.14,-1.5612175996333757,-2.853556546160773,3.14,2.490643405797694,3.14
228,2.1699001992344407,1.294177737295934,1.619171708373329,5.2966080196481204,2.9089816225584766,1.3372564500632682,5.160593532105338,-1.0,-3.14,-1.5612206189813038,-2.8535540061301528,3.14,2.4906445161342377,3.14
229,2.1699001485640608,1.2941778369981862,1.6191715726883509,5.296607859374624,2.9089815632244918,1.3372552600225724,5.160593308967666,-1.0,-3.14,-1.5612235699525634,-2.8535525912630497,3.14,2.4906454068509425,3.14
230,2.1698998085591126,1.2941777993872519,1.619171214720923,5.296607760535744,2.908981443278124,1.337254696281464,5.16059316853485,-1.0,-3.14,-1.5612261062261334,-2.853552352564679,3.14,2.4906459943685677,3.14
231,2.1698992504256425,1.2941776434323156,1.619170700765789,5.2966077285030675,2.9089812834758475,1.3372547604179859,5.160593118921467,-1.0,-3.14,-1.561227967633816,-2.853553194764273,3.14,2.4906462402318117,3.14
232,2.1698985640022417,1.294177400282117,1.6191701088232935,5.296607760078005,2.908981107162481,1.3372553786248171,5.160593156506289,-1.0,-3.14,-1.5612290022541568,-2.8535549031337135,3.14,2.490646150965257,3.14
233,2.1698978450339013,1.2941771082496973,1.6191695180215528,5.296607844777985,2.908980937200548,1.3372564184904772,5.160593267602442,-1.0,-3.14,-1.561229173212205,-2.8535571817925884,3.14,2.4906457725556206,3.14
234,2.169897183079408,1.2941768074677977,1.6191689990179137,5.296607966860044,2.9089807932818585,1.337257711033917,5.160593431157777,-1.0,-3.14,-1.5612285509813144,-2.8535596977009328,3.14,2.4906451807869434,3.14
235,2.1698966514342737,1.2941765348898093,1.6191686064265076,5.296608107761345,2.908980689903048,1.3372590747995132,5.160593622053119,-1.0,-3.14,-1.5612272936358804,-2.8535621244703546,3.14,2.4906444690233176,3.14
236,2.1698963000637366,1.2941763201984484,1.6191683739655436,5.296608248620173,2.908980635177178,1.337260338908951,5.160593814540076,-1.0,-3.14,-1.561225618689311,-2.853564180764267,3.14,2.490643735171862,3.14
237,2.169896152074924,1.294176183016237,1.6191683126189986,5.296608372566863,2.908980630535117,1.3372613624182845,5.160593985391816,-1.0,-3.14,-1.5612237707768923,-2.853565659256905,3.14,2.490643069474462,3.14
238,2.16989620377766,1.2941761316145783,1.6191684117152598,5.296608466534595,2.908980671258332,1.3372620480503723,5.160594116419706,-1.0,-3.14,-1.561221989492529,-2.853566443676295,3.14,2.49064254450381,3.14
239,2.1698964279485695,1.2941761631181563,1.619168642486207,5.296608522423905,2.9089807476916008,1.337262349249912,5.160594196121316,-1.0,-3.14,-1.561220481216308,-2.8535665131444,3.14,2.490642208330136,3.14
240,2.16989677957025,1.2941762650228599,1.619168963419185,5.296608537549642,2.908980846918969,1.3372622704190893,5.160594220354013,-1.0,-3.14,-1.5612193978878035,-2.85356593463223,3.14,2.4906420813432284,3.14
241,2.1698972030976065,1.2941764177072845,1.6191693265720335,5.2966085143924495,2.908980954653754,1.3372618610237679,5.160594192056138,-1.0,-3.14,-1.5612188245367888,-2.853564845685341,3.14,2.4906421567252908,3.14
242,2.1698976402203503,1.2941765975325645,1.6191696839933731,5.296608459757759,2.908981057093964,1.3372612049217807,5.160594120149452,-1.0,-3.14,-1.5612187761430432,-2.85356343051375,3.14,2.4906424041333124,3.14
243,2.169898037139608,1.2941767800973114,1.6191699934680153,5.296608383505293,2.9089811425246515,1.3372604066949325,5.160594017840426,-1.0,-3.14,-1.5612192032190115,-2.85356189300942,3.14,2.4906427758116974,3.14
244,2.169898350538083,1.2941769432413772,1.619170222970284,5.296608297046425,2.9089812025018422,1.3372595769376845,5.160593900587086,-1.0,-3.14,-1.5612200045278195,-2.853560430247373,3.14,2.4906432141469526,3.14
245,2.1698985516659675,1.294177069464903,1.6191703534277513,5.296608211813756,2.908981232520085,1.3372588183748042,5.160593784010113,-1.0,-3.14,-1.5612210446614674,-2.8535592095940774,3.14,2.4906436596076342,3.14
246,2.1698986282513446,1.2941771475342594,1.6191703796421317,5.2966081378891925,2.9089812321377884,1.3372582143837846,5.16059368200431,-1.0,-3.14,-1.5612221738614023,-2.8535583517856815,3.14,2.4906440580779177,3.14
247,2.169898584235189,1.2941771731680307,1.6191703094510088,5.296608082938241,2.908981204602306,1.3372578210438,5.160593605255637,-1.0,-3.14,-1.5612232474707766,-2.8535579213746507,3.14,2.490644366770188,3.14
248,2.169898437591767,1.2941771488177076,1.6191701614160523,5.296608051546023,2.9089811560723207,1.337257663292336,5.160593560298833,-1.0,-3.14,-1.5612241427268343,-2.8535579249133134,3.14,2.490644558157995,3.14
249,2.1698982166972423,1.2941770826647703,1.6191699614698736,5.296608044992311,2.9089810945731975,1.337257735217339,5.160593549171654,-1.0,-3.14,-1.5612247711618972,-2.8535583162771223,3.14,2.4906446216666414,3.14
250,2.169897955834553,1.2941769870369264,1.6191697390329536,5.296608061446317,2.9089810288387077,1.337258004014341,5.160593569644347,-1.0,-3.14,-1.5612250855898724,-2.8535590077379562,3.14,2.490644563154941,3.14
251,2.169897690464122,1.2941768764944954,1.6191695231216905,5.2966080965136815,2.908980967189965,1.337258416748539,5.160593615936258,-1.0,-3.14,-1.5612250814115671,-2.8535598848553145,3.14,2.4906444024827805,3.14
252,2.1698974528517065,1.294176765850962,1.6191693389147894,5.29660814403298,2.908980916582015,1.3372589088163214,5.160593679782399,-1.0,-3.14,-1.5612247926807492,-2.853560822999353,3.14,2.4906441696574393,3.14
253,2.1698972685395144,1.294176668371751,1.6191692051410702,5.296608197000019,2.9089808819146072,1.3372594129135913,5.1605937516852896,-1.0,-3.14,-1.5612242839539643,-2.8535617033544676,3.14,2.490643900170031,3.14
254,2.1698971539944933,1.2941765943481924,1.6191691325150943,5.296608248495707,2.908980865661823,1.3372598673831235,5.160593822182564,-1.0,-3.14,-1.5612236393444734,-2.8535624265409383,3.14,2.490643630166083,3.14
255,2.1698971155914744,1.2941765501779317,1.61916912329764,5.296608292505955,2.9089808678312687,1.337260223006341,5.160593882976832,-1.0,-3.14,-1.561222950386044,-2.853562922473634,3.14,2.4906433920463376,3.14
256,2.16989714991235,1.2941765380085903,1.6191691719151895,5.296608324546802,2.908980886222962,1.337260447589703,5.1605939278069535,-1.0,-3.14,-1.5612223042858169,-2.853563155673035,3.14,2.4906432109795165,3.14
257,2.169897245186864,1.2941765559280365,1.6191692664526767,5.296608342040388,2.908980916925335,1.3372605280285077,5.160593952983629,-1.0,-3.14,-1.5612217739325807,-2.8535631258712373,3.14,2.490643102648775,3.14
258,2.1698973835821835,1.2941765986209364,1.6191693907487148,5.296608344423023,2.9089809549639942,1.3372604698665245,5.160593957560494,-1.0,-3.14,-1.5612214106726143,-2.8535628643358284,3.14,2.4906430723718858,3.14
259,2.1698975439776325,1.2941766583638596,1.6191695267788642,5.296608333000606,2.9089809950094843,1.337260294667942,5.160593943158633,-1.0,-3.14,-1.5612212404271097,-2.853562426802999,3.14,2.4906431155558355,3.14
260,2.1698977048411354,1.2941767262041035,1.6191696570111158,5.296608310595315,2.9089810320530876,1.3372600357468432,5.160593913502016,-1.0,-3.14,-1.5612212632644082,-2.8535618842235557,3.14,2.4906432192908348,3.14
261,2.169897846852055,1.294176793161674,1.6191697664543439,5.296608281047863,2.908981061973093,1.337259732938799,5.16059387374994,-1.0,-3.14,-1.5612214561144653,-2.8535613126607897,3.14,2.4906433647727617,3.14
262,2.1698979549829307,1.2941768513079912,1.6191698441866558,5.296608248650146,2.908981081935204,1.3372594271417992,5.160593829727823,-1.0,-3.14,-1.5612217779694233,-2.8535607836397405,3.14,2.4906435301766003,3.14
263,2.1698980198476874,1.2941768946050405,1.619169884235307,5.2966082175835645,2.9089810905965647,1.3372591553048263,5.160593787159172,-1.0,-3.14,-1.5612221766854277,-2.853560356056486,3.14,2.4906436935891616,3.14
264,2.169898038232005,1.2941769194296513,1.619169885771045,5.2966081914297165,2.908981088109613,1.3372589464172764,5.160593750990638,-1.0,-3.14,-1.5612225964021964,-2.85356007045242,3.14,2.4906438356435188,3.14
265,2.169898012828447,1.2941769247532497,1.6191698526657887,5.2966081728044765,2.9089810759463557,1.3372588188743009,5.160593724881203,-1.0,-3.14,-1.561222984626416,-2.8535599460904137,3.14,2.490643941570985,3.14
266,2.1698979512918095,1.2941769119918205,1.6191697925336777,5.296608163146296,2.9089810565830385,1.337258779388798,5.160593710899426,-1.0,-3.14,-1.561223298165791,-2.8535599808880443,3.14,2.4906440024861443,3.14
267,2.169897864799465,1.2941768845788084,1.6191697154247875,5.29660816266787,2.9089810330977013,1.3372588234175047,5.160593709443118,-1.0,-3.14,-1.5612235073239042,-2.853560153915011,3.14,2.4906440158317524,3.14
268,2.169897766341322,1.2941768473413031,1.6191696323645908,5.296608170459753,2.9089810087380172,1.3372589368906975,5.160593719367634,-1.0,-3.14,-1.5612235980365152,-2.8535604298854986,3.14,2.490643985018676,3.14
269,2.16989766897274,1.294176805774977,1.6191695539303805,5.2966081847174875,2.908980986514345,1.3372590989009927,5.160593738285455,-1.0,-3.14,-1.561223571910168,-2.853560764897216,3.14,2.4906439183887654,3.14
270,2.169897584243621,1.2941767653152996,1.61916948903132,5.2966082030520525,2.9089809688640855,1.3372592849281257,5.160593762983112,-1.0,-3.14,-1.5612234443794002,-2.853561112598273,3.14,2.4906438276962137,3.14
271,2.1698975209732967,1.2941767306927279,1.6191694440168125,5.2966082228376345,2.9089809574200403,1.3372594701569387,5.160593789893148,-1.0,-3.14,-1.5612232414014455,-2.8535614299980647,3.14,2.4906437263400387,3.14
272,2.1698974844815706,1.2941767054402638,1.6191694221854365,5.296608241551135,2.908980952899564,1.3372596324812667,5.160593815558778,-1.0,-3.14,-1.5612229952384182,-2.8535616822635146,3.14,2.4906436275856585,3.14
273,2.169897476319967,1.2941766915963224,1.619169423711076,5.296608257063612,2.908980955115046,1.337259754866944,5.16059383703635,-1.0,-3.14,-1.5612227399283611,-2.853561846032946,3.14,2.490643542989768,3.14
274,2.1698974944827136,1.2941766896179348,1.6191694459511656,5.296608267853809,2.9089809630916976,1.337259826858333,5.16059385219394,-1.0,-3.14,-1.5612225070204924,-2.853561911006701,3.14,2.490643481195805,3.14
275,2.1698975340216555,1.2941766984925296,1.6191694840598718,5.296608273126395,2.9089809752672218,1.3372598451380977,5.160593859881267,-1.0,-3.14,-1.5612223220577348,-2.8535618798054365,3.14,2.49064344720528,3.14
276,2.169897587948898,1.2941767160139983,1.6191695318006485,5.296608272830794,2.908980989740833,1.3372598131728637,5.160593859964113,-1.0,-3.14,-1.5612222021492312,-2.8535617662954955,3.14,2.490643442162152,3.14
277,2.1698976482887518,1.294176739172671,1.6191695824398218,5.296608267588815,2.9089810045366047,1.3372597400834794,5.1605938532333955,-1.0,-3.14,-1.5612221548088656,-2.853561592743421,3.14,2.4906434636220407,3.14
278,2.1698977071372294,1.2941767646004916,1.6191696296056304,5.296608258549348,2.9089810178480926,1.337259638956887,5.160593841212996,-1.0,-3.14,-1.561222178065609,-2.8535613862637996,3.14,2.4906435062229613,3.14
279,2.1698977576013916,1.2941767890122529,1.6191696680134402,5.296608247195233,2.908981028236896,1.3372595248606398,5.160593825900011,-1.0,-3.14,-1.561222261698532,-2.8535611750603977,3.14,2.490643562634947,3.14
280,2.1698977945186386,1.2941768095904405,1.6191696939843543,5.29660823513044,2.9089810347662257,1.3372594128292346,5.16059380947567,-1.0,-3.14,-1.5612223893300903,-2.8535609849326664,3.14,2.4906436246454215,3.14
281,2.1698978148929693,1.2941768242735205,1.619169705716839,5.296608223875167,2.908981037060313,1.3372593160664765,5.160593794024638,-1.0,-3.14,-1.561222541036512,-2.8535608364381972,3.14,2.490643684236004,3.14
282,2.169897818025734,1.2941768319233016,1.6191697033048398,5.29660821469254,2.9089810352903482,1.3372592445564715,5.160593781295437,-1.0,-3.14,-1.5612226961081135,-2.8535607429819763,3.14,2.490643734522647,3.14
283,2.1698978053573916,1.2941768323640443,1.6191696885269076,5.296608208464357,2.9089810300963714,1.337259204206611,5.160593772526374,-1.0,-3.14,-1.5612228356130673,-2.853560709963735,3.14,2.4906437704608813,3.14
284,2.1698977800696633,1.2941768263021594,1.6191696644557199,5.296608205625609,2.9089810224612185,1.3372591965692078,5.160593768350925,-1.0,-3.14,-1.5612229444781816,-2.85356073497413,3.14,2.4906437892564064,3.14
285,2.1698977465209883,1.2941768151486717,1.6191696349536866,5.296608206159425,2.908981013556671,1.3372592191141708,5.160593768785538,-1.0,-3.14,-1.5612230128882905,-2.8535608089057733,3.14,2.4906437904628786,3.14
286,2.169897709600457,1.294176800775975,1.6191696041270651,5.296608209646677,2.908981004583174,1.3372592659620428,5.160593773292645,-1.0,-3.14,-1.5612230369083608,-2.8535609177496837,3.14,2.490643775788114,3.14
287,2.1698976740862146,1.2941767852449286,1.6191695758083526,5.296608215358557,2.908980996623006,1.337259328941083,5.160593780903409,-1.0,-3.14,-1.5612230183356512,-2.85356104478975,3.14,2.490643748662635,3.14
288,2.1698976440847324,1.2941767705381255,1.6191695531259886,5.296608222376504,2.9089809905230677,1.3372593988076407,5.160593790379211,-1.0,-3.14,-1.5612229638807196,-2.8535611728904016,3.14,2.4906437136472714,3.14
289,2.169897622609589,1.2941767583306174,1.6191695382037168,5.296608229722227,2.9089809868182126,1.3372594664664235,5.160593800388446,-1.0,-3.14,-1.5612228838460733,-2.8535612865936066,3.14,2.4906436757677426,3.14
290,2.169897611335548,1.2941767498216408,1.6191695320119712,5.2966082364811955,2.908980985700042,1.3372595240444782,5.160593809675838,-1.0,-3.14,-1.5612227905136604,-2.8535613737940637,3.14,2.490643639863617,3.14
291,2.169897610538922,1.2941767456410616,1.6191695343730792,5.296608241905491,2.9089809870300987,1.337259565705638,5.16059381720479,-1.0,-3.14,-1.5612226964650433,-2.8535614268363196,3.14,2.4906436100281426,3.14
292,2.1698976192117376,1.2941767458338713,1.6191695441034568,5.296608245485844,2.908980990391214,1.3372595881351883,5.160593822258527,-1.0,-3.14,-1.5612226130425868,-2.85356144296326,3.14,2.4906435891964738,3.14
293,2.1698976353177497,1.2941767499164003,1.619169559261336,5.296608246987524,2.9089809951668375,1.3372595906714255,5.160593824492288,-1.0,-3.14,-1.5612225491211547,-2.853561424130548,3.14,2.4906435789160066,3.14
294,2.1698976561446655,1.2941767569899327,1.6191695774592327,5.296608246449543,2.908981000635891,1.3372595751055323,5.160593823935453,-1.0,-3.14,-1.5612225103047679,-2.853561376276027,3.14,2.490643579307153,3.14
295,2.169897678700269,1.2941767658920738,1.6191695961969035,5.296608244151152,2.908981006070162,1.3372595452086753,5.160593820948613,-1.0,-3.14,-1.5612224985997105,-2.8535613081889926,3.14,2.490643589199194,3.14
296,2.1698977001003654,1.2941767753637785,1.619169613172748,5.296608240553086,2.908981010822292,1.3372595060717059,5.160593816145498,-1.0,-3.14,-1.561222512553065,-2.8535612301569535,3.14,2.490643606406506,3.14
297,2.169897717902933,1.2941767842103642,1.6191696265386177,5.296608236223265,2.9089810143948176,1.3372594633562989,5.160593810292794,-1.0,-3.14,-1.5612225477910702,-2.853561152575413,3.14,2.4906436280972777,3.14
298,2.1698977303541023,1.2941767914378475,1.6191696350734697,5.2966082317574585,2.9089810164839784,1.3372594225565777,5.160593804202184,-1.0,-3.14,-1.5612225978506962,-2.8535610846911266,3.14,2.49064365120081,3.14
299,2.169897736525808,1.2941767963508957,1.6191696382636043,5.296608227704991,2.9089810169957104,1.3372593883585635,5.160593798628374,-1.0,-3.14,-1.561222655173938,-2.8535610336153225,3.14,2.490643672800541,3.14
300,2.1698977363399887,1.294176798604667,1.6191696362897134,5.29660822450781,2.9089810160348324,1.337259364163903,5.160593794184673,-1.0,-3.14,-1.5612227121285722,-2.8535610036966865,3.14,2.4906436904672122,3.14
301,2.169897730488439,1.2941767982092203,1.6191696299321052,5.296608222458866,2.9089810138715415,1.3372593518176126,5.160593791284421,-1.0,-3.14,-1.5612227619303056,-2.8535609962913213,3.14,2.490643702498575,3.14
302,2.1698977202688416,1.2941767954909256,1.6191696204140784,5.296608221682696,2.9089810108916287,1.3372593515509799,5.160593790112519,-1.0,-3.14,-1.5612227993662302,-2.853561009915445,3.14,2.4906437080467523,3.14
303,2.1698977073655086,1.2941767910200606,1.6191696092087162,5.296608222138246,2.9089810075380873,1.3372593621238036,5.160593790627343,-1.0,-3.14,-1.5612228212538357,-2.8535610407222243,3.14,2.49064370712984,3.14
304,2.1698976936068815,1.2941767855167992,1.61916959783611,5.296608223641225,2.908981004252017,1.3372593811279359,5.160593792589584,-1.0,-3.14,-1.5612228266084451,-2.853561083211481,3.14,2.49064370053854,3.14
305,2.1698976807313017,1.2941767797491495,1.6191695876763001,5.296608225901266,2.9089810014199804,1.3372594053987732,5.160593795611733,-1.0,-3.14,-1.5612228165297186,-2.853561131062725,3.14,2.4906436896600703,3.14
306,2.169897670188257,1.2941767744359158,1.6191695798186991,5.296608228567893,2.908980999333436,1.3372594314740398,5.160593799220119,-1.0,-3.14,-1.5612227938504066,-2.8535611779787358,3.14,2.490643676249156,3.14
307,2.169897662995147,1.294176770165762,1.619169574962188,5.296608231278827,2.90898099816384,1.3372594560399131,5.1605938029207215,-1.0,-3.14,-1.5612227626144735,-2.853561218437511,3.14,2.4906436621791124,3.14
308,2.1698976596609083,1.2941767673403972,1.6191695733725182,5.296608233704634,2.9089809979547407,1.3372594763123837,5.160593806260501,-1.0,-3.14,-1.561222727465077,-2.853561248272157,3.14,2.490643649204932,3.14
309,2.1698976601785893,1.2941767661461434,1.6191695748960904,5.296608235584733,2.9089809986300366,1.337259490314977,5.160593808877353,-1.0,-3.14,-1.561222693025221,-2.853561265027367,3.14,2.4906436387655018,3.14
310,2.169897664080518,1.2941767665542951,1.6191695790225176,5.296608236751362,2.908981000015689,1.3372594970304958,5.160593810533917,-1.0,-3.14,-1.5612226633460444,-2.8535612680733173,3.14,2.490643631844514,3.14
311,2.1698976705428406,1.2941767683472,1.6191695849833438,5.296608237139893,2.908981001870889,1.3372594964218492,5.160593811132867,-1.0,-3.14,-1.561222641481725,-2.853561258488866,3.14,2.490643628900559,3.14
312,2.169897678521735,1.2941767711642402,1.6191695918712814,5.296608236785728,2.9089810039239365,1.3372594893332814,5.160593810713832,-1.0,-3.14,-1.561222629228583,-2.853561238752366,3.14,2.490643629867487,3.14
313,2.1698976869016233,1.2941767745600812,1.6191695987635257,5.296608235809509,2.9089810059080428,1.3372594772964153,5.160593809434216,-1.0,-3.14,-1.5612226270423528,-2.8535612122973726,3.14,2.490643634217594,3.14
314,2.169897694636372,1.294176778066949,1.6191696048339383,5.296608234393696,2.9089810075927742,1.3372594622743763,5.160593807537948,-1.0,-3.14,-1.5612226341247673,-2.8535611830007133,3.14,2.4906436410734494,3.14
315,2.169897700867308,1.294176781253032,1.6191696094418393,5.296608232754199,2.9089810088078285,1.3372594463811671,5.16059380531714,-1.0,-3.14,-1.5612226486512522,-2.853561154671365,3.14,2.4906436493498405,3.14
316,2.169897705006341,1.2941767837704232,1.619169612189227,5.296608231110984,2.908981009457107,1.3372594316125255,5.16059380307202,-1.0,-3.14,-1.5612226680975914,-2.8535611306012876,3.14,2.4906436579056628,3.14
317,2.1698977067779226,1.2941767853879635,1.619169612942903,5.296608229661299,2.9089810095224093,1.3372594196192897,5.160593801074113,-1.0,-3.14,-1.5612226896160073,-2.853561113225498,3.14,2.4906436656865094,3.14
318,2.1698977062191416,1.2941767860066375,1.619169611822541,5.296608228558433,2.9089810090574124,1.3372594115459517,5.1605937995367315,-1.0,-3.14,-1.5612227104103975,-2.8535611039206046,3.14,2.4906436718418568,3.14
319,2.169897703642356,1.2941767856575215,1.6191696091597194,5.2966082278979805,2.9089810081736704,1.3372594079468756,5.160593798595552,-1.0,-3.14,-1.5612227280658624,-2.853561102951357,3.14,2.4906436758054857,3.14
320,2.169897699568785,1.2941767844843621,1.6191696054358833,5.296608227712476,2.908981007021154,1.3372594087820289,5.160593798300541,-1.0,-3.14,-1.5612227407978625,-2.853561109556018,3.14,2.4906436773333733,3.14
321,2.1698976946440713,1.294176782714486,1.619169601208883,5.296608227974127,2.9089810057662393,1.3372594134843798,5.16059379861899,-1.0,-3.14,-1.5612227475996205,-2.8535611221457264,3.14,2.490643676498995,3.14
322,2.169897689547825,1.294176780622761,1.619169597038099,5.296608228604487,2.9089810045700477,1.3372594210833257,5.160593799448143,-1.0,-3.14,-1.561222748280823,-2.8535611385819433,3.14,2.4906436736510855,3.14
323,2.169897684908637,1.2941767784936726,1.619169593417267,5.29660822948922,2.9089810035696972,1.3372594303634706,5.160593800634886,-1.0,-3.14,-1.561222743404436,-2.8535611564905388,3.14,2.4906436693428726,3.14
324,2.1698976812341444,1.2941767765862155,1.6191695907222425,5.29660823049554,2.908981002864405,1.3372594400360103,5.160593801999388,-1.0,-3.14,-1.5612227341399312,-2.853561173571019,3.14,2.490643664244265,3.14
325,2.169897678862953,1.2941767751055637,1.6191695891783873,5.296608231490091,2.9089810025075904,1.3372594489008587,5.160593803359464,-1.0,-3.14,-1.5612227220593131,-2.8535611878643694,3.14,2.4906436590493097,3.14
326,2.1698976779418735,1.294176774184147,1.6191695888494206,5.296608232354963,2.9089810025053002,1.3372594559810762,5.160593804552643,-1.0,-3.14,-1.5612227089064021,-2.8535611979517808,3.14,2.4906436543905044,3.14
327,2.1698976784285353,1.2941767738734549,1.6191695896468092,5.2966082330002004,2.9089810028204726,1.3372594606164034,5.160593805453559,-1.0,-3.14,-1.5612226963698304,-2.8535612030677298,3.14,2.4906436507695062,3.14
328,2.1698976801163847,1.2941767741463943,1.619169591356407,5.29660823337164,2.9089810033819177,1.3372594625090108,5.160593805985065,-1.0,-3.14,-1.5612226858865597,-2.853561203122889,3.14,2.490643648510813,3.14
329,2.169897682676717,1.2941767749088002,1.6191695936773385,5.296608233453613,2.9089810040964394,1.3372594617210092,5.160593806122388,-1.0,-3.14,-1.5612226784962373,-2.853561198643617,3.14,2.4906436477415457,3.14
330,2.169897685710925,1.2941767760177936,1.6191695962671766,5.296608233266789,2.9089810048623175,1.3372594586291036,5.160593805890591,-1.0,-3.14,-1.5612226747584894,-2.853561190644061,3.14,2.4906436483970062,3.14
331,2.169897688805605,1.2941767773040138,1.619169598787342,5.296608232861852,2.9089810055823917,1.337259453846332,5.160593805356315,-1.0,-3.14,-1.5612226747364315,-2.853561180453291,3.14,2.4906436502486287,3.14
332,2.1698976915836528,1.2941767785947114,1.6191696009432588,5.296608232310285,2.908981006175223,1.337259448123736,5.160593804615422,-1.0,-3.14,-1.5612226780413965,-2.853561169522915,3.14,2.490643652948619,3.14
333,2.169897693745603,1.2941767797347898,1.6191696025150097,5.296608231693608,2.908981006583189,1.3372594422458528,5.160593803778428,-1.0,-3.14,-1.5612226839270744,-2.8535611592402716,3.14,2.4906436560841776,3.14
334,2.1698976950973403,1.2941767806035303,1.6191696033758212,5.296608231092555,2.9089810067768855,1.3372594369332014,5.160593802955726,-1.0,-3.14,-1.5612226914165837,-2.8535611507689986,3.14,2.4906436592337955,3.14
335,2.1698976955622524,1.2941767811254334,1.6191696034974394,5.296608230577484,2.908981006755673,1.337259432762706,5.16059380224437,-1.0,-3.14,-1.5612226994437841,-2.853561144933185,3.14,2.4906436620186714,3.14
336,2.1698976951780407,1.2941767812745049,1.6191696029431415,5.29660823020105,2.908981006544726,1.3372594301137049,5.160593801717853,-1.0,-3.14,-1.5612227069903986,-2.8535611421544087,3.14,2.4906436641435916,3.14
337,2.1698976940801535,1.294176781072147,1.6191696018505142,5.296608229993745,2.908981006189296,1.3372594291433124,5.160593801419786,-1.0,-3.14,-1.561222713202962,-2.8535611424436182,3.14,2.4906436654234945,3.14
338,2.169897692475277,1.2941767805796132,1.6191696004071465,5.296608229962593,2.9089810057471803,1.3372594297910017,5.160593801361817,-1.0,-3.14,-1.5612227174777074,-2.853561145443069,3.14,2.49064366579404,3.14
339,2.169897690609067,1.2941767798864678,1.61916959882289,5.296608230092776,2.9089810052804723,1.3372594318087758,5.160593801525607,-1.0,-3.14,-1.5612227195066015,-2.8535611505080065,3.14,2.490643665306604,3.14
340,2.169897688732615,1.2941767790968763,1.6191695973023745,5.296608230351707,2.9089810048476736,1.3372594348106188,5.1605938018681785,-1.0,-3.14,-1.5612227192831019,-2.8535611568141324,3.14,2.4906436641099376,3.14
341,2.169897687071797,1.2941767783155878,1.6191695960210435,5.296608230694807,2.9089810044970617,1.3372594383332788,5.1605938023296645,-1.0,-3.14,-1.561222717071189,-2.853561163475267,3.14,2.4906436624220913,3.14
342,2.1698976858028685,1.2941767776353252,1.6191695951072103,5.29660823107211,2.9089810042619844,1.3372594418998953,5.160593802842256,-1.0,-3.14,-1.5612227133452536,-2.8535611696560252,3.14,2.4906436604969953,3.14
343,2.1698976850365743,1.294176777126944,1.6191695946316491,5.296608231434811,2.9089810041584365,1.3372594450785606,5.160593803339164,-1.0,-3.14,-1.5612227087111061,-2.853561174666546,3.14,2.4906436585902596,3.14
344,2.169897684811783,1.2941767768332468,1.6191695946051756,5.296608231741,2.9089810041849704,1.3372594475293313,5.160593803762509,-1.0,-3.14,-1.561222703819559,-2.853561178029817,3.14,2.4906436569283756,3.14
345,2.1698976850983964,1.29417677676681,1.6191695949836669,5.2966082319599455,2.9089810043247093,1.3372594490352627,5.1605938040693236,-1.0,-3.14,-1.5612226992837228,-2.8535611795163964,3.14,2.49064365568465,3.14
346,2.1698976858082206,1.294176776911657,1.6191695956791319,5.296608232074604,2.9089810045489903,1.3372594495154504,5.1605938042351225,-1.0,-3.14,-1.5612226956095254,-2.8535611791458337,3.14,2.490643654964042,3.14
347,2.1698976868116513,1.2941767772281871,1.6191695965748731,5.296608232082226,2.908981004822041,1.3372594490203915,5.160593804254895,-1.0,-3.14,-1.5612226931463908,-2.8535611771581033,3.14,2.490643654797789,3.14
348,2.169897687957557,1.2941767776603985,1.6191695975424902,5.2966082319931695,2.908981005106014,1.3372594477121003,5.160593804141651,-1.0,-3.14,-1.5612226920618595,-2.8535611739616416,3.14,2.490643655147427,3.14
349,2.169897689093654,1.2941767781443299,1.6191695984584937,5.296608231828284,2.90898100536574,1.3372594458329528,5.160593803922963,-1.0,-3.14,-1.5612226923406727,-2.853561170066677,3.14,2.49064365591674,3.14
350,2.1698976900848717,1.2941767786165583,1.619169599218583,5.296608231615306,2.9089810055726573,1.3372594436681868,5.160593803636137,-1.0,-3.14,-1.5612226938058513,-2.853561166013384,3.14,2.4906436569693677,3.14
351,2.169897690827723,1.2941767790217475,1.6191695997481201,5.296608231384821,2.9089810057075383,1.3372594415072196,5.160593803322709,-1.0,-3.14,-1.5612226961569284,-2.8535611623040174,3.14,2.4906436581493696,3.14
352,2.169897691259369,1.294176779318413,1.6191696000079467,5.296608231166278,2.9089810057618117,1.337259439608532,5.160593803023029,-1.0,-3.14,-1.5612226990189508,-2.8535611593467354,3.14,2.4906436593019685,3.14
353,2.1698976913608754,1.294176779482445,1.61916959999534,5.296608230984606,2.9089810057374637,1.3372594381719645,5.160593802771551,-1.0,-3.14,-1.561222701995242,-2.853561157416614,3.14,2.49064366029197,3.14
354,2.169897691154846,1.2941767795081602,1.6191695997405007,5.296608230857682,2.9089810056456917,1.3372594373209488,5.160593802593325,-1.0,-3.14,-1.5612227047172107,-2.8535611566367067,3.14,2.4906436610178964,3.14
355,2.1698976906983534,1.2941767794070445,1.619169599299469,5.2966082307949485,2.90898100550459,1.3372594370957698,5.160593802501988,-1.0,-3.14,-1.561222706885551,-2.8535611569793136,3.14,2.490643661420593,3.14
356,2.169897690072461,1.2941767792045693,1.6191695987446884,5.296608230797161,2.908981005336258,1.337259437457495,5.160593802499332,-1.0,-3.14,-1.5612227082988022,-2.8535611582851748,3.14,2.490643661485857,3.14
357,2.16989768936999,1.2941767789356629,1.6191695981546,5.296608230857211,2.908981005163729,1.337259438300982,5.160593802576336,-1.0,-3.14,-1.5612227088671786,-2.853561160296407,3.14,2.4906436612414065,3.14
358,2.169897688683162,1.2941767786395395,1.6191695976036145,5.2966082309618185,2.9089810050081137,1.337259439474445,5.160593802715385,-1.0,-3.14,-1.5612227086115658,-2.853561162697781,3.14,2.4906436607491425,3.14
359,2.169897688092607,1.2941767783545377,1.6191695971536213,5.296608231093756,2.9089810048862743,1.3372594408025553,5.160593802893287,-1.0,-3.14,-1.5612227076493617,-2.853561165160529,3.14,2.490643660094136,3.14
360,2.169897687658938,1.2941767781136309,1.6191695968478934,5.296608231234339,2.908981004809249,1.3372594421099182,5.160593803084639,-1.0,-3.14,-1.5612227061702513,-2.853561167383151,3.14,2.4906436593719956,3.14
361,2.1698976874175857,1.294176777941036,1.6191695967078639,5.296608231365819,2.9089810047815465,1.3372594432420994,5.1605938032651,-1.0,-3.14,-1.5612227044058669,-2.853561169124668,3.14,2.4906436586763028,3.14
362,2.169897687377209,1.2941767778502349,1.6191695967328579,5.2966082314734,2.9089810048012907,1.3372594440819126,5.160593803414198,-1.0,-3.14,-1.561222702597624,-2.853561170227114,3.14,2.4906436580876155,3.14
363,2.16989768752148,1.2941767778434907,1.6191695969025022,5.296608231546711,2.90898100486112,1.3372594445595387,5.160593803517373,-1.0,-3.14,-1.561222700966767,-2.8535611706257193,3.14,2.490643657665189,3.14
364,2.1698976878136707,1.294176777912761,1.6191695971812397,5.2966082315805805,2.9089810049496454,1.3372594446559023,5.160593803567103,-1.0,-3.14,-1.56122269968999,-2.8535611703468553,3.14,2.4906436574421202,3.14
365,2.1698976882031977,1.2941767780417408,1.6191695975241893,5.296608231575103,2.908981005053239,1.3372594443996106,5.160593803563057,-1.0,-3.14,-1.5612226988829607,-2.8535611694952756,3.14,2.4906436574241377,3.14
366,2.1698976886331445,1.2941767782086893,1.6191695978835032,5.296608231535077,2.908981005157904,1.3372594438585068,5.160593803511384,-1.0,-3.14,-1.5612226985928896,-2.8535611682333135,3.14,2.4906436575917974,3.14
367,2.169897689047749,1.2941767783896099,1.619169598214413,5.29660823146894,2.908981005250989,1.3372594431274083,5.16059380342329,-1.0,-3.14,-1.5612226988000852,-2.8535611667553686,3.14,2.4906436579054634,3.14
368,2.1698976893989568,1.2941767785613558,1.619169598480267,5.296608231387363,2.9089810053225618,1.3372594423139093,5.160593803313165,-1.0,-3.14,-1.5612226994273566,-2.8535611652612443,3.14,2.4906436583121825,3.14
369,2.169897689651371,1.2941767787043177,1.6191695986560677,5.296608231301743,2.908981005366313,1.337259441524144,5.16059380319652,-1.0,-3.14,-1.5612227003553176,-2.8535611639316385,3.14,2.49064365875343,3.14
370,2.169897689785155,1.294176778804401,1.6191695987302377,5.296608231222765,2.908981005379932,1.3372594408502263,5.160593803088018,-1.0,-3.14,-1.5612227014411335,-2.8535611629085103,3.14,2.490643659172709,3.14
371,2.1698976897967763,1.2941767788541325,1.6191695987045949,5.296608231159193,2.9089810053649603,1.3372594403606899,5.160593802999798,-1.0,-3.14,-1.5612227025381,-2.853561162282154,3.14,2.4906436595221035,3.14
372,2.169897689697708,1.2941767788528549,1.6191695985927224,5.296608231117016,2.9089810053262024,1.3372594400947642,5.160593802940293,-1.0,-3.14,-1.5612227035136272,-2.853561162085822,3.14,2.490643659767117,3.14
373,2.169897689511474,1.2941767788060938,1.619169598417104,5.296608231099036,2.9089810052708063,1.3372594400607571,5.160593802913609,-1.0,-3.14,-1.561222704263637,-2.853561162297747,3.14,2.490643659889389,3.14
374,2.1698976892695665,1.2941767787242424,1.6191695982054917,5.296608231104859,2.908981005207161,1.3372594402383184,5.160593802919484,-1.0,-3.14,-1.5612227047220293,-2.853561162849545,3.14,2.4906436598871973,3.14
375,2.169897689006828,1.2941767786208,1.6191695979870266,5.2966082311312785,2.90898100514376,1.3372594405838962,5.1605938029537874,-1.0,-3.14,-1.5612227048645992,-2.85356116363932,3.14,2.4906436597739128,3.14
376,2.1698976887569277,1.2941767785104348,1.6191695977886034,5.296608231172964,2.908981005088172,1.3372594410383962,5.160593803009415,-1.0,-3.14,-1.561222704707528,-2.853561164547394,3.14,2.4906436595748063,3.14
377,2.169897688548452,1.2941767784070959,1.6191695976318814,5.296608231223311,2.908981005046235,1.337259441535898,5.1605938030774565,-1.0,-3.14,-1.5612227043011886,-2.8535611654525224,3.14,2.4906436593227683,3.14
378,2.1698976884020142,1.2941767783224238,1.6191695975312443,5.296608231275377,2.908981005021534,1.3372594420122736,5.160593803148454,-1.0,-3.14,-1.5612227037205109,-2.8535611662465827,3.14,2.4906436590535677,3.14
379,2.1698976883286227,1.2941767782645965,1.6191695974928422,5.296608231322743,2.908981005015214,1.337259442412678,5.16059380321359,-1.0,-3.14,-1.5612227030534198,-2.8535611668461436,3.14,2.4906436588012615,3.14
380,2.1698976883293777,1.294176778237714,1.6191695975147211,5.29660823136023,2.908981005026096,1.3372594426971445,5.160593803265679,-1.0,-3.14,-1.5612227023889322,-2.853561167199862,3.14,2.490643658594297,3.14
381,2.16989768839638,1.2941767782417386,1.6191695975879117,5.296608231384387,2.9089810050510643,1.3372594428438036,5.1605938032998555,-1.0,-3.14,-1.5612227018063796,-2.8535611672912524,3.14,2.4906436584526923,3.14
382,2.1698976885146255,1.2941767782729323,1.619169597698242,5.296608231393724,2.908981005085645,1.3372594428495979,5.16059380331391,-1.0,-3.14,-1.5612227013669224,-2.8535611671369927,3.14,2.4906436583865292,3.14
383,2.169897688664554,1.2941767783246987,1.6191695978285836,5.296608231388684,2.9089810051246827,1.3372594427286688,5.160593803308279,-1.0,-3.14,-1.561222701108137,-2.8535611667814336,3.14,2.490643658395789,3.14
384,2.169897688824865,1.2941767783886664,1.6191695979612135,5.2966082313713825,2.9089810051630316,1.3372594425088495,5.1605938032857095,-1.0,-3.14,-1.5612227010419988,-2.8535611662883706,3.14,2.4906436584714187,3.14
385,2.1698976889752615,1.2941767784558906,1.6191695980800027,5.2966082313451865,2.9089810051961695,1.337259442226888,5.16059380325069,-1.0,-3.14,-1.561222701156143,-2.853561165731352,3.14,2.490643658597369,3.14
386,2.16989768909877,1.294176778517973,1.6191695981721772,5.296608231314169,2.908981005220676,1.3372594419231076,5.1605938032087275,-1.0,-3.14,-1.5612227014179085,-2.8535611651838453,3.14,2.4906436587532514,3.14
387,2.169897689183426,1.2941767785680192,1.6191695982294978,5.296608231282556,2.9089810052345237,1.3372594416361987,5.160593803165579,-1.0,-3.14,-1.5612227017803904,-2.8535611647104377,3.14,2.4906436589172394,3.14
388,2.1698976892231796,1.2941767786012992,1.6191695982487682,5.2966082312541936,2.9089810052371763,1.3372594413987553,5.160593803126538,-1.0,-3.14,-1.561222702189557,-2.85356116436004,3.14,2.4906436590688337,3.14
389,2.1698976892179958,1.294176778615593,1.6191695982316867,5.296608231232139,2.9089810052294953,1.3372594412340149,5.160593803095851,-1.0,-3.14,-1.5612227025914733,-2.8535611641616754,3.14,2.4906436591911785,3.14
390,2.16989768917323,1.294176778611188,1.6191695981841283,5.2966082312183715,2.908981005213489,1.3372594411540555,5.1605938030763125,-1.0,-3.14,-1.5612227029387542,-2.8535611641230965,3.14,2.4906436592726973,3.14
391,2.169897689098413,1.2941767785905813,1.6191695981149998,5.296608231213668,2.9089810051919516,1.337259441159528,5.160593803069091,-1.0,-3.14,-1.5612227031955495,-2.8535611642320973,3.14,2.4906436593079238,3.14
392,2.1698976890056714,1.2941767785579463,1.6191695980348544,5.2966082312176335,2.9089810051680454,1.33725944124078,5.160593803073753,-1.0,-3.14,-1.5612227033406247,-2.8535611644600776,3.14,2.490643659297513,3.14
393,2.1698976889080055,1.2941767785184606,1.6191695979544538,5.296608231228883,2.9089810051448843,1.337259441380096,5.160593803088489,-1.0,-3.14,-1.5612227033683657,-2.8535611647671955,3.14,2.4906436592475187,3.14
394,2.1698976888176325,1.294176778477576,1.6191695978834566,5.296608231245302,2.9089810051251646,1.3372594415546726,5.160593803110472,-1.0,-3.14,-1.5612227032878054,-2.853561165108325,3.14,2.4906436591680983,3.14
395,2.16989768874461,1.2941767784403362,1.6191695978293779,5.2966082312643765,2.9089810051108858,1.3372594417398818,5.160593803136306,-1.0,-3.14,-1.5612227031200006,-2.8535611654390167,3.14,2.4906436590718655,3.14
396,2.1698976886958614,1.2941767784108216,1.6191695977969147,5.296608231283545,2.908981005103186,1.3372594419124155,5.160593803162492,-1.0,-3.14,-1.5612227028942423,-2.853561165720753,3.14,2.4906436589721195,3.14
397,2.1698976886746686,1.2941767783917522,1.6191695977876797,5.2966082313005,2.9089810051022944,1.3372594420529398,5.160593803185853,-1.0,-3.14,-1.5612227026436791,-2.8535611659249387,3.14,2.49064365888118,3.14
398,2.169897688680669,1.294176778384313,1.6191695978003326,5.296608231313442,2.9089810051076013,1.3372594421479906,5.1605938032038905,-1.0,-3.14,-1.5612227024009409,-2.8535611660352784,3.14,2.490643658809013,3.14
399,2.169897688710281,1.2941767783881706,1.6191695978310532,5.296608231321245,2.908981005117817,1.3372594421909696,5.1605938032150025,-1.0,-3.14,-1.5612227021942833,-2.8535611660484372,3.14,2.490643658762288,3.14
400,2.169897688757469,1.2941767784016733,1.619169597874258,5.296608231323515,2.9089810051312024,1.3372594421822126,5.160593803218587,-1.0,-3.14,-1.5612227020446638,-2.8535611659730735,3.14,2.4906436587439233,3.14
401,2.1698976888147294,1.2941767784221874,1.6191695979234564,5.296608231320563,2.9089810051458187,1.3372594421282167,5.160593803215009,-1.0,-3.14,-1.561222701964,-2.853561165827538,3.14,2.490643658753132,3.14
402,2.1698976888741406,1.2941767784465168,1.6191695979721232,5.29660823131329,2.908981005159786,1.3372594420402149,5.160593803205449,-1.0,-3.14,-1.5612227019546934,-2.853561165636656,3.14,2.4906436587859067,3.14
403,2.1698976889283608,1.2941767784713445,1.6191695980144842,5.296608231303025,2.9089810051714995,1.3372594419323305,5.160593803191684,-1.0,-3.14,-1.561222702010344,-2.85356116542807,3.14,2.4906436588358396,3.14
404,2.1698976889714396,1.294176778493645,1.6191695980461287,5.296608231291312,2.9089810051797924,1.3372594418195827,5.160593803175806,-1.0,-3.14,-1.5612227021174439,-2.8535611652286335,3.14,2.490643658895142,3.14
405,2.169897688999392,1.2941767785110132,1.6191695980643945,5.296608231279709,2.908981005184032,1.3372594417159902,5.16059380315994,-1.0,-3.14,-1.5612227022577445,-2.853561165061275,3.14,2.4906436589557224,3.14
406,2.1698976890104578,1.294176778521886,1.619169598068502,5.296608231269591,2.9089810051841374,1.3372594416329993,5.160593803145984,-1.0,-3.14,-1.5612227024109417,-2.8535611649426658,3.14,2.490643659010189,3.14
407,2.169897689005093,1.294176778525646,1.6191695980594503,5.296608231262015,2.9089810051805314,1.3372594415783827,5.160593803135409,-1.0,-3.14,-1.561222702557324,-2.853561164881881,3.14,2.4906436590526604,3.14
408,2.169897688985671,1.2941767785225917,1.6191695980397096,5.296608231257621,2.9089810051740366,1.3372594415556955,5.160593803129127,-1.0,-3.14,-1.5612227026800725,-2.8535611648801136,3.14,2.490643659079312,3.14
409,2.1698976889559973,1.294176778513807,1.619169598012771,5.2966082312566005,2.9089810051657357,1.337259441564292,5.160593803127438,-1.0,-3.14,-1.5612227027669716,-2.8535611649313584,3.14,2.490643659088617,3.14
410,2.169897688920708,1.2941767785009477,1.6191695979826188,5.2966082312587215,2.9089810051568126,1.3372594415998484,5.16059380313006,-1.0,-3.14,-1.5612227028113863,-2.8535611650238946,3.14,2.4906436590812873,3.14
411,2.1698976888846206,1.2941767784859828,1.6191695979532046,5.296608231263397,2.9089810051484024,1.337259441655266,5.160593803136225,-1.0,-3.14,-1.5612227028124694,-2.853561165142288,3.14,2.490643659059953,3.14
412,2.169897688852142,1.2941767784709262,1.6191695979279737,5.296608231269797,2.9089810051414586,1.3372594417218138,5.160593803144821,-1.0,-3.14,-1.5612227027746552,-2.8535611652696313,3.14,2.490643659028645,3.14
413,2.169897688826785,1.2941767784575935,1.6191695979095087,5.296608231276977,2.908981005136658,1.3372594417903476,5.160593803154565,-1.0,-3.14,-1.5612227027065695,-2.8535611653897277,3.14,2.490643658992164,3.14
414,2.169897688810836,1.2941767784473988,1.6191695978993086,5.296608231283992,2.908981005134351,1.3372594418524482,5.160593803164165,-1.0,-3.14,-1.5612227026195573,-2.853561165488952,3.14,2.490643658955425,3.14
415,2.1698976888052153,1.2941767784412337,1.6191695978977256,5.29660823129002,2.9089810051345504,1.3372594419013528,5.160593803172488,-1.0,-3.14,-1.5612227025260355,-2.853561165557615,3.14,2.4906436589228567,3.14
416,2.1698976888095087,1.2941767784394114,1.6191695979040417,5.296608231294441,2.9089810051369693,1.337259441932593,5.160593803178671,-1.0,-3.14,-1.5612227024378935,-2.8535611655907105,3.14,2.490643658897922,3.14
417,2.169897688822157,1.2941767784416938,1.619169597916668,5.296608231296897,2.9089810051410834,1.3372594419442865,5.1605938031821985,-1.0,-3.14,-1.5612227023651244,-2.853561165588019,3.14,2.4906436588828034,3.14
418,2.169897688840766,1.2941767784473748,1.6191695979334277,5.2966082312972995,2.9089810051462215,1.3372594419370902,5.160593803182928,-1.0,-3.14,-1.5612227023148266,-2.853561165553631,3.14,2.4906436588782785,3.14
419,2.1698976888624784,1.294176778455416,1.6191695979518776,5.296608231295816,2.9089810051516607,1.3372594419138564,5.160593803181066,-1.0,-3.14,-1.5612227022906593,-2.853561165495005,3.14,2.490643658883774,3.14
420,2.169897688884366,1.2941767784646059,1.6191695979696292,5.296608231292825,2.908981005156717,1.337259441879057,5.16059380317711,-1.0,-3.14,-1.5612227022927656,-2.853561165421717,3.14,2.4906436588975764,3.14
421,2.1698976889037884,1.294176778473722,1.61916959798463,5.296608231288841,2.9089810051608254,1.337259441838079,5.1605938031717535,-1.0,-3.14,-1.5612227023181269,-2.85356116534409,3.14,2.4906436589171568,3.14
422,2.169897688918678,1.2941767784816796,1.6191695979953717,5.296608231284447,2.9089810051635934,1.3372594417964827,5.160593803165785,-1.0,-3.14,-1.5612227023612553,-2.853561165271882,3.14,2.4906436589395615,3.14
423,2.16989768892773,1.2941767784876494,1.6191695980010166,5.2966082312802145,2.9089810051648306,1.3372594417593158,5.160593803159985,-1.0,-3.14,-1.561222702415113,-2.853561165213172,3.14,2.4906436589618086,3.14
424,2.169897688930472,1.2941767784911224,1.6191695980014253,5.296608231276629,2.90898100516455,1.3372594417305652,5.16059380315503,-1.0,-3.14,-1.5612227024721177,-2.853561165173572,3.14,2.4906436589812495,3.14
425,2.169897688927242,1.2941767784919485,1.6191695979971001,5.296608231274056,2.908981005162945,1.3372594417127874,5.160593803151425,-1.0,-3.14,-1.5612227025251095,-2.853561165155813,3.14,2.490643658995851,3.14
426,2.1698976889190558,1.294176778490305,1.6191695979890577,5.296608231272694,2.9089810051603475,1.3372594417069577,5.160593803149459,-1.0,-3.14,-1.5612227025681626,-2.8535611651597224,3.14,2.4906436590043737,3.14
427,2.1698976889074153,1.2941767784866507,1.6191695979786531,5.2966082312725815,2.9089810051571727,1.3372594417125157,5.1605938031491965,-1.0,-3.14,-1.5612227025971654,-2.8535611651825508,3.14,2.4906436590064365,3.14
428,2.169897688894079,1.2941767784816347,1.619169597967381,5.296608231273599,2.9089810051538625,1.3372594417275974,5.160593803150488,-1.0,-3.14,-1.5612227026101233,-2.853561165219571,3.14,2.4906436590024725,3.14
429,2.169897688880824,1.2941767784760012,1.619169597956684,5.296608231275506,2.9089810051508276,1.3372594417493913,5.160593803153016,-1.0,-3.14,-1.5612227026071737,-2.8535611652648525,3.14,2.490643658993591,3.14
430,2.169897688869229,1.29417677847049,1.6191695979477825,5.296608231277981,2.908981005148402,1.3372594417745813,5.160593803156347,-1.0,-3.14,-1.5612227025903451,-2.8535611653121014,3.14,2.4906436589813747,3.14
431,2.169897688860508,1.2941767784657485,1.6191695979415541,5.296608231280666,2.9089810051468126,1.337259441799791,5.160593803159998,-1.0,-3.14,-1.5612227025631158,-2.853561165355449,3.14,2.4906436589676377,3.14
432,2.1698976888554036,1.2941767784622635,1.619169597938463,5.2966082312832174,2.9089810051461615,1.337259441821998,5.160593803163496,-1.0,-3.14,-1.5612227025298426,-2.853561165390114,3.14,2.490643658954186,3.14
433,2.1698976888541464,1.2941767784603202,1.6191695979385496,5.296608231285345,2.908981005146428,1.337259441838859,5.1605938031664405,-1.0,-3.14,-1.5612227024951484,-2.853561165412858,3.14,2.490643658942601,3.14
434,2.1698976888564805,1.2941767784599894,1.6191695979414686,5.296608231286837,2.9089810051474836,1.3372594418489163,5.160593803168536,-1.0,-3.14,-1.561222702463339,-2.8535611654222115,3.14,2.490643658934074,3.14
435,2.1698976888617514,1.2941767784611418,1.6191695979465721,5.296608231287585,2.9089810051491187,1.3372594418516826,5.160593803169621,-1.0,-3.14,-1.5612227024379208,-2.8535611654184647,3.14,2.4906436589293044,3.14
436,2.1698976888690145,1.294176778463481,1.6191695979530185,5.296608231287573,2.9089810051510763,1.3372594418475932,5.160593803169672,-1.0,-3.14,-1.5612227024212668,-2.853561165403445,3.14,2.490643658928468,3.14
437,2.169897688877192,1.2941767784666023,1.6191695979598946,5.296608231286884,2.908981005153088,1.3372594418378603,5.160593803168791,-1.0,-3.14,-1.5612227024144487,-2.8535611653801394,3.14,2.490643658931251,3.14
438,2.169897688885208,1.294176778470051,1.6191695979663305,5.296608231285674,2.908981005154907,1.3372594418242445,5.160593803167182,-1.0,-3.14,-1.5612227024172476,-2.853561165352213,3.14,2.4906436589369383,3.14
439,2.1698976888921186,1.2941767784733782,1.6191695979716025,5.296608231284141,2.9089810051563356,1.337259441808786,5.160593803165115,-1.0,-3.14,-1.5612227024283152,-2.853561165323497,3.14,2.4906436589445433,3.14
440,2.1698976888972124,1.2941767784761986,1.619169597975201,5.296608231282503,2.9089810051572442,1.3372594417935302,5.160593803162886,-1.0,-3.14,-1.561222702445455,-2.8535611652975157,3.14,2.4906436589529526,3.14
441,2.16989768890007,1.2941767784782268,1.6191695979768712,5.296608231280967,2.9089810051575786,1.3372594417802839,5.160593803160778,-1.0,-3.14,-1.5612227024659742,-2.8535611652770934,3.14,2.490643658961074,3.14
442,2.1698976889005857,1.2941767784793041,1.6191695979766163,5.2966082312797065,2.908981005157359,1.3372594417704222,5.160593803159032,-1.0,-3.14,-1.5612227024870586,-2.853561165264091,3.14,2.490643658967965,3.14
443,2.169897688898944,1.2941767784794012,1.6191695979746696,5.296608231278843,2.9089810051566696,1.3372594417647696,5.160593803157818,-1.0,-3.14,-1.5612227025061227,-2.8535611652592845,3.14,2.49064365897293,3.14
444,2.169897688895568,1.2941767784786102,1.6191695979714422,5.29660823127844,2.9089810051556433,1.3372594417635613,5.1605938031572265,-1.0,-3.14,-1.5612227025210956,-2.8535611652623873,3.14,2.4906436589755763,3.14
445,2.1698976888910457,1.2941767784771192,1.6191695979674556,5.296608231278496,2.908981005154438,1.3372594417664727,5.160593803157262,-1.0,-3.14,-1.5612227025306142,-2.8535611652721946,3.14,2.4906436589758316,3.14
446,2.1698976888860395,1.2941767784751808,1.6191695979632679,5.296608231278956,2.9089810051532172,1.337259441772722,5.160593803157854,-1.0,-3.14,-1.5612227025341125,-2.853561165286825,3.14,2.490643658973917,3.14
447,2.1698976888811985,1.2941767784730722,1.6191695979594012,5.29660823127972,2.908981005152129,1.3372594417812083,5.160593803158873,-1.0,-3.14,-1.5612227025318062,-2.853561165304018,3.14,2.4906436589702903,3.14
448,2.169897688877088,1.2941767784710663,1.6191695979562855,5.2966082312806675,2.908981005151289,1.3372594417906798,5.160593803160153,-1.0,-3.14,-1.561222702524582,-2.853561165321444,3.14,2.4906436589655665,3.14
449,2.169897688874121,1.2941767784693925,1.6191695979542147,5.296608231281666,2.908981005150773,1.3372594417998982,5.160593803161512,-1.0,-3.14,-1.5612227025138234,-2.8535611653369912,3.14,2.4906436589604266,3.14
450,2.169897688872534,1.294176778468215,1.619169597953327,5.296608231282588,2.9089810051506073,1.3372594418077857,5.160593803162779,-1.0,-3.14,-1.5612227025011918,-2.8535611653489945,3.14,2.4906436589555305,3.14
451,2.1698976888723713,1.2941767784676237,1.6191695979536038,5.296608231283333,2.9089810051507756,1.337259441813537,5.160593803163813,-1.0,-3.14,-1.5612227024883976,-2.8535611653563895,3.14,2.490643658951439,3.14
452,2.1698976888735024,1.2941767784676277,1.6191695979548897,5.29660823128383,2.9089810051512224,1.3372594418166892,5.160593803164514,-1.0,-3.14,-1.5612227024769905,-2.8535611653587756,3.14,2.490643658948558,3.14
453,2.1698976888756563,1.2941767784681635,1.6191695979569243,5.296608231284046,2.908981005151865,1.337259441817137,5.160593803164833,-1.0,-3.14,-1.561222702468191,-2.853561165356394,3.14,2.4906436589471044,3.14
454,2.1698976888784647,1.2941767784691096,1.6191695979593848,5.296608231283982,2.9089810051526053,1.337259441815113,5.160593803164772,-1.0,-3.14,-1.561222702462779,-2.8535611653500323,3.14,2.490643658947102,3.14
455,2.1698976888815262,1.294176778470312,1.6191695979619318,5.296608231283679,2.908981005153345,1.3372594418111188,5.160593803164378,-1.0,-3.14,-1.5612227024610459,-2.8535611653408717,3.14,2.490643658948399,3.14
456,2.169897688884444,1.2941767784715978,1.619169597964251,5.296608231283196,2.9089810051539953,1.3372594418058408,5.160593803163734,-1.0,-3.14,-1.5612227024628118,-2.8535611653303046,3.14,2.4906436589507024,3.14
457,2.169897688886886,1.294176778472806,1.6191695979660885,5.296608231282613,2.9089810051544878,1.3372594418000467,5.160593803162944,-1.0,-3.14,-1.5612227024674967,-2.853561165319745,3.14,2.4906436589536307,3.14
458,2.1698976888886077,1.2941767784737976,1.6191695979672749,5.296608231282005,2.9089810051547795,1.337259441794485,5.160593803162116,-1.0,-3.14,-1.5612227024742318,-2.8535611653104573,3.14,2.4906436589567673,3.14
459,2.16989768888948,1.294176778474478,1.6191695979677367,5.296608231281452,2.9089810051548572,1.3372594417897972,5.160593803161355,-1.0,-3.14,-1.5612227024819945,-2.8535611653034203,3.14,2.4906436589597143,3.14
460,2.169897688889487,1.2941767784747982,1.6191695979674947,5.296608231281011,2.9089810051547342,1.3372594417864532,5.160593803160744,-1.0,-3.14,-1.5612227024897465,-2.8535611652992396,3.14,2.4906436589621386,3.14
461,2.1698976888887205,1.2941767784747582,1.6191695979666525,5.296608231280727,2.908981005154446,1.337259441784712,5.160593803160341,-1.0,-3.14,-1.5612227024965601,-2.8535611652981157,3.14,2.4906436589638052,3.14
462,2.169897688887353,1.2941767784744005,1.6191695979653735,5.296608231280615,2.908981005154045,1.337259441784613,5.160593803160173,-1.0,-3.14,-1.5612227025017182,-2.8535611652998605,3.14,2.490643658964594,3.14
463,2.1698976888856105,1.2941767784738007,1.6191695979638576,5.29660823128067,2.9089810051535903,1.3372594417859958,5.160593803160234,-1.0,-3.14,-1.5612227025047771,-2.853561165303964,3.14,2.4906436589645025,3.14
464,2.169897688883743,1.2941767784730576,1.6191695979623109,5.296608231280869,2.908981005153143,1.337259441788538,5.160593803160493,-1.0,-3.14,-1.5612227025055914,-2.853561165309685,3.14,2.490643658963635,3.14
465,2.169897688881986,1.2941767784722735,1.6191695979609222,5.296608231281172,2.9089810051527554,1.337259441791813,5.160593803160898,-1.0,-3.14,-1.5612227025043,-2.8535611653161683,3.14,2.4906436589621768,3.14
466,2.169897688880539,1.294176778471548,1.6191695979598408,5.296608231281533,2.9089810051524676,1.3372594417953518,5.160593803161386,-1.0,-3.14,-1.5612227025012793,-2.853561165322557,3.14,2.490643658960365,3.14
467,2.169897688879544,1.2941767784709621,1.6191695979591645,5.296608231281902,2.9089810051523033,1.3372594417987025,5.160593803161889,-1.0,-3.14,-1.5612227024970733,-2.8535611653280957,3.14,2.490643658958454,3.14
468,2.1698976888790695,1.29417677847057,1.6191695979589313,5.296608231282233,2.9089810051522704,1.3372594418014832,5.160593803162345,-1.0,-3.14,-1.561222702492311,-2.85356116533221,3.14,2.490643658956683,3.14
469,2.1698976888791193,1.2941767784703986,1.6191695979591225,5.296608231282491,2.9089810051523575,1.337259441803421,5.160593803162705,-1.0,-3.14,-1.561222702487621,-2.853561165334558,3.14,2.4906436589552494,3.14
