jkpark150901/flame_robotics_drt/experiment/inspection_ik/session_20260716_113329/fallback/inspection_ik_20260716_113650_rb20_1900es_normalized_fallback.csv
iteration,err_norm,position_error,orientation_error,tcp_x,tcp_y,tcp_z,q0_rt_joint_linear_track,q1_rt_joint_carriage,q2_rt_base,q3_rt_shoulder,q4_rt_elbow,q5_rt_wrist1,q6_rt_wrist2,q7_rt_wrist3
0,9.928026008246128,6.091893280036042,3.139629241989012,0.267,-3.2807478955731993e-13,2.541,0.0,0.0,0.0,0.0,0.0,0.0,0.0,0.0
1,9.049247478038817,5.790583519612513,2.9663764294266044,0.3427621165334966,1.298088904309653,2.0550018246494486,0.0,0.08697901568135363,-0.07183948466823359,0.7588010447344843,-0.0001557534296022306,-0.12929723096992146,-0.7591125515936886,-0.12929723096992146
2,10.29751051978865,6.904593494473721,2.8520393068769403,0.42198290093163854,-0.8550951352935632,-0.9767009778579763,0.0,-1.0,-0.7629402359981337,2.937437592722172,0.10262670612364042,-1.2549976112573664,-3.0874630742192406,0.8651548731604624
3,6.757120877310178,6.7079175514757905,0.6124737234546231,0.1329984996338536,-0.9989042555303996,0.5110012872965473,0.0,-1.0,-3.14,-3.14,3.14,-3.14,-3.14,3.14
4,5.404777063672266,4.985018712088388,1.372734617019114,2.2098289238148086,-0.2126398163875915,-0.45349666110621945,2.0962859839338877,-1.0,-3.117127406028129,3.14,1.4443584247476444,-3.14,2.1770522669904584,2.8723851728449312
5,5.782998762021609,4.614753438326117,2.044817606098415,3.2225062283393924,-0.36089205722033135,-0.9606953100128013,3.090357678991241,-0.780897199201372,-3.14,3.14,0.6714615174332882,-3.14,2.0632569194876886,2.632441417432802
6,7.115522818262776,4.49021508983041,2.928186940100594,3.8604022467719585,-1.2855466508241453,-0.5488367051748125,3.7261765968226457,-0.39479873293106466,-3.14,3.14,-1.1097315043497957,-3.14,1.1992672736224343,2.622168824320187
7,6.794371819075303,4.215655775419433,2.9033401877643787,4.349469430535845,-0.7106370840074271,-1.0035381294126258,4.246366349739843,-0.3721821513445036,-3.14,3.14,-0.2825816962872014,-2.8726596882641804,2.063322037557373,2.568128486989666
8,4.692970468854409,3.2716937212574457,2.2954906752142965,5.013420763284007,-1.1328062349913262,0.6220335681964663,4.871898841875726,-1.0,-3.0749358503682296,1.7074028459257304,3.14,-1.9262954908940353,3.14,3.14
9,3.354767386171466,2.5467313856400944,1.7141608020332704,4.6671815542001855,0.4947795063443857,0.272010504750629,4.542814787110772,0.11354583622034986,-3.14,2.926878809073443,2.5067960719992812,-2.0436109735961185,3.0721908052526934,3.14
10,3.696359522499852,2.5799801473160375,2.0436440831678326,4.457623366654493,1.10084227561491,0.14139498762614425,4.325858121196273,0.453131762366848,-3.14,3.14,2.1081565535886444,-1.7665657827917762,3.14,3.1219074083085907
11,4.020800959537342,2.780020647210532,2.151507998801935,4.771709044441493,1.4059598834899862,-0.3739749165993736,4.690906472866676,0.6532466976258513,-3.1357860137887883,3.14,1.4270694515001832,-1.954441138525199,2.7336502359680743,3.14
12,4.1353383724117805,2.934620202250733,2.1088275374553795,5.357464269426095,1.397161483883162,-0.7787102558123595,5.284079301592267,0.8095663643962628,-3.14,3.14,0.9236497315257511,-2.4446157244191595,2.361723395324699,2.9192399627619414
13,3.8694612453577033,2.8016394428286384,1.986088850409257,5.764067353259784,1.5032550260615247,-0.730017067318274,5.682247673340531,0.8710342027733797,-3.14,3.14,1.0173194034341502,-2.5759076511376766,2.337703445079186,3.131351885339302
14,3.4502425712170086,2.5479315259637025,1.8214359919691412,6.017097768581158,1.6391011125607795,-0.49853380261301955,5.922144928930629,0.8985656208584649,-3.14,3.14,1.3306036960216863,-2.653525615400376,2.49209267955504,3.14
15,3.1985424374855214,2.336749426487497,1.774664395147885,6.08819350217274,1.703571675747928,-0.28720515228042,5.981135414294192,0.9371957530277918,-3.14,3.14,1.5810947317036814,-2.681539655826293,2.6989821452172733,3.14
16,3.127097556894917,2.210276570609884,1.8281802598540156,6.059499664572738,1.7485611884966847,-0.15720511329250897,5.941475970903224,0.9957322621633024,-3.14,3.14,1.7239609034130414,-2.6858122974563927,2.898432519975019,3.14
17,3.172987501767742,2.1515994585443865,1.9334386742166958,5.990363328533544,1.739202987998155,-0.09575461537700679,5.862763296988768,1.0,-3.14,3.14,1.7815180145424006,-2.692713346099625,3.066673071467183,3.14
18,3.302167695059166,2.1770901280279156,2.038083527679702,5.9264493221865235,1.7425853815932302,-0.11618452393542789,5.7947172146109445,1.0,-3.14,3.14,1.742748687920885,-2.717884963738056,3.14,3.14
19,3.4650578304243744,2.2515051904612826,2.1270068857449145,5.899141432236592,1.7513936481462453,-0.18787033064874215,5.767416955521181,1.0,-3.14,3.14,1.6470536912217388,-2.751533400487907,3.14,3.14
20,3.6414930946776924,2.3448174830865876,2.207738404236024,5.907593311690635,1.7525873018871294,-0.2825882066455489,5.777386787560725,1.0,-3.14,3.14,1.5269744900483242,-2.7874933327421028,3.10620627174559,3.14
21,3.801418655110853,2.447040428435372,2.2609847664700586,5.939589529505919,1.740331840330876,-0.3888885441602355,5.812125983296952,1.0,-3.14,3.14,1.3971054431120844,-2.8249816199245634,3.0337308392626823,3.14
22,3.922435351226931,2.5371320649414923,2.287490055767096,5.984703190673629,1.717409038879577,-0.4835290205594534,5.859662306521407,1.0,-3.14,3.14,1.2824168793501904,-2.8645085501551395,2.9487203257264705,3.14
23,3.990114297901986,2.6006654864410743,2.2896382651900837,6.031664957588222,1.6944406425667287,-0.5503471617991708,5.907879783316662,1.0,-3.14,3.14,1.2018897219565945,-2.9045440850295,2.8727544842759714,3.14
24,4.000917969278594,2.631150574257445,2.271400770656798,6.071513317060564,1.6820043453897624,-0.5824433471278344,5.947746626158456,1.0,-3.14,3.14,1.1654849963573148,-2.942071740391639,2.8198788773040877,3.14
25,3.9642446672507683,2.630246513781599,2.239519858788165,6.099581198193607,1.6836480381164782,-0.5819126318417016,5.974999118204391,1.0,-3.14,3.14,1.1712449049603488,-2.97485100389725,2.7950141682373184,3.14
26,3.8996208600938513,2.6063402381274043,2.2030855986786997,6.115540309830733,1.695097164438477,-0.5576847612005883,5.989778269885061,1.0,-3.14,3.14,1.206592283406429,-3.00237990021361,2.7948249174613022,3.14
27,3.8287288963711945,2.5709524745378762,2.17074297368148,6.121969196790052,1.7093327103392246,-0.5216892640795512,5.994988146021578,1.0,-3.14,3.14,1.2548588026363459,-3.025332325549934,2.811408581601175,3.14
28,3.767936130820085,2.534607441262865,2.1479714421431066,6.122448908538806,1.721456846847646,-0.484727933736168,5.994377364953153,1.0,-3.14,3.14,1.30202712665536,-3.044718703751898,2.8363032410433395,3.14
29,3.7257328554584452,2.504492866327089,2.136423464013386,6.120160990812502,1.729749007658131,-0.45413545801640665,5.991190492353414,1.0,-3.14,3.14,1.3394891606597021,-3.0614200222139596,2.8625960814423377,3.14
30,3.7039711766077335,2.4841680612888966,2.1348634813856737,6.117297928068988,1.734422521684229,-0.4335128090960394,5.987624393209006,1.0,-3.14,3.14,1.3636134226884484,-3.076064792430999,2.885445261496638,3.14
31,3.700237477623815,2.4743017030158634,2.14053335336746,6.1150441789982315,1.7362937280305069,-0.4235149882362321,5.984836331641867,1.0,-3.14,3.14,1.3742991156072493,-3.0890734231915777,2.902009742231764,3.14
32,3.709948943256449,2.4736280051628987,2.1502860952992413,6.113813363730625,1.736123601048463,-0.4228443013266923,5.983198088277392,1.0,-3.14,3.14,1.3736097396193452,-3.10074302502047,2.9112211664144514,3.14
33,3.7278431214818255,2.4797948283481146,2.1613067075268253,6.113542340426589,1.7344971414385701,-0.429112655604617,5.982602513487777,1.0,-3.14,3.14,1.364723441014909,-3.1113073882224205,2.9134559171475933,3.14
34,3.7489419615395274,2.4900393887861396,2.1714646761000216,6.113943513871774,1.7319214537360168,-0.4395195498665886,5.982724677129283,1.0,-3.14,3.14,1.351160557495811,-3.1209578710135695,2.9101113943453383,3.138921267490752
35,3.769096425839431,2.50168343575524,2.1793751476690573,6.114469706338637,1.7289221397949506,-0.45134736148600435,5.982990242729188,1.0,-3.14,3.14,1.3362455285095083,-3.1298836888771726,2.903137796102287,3.1361954369418115
36,3.785340678089656,2.512506808992304,2.184369370331098,6.11459683733253,1.7260372945547127,-0.4623401987738429,5.982859681033714,1.0,-3.14,3.14,1.3226932547980932,-3.1382441416822537,2.8945899192720463,3.1321635341298473
37,3.796054997099322,2.520978538264077,2.186407938585493,6.113856538123284,1.7237291847335798,-0.47093998093823763,5.982061565404299,1.0,-3.14,3.14,1.3123441642909413,-3.14,2.8862668841634536,3.1270938317284154
38,3.800685124896582,2.5262397396307685,2.18579787609097,6.112299413858285,1.722314491153294,-0.4762725335265937,5.980503543917351,1.0,-3.14,3.14,1.306199716589594,-3.14,2.879492627060303,3.122391617187992
39,3.7999320075173344,2.5281958646087794,2.1832819094354035,6.1103152595306955,1.7218646549246914,-0.47824261328459694,5.978519564336589,1.0,-3.14,3.14,1.3042782427783202,-3.14,2.8750334651043365,3.118359405985715
40,3.7952886130898458,2.527355360613145,2.1797655490226995,6.108197060111452,1.7222301043154262,-0.4773686742977761,5.976402341474511,1.0,-3.14,3.14,1.3058410478365146,-3.14,2.873057681148537,3.1149163754347824
41,3.78853857201627,2.52457693882828,2.1760959570339344,6.10611973748749,1.723132381597217,-0.47452534108868444,5.97432641610806,1.0,-3.14,3.14,1.3097314713745813,-3.14,2.8732568436156765,3.111988292517711
42,3.781361849990248,2.5208262105520642,2.172929416338725,6.104181347457952,1.724265224556258,-0.470695494418724,5.972389475716201,1.0,-3.14,3.14,1.3146941265139254,-3.14,2.875032597474538,3.1095061735989584
43,3.7750622168608903,2.5169773840310854,2.1706637199143533,6.10243028826047,1.725370335799242,-0.4667683599469904,5.970639647397135,1.0,-3.14,3.14,1.319626890900232,-3.14,2.8776810938541963,3.1074072549491367
44,3.770440793176667,2.5136864245644674,2.1694357737767866,6.100883395183708,1.7262735848870085,-0.46341059637789966,5.9690936208689225,1.0,-3.14,3.14,1.3237321125674724,-3.14,2.880541835381391,3.1056355601566117
45,3.767798011802014,2.5113390647331157,2.1691684769115303,6.099537968469182,1.7268882606280835,-0.46101374213079716,5.967748662031921,1.0,-3.14,3.14,1.3265680415746197,-3.14,2.8830960236853254,3.1041415699353228
46,3.767023482214939,2.5100605591691476,2.169643554480732,6.098379819180217,1.7271999443906931,-0.4597044873577445,5.96659062522455,1.0,-3.14,3.14,1.328022955945109,-3.14,2.8850135608449463,3.1028815204386655
47,3.7677294977972915,2.509766615747676,2.1705784579608127,6.097388742776543,1.7272453043580918,-0.4593966837323985,5.96559939217071,1.0,-3.14,3.14,1.3282414899639348,-3.14,2.8861563271568973,3.1018168799283625
48,3.7693916673325374,2.5102345501115155,2.1716919087671793,6.096542299993576,1.7270914199082241,-0.4598637404495895,5.964752625529761,1.0,-3.14,3.14,1.3275303876552762,-3.14,2.8865495294824575,3.1009141702317833
49,3.771471742969252,2.5111772147745675,2.172750167958559,6.095818402960882,1.7268178779117351,-0.4608137239162565,5.964028335970218,1.0,-3.14,3.14,1.3262647282017779,-3.14,2.886334241936286,3.1001449705525
50,3.7735086966327467,2.5123072003541944,2.173592254403019,6.095196974852126,1.7265020971972527,-0.4619545350805927,5.963406529260442,1.0,-3.14,3.14,1.3248088605021016,-3.14,2.885713592277984,3.099485842640692
51,3.7751729177029283,2.513383864070609,2.174136351019861,6.094660848212798,1.7262082404368182,-0.4630416494276793,5.962870096979569,1.0,-3.14,3.14,1.3234600998550896,-3.14,2.8849028839778015,3.0989180069883426
52,3.7762850178858076,2.514240309537531,2.174371775437658,6.09419604635928,1.7259803196826973,-0.46390550773025596,5.962405094742032,1.0,-3.14,3.14,1.3224179388063961,-3.14,2.884090783363522,3.0984267546401285
53,3.7768054194954677,2.5147912191582584,2.1743417001024983,6.093791606288402,1.7258398924566847,-0.4644594624167241,5.962000566282894,1.0,-3.14,3.14,1.321777154534987,-3.14,2.8834151426618915,3.098000693950368
54,3.7768037814205684,2.515025203245338,2.174121742831445,6.093439112905744,1.725788026162153,-0.4646919909234081,5.961648082662724,1.0,-3.14,3.14,1.321539927463854,-3.14,2.8829536987990876,3.0976309666124973
55,3.776418346352233,2.5149869174309805,2.1737988753307573,6.093132104432286,1.7258103821000241,-0.4646485089461429,5.961341155108057,1.0,-3.14,3.14,1.3216401758912917,-3.14,2.882727304065093,3.097310539532157
56,3.7758145435408883,2.5147545849560564,2.173453978421149,6.092865477481632,1.725883773200064,-0.46440851500611746,5.9610746481454004,1.0,-3.14,3.14,1.3219728953314636,-3.14,2.88271180889109,3.097033628219872
57,3.775150019687801,2.5144179059555345,2.173149991059228,6.092634977918677,1.725982571599956,-0.4640631345325554,5.960844277421902,1.0,-3.14,3.14,1.3224222208631335,-3.14,2.882854263869205,3.096795264791432
58,3.774550340234009,2.5140599763830456,2.1729261946905414,6.092436821704613,1.7260837861913663,-0.46369674761181173,5.960646235314372,1.0,-3.14,3.14,1.322883772208904,-3.14,2.883089543069907,3.096591000442656
59,3.7740966341786084,2.513745190121584,2.172797991984404,6.092267455720435,1.7261702459419708,-0.4633747047885686,5.960476953995887,1.0,-3.14,3.14,1.323279022205483,-3.14,2.883354488425138,3.096416723894489
60,3.7738240391930207,2.513513540696131,2.1727607560984987,6.092123444484092,1.726231876475419,-0.46313755019420794,5.960332992189595,1.0,-3.14,3.14,1.3235614301789398,-3.14,2.883597892362141,3.096268574788732
61,3.7737282590909715,2.5133805370207996,2.172796001140178,6.092001454309803,1.7262654195343354,-0.4630009493152838,5.9602110178203205,1.0,-3.14,3.14,1.3237155658689235,-3.14,2.883785794189153,3.096142928776422
62,3.773776912272438,2.5133412174478544,2.172878200466755,6.091898300346297,1.726273105305661,-0.4629597780154225,5.96010785273533,1.0,-3.14,3.14,1.3237512934811893,-3.14,2.883902485512996,3.096036428586774
63,3.7739224696671787,2.513376479038718,2.1729809303275505,6.09181102242951,1.7262607978020443,-0.46299455968227377,5.960020546060644,1.0,-3.14,3.14,1.323695333528228,-3.14,2.8839482189636954,3.095946034854584
64,3.7741142046506813,2.5134600444693196,2.173081497188714,6.091736961073555,1.7262360572210116,-0.46307854614066896,5.9599464479706565,1.0,-3.14,3.14,1.3235823117160002,-3.14,2.8839348871352426,3.0958690736860963
65,3.7743074495026354,2.51356474163785,2.173163693769514,6.091673813335446,1.726206448134105,-0.46318409712291403,5.959883263877899,1.0,-3.14,3.14,1.3234469100109454,-3.14,2.883880931490176,3.095803264712989
66,3.7744693593603156,2.5136672433150893,2.173218736500658,6.0916196577847925,1.7261782964230492,-0.46328749311727246,5.95982907838679,1.0,-3.14,3.14,1.323318116542391,-3.14,2.883806530459209,3.095746721916881
67,3.774581172116772,2.5137508971542406,2.173244721854281,6.09157294661844,1.7261559771057222,-0.4633718069819836,5.959782347037111,1.0,-3.14,3.14,1.3232159596852007,-3.14,2.883729789626175,3.095697927500852
68,3.774637530244613,2.5138066899635128,2.173245090375712,6.0915324697642275,1.7261417113804272,-0.46342787969793753,5.959741860573812,1.0,-3.14,3.14,1.3231506012249699,-3.14,2.883664297975447,3.0956556848276593
69,3.774643762800822,2.5138326863814133,2.1732266184254896,6.091497299940119,1.726135774397188,-0.46345374642041764,5.959706690544722,1.0,-3.14,3.14,1.32312330819697,-3.14,2.8836180901092554,3.095619059294065
70,3.7746121236560835,2.5138324437960624,2.173197396140446,6.09146672905092,1.7261369719897852,-0.46345302311481784,5.959676126423637,1.0,-3.14,3.14,1.323128639895869,-3.14,2.8835938097394815,3.0955873162672667
71,3.7745578898887997,2.513812941189737,2.1731651301542785,6.0914402054959025,1.7261432354990192,-0.4634328003031103,5.95964961366205,1.0,-3.14,3.14,1.3231571613772344,-3.14,2.8835897245562956,3.0955598636804367
72,3.7744960064604527,2.5137824965799553,2.1731359657116363,6.0914172796841966,1.726152203081035,-0.46340152624360365,5.959626699836362,1.0,-3.14,3.14,1.3231980909230951,-3.14,2.883601194738581,3.0955362044568124
73,3.7744386887617036,2.51374902239586,2.173113884697291,6.091397562115545,1.7261616932273371,-0.4633672343534512,5.959606993171346,1.0,-3.14,3.14,1.3232414586349914,-3.14,2.883622228863779,3.0955159013198843
74,3.774394124451455,2.513718818011167,2.1731006251640452,6.09138069546955,1.7261700200850512,-0.4633363170368828,5.959590134859121,1.0,-3.14,3.14,1.3232795484753561,-3.14,2.8836468451194364,3.095498554223037
75,3.774366194638263,2.5136959555929113,2.173095995619607,6.091366339740736,1.7261761407577974,-0.4633129026759517,5.95957578423007,1.0,-3.14,3.14,1.3233075768933829,-3.14,2.883670064155953,3.095483788859149
76,3.774354986125706,2.5136822015413576,2.173098425567746,6.091354167820393,1.7261796557363396,-0.46329877685114457,5.959563614223492,1.0,-3.14,3.14,1.3233237009930923,-3.14,2.883688467945457,3.095471253600954
77,3.774357796352073,2.5136773422834775,2.173105597098379,6.0913438681219985,1.7261807023206976,-0.4632937142376267,5.9595533138134344,1.0,-3.14,3.14,1.3233285356543212,-3.14,2.883700348755313,3.095460621776832
78,3.774370331272296,2.5136797513755362,2.1731150306722076,6.091335150786366,1.7261797877256486,-0.4632960553968353,5.959544593983116,1.0,-3.14,3.14,1.323324392178805,-3.14,2.8837055338664292,3.0954515963165727
79,3.7743878452707413,2.513687038750861,2.1731245400934487,6.0913277545012345,1.7261776057956812,-0.46330336671214917,5.959537194329322,1.0,-3.14,3.14,1.3233144399056493,-3.14,2.883705002407694,3.0954439143543198
80,3.7744060494723453,2.513696652198366,2.173132516339876,6.091321451801639,1.726174872056629,-0.4633130515020009,5.959530888194443,1.0,-3.14,3.14,1.3233019507155246,-3.14,2.88370041385493,3.095437350162779
81,3.774421700015049,2.5137063440648078,2.173138039212458,6.091316051660064,1.7261721994587382,-0.46332282397976293,5.9595254851504,1.0,-3.14,3.14,1.3232897295294808,-3.14,2.883693650248198,3.0954317156270847
82,3.7744328547301516,2.513714461949843,2.1731408446173672,6.091311399047024,1.7261700244640408,-0.46333100425630713,5.959520830515926,1.0,-3.14,3.14,1.3232797753199455,-3.14,2.8836864444645545,3.0954268581968107
83,3.7744388447870687,2.5137200624599294,2.1731411917525882,6.0913073718195525,1.7261685822335293,-0.4633366335217811,5.959516802254987,1.0,-3.14,3.14,1.323273166942634,-3.14,2.8836801331480557,3.095422656784884
84,3.774440042636871,2.5137228767069097,2.1731396791633917,6.091303875718511,1.7261679218721488,-0.4633394386225339,5.959513306021387,1.0,-3.14,3.14,1.323270132318759,-3.14,2.8836755418182047,3.0954190163773
85,3.7744375195407898,2.513723173139009,2.1731370539477366,6.091300838424819,1.7261679484585932,-0.4633396923996789,5.959510269281765,1.0,-3.14,3.14,1.3232702402019152,-3.14,2.8836729856999317,3.0954158621931507
86,3.774432679233165,2.5137215680856664,2.1731340476268466,6.091298203580882,1.7261684776865416,-0.46333802100219107,5.959507635406966,1.0,-3.14,3.14,1.3232726497357723,-3.14,2.883672355019532,3.095413134139657
87,3.774426934969456,2.513718829536446,2.1731312587620164,6.091295925492981,1.726169290645544,-0.46333520442646864,5.959505358435079,1.0,-3.14,3.14,1.3232763608246687,-3.14,2.8836732478854783,3.095410782105911
88,3.774421471923028,2.513715708557725,2.1731290892389454,6.091293964965401,1.7261701795969548,-0.4633320052229042,5.959503398949324,1.0,-3.14,3.14,1.3232804235233142,-3.14,2.883675115889348,3.0954087623955466
89,3.774417111430615,2.51371281890697,2.1731277303665038,6.091292286442826,1.7261709795599538,-0.4633290462341995,5.9595017212445764,1.0,-3.14,3.14,1.3232840827002805,-3.14,2.883677394828978,3.0954070353653567
90,3.774414272228113,2.513710571867903,2.173127187698058,6.091290856402863,1.7261715842804866,-0.4633267444733347,5.9595002917256865,1.0,-3.14,3.14,1.3232868513703313,-3.14,2.88367960285214,3.095405564150319
91,3.774413009013887,2.5137091622683387,2.1731273300342155,6.091289642774471,1.72617194813736,-0.463325297012499,5.959499078317309,1.0,-3.14,3.14,1.3232885197162918,-3.14,2.883681398492206,3.0954043142343655
92,3.7744131011238977,2.513708594228539,2.1731279479609267,6.091288615070122,1.726172077457338,-0.4633247072273943,5.959498050578435,1.0,-3.14,3.14,1.323289115612787,-3.14,2.8836825997529245,3.0954032535735267
93,3.774414163104394,2.513708731671426,2.1731288096339423,6.0912877449040765,1.7261720155339912,-0.4633248361761271,5.9594971801992935,1.0,-3.14,3.14,1.323288836262618,-3.14,2.883683171555672,3.095402352984783
94,3.7744157529244213,2.513709358541929,2.173129705285055,6.091287006609208,1.7261718255331169,-0.4633254638140084,5.959496441597697,1.0,-3.14,3.14,1.323287970075737,-3.14,2.8836831921480166,3.095401586563578
95,3.7744174604900196,2.5137102361208727,2.17313047609268,6.091286377739865,1.7261715746920239,-0.4633263472290905,5.959495812405413,1.0,-3.14,3.14,1.3232868243929345,-3.14,2.8836828097141782,3.095400931966236
96,3.774418967058455,2.5137111486954637,2.1731310268285298,6.0912858393361216,1.7261713220883719,-0.4633272670262931,5.959495273721615,1.0,-3.14,3.14,1.3232856694875672,-3.14,2.8836821990308104,3.095400370472331
97,3.774420073512524,2.5137119331329516,2.1731313245446167,6.091285375908214,1.7261711110497124,-0.4633280573432646,5.959494810092464,1.0,-3.14,3.14,1.3232847037683335,-3.14,2.8836815253557213,3.0953998868120527
98,3.7744207011748383,2.5137124917752343,2.1731313872737026,6.0912849751662606,1.72617096621652,-0.4633286189145912,5.959494409241111,1.0,-3.14,3.14,1.323284040260947,-3.14,2.883680919602296,3.095399468795784
99,3.774420872412224,2.513712790998751,2.1731312673057888,6.091284627563413,1.7261708944954177,-0.46332891757319805,5.959494061614869,1.0,-3.14,3.14,1.3232837108917324,-3.14,2.8836804658877364,3.09539910681376
100,3.7744206796863424,2.5137128495339813,2.173131033276556,6.091284325739735,1.7261708886984803,-0.4633289723537758,5.959493759835149,1.0,-3.14,3.14,1.3232836830749286,-3.14,2.8836802001954194,3.095398793283669
101,3.774420251297046,2.5137127212382167,2.173130754361533,6.0912840639525765,1.7261709325421024,-0.46332883796969465,5.959493498134396,1.0,-3.14,3.14,1.3232838825409496,-3.14,2.883680117384624,3.095398522117473
102,3.774419720396143,2.513712476673906,2.173130488634107,6.091283837563185,1.7261710058097863,-0.4633285860858959,5.959493271848532,1.0,-3.14,3.14,1.3232842169370667,-3.14,2.8836801831387677,3.0953982882612747
103,3.774419201536735,2.5137121868725503,2.173130276400415,6.0912836426252115,1.7261710887775428,-0.4633282888206941,5.959493077009784,1.0,-3.14,3.14,1.3232845960745407,-3.14,2.883680347540061,3.0953980873396354
104,3.7744187766246937,2.5137119113919435,2.173130138278961,6.091283475595046,1.726171165365516,-0.463328006615853,5.959492910059548,1.0,-3.14,3.14,1.3232849463629994,-3.14,2.883680557579342,3.095397915413586
105,3.774418490075238,2.5137116914946427,2.1731300770673156,6.091283333161382,1.7261712248353034,-0.4633277813134774,5.959492767678712,1.0,-3.14,3.14,1.3232852185995798,-3.14,2.8836807668105706,3.095397768843301
106,3.7744183515020135,2.5137115482023438,2.1731300820669506,6.091283212174762,1.7261712621425305,-0.4633276341880313,5.959492646716574,1.0,-3.14,3.14,1.323285389607838,-3.14,2.8836809413153244,3.0953976442341102
107,3.7744183434651863,2.5137114842372,2.1731301344865726,6.0912831096487245,1.7261712772480882,-0.4633275679267187,5.959492544190438,1.0,-3.14,3.14,1.3232854591094891,-3.14,2.8836810619798543,3.0953975384387062
108,3.774418431630379,2.5137114884817007,2.1731302127363836,6.091283022801766,1.7261712737826844,-0.46332757116667733,5.959492457325603,1.0,-3.14,3.14,1.3232854436315538,-3.14,2.883681123698912,3.09539744858832
109,3.774418575002458,2.51371154153864,2.17313029676331,6.091282949112421,1.7261712574605879,-0.4633276241472475,5.9594923836085085,1.0,-3.14,3.14,1.323285369258797,-3.14,2.8836811324656315,3.0953973721298267
110,3.7744187345141937,2.513711621171687,2.173130370965179,6.091282886366497,1.7261712345735383,-0.46332770423833514,5.959492320832353,1.0,-3.14,3.14,1.32328526474611,-3.14,2.8836811013996835,3.095397306852391
111,3.7744188789858404,2.5137117067549597,2.17313042558214,6.091282832683535,1.726171210793444,-0.4633277904598221,5.959492267122475,1.0,-3.14,3.14,1.3232851560381815,-3.14,2.88368104665915,3.0953972508946355
112,3.774418988172946,2.5137117822591275,2.1731304567438485,6.091282786517599,1.726171190399696,-0.46332786651267405,5.959492220936614,1.0,-3.14,3.14,1.3232850627282835,-3.14,2.8836809839464856,3.095397202730035
113,3.7744190531794315,2.513711837671688,2.1731304655261727,6.091282746633906,1.7261711759452447,-0.4633279222185364,5.959492181041496,1.0,-3.14,3.14,1.3232849965228697,-3.14,2.883680926029162,3.0953971611333744
114,3.774419074875929,2.513711869036689,2.1731304564404854,6.091282712067163,1.7261711682989103,-0.46332795355672024,5.959492146471507,1.0,-3.14,3.14,1.3232849614275852,-3.14,2.883680881413894,3.0953971251342676
115,3.7744190611225554,2.5137118774785874,2.1731304357590475,6.091282682069596,1.726171166955732,-0.4633279616695995,5.959492116477271,1.0,-3.14,3.14,1.323284955160908,-3.14,2.883680854084408,3.095397093964938
116,3.7744190235788078,2.513711867645546,2.173130409998633,6.091282656056761,1.7261711704917466,-0.46332795127897775,5.959492090472074,1.0,-3.14,3.14,1.3232849712305703,-3.14,2.883680844060278,3.0953970670090416
117,3.774418974741357,2.513711845986802,2.1731303847716346,6.091282633557898,1.7261711770488493,-0.46332792893475877,5.959492067982773,1.0,-3.14,3.14,1.323285001149776,-3.14,2.8836808484632273,3.0953970437568104
118,3.7744189256402403,2.5137118191947563,2.1731303640965653,6.091282614175405,1.7261711847611494,-0.4633279014317815,5.959492048609698,1.0,-3.14,3.14,1.3232850363876798,-3.14,2.883680862777367,3.0953970237697406
119,3.7744188843988717,2.5137117930261175,2.1731303501588437,6.091282597555629,1.7261711920677794,-0.4633278746123925,5.959492031997701,1.0,-3.14,3.14,1.3232850698018284,-3.14,2.883680882041989,3.09539700665596
120,3.774418855664528,2.513711771595879,2.173130343440451,6.091282583370983,1.7261711978907754,-0.46332785264978743,5.959492017818375,1.0,-3.14,3.14,1.3232850964541087,-3.14,2.8836809017970064,3.0953969920556372
121,3.7744188407696684,2.5137117571341054,2.1731303430976743,6.091282571311785,1.726171201684805,-0.4633278378017162,5.959492005761838,1.0,-3.14,3.14,1.323285113840653,-3.14,2.883680918690639,3.0953969796345615
122,3.7744188384006443,2.5137117501213924,2.173130347457447,6.091282561085237,1.726171203384974,-0.4633278305488707,5.9594919955355845,1.0,-3.14,3.14,1.323285121655233,-3.14,2.8836809307393225,3.095396969083401
123,3.7744188455262,2.5137117496786017,2.1731303545179603,6.091282552418654,1.7261712032888146,-0.46332782999143957,5.959491986867537,1.0,-3.14,3.14,1.3232851212509966,-3.14,2.883680937290271,3.0953969601200626
124,3.774418858361626,2.5137117540777143,2.173130362369238,6.091282545064327,1.7261712019097653,-0.4633278343684772,5.959491979510718,1.0,-3.14,3.14,1.3232851149711429,-3.14,2.8836809387729394,3.095396952492925
125,3.7744188731988766,2.5137117612563586,2.1731303694853583,6.091282538803905,1.72617119983416,-0.4633278415807662,5.959491973247478,1.0,-3.14,3.14,1.3232851054949857,-3.14,2.883680936337463,3.095396945983316
126,3.774418887000768,2.513711769249559,2.173130374874323,6.091282533451008,1.7261711976045346,-0.4633278496293696,5.959491967892005,1.0,-3.14,3.14,1.3232850953039046,-3.14,2.883680931470562,3.095396940406284
127,3.7744188977240616,2.5137117764892642,2.1731303780989704,6.091282528851502,1.7261711956415586,-0.46332785691970557,5.959491963290534,1.0,-3.14,3.14,1.3232850863236438,-3.14,2.883680925658758,3.095396935609366
128,3.7744189043906857,2.5137117819574573,2.1731303792001486,6.091282524881482,1.726171194207173,-0.4633278624167915,5.959491959319335,1.0,-3.14,3.14,1.323285079754961,-3.14,2.8836809201421416,3.095396931469552
129,3.774418906963014,2.51371178520681,2.173130378561197,6.091282521443494,1.7261711934039727,-0.4633278656659112,5.959491955880942,1.0,-3.14,3.14,1.3232850760700845,-3.14,2.8836809157752143,3.0953969278889724
130,3.7744189060965834,2.5137117862810685,2.17313037675203,6.091282518461676,1.7261711932011932,-0.4633278667114504,5.959491952899358,1.0,-3.14,3.14,1.3232850751309961,-3.14,2.883680912989138,3.0953969247899638
131,3.774418902844321,2.5137117855753575,2.1731303743841948,6.091282515876613,1.726171193475829,-0.46332786595476216,5.9594919503149635,1.0,-3.14,3.14,1.323285076377135,-3.14,2.883680911834379,3.095396922110168
132,3.774418898374394,2.513711783675758,2.1731303719980257,6.091282513640549,1.726171194057992,-0.46332786399106124,5.959491948079779,1.0,-3.14,3.14,1.3232850790326869,-3.14,2.883680912075055,3.0953969197981643
133,3.7744188937448886,2.513711781210371,2.173130369991995,6.091282511713404,1.7261711947718348,-0.4633278614580639,5.959491946153524,1.0,-3.14,3.14,1.3232850822937783,-3.14,2.883680913305404,3.0953969178099783
134,3.7744188897574236,2.5137117787335006,2.1731303685946353,6.091282510059838,1.7261711954664405,-0.46332785891833533,5.959491944500713,1.0,-3.14,3.14,1.3232850854699139,-3.14,2.8836809150631013,3.095396916106582
135,3.774418886892787,2.5137117766532864,2.173130367872253,6.091282508647399,1.7261711960342514,-0.46332785678582067,5.959491943088807,1.0,-3.14,3.14,1.3232850880684708,-3.14,2.8836809169214446,3.095396914652363
136,3.774418885317197,2.5137117752030886,2.1731303677615093,6.091282507445598,1.7261711964173285,-0.4633278552968509,5.95949194188729,1.0,-3.14,3.14,1.3232850898235646,-3.14,2.8836809185508043,3.0953969134143873
137,3.774418884939146,2.5137117744496336,2.1731303681147764,6.091282506425703,1.7261711966036783,-0.4633278545184854,5.959491940867451,1.0,-3.14,3.14,1.3232850906794467,-3.14,2.883680919747391,3.0953969123622316
138,3.774418885493778,2.5137117743266475,2.1731303687472945,6.091282505560969,1.7261711966169289,-0.4633278543827443,5.959491940002601,1.0,-3.14,3.14,1.3232850907434406,-3.14,2.8836809204333678,3.0953969114681494
139,3.774418886633383,2.513711774681549,2.1731303694778124,6.091282504827057,1.726171196502863,-0.46332785473408067,5.959491939268468,1.0,-3.14,3.14,1.3232850902244306,-3.14,2.8836809206360003,3.0953969107073425
140,3.77441888800731,2.513711775323925,2.173130370157721,6.091282504202445,1.7261711963158888,-0.46332785537864807,5.959491938643594,1.0,-3.14,3.14,1.323285089371001,-3.14,2.883680920454942,3.0953969100581893
141,3.7744188893209105,2.5137117760672627,2.173130370686925,6.091282503668668,1.7261711961077117,-0.463327856126688,5.959491938109571,1.0,-3.14,3.14,1.3232850884196083,-3.14,2.883680920026291,3.0953969095023237
142,3.7744188903693026,2.513711776758818,2.173130371017401,6.091282503210373,1.7261711959194996,-0.46332785682285604,5.959491937651083,1.0,-3.14,3.14,1.3232850875586835,-3.14,2.883680919490247,3.0953969090245317
143,3.7744188910471927,2.5137117772958373,2.1731303711471424,6.091282502815139,1.7261711957779036,-0.4633278573626779,5.95949193725573,1.0,-3.14,3.14,1.3232850869103636,-3.14,2.883680918966787,3.0953969086124755
144,3.7744188913395034,2.513711777629139,2.173130371108103,6.091282502473146,1.7261711956945536,-0.4633278576961528,5.959491936913689,1.0,-3.14,3.14,1.32328508652812,-3.14,2.8836809185412253,3.0953969082562955
145,3.774418891299553,2.513711777756827,2.1731303709517396,6.091282502176705,1.7261711956681853,-0.46332785782134306,5.959491936617263,1.0,-3.14,3.14,1.3232850864064247,-3.14,2.883680918259415,3.0953969079481443
146,3.774418891021764,2.513711777711854,2.1731303707352128,6.091282501919785,1.7261711956883299,-0.4633278577717161,5.9594919363604,1.0,-3.14,3.14,1.3232850864976013,-3.14,2.8836809181307856,3.095396907681716
147,3.77441889061488,2.5137117775471443,2.173130370510349,6.091282501697541,1.7261711957395438,-0.46332785760102013,5.959491936138236,1.0,-3.14,3.14,1.3232850867311343,-3.14,2.8836809181366063,3.095396907451825
148,3.774418890180022,2.5137117773214124,2.1731303703164633,6.0912825015059315,1.7261711958053183,-0.46332785736886756,5.959491935946711,1.0,-3.14,3.14,1.3232850870315669,-3.14,2.8836809182406973,3.0953969072540577
149,3.7744188897959274,2.5137117770878317,2.1731303701771854,6.091282501341425,1.7261711958711172,-0.4633278571292258,5.959491935782276,1.0,-3.14,3.14,1.3232850873324002,-3.14,2.8836809184001555,3.0953969070845244
150,3.7744188895118587,2.5137117768866792,2.173130370100755,6.091282501200798,1.726171195926267,-0.46332785692294776,5.959491935641702,1.0,-3.14,3.14,1.32328508758476,-3.14,2.883680918574308,3.0953969069396967
151,3.774418889347342,2.5137117767420984,2.173130370082787,6.091282501081045,1.7261711959646993,-0.4633278567744898,5.959491935521979,1.0,-3.14,3.14,1.3232850877608018,-3.14,2.883680918730886,3.095396906816326
152,3.7744188892969004,2.513711776662422,2.173130370110391,6.091282500979346,1.7261711959847192,-0.46332785669224696,5.959491935420288,1.0,-3.14,3.14,1.3232850878526978,-3.14,2.88368091884913,3.0953969067114184
153,3.7744188893376776,2.513711776643026,2.1731303701665956,6.091282500893075,1.726171195988121,-0.46332785667145854,5.959491935334008,1.0,-3.14,3.14,1.3232850878685767,-3.14,2.8836809189201604,3.0953969066222435
154,3.7744188894378925,2.5137117766705765,2.1731303702342664,6.091282500819842,1.7261711959789503,-0.4633278566985257,5.959491935260756,1.0,-3.14,3.14,1.3232850878268962,-3.14,2.883680918945263,3.0953969065463576
155,3.774418889564514,2.5137117767275794,2.173130370298987,6.091282500757526,1.726171195962234,-0.4633278567556348,5.9594919351984155,1.0,-3.14,3.14,1.3232850877506157,-3.14,2.88368091893295,3.0953969064816227
156,3.774418889689067,2.5137117767963955,2.1731303703507243,6.091282500704298,1.7261711959428814,-0.4633278568248381,5.959491935145164,1.0,-3.14,3.14,1.3232850876621856,-3.14,2.8836809188956125,3.095396906426217
157,3.774418889791128,2.5137117768622055,2.1731303703843112,6.091282500658629,1.7261711959249046,-0.4633278568910626,5.959491935099476,1.0,-3.14,3.14,1.3232850875799662,-3.14,2.8836809188464225,3.0953969063786224
158,3.774418889859544,2.513711776914708,2.1731303703989937,6.0912825006192755,1.7261711959109947,-0.46332785694383233,5.959491935060111,1.0,-3.14,3.14,1.3232850875162885,-3.14,2.883680918796942,3.0953969063376037
159,3.7744188898917916,2.5137117769486053,2.1731303703973692,6.091282500585251,1.7261711959024335,-0.46332785697776196,5.959491935026081,1.0,-3.14,3.14,1.3232850874770394,-3.14,2.883680918755644,3.095396906302168
160,3.774418889892058,2.5137117769631385,2.1731303703840514,6.091282500555777,1.7261711958992598,-0.46332785699207885,5.959491934996607,1.0,-3.14,3.14,1.3232850874624218,-3.14,2.8836809187273365,3.0953969062715236
161,3.7744188898687425,2.5137117769609896,2.173130370364362,6.091282500530239,1.7261711959005994,-0.4633278569895055,5.959491934971075,1.0,-3.14,3.14,1.3232850874684559,-3.14,2.883680918713355,3.0953969062450333
162,3.774418889831926,2.5137117769469035,2.173130370343252,6.091282500508148,1.7261711959050567,-0.4633278569748615,5.959491934948992,1.0,-3.14,3.14,1.323285087488772,-3.14,2.8836809187122787,3.095396906222174
163,3.7744188897912347,2.5137117769263466,2.173130370324582,6.091282500489099,1.7261711959110881,-0.46332785695369555,5.959491934929949,1.0,-3.14,3.14,1.3232850875163167,-3.14,2.88368091872091,3.095396906202502
164,3.7744188897543722,2.5137117769044006,2.1731303703107745,6.091282500472732,1.726171195917299,-0.463327856931166,5.95949193491359,1.0,-3.14,3.14,1.323285087544709,-3.14,2.8836809187352856,3.09539690618563
165,3.774418889726342,2.5137117768850215,2.1731303703027933,6.091282500458732,1.7261711959226356,-0.46332785691128536,5.959491934899595,1.0,-3.14,3.14,1.323285087569125,-3.14,2.8836809187515433,3.095396906171208
166,3.7744188897093496,2.513711776870684,2.17313037030038,6.091282500446801,1.7261711959264687,-0.4633278568965617,5.959491934887668,1.0,-3.14,3.14,1.3232850875866802,-3.14,2.883680918766536,3.0953969061589146
167,3.7744188897031843,2.513711776862367,2.1731303703024225,6.0912825004366615,1.7261711959285855,-0.463327856887982,5.959491934877529,1.0,-3.14,3.14,1.323285087596393,-3.14,2.883680918778166,3.095396906148456
168,3.774418889705901,2.513711776859792,2.1731303703073697,6.091282500428057,1.7261711959291128,-0.46332785688525707,5.9594919348689235,1.0,-3.14,3.14,1.3232850875988362,-3.14,2.8836809187854513,3.0953969061395625
169,3.7744188897146147,2.5137117768618085,2.173130370313609,6.09128250042075,1.7261711959284052,-0.46332785688721323,5.959491934861615,1.0,-3.14,3.14,1.3232850875956232,-3.14,2.883680918788389,3.095396906131994
170,3.774418889726224,2.513711776866818,2.173130370319747,6.091282500414533,1.7261711959269233,-0.46332785689222244,5.959491934855396,1.0,-3.14,3.14,1.323285087588864,-3.14,2.883680918787692,3.0953969061255386
171,3.77441888973799,2.5137117768731576,2.1731303703247837,6.091282500409226,1.7261711959251325,-0.46332785689859296,5.959491934850086,1.0,-3.14,3.14,1.3232850875806828,-3.14,2.883680918784483,3.095396906120016
172,3.7744188897478845,2.513711776879397,2.1731303703281717,6.091282500404675,1.7261711959234223,-0.46332785690486894,5.959491934845532,1.0,-3.14,3.14,1.3232850875728603,-3.14,2.8836809187799934,3.0953969061152744
173,3.7744188897547417,2.513711776884507,2.1731303703297864,6.091282500400754,1.726171195922062,-0.4633278569100042,5.959491934841612,1.0,-3.14,3.14,1.3232850875666355,-3.14,2.883680918775335,3.0953969061111906
174,3.7744188897582225,2.5137117768879285,2.1731303703298326,6.09128250039737,1.7261711959211903,-0.46332785691343,5.959491934838226,1.0,-3.14,3.14,1.3232850875626407,-3.14,2.883680918771344,3.095396906107665
175,3.774418889758635,2.5137117768895343,2.1731303703287193,6.0912825003944375,1.7261711959208261,-0.4633278569150167,5.959491934835294,1.0,-3.14,3.14,1.323285087560965,-3.14,2.883680918768518,3.095396906104617
176,3.774418889756722,2.5137117768895334,2.1731303703269393,6.0912825003919,1.7261711959208985,-0.46332785691497724,5.959491934832757,1.0,-3.14,3.14,1.3232850875612856,-3.14,2.883680918767027,3.095396906101983
177,3.7744188897534126,2.513711776888349,2.173130370324966,6.0912825003897035,1.726171195921281,-0.463327856913741,5.959491934830561,1.0,-3.14,3.14,1.3232850875630304,-3.14,2.88368091876677,3.0953969060997095
178,3.7744188897496223,2.5137117768864887,2.1731303703231752,6.091282500387809,1.7261711959218313,-0.46332785691182277,5.959491934828668,1.0,-3.14,3.14,1.323285087565542,-3.14,2.8836809187674666,3.095396906097753
179,3.774418889746098,2.513711776884435,2.173130370321813,6.091282500386181,1.726171195922415,-0.46332785690971307,5.9594919348270405,1.0,-3.14,3.14,1.3232850875682114,-3.14,2.883680918768753,3.0953969060960738
180,3.774418889743345,2.513711776882575,2.1731303703209894,6.0912825003847875,1.7261711959229296,-0.46332785690780437,5.959491934825648,1.0,-3.14,3.14,1.3232850875705644,-3.14,2.883680918770265,3.0953969060946376
181,3.774418889741607,2.5137117768811605,2.1731303703206932,6.0912825003836,1.7261711959233097,-0.46332785690635186,5.9594919348244595,1.0,-3.14,3.14,1.323285087572305,-3.14,2.8836809187716943,3.095396906093413
182,3.7744188897408915,2.5137117768803026,2.1731303703208305,6.091282500382588,1.7261711959235309,-0.4633278569054664,5.959491934823449,1.0,-3.14,3.14,1.3232850875733184,-3.14,2.8836809187728325,3.09539690609237
183,3.7744188897410367,2.513711776879988,2.1731303703212603,6.09128250038173,1.7261711959236004,-0.46332785690513617,5.959491934822591,1.0,-3.14,3.14,1.32328508757364,-3.14,2.8836809187735737,3.095396906091483
184,3.7744188897417823,2.5137117768801205,2.1731303703218323,6.091282500381001,1.7261711959235493,-0.4633278569052616,5.959491934821862,1.0,-3.14,3.14,1.3232850875734083,-3.14,2.883680918773905,3.0953969060907283
185,3.7744188897428415,2.513711776880555,2.1731303703224123,6.091282500380381,1.7261711959234194,-0.4633278569056951,5.959491934821241,1.0,-3.14,3.14,1.3232850875728162,-3.14,2.883680918773885,3.0953969060900848
186,3.7744188897439486,2.513711776881136,2.173130370322901,6.091282500379852,1.7261711959232542,-0.4633278569062786,5.959491934820711,1.0,-3.14,3.14,1.3232850875720628,-3.14,2.8836809187736137,3.095396906089534
187,3.774418889744903,2.5137117768817254,2.17313037032324,6.091282500379398,1.7261711959230923,-0.46332785690687106,5.9594919348202575,1.0,-3.14,3.14,1.3232850875713214,-3.14,2.8836809187732064,3.0953969060890616
188,3.7744188897455873,2.513711776882221,2.173130370323414,6.091282500379008,1.72617119592296,-0.4633278569073685,5.959491934819868,1.0,-3.14,3.14,1.3232850875707158,-3.14,2.88368091877277,3.0953969060886553
189,3.7744188897459567,2.5137117768825634,2.173130370323438,6.0912825003786715,1.7261711959228716,-0.4633278569077121,5.959491934819531,1.0,-3.14,3.14,1.3232850875703122,-3.14,2.8836809187723857,3.0953969060883044
190,3.774418889746033,2.5137117768827375,2.173130370323347,6.09128250037838,1.7261711959228314,-0.4633278569078842,5.959491934819239,1.0,-3.14,3.14,1.3232850875701259,-3.14,2.883680918772105,3.095396906088001
191,3.7744188897458804,2.513711776882757,2.1731303703231877,6.091282500378128,1.726171195922833,-0.4633278569079002,5.9594919348189865,1.0,-3.14,3.14,1.3232850875701319,-3.14,2.8836809187719483,3.095396906087739
192,3.774418889745586,2.51371177688266,2.173130370323004,6.091282500377909,1.726171195922865,-0.46332785690779826,5.959491934818768,1.0,-3.14,3.14,1.323285087570279,-3.14,2.883680918771909,3.095396906087513
193,3.774418889745236,2.513711776882493,2.1731303703228324,6.09128250037772,1.726171195922915,-0.4633278569076257,5.95949193481858,1.0,-3.14,3.14,1.3232850875705067,-3.14,2.8836809187719625,3.0953969060873185
194,3.7744188897448994,2.5137117768823014,2.1731303703226987,6.091282500377559,1.7261711959229697,-0.463327856907429,5.959491934818418,1.0,-3.14,3.14,1.3232850875707565,-3.14,2.8836809187720767,3.0953969060871516
195,3.7744188897446285,2.5137117768821233,2.1731303703226144,6.09128250037742,1.726171195923019,-0.46332785690724626,5.9594919348182795,1.0,-3.14,3.14,1.3232850875709825,-3.14,2.8836809187722166,3.0953969060870086
196,3.774418889744452,2.5137117768819843,2.1731303703225797,6.091282500377302,1.7261711959230568,-0.46332785690710326,5.959491934818161,1.0,-3.14,3.14,1.3232850875711548,-3.14,2.883680918772353,3.0953969060868864
197,3.7744188897443727,2.5137117768818964,2.1731303703225877,6.091282500377201,1.7261711959230797,-0.46332785690701245,5.95949193481806,1.0,-3.14,3.14,1.3232850875712596,-3.14,2.8836809187724644,3.0953969060867825
198,3.774418889744376,2.51371177688186,2.1731303703226246,6.091282500377115,1.726171195923088,-0.4633278569069745,5.959491934817975,1.0,-3.14,3.14,1.3232850875712985,-3.14,2.883680918772539,3.095396906086694
199,3.7744188897444397,2.5137117768818666,2.173130370322677,6.0912825003770426,1.7261711959230848,-0.4633278569069806,5.959491934817902,1.0,-3.14,3.14,1.3232850875712836,-3.14,2.8836809187725754,3.095396906086619
200,3.774418889744534,2.513711776881905,2.1731303703227307,6.09128250037698,1.7261711959230734,-0.46332785690701805,5.95949193481784,1.0,-3.14,3.14,1.3232850875712319,-3.14,2.883680918772577,3.095396906086555
201,3.7744188897446374,2.5137117768819572,2.173130370322778,6.091282500376928,1.7261711959230583,-0.4633278569070707,5.9594919348177875,1.0,-3.14,3.14,1.3232850875711635,-3.14,2.883680918772555,3.0953969060865
202,3.7744188897447275,2.513711776882012,2.1731303703228115,6.091282500376883,1.7261711959230432,-0.4633278569071259,5.959491934817742,1.0,-3.14,3.14,1.323285087571094,-3.14,2.883680918772519,3.095396906086453
203,3.7744188897447954,2.5137117768820594,2.1731303703228306,6.091282500376844,1.7261711959230304,-0.46332785690717365,5.959491934817703,1.0,-3.14,3.14,1.3232850875710356,-3.14,2.8836809187724786,3.0953969060864126
204,3.7744188897448345,2.5137117768820936,2.173130370322834,6.09128250037681,1.7261711959230215,-0.46332785690720785,5.959491934817669,1.0,-3.14,3.14,1.3232850875709952,-3.14,2.8836809187724417,3.0953969060863775
205,3.774418889744845,2.5137117768821122,2.173130370322827,6.0912825003767805,1.7261711959230173,-0.4633278569072259,5.95949193481764,1.0,-3.14,3.14,1.3232850875709752,-3.14,2.883680918772414,3.0953969060863473
206,3.7744188897448345,2.513711776882116,2.173130370322813,6.091282500376756,1.726171195923017,-0.4633278569072294,5.959491934817615,1.0,-3.14,3.14,1.3232850875709734,-3.14,2.8836809187723977,3.095396906086321
207,3.7744188897448083,2.513711776882108,2.173130370322796,6.091282500376734,1.7261711959230197,-0.46332785690722117,5.959491934817594,1.0,-3.14,3.14,1.3232850875709856,-3.14,2.883680918772393,3.0953969060862985
208,3.774418889744776,2.513711776882093,2.17313037032278,6.091282500376716,1.7261711959230237,-0.46332785690720596,5.959491934817575,1.0,-3.14,3.14,1.3232850875710058,-3.14,2.883680918772397,3.0953969060862794
209,3.774418889744746,2.5137117768820763,2.1731303703227676,6.0912825003767,1.726171195923029,-0.46332785690718836,5.959491934817559,1.0,-3.14,3.14,1.3232850875710283,-3.14,2.8836809187724066,3.095396906086263
210,3.7744188897447186,2.51371177688206,2.173130370322759,6.0912825003766855,1.7261711959230335,-0.4633278569071716,5.959491934817545,1.0,-3.14,3.14,1.3232850875710491,-3.14,2.8836809187724186,3.0953969060862487
211,3.7744188897447026,2.5137117768820465,2.1731303703227547,6.091282500376674,1.726171195923037,-0.46332785690715766,5.9594919348175335,1.0,-3.14,3.14,1.323285087571066,-3.14,2.8836809187724315,3.0953969060862367
212,3.7744188897446924,2.5137117768820376,2.173130370322755,6.091282500376664,1.7261711959230392,-0.46332785690714867,5.959491934817524,1.0,-3.14,3.14,1.3232850875710764,-3.14,2.883680918772442,3.0953969060862265
213,3.7744188897446915,2.5137117768820327,2.173130370322758,6.091282500376655,1.7261711959230404,-0.46332785690714395,5.959491934817515,1.0,-3.14,3.14,1.3232850875710815,-3.14,2.8836809187724497,3.0953969060862176
214,3.7744188897446946,2.513711776882033,2.173130370322762,6.091282500376648,1.7261711959230401,-0.46332785690714384,5.959491934817508,1.0,-3.14,3.14,1.323285087571081,-3.14,2.8836809187724532,3.09539690608621
215,3.774418889744703,2.5137117768820354,2.1731303703227667,6.091282500376642,1.7261711959230397,-0.46332785690714606,5.9594919348175015,1.0,-3.14,3.14,1.3232850875710778,-3.14,2.8836809187724546,3.095396906086204
216,3.774418889744714,2.51371177688204,2.1731303703227716,6.091282500376637,1.7261711959230384,-0.4633278569071506,5.959491934817496,1.0,-3.14,3.14,1.3232850875710718,-3.14,2.8836809187724532,3.0953969060861986
217,3.774418889744724,2.5137117768820456,2.173130370322775,6.091282500376632,1.7261711959230366,-0.4633278569071563,5.959491934817492,1.0,-3.14,3.14,1.3232850875710647,-3.14,2.8836809187724497,3.0953969060861937
218,3.774418889744731,2.5137117768820505,2.1731303703227773,6.091282500376629,1.7261711959230355,-0.46332785690716116,5.959491934817488,1.0,-3.14,3.14,1.3232850875710587,-3.14,2.8836809187724457,3.0953969060861897
219,3.774418889744736,2.513711776882054,2.1731303703227782,6.091282500376625,1.7261711959230344,-0.46332785690716505,5.959491934817485,1.0,-3.14,3.14,1.323285087571054,-3.14,2.883680918772442,3.095396906086186
220,3.774418889744737,2.5137117768820563,2.173130370322778,6.0912825003766224,1.726171195923034,-0.46332785690716716,5.959491934817482,1.0,-3.14,3.14,1.3232850875710516,-3.14,2.883680918772439,3.095396906086183
221,3.7744188897447364,2.5137117768820567,2.1731303703227765,6.09128250037662,1.726171195923034,-0.4633278569071677,5.959491934817479,1.0,-3.14,3.14,1.3232850875710511,-3.14,2.8836809187724373,3.0953969060861803
222,3.7744188897447346,2.5137117768820563,2.173130370322775,6.091282500376618,1.726171195923034,-0.4633278569071671,5.9594919348174775,1.0,-3.14,3.14,1.323285087571052,-3.14,2.883680918772437,3.095396906086178
223,3.7744188897447315,2.513711776882055,2.173130370322774,6.091282500376616,1.7261711959230344,-0.46332785690716566,5.959491934817476,1.0,-3.14,3.14,1.323285087571054,-3.14,2.8836809187724373,3.0953969060861763
224,3.7744188897447284,2.513711776882053,2.1731303703227725,6.0912825003766145,1.7261711959230348,-0.46332785690716405,5.959491934817474,1.0,-3.14,3.14,1.323285087571056,-3.14,2.883680918772438,3.0953969060861746
225,3.774418889744726,2.513711776882052,2.1731303703227716,6.091282500376613,1.7261711959230353,-0.4633278569071627,5.959491934817472,1.0,-3.14,3.14,1.3232850875710578,-3.14,2.883680918772439,3.0953969060861732
226,3.7744188897447235,2.5137117768820505,2.1731303703227716,6.091282500376611,1.7261711959230357,-0.4633278569071614,5.95949193481747,1.0,-3.14,3.14,1.3232850875710593,-3.14,2.8836809187724404,3.095396906086172
227,3.774418889744723,2.513711776882049,2.173130370322771,6.09128250037661,1.726171195923036,-0.46332785690716005,5.9594919348174695,1.0,-3.14,3.14,1.323285087571061,-3.14,2.8836809187724417,3.095396906086171
228,3.774418889744724,2.513711776882049,2.1731303703227716,6.091282500376609,1.726171195923036,-0.46332785690716,5.959491934817469,1.0,-3.14,3.14,1.323285087571061,-3.14,2.883680918772442,3.09539690608617
229,3.774418889744724,2.51371177688205,2.173130370322772,6.091282500376608,1.7261711959230357,-0.46332785690716033,5.959491934817468,1.0,-3.14,3.14,1.3232850875710604,-3.14,2.883680918772442,3.0953969060861692
230,3.774418889744724,2.51371177688205,2.173130370322772,6.091282500376607,1.7261711959230357,-0.4633278569071607,5.959491934817467,1.0,-3.14,3.14,1.32328508757106,-3.14,2.8836809187724417,3.095396906086169
231,3.774418889744723,2.51371177688205,2.173130370322772,6.091282500376607,1.7261711959230357,-0.46332785690716055,5.959491934817467,1.0,-3.14,3.14,1.3232850875710602,-3.14,2.8836809187724417,3.0953969060861684
232,3.7744188897447244,2.51371177688205,2.173130370322772,6.091282500376607,1.7261711959230357,-0.4633278569071607,5.959491934817467,1.0,-3.14,3.14,1.32328508757106,-3.14,2.8836809187724417,3.095396906086168
233,3.774418889744723,2.51371177688205,2.173130370322772,6.0912825003766065,1.7261711959230357,-0.46332785690716055,5.959491934817466,1.0,-3.14,3.14,1.3232850875710602,-3.14,2.8836809187724417,3.0953969060861675
234,3.7744188897447226,2.51371177688205,2.1731303703227725,6.091282500376606,1.7261711959230357,-0.4633278569071605,5.959491934817465,1.0,-3.14,3.14,1.3232850875710602,-3.14,2.883680918772442,3.095396906086167
235,3.7744188897447244,2.51371177688205,2.1731303703227725,6.091282500376606,1.7261711959230357,-0.4633278569071603,5.959491934817465,1.0,-3.14,3.14,1.3232850875710604,-3.14,2.8836809187724426,3.0953969060861666
236,3.7744188897447253,2.513711776882051,2.1731303703227725,6.091282500376606,1.7261711959230357,-0.4633278569071612,5.959491934817465,1.0,-3.14,3.14,1.3232850875710593,-3.14,2.8836809187724417,3.095396906086166
237,3.774418889744725,2.513711776882051,2.1731303703227725,6.091282500376605,1.7261711959230357,-0.46332785690716105,5.959491934817464,1.0,-3.14,3.14,1.3232850875710596,-3.14,2.8836809187724417,3.095396906086166
238,3.7744188897447244,2.513711776882051,2.173130370322772,6.091282500376605,1.7261711959230357,-0.4633278569071611,5.959491934817464,1.0,-3.14,3.14,1.3232850875710596,-3.14,2.8836809187724413,3.095396906086166
239,3.7744188897447235,2.51371177688205,2.173130370322772,6.091282500376605,1.7261711959230357,-0.46332785690716055,5.959491934817464,1.0,-3.14,3.14,1.3232850875710602,-3.14,2.8836809187724417,3.095396906086166
240,3.774418889744724,2.51371177688205,2.173130370322772,6.091282500376605,1.7261711959230357,-0.46332785690716033,5.959491934817464,1.0,-3.14,3.14,1.3232850875710604,-3.14,2.883680918772442,3.095396906086166
241,3.774418889744723,2.51371177688205,2.1731303703227725,6.091282500376605,1.7261711959230357,-0.4633278569071605,5.959491934817464,1.0,-3.14,3.14,1.3232850875710602,-3.14,2.883680918772442,3.095396906086166
242,3.7744188897447244,2.51371177688205,2.1731303703227725,6.091282500376605,1.7261711959230357,-0.4633278569071603,5.959491934817464,1.0,-3.14,3.14,1.3232850875710604,-3.14,2.8836809187724426,3.095396906086166
243,3.774418889744725,2.513711776882051,2.1731303703227725,6.091282500376605,1.7261711959230357,-0.46332785690716105,5.959491934817464,1.0,-3.14,3.14,1.3232850875710596,-3.14,2.8836809187724417,3.095396906086166
244,3.7744188897447244,2.513711776882051,2.173130370322772,6.091282500376605,1.7261711959230357,-0.4633278569071611,5.959491934817464,1.0,-3.14,3.14,1.3232850875710596,-3.14,2.8836809187724413,3.095396906086166
245,3.7744188897447235,2.51371177688205,2.173130370322772,6.091282500376605,1.7261711959230357,-0.46332785690716055,5.959491934817464,1.0,-3.14,3.14,1.3232850875710602,-3.14,2.8836809187724417,3.095396906086166
246,3.774418889744724,2.51371177688205,2.173130370322772,6.091282500376605,1.7261711959230357,-0.46332785690716033,5.959491934817464,1.0,-3.14,3.14,1.3232850875710604,-3.14,2.883680918772442,3.095396906086166
247,3.774418889744723,2.51371177688205,2.1731303703227725,6.091282500376605,1.7261711959230357,-0.4633278569071605,5.959491934817464,1.0,-3.14,3.14,1.3232850875710602,-3.14,2.883680918772442,3.095396906086166
248,3.7744188897447244,2.51371177688205,2.1731303703227725,6.091282500376605,1.7261711959230357,-0.4633278569071603,5.959491934817464,1.0,-3.14,3.14,1.3232850875710604,-3.14,2.8836809187724426,3.095396906086166
249,3.774418889744725,2.513711776882051,2.1731303703227725,6.091282500376605,1.7261711959230357,-0.46332785690716105,5.959491934817464,1.0,-3.14,3.14,1.3232850875710596,-3.14,2.8836809187724417,3.095396906086166
250,3.7744188897447244,2.513711776882051,2.173130370322772,6.091282500376605,1.7261711959230357,-0.4633278569071611,5.959491934817464,1.0,-3.14,3.14,1.3232850875710596,-3.14,2.8836809187724413,3.095396906086166
251,3.7744188897447235,2.51371177688205,2.173130370322772,6.091282500376605,1.7261711959230357,-0.46332785690716055,5.959491934817464,1.0,-3.14,3.14,1.3232850875710602,-3.14,2.8836809187724417,3.095396906086166
252,3.774418889744724,2.51371177688205,2.173130370322772,6.091282500376605,1.7261711959230357,-0.46332785690716033,5.959491934817464,1.0,-3.14,3.14,1.3232850875710604,-3.14,2.883680918772442,3.095396906086166
253,3.774418889744723,2.51371177688205,2.1731303703227725,6.091282500376605,1.7261711959230357,-0.4633278569071605,5.959491934817464,1.0,-3.14,3.14,1.3232850875710602,-3.14,2.883680918772442,3.095396906086166
254,3.7744188897447244,2.51371177688205,2.1731303703227725,6.091282500376605,1.7261711959230357,-0.4633278569071603,5.959491934817464,1.0,-3.14,3.14,1.3232850875710604,-3.14,2.8836809187724426,3.095396906086166
255,3.774418889744725,2.513711776882051,2.1731303703227725,6.091282500376605,1.7261711959230357,-0.46332785690716105,5.959491934817464,1.0,-3.14,3.14,1.3232850875710596,-3.14,2.8836809187724417,3.095396906086166
256,3.7744188897447244,2.513711776882051,2.173130370322772,6.091282500376605,1.7261711959230357,-0.4633278569071611,5.959491934817464,1.0,-3.14,3.14,1.3232850875710596,-3.14,2.8836809187724413,3.095396906086166
257,3.7744188897447235,2.51371177688205,2.173130370322772,6.091282500376605,1.7261711959230357,-0.46332785690716055,5.959491934817464,1.0,-3.14,3.14,1.3232850875710602,-3.14,2.8836809187724417,3.095396906086166
258,3.774418889744724,2.51371177688205,2.173130370322772,6.091282500376605,1.7261711959230357,-0.46332785690716033,5.959491934817464,1.0,-3.14,3.14,1.3232850875710604,-3.14,2.883680918772442,3.095396906086166
259,3.774418889744723,2.51371177688205,2.1731303703227725,6.091282500376605,1.7261711959230357,-0.4633278569071605,5.959491934817464,1.0,-3.14,3.14,1.3232850875710602,-3.14,2.883680918772442,3.095396906086166
260,3.7744188897447244,2.51371177688205,2.1731303703227725,6.091282500376605,1.7261711959230357,-0.4633278569071603,5.959491934817464,1.0,-3.14,3.14,1.3232850875710604,-3.14,2.8836809187724426,3.095396906086166
261,3.774418889744725,2.513711776882051,2.1731303703227725,6.091282500376605,1.7261711959230357,-0.46332785690716105,5.959491934817464,1.0,-3.14,3.14,1.3232850875710596,-3.14,2.8836809187724417,3.095396906086166
262,3.7744188897447244,2.513711776882051,2.173130370322772,6.091282500376605,1.7261711959230357,-0.4633278569071611,5.959491934817464,1.0,-3.14,3.14,1.3232850875710596,-3.14,2.8836809187724413,3.095396906086166
263,3.7744188897447235,2.51371177688205,2.173130370322772,6.091282500376605,1.7261711959230357,-0.46332785690716055,5.959491934817464,1.0,-3.14,3.14,1.3232850875710602,-3.14,2.8836809187724417,3.095396906086166
264,3.774418889744724,2.51371177688205,2.173130370322772,6.091282500376605,1.7261711959230357,-0.46332785690716033,5.959491934817464,1.0,-3.14,3.14,1.3232850875710604,-3.14,2.883680918772442,3.095396906086166
265,3.774418889744723,2.51371177688205,2.1731303703227725,6.091282500376605,1.7261711959230357,-0.4633278569071605,5.959491934817464,1.0,-3.14,3.14,1.3232850875710602,-3.14,2.883680918772442,3.095396906086166
266,3.7744188897447244,2.51371177688205,2.1731303703227725,6.091282500376605,1.7261711959230357,-0.4633278569071603,5.959491934817464,1.0,-3.14,3.14,1.3232850875710604,-3.14,2.8836809187724426,3.095396906086166
267,3.774418889744725,2.513711776882051,2.1731303703227725,6.091282500376605,1.7261711959230357,-0.46332785690716105,5.959491934817464,1.0,-3.14,3.14,1.3232850875710596,-3.14,2.8836809187724417,3.095396906086166
268,3.7744188897447244,2.513711776882051,2.173130370322772,6.091282500376605,1.7261711959230357,-0.4633278569071611,5.959491934817464,1.0,-3.14,3.14,1.3232850875710596,-3.14,2.8836809187724413,3.095396906086166
269,3.7744188897447235,2.51371177688205,2.173130370322772,6.091282500376605,1.7261711959230357,-0.46332785690716055,5.959491934817464,1.0,-3.14,3.14,1.3232850875710602,-3.14,2.8836809187724417,3.095396906086166
270,3.774418889744724,2.51371177688205,2.173130370322772,6.091282500376605,1.7261711959230357,-0.46332785690716033,5.959491934817464,1.0,-3.14,3.14,1.3232850875710604,-3.14,2.883680918772442,3.095396906086166
271,3.774418889744723,2.51371177688205,2.1731303703227725,6.091282500376605,1.7261711959230357,-0.4633278569071605,5.959491934817464,1.0,-3.14,3.14,1.3232850875710602,-3.14,2.883680918772442,3.095396906086166
272,3.7744188897447244,2.51371177688205,2.1731303703227725,6.091282500376605,1.7261711959230357,-0.4633278569071603,5.959491934817464,1.0,-3.14,3.14,1.3232850875710604,-3.14,2.8836809187724426,3.095396906086166
273,3.774418889744725,2.513711776882051,2.1731303703227725,6.091282500376605,1.7261711959230357,-0.46332785690716105,5.959491934817464,1.0,-3.14,3.14,1.3232850875710596,-3.14,2.8836809187724417,3.095396906086166
274,3.7744188897447244,2.513711776882051,2.173130370322772,6.091282500376605,1.7261711959230357,-0.4633278569071611,5.959491934817464,1.0,-3.14,3.14,1.3232850875710596,-3.14,2.8836809187724413,3.095396906086166
275,3.7744188897447235,2.51371177688205,2.173130370322772,6.091282500376605,1.7261711959230357,-0.46332785690716055,5.959491934817464,1.0,-3.14,3.14,1.3232850875710602,-3.14,2.8836809187724417,3.095396906086166
276,3.774418889744724,2.51371177688205,2.173130370322772,6.091282500376605,1.7261711959230357,-0.46332785690716033,5.959491934817464,1.0,-3.14,3.14,1.3232850875710604,-3.14,2.883680918772442,3.095396906086166
277,3.774418889744723,2.51371177688205,2.1731303703227725,6.091282500376605,1.7261711959230357,-0.4633278569071605,5.959491934817464,1.0,-3.14,3.14,1.3232850875710602,-3.14,2.883680918772442,3.095396906086166
278,3.7744188897447244,2.51371177688205,2.1731303703227725,6.091282500376605,1.7261711959230357,-0.4633278569071603,5.959491934817464,1.0,-3.14,3.14,1.3232850875710604,-3.14,2.8836809187724426,3.095396906086166
279,3.774418889744725,2.513711776882051,2.1731303703227725,6.091282500376605,1.7261711959230357,-0.46332785690716105,5.959491934817464,1.0,-3.14,3.14,1.3232850875710596,-3.14,2.8836809187724417,3.095396906086166
280,3.7744188897447244,2.513711776882051,2.173130370322772,6.091282500376605,1.7261711959230357,-0.4633278569071611,5.959491934817464,1.0,-3.14,3.14,1.3232850875710596,-3.14,2.8836809187724413,3.095396906086166
281,3.7744188897447235,2.51371177688205,2.173130370322772,6.091282500376605,1.7261711959230357,-0.46332785690716055,5.959491934817464,1.0,-3.14,3.14,1.3232850875710602,-3.14,2.8836809187724417,3.095396906086166
282,3.774418889744724,2.51371177688205,2.173130370322772,6.091282500376605,1.7261711959230357,-0.46332785690716033,5.959491934817464,1.0,-3.14,3.14,1.3232850875710604,-3.14,2.883680918772442,3.095396906086166
283,3.774418889744723,2.51371177688205,2.1731303703227725,6.091282500376605,1.7261711959230357,-0.4633278569071605,5.959491934817464,1.0,-3.14,3.14,1.3232850875710602,-3.14,2.883680918772442,3.095396906086166
284,3.7744188897447244,2.51371177688205,2.1731303703227725,6.091282500376605,1.7261711959230357,-0.4633278569071603,5.959491934817464,1.0,-3.14,3.14,1.3232850875710604,-3.14,2.8836809187724426,3.095396906086166
285,3.774418889744725,2.513711776882051,2.1731303703227725,6.091282500376605,1.7261711959230357,-0.46332785690716105,5.959491934817464,1.0,-3.14,3.14,1.3232850875710596,-3.14,2.8836809187724417,3.095396906086166
286,3.7744188897447244,2.513711776882051,2.173130370322772,6.091282500376605,1.7261711959230357,-0.4633278569071611,5.959491934817464,1.0,-3.14,3.14,1.3232850875710596,-3.14,2.8836809187724413,3.095396906086166
287,3.7744188897447235,2.51371177688205,2.173130370322772,6.091282500376605,1.7261711959230357,-0.46332785690716055,5.959491934817464,1.0,-3.14,3.14,1.3232850875710602,-3.14,2.8836809187724417,3.095396906086166
288,3.774418889744724,2.51371177688205,2.173130370322772,6.091282500376605,1.7261711959230357,-0.46332785690716033,5.959491934817464,1.0,-3.14,3.14,1.3232850875710604,-3.14,2.883680918772442,3.095396906086166
289,3.774418889744723,2.51371177688205,2.1731303703227725,6.091282500376605,1.7261711959230357,-0.4633278569071605,5.959491934817464,1.0,-3.14,3.14,1.3232850875710602,-3.14,2.883680918772442,3.095396906086166
290,3.7744188897447244,2.51371177688205,2.1731303703227725,6.091282500376605,1.7261711959230357,-0.4633278569071603,5.959491934817464,1.0,-3.14,3.14,1.3232850875710604,-3.14,2.8836809187724426,3.095396906086166
291,3.774418889744725,2.513711776882051,2.1731303703227725,6.091282500376605,1.7261711959230357,-0.46332785690716105,5.959491934817464,1.0,-3.14,3.14,1.3232850875710596,-3.14,2.8836809187724417,3.095396906086166
292,3.7744188897447244,2.513711776882051,2.173130370322772,6.091282500376605,1.7261711959230357,-0.4633278569071611,5.959491934817464,1.0,-3.14,3.14,1.3232850875710596,-3.14,2.8836809187724413,3.095396906086166
293,3.7744188897447235,2.51371177688205,2.173130370322772,6.091282500376605,1.7261711959230357,-0.46332785690716055,5.959491934817464,1.0,-3.14,3.14,1.3232850875710602,-3.14,2.8836809187724417,3.095396906086166
294,3.774418889744724,2.51371177688205,2.173130370322772,6.091282500376605,1.7261711959230357,-0.46332785690716033,5.959491934817464,1.0,-3.14,3.14,1.3232850875710604,-3.14,2.883680918772442,3.095396906086166
295,3.774418889744723,2.51371177688205,2.1731303703227725,6.091282500376605,1.7261711959230357,-0.4633278569071605,5.959491934817464,1.0,-3.14,3.14,1.3232850875710602,-3.14,2.883680918772442,3.095396906086166
296,3.7744188897447244,2.51371177688205,2.1731303703227725,6.091282500376605,1.7261711959230357,-0.4633278569071603,5.959491934817464,1.0,-3.14,3.14,1.3232850875710604,-3.14,2.8836809187724426,3.095396906086166
297,3.774418889744725,2.513711776882051,2.1731303703227725,6.091282500376605,1.7261711959230357,-0.46332785690716105,5.959491934817464,1.0,-3.14,3.14,1.3232850875710596,-3.14,2.8836809187724417,3.095396906086166
298,3.7744188897447244,2.513711776882051,2.173130370322772,6.091282500376605,1.7261711959230357,-0.4633278569071611,5.959491934817464,1.0,-3.14,3.14,1.3232850875710596,-3.14,2.8836809187724413,3.095396906086166
299,3.7744188897447235,2.51371177688205,2.173130370322772,6.091282500376605,1.7261711959230357,-0.46332785690716055,5.959491934817464,1.0,-3.14,3.14,1.3232850875710602,-3.14,2.8836809187724417,3.095396906086166
300,3.774418889744724,2.51371177688205,2.173130370322772,6.091282500376605,1.7261711959230357,-0.46332785690716033,5.959491934817464,1.0,-3.14,3.14,1.3232850875710604,-3.14,2.883680918772442,3.095396906086166
301,3.774418889744723,2.51371177688205,2.1731303703227725,6.091282500376605,1.7261711959230357,-0.4633278569071605,5.959491934817464,1.0,-3.14,3.14,1.3232850875710602,-3.14,2.883680918772442,3.095396906086166
302,3.7744188897447244,2.51371177688205,2.1731303703227725,6.091282500376605,1.7261711959230357,-0.4633278569071603,5.959491934817464,1.0,-3.14,3.14,1.3232850875710604,-3.14,2.8836809187724426,3.095396906086166
303,3.774418889744725,2.513711776882051,2.1731303703227725,6.091282500376605,1.7261711959230357,-0.46332785690716105,5.959491934817464,1.0,-3.14,3.14,1.3232850875710596,-3.14,2.8836809187724417,3.095396906086166
304,3.7744188897447244,2.513711776882051,2.173130370322772,6.091282500376605,1.7261711959230357,-0.4633278569071611,5.959491934817464,1.0,-3.14,3.14,1.3232850875710596,-3.14,2.8836809187724413,3.095396906086166
305,3.7744188897447235,2.51371177688205,2.173130370322772,6.091282500376605,1.7261711959230357,-0.46332785690716055,5.959491934817464,1.0,-3.14,3.14,1.3232850875710602,-3.14,2.8836809187724417,3.095396906086166
306,3.774418889744724,2.51371177688205,2.173130370322772,6.091282500376605,1.7261711959230357,-0.46332785690716033,5.959491934817464,1.0,-3.14,3.14,1.3232850875710604,-3.14,2.883680918772442,3.095396906086166
307,3.774418889744723,2.51371177688205,2.1731303703227725,6.091282500376605,1.7261711959230357,-0.4633278569071605,5.959491934817464,1.0,-3.14,3.14,1.3232850875710602,-3.14,2.883680918772442,3.095396906086166
308,3.7744188897447244,2.51371177688205,2.1731303703227725,6.091282500376605,1.7261711959230357,-0.4633278569071603,5.959491934817464,1.0,-3.14,3.14,1.3232850875710604,-3.14,2.8836809187724426,3.095396906086166
309,3.774418889744725,2.513711776882051,2.1731303703227725,6.091282500376605,1.7261711959230357,-0.46332785690716105,5.959491934817464,1.0,-3.14,3.14,1.3232850875710596,-3.14,2.8836809187724417,3.095396906086166
310,3.7744188897447244,2.513711776882051,2.173130370322772,6.091282500376605,1.7261711959230357,-0.4633278569071611,5.959491934817464,1.0,-3.14,3.14,1.3232850875710596,-3.14,2.8836809187724413,3.095396906086166
311,3.7744188897447235,2.51371177688205,2.173130370322772,6.091282500376605,1.7261711959230357,-0.46332785690716055,5.959491934817464,1.0,-3.14,3.14,1.3232850875710602,-3.14,2.8836809187724417,3.095396906086166
312,3.774418889744724,2.51371177688205,2.173130370322772,6.091282500376605,1.7261711959230357,-0.46332785690716033,5.959491934817464,1.0,-3.14,3.14,1.3232850875710604,-3.14,2.883680918772442,3.095396906086166
313,3.774418889744723,2.51371177688205,2.1731303703227725,6.091282500376605,1.7261711959230357,-0.4633278569071605,5.959491934817464,1.0,-3.14,3.14,1.3232850875710602,-3.14,2.883680918772442,3.095396906086166
314,3.7744188897447244,2.51371177688205,2.1731303703227725,6.091282500376605,1.7261711959230357,-0.4633278569071603,5.959491934817464,1.0,-3.14,3.14,1.3232850875710604,-3.14,2.8836809187724426,3.095396906086166
315,3.774418889744725,2.513711776882051,2.1731303703227725,6.091282500376605,1.7261711959230357,-0.46332785690716105,5.959491934817464,1.0,-3.14,3.14,1.3232850875710596,-3.14,2.8836809187724417,3.095396906086166
316,3.7744188897447244,2.513711776882051,2.173130370322772,6.091282500376605,1.7261711959230357,-0.4633278569071611,5.959491934817464,1.0,-3.14,3.14,1.3232850875710596,-3.14,2.8836809187724413,3.095396906086166
317,3.7744188897447235,2.51371177688205,2.173130370322772,6.091282500376605,1.7261711959230357,-0.46332785690716055,5.959491934817464,1.0,-3.14,3.14,1.3232850875710602,-3.14,2.8836809187724417,3.095396906086166
318,3.774418889744724,2.51371177688205,2.173130370322772,6.091282500376605,1.7261711959230357,-0.46332785690716033,5.959491934817464,1.0,-3.14,3.14,1.3232850875710604,-3.14,2.883680918772442,3.095396906086166
319,3.774418889744723,2.51371177688205,2.1731303703227725,6.091282500376605,1.7261711959230357,-0.4633278569071605,5.959491934817464,1.0,-3.14,3.14,1.3232850875710602,-3.14,2.883680918772442,3.095396906086166
320,3.7744188897447244,2.51371177688205,2.1731303703227725,6.091282500376605,1.7261711959230357,-0.4633278569071603,5.959491934817464,1.0,-3.14,3.14,1.3232850875710604,-3.14,2.8836809187724426,3.095396906086166
321,3.774418889744725,2.513711776882051,2.1731303703227725,6.091282500376605,1.7261711959230357,-0.46332785690716105,5.959491934817464,1.0,-3.14,3.14,1.3232850875710596,-3.14,2.8836809187724417,3.095396906086166
322,3.7744188897447244,2.513711776882051,2.173130370322772,6.091282500376605,1.7261711959230357,-0.4633278569071611,5.959491934817464,1.0,-3.14,3.14,1.3232850875710596,-3.14,2.8836809187724413,3.095396906086166
323,3.7744188897447235,2.51371177688205,2.173130370322772,6.091282500376605,1.7261711959230357,-0.46332785690716055,5.959491934817464,1.0,-3.14,3.14,1.3232850875710602,-3.14,2.8836809187724417,3.095396906086166
324,3.774418889744724,2.51371177688205,2.173130370322772,6.091282500376605,1.7261711959230357,-0.46332785690716033,5.959491934817464,1.0,-3.14,3.14,1.3232850875710604,-3.14,2.883680918772442,3.095396906086166
325,3.774418889744723,2.51371177688205,2.1731303703227725,6.091282500376605,1.7261711959230357,-0.4633278569071605,5.959491934817464,1.0,-3.14,3.14,1.3232850875710602,-3.14,2.883680918772442,3.095396906086166
326,3.7744188897447244,2.51371177688205,2.1731303703227725,6.091282500376605,1.7261711959230357,-0.4633278569071603,5.959491934817464,1.0,-3.14,3.14,1.3232850875710604,-3.14,2.8836809187724426,3.095396906086166
327,3.774418889744725,2.513711776882051,2.1731303703227725,6.091282500376605,1.7261711959230357,-0.46332785690716105,5.959491934817464,1.0,-3.14,3.14,1.3232850875710596,-3.14,2.8836809187724417,3.095396906086166
328,3.7744188897447244,2.513711776882051,2.173130370322772,6.091282500376605,1.7261711959230357,-0.4633278569071611,5.959491934817464,1.0,-3.14,3.14,1.3232850875710596,-3.14,2.8836809187724413,3.095396906086166
329,3.7744188897447235,2.51371177688205,2.173130370322772,6.091282500376605,1.7261711959230357,-0.46332785690716055,5.959491934817464,1.0,-3.14,3.14,1.3232850875710602,-3.14,2.8836809187724417,3.095396906086166
330,3.774418889744724,2.51371177688205,2.173130370322772,6.091282500376605,1.7261711959230357,-0.46332785690716033,5.959491934817464,1.0,-3.14,3.14,1.3232850875710604,-3.14,2.883680918772442,3.095396906086166
331,3.774418889744723,2.51371177688205,2.1731303703227725,6.091282500376605,1.7261711959230357,-0.4633278569071605,5.959491934817464,1.0,-3.14,3.14,1.3232850875710602,-3.14,2.883680918772442,3.095396906086166
332,3.7744188897447244,2.51371177688205,2.1731303703227725,6.091282500376605,1.7261711959230357,-0.4633278569071603,5.959491934817464,1.0,-3.14,3.14,1.3232850875710604,-3.14,2.8836809187724426,3.095396906086166
333,3.774418889744725,2.513711776882051,2.1731303703227725,6.091282500376605,1.7261711959230357,-0.46332785690716105,5.959491934817464,1.0,-3.14,3.14,1.3232850875710596,-3.14,2.8836809187724417,3.095396906086166
334,3.7744188897447244,2.513711776882051,2.173130370322772,6.091282500376605,1.7261711959230357,-0.4633278569071611,5.959491934817464,1.0,-3.14,3.14,1.3232850875710596,-3.14,2.8836809187724413,3.095396906086166
335,3.7744188897447235,2.51371177688205,2.173130370322772,6.091282500376605,1.7261711959230357,-0.46332785690716055,5.959491934817464,1.0,-3.14,3.14,1.3232850875710602,-3.14,2.8836809187724417,3.095396906086166
336,3.774418889744724,2.51371177688205,2.173130370322772,6.091282500376605,1.7261711959230357,-0.46332785690716033,5.959491934817464,1.0,-3.14,3.14,1.3232850875710604,-3.14,2.883680918772442,3.095396906086166
337,3.774418889744723,2.51371177688205,2.1731303703227725,6.091282500376605,1.7261711959230357,-0.4633278569071605,5.959491934817464,1.0,-3.14,3.14,1.3232850875710602,-3.14,2.883680918772442,3.095396906086166
338,3.7744188897447244,2.51371177688205,2.1731303703227725,6.091282500376605,1.7261711959230357,-0.4633278569071603,5.959491934817464,1.0,-3.14,3.14,1.3232850875710604,-3.14,2.8836809187724426,3.095396906086166
339,3.774418889744725,2.513711776882051,2.1731303703227725,6.091282500376605,1.7261711959230357,-0.46332785690716105,5.959491934817464,1.0,-3.14,3.14,1.3232850875710596,-3.14,2.8836809187724417,3.095396906086166
340,3.7744188897447244,2.513711776882051,2.173130370322772,6.091282500376605,1.7261711959230357,-0.4633278569071611,5.959491934817464,1.0,-3.14,3.14,1.3232850875710596,-3.14,2.8836809187724413,3.095396906086166
341,3.7744188897447235,2.51371177688205,2.173130370322772,6.091282500376605,1.7261711959230357,-0.46332785690716055,5.959491934817464,1.0,-3.14,3.14,1.3232850875710602,-3.14,2.8836809187724417,3.095396906086166
342,3.774418889744724,2.51371177688205,2.173130370322772,6.091282500376605,1.7261711959230357,-0.46332785690716033,5.959491934817464,1.0,-3.14,3.14,1.3232850875710604,-3.14,2.883680918772442,3.095396906086166
343,3.774418889744723,2.51371177688205,2.1731303703227725,6.091282500376605,1.7261711959230357,-0.4633278569071605,5.959491934817464,1.0,-3.14,3.14,1.3232850875710602,-3.14,2.883680918772442,3.095396906086166
344,3.7744188897447244,2.51371177688205,2.1731303703227725,6.091282500376605,1.7261711959230357,-0.4633278569071603,5.959491934817464,1.0,-3.14,3.14,1.3232850875710604,-3.14,2.8836809187724426,3.095396906086166
345,3.774418889744725,2.513711776882051,2.1731303703227725,6.091282500376605,1.7261711959230357,-0.46332785690716105,5.959491934817464,1.0,-3.14,3.14,1.3232850875710596,-3.14,2.8836809187724417,3.095396906086166
346,3.7744188897447244,2.513711776882051,2.173130370322772,6.091282500376605,1.7261711959230357,-0.4633278569071611,5.959491934817464,1.0,-3.14,3.14,1.3232850875710596,-3.14,2.8836809187724413,3.095396906086166
347,3.7744188897447235,2.51371177688205,2.173130370322772,6.091282500376605,1.7261711959230357,-0.46332785690716055,5.959491934817464,1.0,-3.14,3.14,1.3232850875710602,-3.14,2.8836809187724417,3.095396906086166
348,3.774418889744724,2.51371177688205,2.173130370322772,6.091282500376605,1.7261711959230357,-0.46332785690716033,5.959491934817464,1.0,-3.14,3.14,1.3232850875710604,-3.14,2.883680918772442,3.095396906086166
349,3.774418889744723,2.51371177688205,2.1731303703227725,6.091282500376605,1.7261711959230357,-0.4633278569071605,5.959491934817464,1.0,-3.14,3.14,1.3232850875710602,-3.14,2.883680918772442,3.095396906086166
350,3.7744188897447244,2.51371177688205,2.1731303703227725,6.091282500376605,1.7261711959230357,-0.4633278569071603,5.959491934817464,1.0,-3.14,3.14,1.3232850875710604,-3.14,2.8836809187724426,3.095396906086166
351,3.774418889744725,2.513711776882051,2.1731303703227725,6.091282500376605,1.7261711959230357,-0.46332785690716105,5.959491934817464,1.0,-3.14,3.14,1.3232850875710596,-3.14,2.8836809187724417,3.095396906086166
352,3.7744188897447244,2.513711776882051,2.173130370322772,6.091282500376605,1.7261711959230357,-0.4633278569071611,5.959491934817464,1.0,-3.14,3.14,1.3232850875710596,-3.14,2.8836809187724413,3.095396906086166
353,3.7744188897447235,2.51371177688205,2.173130370322772,6.091282500376605,1.7261711959230357,-0.46332785690716055,5.959491934817464,1.0,-3.14,3.14,1.3232850875710602,-3.14,2.8836809187724417,3.095396906086166
354,3.774418889744724,2.51371177688205,2.173130370322772,6.091282500376605,1.7261711959230357,-0.46332785690716033,5.959491934817464,1.0,-3.14,3.14,1.3232850875710604,-3.14,2.883680918772442,3.095396906086166
355,3.774418889744723,2.51371177688205,2.1731303703227725,6.091282500376605,1.7261711959230357,-0.4633278569071605,5.959491934817464,1.0,-3.14,3.14,1.3232850875710602,-3.14,2.883680918772442,3.095396906086166
356,3.7744188897447244,2.51371177688205,2.1731303703227725,6.091282500376605,1.7261711959230357,-0.4633278569071603,5.959491934817464,1.0,-3.14,3.14,1.3232850875710604,-3.14,2.8836809187724426,3.095396906086166
357,3.774418889744725,2.513711776882051,2.1731303703227725,6.091282500376605,1.7261711959230357,-0.46332785690716105,5.959491934817464,1.0,-3.14,3.14,1.3232850875710596,-3.14,2.8836809187724417,3.095396906086166
358,3.7744188897447244,2.513711776882051,2.173130370322772,6.091282500376605,1.7261711959230357,-0.4633278569071611,5.959491934817464,1.0,-3.14,3.14,1.3232850875710596,-3.14,2.8836809187724413,3.095396906086166
359,3.7744188897447235,2.51371177688205,2.173130370322772,6.091282500376605,1.7261711959230357,-0.46332785690716055,5.959491934817464,1.0,-3.14,3.14,1.3232850875710602,-3.14,2.8836809187724417,3.095396906086166
360,3.774418889744724,2.51371177688205,2.173130370322772,6.091282500376605,1.7261711959230357,-0.46332785690716033,5.959491934817464,1.0,-3.14,3.14,1.3232850875710604,-3.14,2.883680918772442,3.095396906086166
361,3.774418889744723,2.51371177688205,2.1731303703227725,6.091282500376605,1.7261711959230357,-0.4633278569071605,5.959491934817464,1.0,-3.14,3.14,1.3232850875710602,-3.14,2.883680918772442,3.095396906086166
362,3.7744188897447244,2.51371177688205,2.1731303703227725,6.091282500376605,1.7261711959230357,-0.4633278569071603,5.959491934817464,1.0,-3.14,3.14,1.3232850875710604,-3.14,2.8836809187724426,3.095396906086166
363,3.774418889744725,2.513711776882051,2.1731303703227725,6.091282500376605,1.7261711959230357,-0.46332785690716105,5.959491934817464,1.0,-3.14,3.14,1.3232850875710596,-3.14,2.8836809187724417,3.095396906086166
364,3.7744188897447244,2.513711776882051,2.173130370322772,6.091282500376605,1.7261711959230357,-0.4633278569071611,5.959491934817464,1.0,-3.14,3.14,1.3232850875710596,-3.14,2.8836809187724413,3.095396906086166
365,3.7744188897447235,2.51371177688205,2.173130370322772,6.091282500376605,1.7261711959230357,-0.46332785690716055,5.959491934817464,1.0,-3.14,3.14,1.3232850875710602,-3.14,2.8836809187724417,3.095396906086166
366,3.774418889744724,2.51371177688205,2.173130370322772,6.091282500376605,1.7261711959230357,-0.46332785690716033,5.959491934817464,1.0,-3.14,3.14,1.3232850875710604,-3.14,2.883680918772442,3.095396906086166
367,3.774418889744723,2.51371177688205,2.1731303703227725,6.091282500376605,1.7261711959230357,-0.4633278569071605,5.959491934817464,1.0,-3.14,3.14,1.3232850875710602,-3.14,2.883680918772442,3.095396906086166
368,3.7744188897447244,2.51371177688205,2.1731303703227725,6.091282500376605,1.7261711959230357,-0.4633278569071603,5.959491934817464,1.0,-3.14,3.14,1.3232850875710604,-3.14,2.8836809187724426,3.095396906086166
369,3.774418889744725,2.513711776882051,2.1731303703227725,6.091282500376605,1.7261711959230357,-0.46332785690716105,5.959491934817464,1.0,-3.14,3.14,1.3232850875710596,-3.14,2.8836809187724417,3.095396906086166
370,3.7744188897447244,2.513711776882051,2.173130370322772,6.091282500376605,1.7261711959230357,-0.4633278569071611,5.959491934817464,1.0,-3.14,3.14,1.3232850875710596,-3.14,2.8836809187724413,3.095396906086166
371,3.7744188897447235,2.51371177688205,2.173130370322772,6.091282500376605,1.7261711959230357,-0.46332785690716055,5.959491934817464,1.0,-3.14,3.14,1.3232850875710602,-3.14,2.8836809187724417,3.095396906086166
372,3.774418889744724,2.51371177688205,2.173130370322772,6.091282500376605,1.7261711959230357,-0.46332785690716033,5.959491934817464,1.0,-3.14,3.14,1.3232850875710604,-3.14,2.883680918772442,3.095396906086166
373,3.774418889744723,2.51371177688205,2.1731303703227725,6.091282500376605,1.7261711959230357,-0.4633278569071605,5.959491934817464,1.0,-3.14,3.14,1.3232850875710602,-3.14,2.883680918772442,3.095396906086166
374,3.7744188897447244,2.51371177688205,2.1731303703227725,6.091282500376605,1.7261711959230357,-0.4633278569071603,5.959491934817464,1.0,-3.14,3.14,1.3232850875710604,-3.14,2.8836809187724426,3.095396906086166
375,3.774418889744725,2.513711776882051,2.1731303703227725,6.091282500376605,1.7261711959230357,-0.46332785690716105,5.959491934817464,1.0,-3.14,3.14,1.3232850875710596,-3.14,2.8836809187724417,3.095396906086166
376,3.7744188897447244,2.513711776882051,2.173130370322772,6.091282500376605,1.7261711959230357,-0.4633278569071611,5.959491934817464,1.0,-3.14,3.14,1.3232850875710596,-3.14,2.8836809187724413,3.095396906086166
377,3.7744188897447235,2.51371177688205,2.173130370322772,6.091282500376605,1.7261711959230357,-0.46332785690716055,5.959491934817464,1.0,-3.14,3.14,1.3232850875710602,-3.14,2.8836809187724417,3.095396906086166
378,3.774418889744724,2.51371177688205,2.173130370322772,6.091282500376605,1.7261711959230357,-0.46332785690716033,5.959491934817464,1.0,-3.14,3.14,1.3232850875710604,-3.14,2.883680918772442,3.095396906086166
379,3.774418889744723,2.51371177688205,2.1731303703227725,6.091282500376605,1.7261711959230357,-0.4633278569071605,5.959491934817464,1.0,-3.14,3.14,1.3232850875710602,-3.14,2.883680918772442,3.095396906086166
380,3.7744188897447244,2.51371177688205,2.1731303703227725,6.091282500376605,1.7261711959230357,-0.4633278569071603,5.959491934817464,1.0,-3.14,3.14,1.3232850875710604,-3.14,2.8836809187724426,3.095396906086166
381,3.774418889744725,2.513711776882051,2.1731303703227725,6.091282500376605,1.7261711959230357,-0.46332785690716105,5.959491934817464,1.0,-3.14,3.14,1.3232850875710596,-3.14,2.8836809187724417,3.095396906086166
382,3.7744188897447244,2.513711776882051,2.173130370322772,6.091282500376605,1.7261711959230357,-0.4633278569071611,5.959491934817464,1.0,-3.14,3.14,1.3232850875710596,-3.14,2.8836809187724413,3.095396906086166
383,3.7744188897447235,2.51371177688205,2.173130370322772,6.091282500376605,1.7261711959230357,-0.46332785690716055,5.959491934817464,1.0,-3.14,3.14,1.3232850875710602,-3.14,2.8836809187724417,3.095396906086166
384,3.774418889744724,2.51371177688205,2.173130370322772,6.091282500376605,1.7261711959230357,-0.46332785690716033,5.959491934817464,1.0,-3.14,3.14,1.3232850875710604,-3.14,2.883680918772442,3.095396906086166
385,3.774418889744723,2.51371177688205,2.1731303703227725,6.091282500376605,1.7261711959230357,-0.4633278569071605,5.959491934817464,1.0,-3.14,3.14,1.3232850875710602,-3.14,2.883680918772442,3.095396906086166
386,3.7744188897447244,2.51371177688205,2.1731303703227725,6.091282500376605,1.7261711959230357,-0.4633278569071603,5.959491934817464,1.0,-3.14,3.14,1.3232850875710604,-3.14,2.8836809187724426,3.095396906086166
387,3.774418889744725,2.513711776882051,2.1731303703227725,6.091282500376605,1.7261711959230357,-0.46332785690716105,5.959491934817464,1.0,-3.14,3.14,1.3232850875710596,-3.14,2.8836809187724417,3.095396906086166
388,3.7744188897447244,2.513711776882051,2.173130370322772,6.091282500376605,1.7261711959230357,-0.4633278569071611,5.959491934817464,1.0,-3.14,3.14,1.3232850875710596,-3.14,2.8836809187724413,3.095396906086166
389,3.7744188897447235,2.51371177688205,2.173130370322772,6.091282500376605,1.7261711959230357,-0.46332785690716055,5.959491934817464,1.0,-3.14,3.14,1.3232850875710602,-3.14,2.8836809187724417,3.095396906086166
390,3.774418889744724,2.51371177688205,2.173130370322772,6.091282500376605,1.7261711959230357,-0.46332785690716033,5.959491934817464,1.0,-3.14,3.14,1.3232850875710604,-3.14,2.883680918772442,3.095396906086166
391,3.774418889744723,2.51371177688205,2.1731303703227725,6.091282500376605,1.7261711959230357,-0.4633278569071605,5.959491934817464,1.0,-3.14,3.14,1.3232850875710602,-3.14,2.883680918772442,3.095396906086166
392,3.7744188897447244,2.51371177688205,2.1731303703227725,6.091282500376605,1.7261711959230357,-0.4633278569071603,5.959491934817464,1.0,-3.14,3.14,1.3232850875710604,-3.14,2.8836809187724426,3.095396906086166
393,3.774418889744725,2.513711776882051,2.1731303703227725,6.091282500376605,1.7261711959230357,-0.46332785690716105,5.959491934817464,1.0,-3.14,3.14,1.3232850875710596,-3.14,2.8836809187724417,3.095396906086166
394,3.7744188897447244,2.513711776882051,2.173130370322772,6.091282500376605,1.7261711959230357,-0.4633278569071611,5.959491934817464,1.0,-3.14,3.14,1.3232850875710596,-3.14,2.8836809187724413,3.095396906086166
395,3.7744188897447235,2.51371177688205,2.173130370322772,6.091282500376605,1.7261711959230357,-0.46332785690716055,5.959491934817464,1.0,-3.14,3.14,1.3232850875710602,-3.14,2.8836809187724417,3.095396906086166
396,3.774418889744724,2.51371177688205,2.173130370322772,6.091282500376605,1.7261711959230357,-0.46332785690716033,5.959491934817464,1.0,-3.14,3.14,1.3232850875710604,-3.14,2.883680918772442,3.095396906086166
397,3.774418889744723,2.51371177688205,2.1731303703227725,6.091282500376605,1.7261711959230357,-0.4633278569071605,5.959491934817464,1.0,-3.14,3.14,1.3232850875710602,-3.14,2.883680918772442,3.095396906086166
398,3.7744188897447244,2.51371177688205,2.1731303703227725,6.091282500376605,1.7261711959230357,-0.4633278569071603,5.959491934817464,1.0,-3.14,3.14,1.3232850875710604,-3.14,2.8836809187724426,3.095396906086166
399,3.774418889744725,2.513711776882051,2.1731303703227725,6.091282500376605,1.7261711959230357,-0.46332785690716105,5.959491934817464,1.0,-3.14,3.14,1.3232850875710596,-3.14,2.8836809187724417,3.095396906086166
400,3.7744188897447244,2.513711776882051,2.173130370322772,6.091282500376605,1.7261711959230357,-0.4633278569071611,5.959491934817464,1.0,-3.14,3.14,1.3232850875710596,-3.14,2.8836809187724413,3.095396906086166
401,3.7744188897447235,2.51371177688205,2.173130370322772,6.091282500376605,1.7261711959230357,-0.46332785690716055,5.959491934817464,1.0,-3.14,3.14,1.3232850875710602,-3.14,2.8836809187724417,3.095396906086166
402,3.774418889744724,2.51371177688205,2.173130370322772,6.091282500376605,1.7261711959230357,-0.46332785690716033,5.959491934817464,1.0,-3.14,3.14,1.3232850875710604,-3.14,2.883680918772442,3.095396906086166
403,3.774418889744723,2.51371177688205,2.1731303703227725,6.091282500376605,1.7261711959230357,-0.4633278569071605,5.959491934817464,1.0,-3.14,3.14,1.3232850875710602,-3.14,2.883680918772442,3.095396906086166
404,3.7744188897447244,2.51371177688205,2.1731303703227725,6.091282500376605,1.7261711959230357,-0.4633278569071603,5.959491934817464,1.0,-3.14,3.14,1.3232850875710604,-3.14,2.8836809187724426,3.095396906086166
405,3.774418889744725,2.513711776882051,2.1731303703227725,6.091282500376605,1.7261711959230357,-0.46332785690716105,5.959491934817464,1.0,-3.14,3.14,1.3232850875710596,-3.14,2.8836809187724417,3.095396906086166
406,3.7744188897447244,2.513711776882051,2.173130370322772,6.091282500376605,1.7261711959230357,-0.4633278569071611,5.959491934817464,1.0,-3.14,3.14,1.3232850875710596,-3.14,2.8836809187724413,3.095396906086166
407,3.7744188897447235,2.51371177688205,2.173130370322772,6.091282500376605,1.7261711959230357,-0.46332785690716055,5.959491934817464,1.0,-3.14,3.14,1.3232850875710602,-3.14,2.8836809187724417,3.095396906086166
408,3.774418889744724,2.51371177688205,2.173130370322772,6.091282500376605,1.7261711959230357,-0.46332785690716033,5.959491934817464,1.0,-3.14,3.14,1.3232850875710604,-3.14,2.883680918772442,3.095396906086166
409,3.774418889744723,2.51371177688205,2.1731303703227725,6.091282500376605,1.7261711959230357,-0.4633278569071605,5.959491934817464,1.0,-3.14,3.14,1.3232850875710602,-3.14,2.883680918772442,3.095396906086166
410,3.7744188897447244,2.51371177688205,2.1731303703227725,6.091282500376605,1.7261711959230357,-0.4633278569071603,5.959491934817464,1.0,-3.14,3.14,1.3232850875710604,-3.14,2.8836809187724426,3.095396906086166
411,3.774418889744725,2.513711776882051,2.1731303703227725,6.091282500376605,1.7261711959230357,-0.46332785690716105,5.959491934817464,1.0,-3.14,3.14,1.3232850875710596,-3.14,2.8836809187724417,3.095396906086166
412,3.7744188897447244,2.513711776882051,2.173130370322772,6.091282500376605,1.7261711959230357,-0.4633278569071611,5.959491934817464,1.0,-3.14,3.14,1.3232850875710596,-3.14,2.8836809187724413,3.095396906086166
413,3.7744188897447235,2.51371177688205,2.173130370322772,6.091282500376605,1.7261711959230357,-0.46332785690716055,5.959491934817464,1.0,-3.14,3.14,1.3232850875710602,-3.14,2.8836809187724417,3.095396906086166
414,3.774418889744724,2.51371177688205,2.173130370322772,6.091282500376605,1.7261711959230357,-0.46332785690716033,5.959491934817464,1.0,-3.14,3.14,1.3232850875710604,-3.14,2.883680918772442,3.095396906086166
415,3.774418889744723,2.51371177688205,2.1731303703227725,6.091282500376605,1.7261711959230357,-0.4633278569071605,5.959491934817464,1.0,-3.14,3.14,1.3232850875710602,-3.14,2.883680918772442,3.095396906086166
416,3.7744188897447244,2.51371177688205,2.1731303703227725,6.091282500376605,1.7261711959230357,-0.4633278569071603,5.959491934817464,1.0,-3.14,3.14,1.3232850875710604,-3.14,2.8836809187724426,3.095396906086166
417,3.774418889744725,2.513711776882051,2.1731303703227725,6.091282500376605,1.7261711959230357,-0.46332785690716105,5.959491934817464,1.0,-3.14,3.14,1.3232850875710596,-3.14,2.8836809187724417,3.095396906086166
418,3.7744188897447244,2.513711776882051,2.173130370322772,6.091282500376605,1.7261711959230357,-0.4633278569071611,5.959491934817464,1.0,-3.14,3.14,1.3232850875710596,-3.14,2.8836809187724413,3.095396906086166
419,3.7744188897447235,2.51371177688205,2.173130370322772,6.091282500376605,1.7261711959230357,-0.46332785690716055,5.959491934817464,1.0,-3.14,3.14,1.3232850875710602,-3.14,2.8836809187724417,3.095396906086166
420,3.774418889744724,2.51371177688205,2.173130370322772,6.091282500376605,1.7261711959230357,-0.46332785690716033,5.959491934817464,1.0,-3.14,3.14,1.3232850875710604,-3.14,2.883680918772442,3.095396906086166
421,3.774418889744723,2.51371177688205,2.1731303703227725,6.091282500376605,1.7261711959230357,-0.4633278569071605,5.959491934817464,1.0,-3.14,3.14,1.3232850875710602,-3.14,2.883680918772442,3.095396906086166
422,3.7744188897447244,2.51371177688205,2.1731303703227725,6.091282500376605,1.7261711959230357,-0.4633278569071603,5.959491934817464,1.0,-3.14,3.14,1.3232850875710604,-3.14,2.8836809187724426,3.095396906086166
423,3.774418889744725,2.513711776882051,2.1731303703227725,6.091282500376605,1.7261711959230357,-0.46332785690716105,5.959491934817464,1.0,-3.14,3.14,1.3232850875710596,-3.14,2.8836809187724417,3.095396906086166
424,3.7744188897447244,2.513711776882051,2.173130370322772,6.091282500376605,1.7261711959230357,-0.4633278569071611,5.959491934817464,1.0,-3.14,3.14,1.3232850875710596,-3.14,2.8836809187724413,3.095396906086166
425,3.7744188897447235,2.51371177688205,2.173130370322772,6.091282500376605,1.7261711959230357,-0.46332785690716055,5.959491934817464,1.0,-3.14,3.14,1.3232850875710602,-3.14,2.8836809187724417,3.095396906086166
426,3.774418889744724,2.51371177688205,2.173130370322772,6.091282500376605,1.7261711959230357,-0.46332785690716033,5.959491934817464,1.0,-3.14,3.14,1.3232850875710604,-3.14,2.883680918772442,3.095396906086166
427,3.774418889744723,2.51371177688205,2.1731303703227725,6.091282500376605,1.7261711959230357,-0.4633278569071605,5.959491934817464,1.0,-3.14,3.14,1.3232850875710602,-3.14,2.883680918772442,3.095396906086166
428,3.7744188897447244,2.51371177688205,2.1731303703227725,6.091282500376605,1.7261711959230357,-0.4633278569071603,5.959491934817464,1.0,-3.14,3.14,1.3232850875710604,-3.14,2.8836809187724426,3.095396906086166
429,3.774418889744725,2.513711776882051,2.1731303703227725,6.091282500376605,1.7261711959230357,-0.46332785690716105,5.959491934817464,1.0,-3.14,3.14,1.3232850875710596,-3.14,2.8836809187724417,3.095396906086166
430,3.7744188897447244,2.513711776882051,2.173130370322772,6.091282500376605,1.7261711959230357,-0.4633278569071611,5.959491934817464,1.0,-3.14,3.14,1.3232850875710596,-3.14,2.8836809187724413,3.095396906086166
431,3.7744188897447235,2.51371177688205,2.173130370322772,6.091282500376605,1.7261711959230357,-0.46332785690716055,5.959491934817464,1.0,-3.14,3.14,1.3232850875710602,-3.14,2.8836809187724417,3.095396906086166
432,3.774418889744724,2.51371177688205,2.173130370322772,6.091282500376605,1.7261711959230357,-0.46332785690716033,5.959491934817464,1.0,-3.14,3.14,1.3232850875710604,-3.14,2.883680918772442,3.095396906086166
433,3.774418889744723,2.51371177688205,2.1731303703227725,6.091282500376605,1.7261711959230357,-0.4633278569071605,5.959491934817464,1.0,-3.14,3.14,1.3232850875710602,-3.14,2.883680918772442,3.095396906086166
434,3.7744188897447244,2.51371177688205,2.1731303703227725,6.091282500376605,1.7261711959230357,-0.4633278569071603,5.959491934817464,1.0,-3.14,3.14,1.3232850875710604,-3.14,2.8836809187724426,3.095396906086166
435,3.774418889744725,2.513711776882051,2.1731303703227725,6.091282500376605,1.7261711959230357,-0.46332785690716105,5.959491934817464,1.0,-3.14,3.14,1.3232850875710596,-3.14,2.8836809187724417,3.095396906086166
436,3.7744188897447244,2.513711776882051,2.173130370322772,6.091282500376605,1.7261711959230357,-0.4633278569071611,5.959491934817464,1.0,-3.14,3.14,1.3232850875710596,-3.14,2.8836809187724413,3.095396906086166
437,3.7744188897447235,2.51371177688205,2.173130370322772,6.091282500376605,1.7261711959230357,-0.46332785690716055,5.959491934817464,1.0,-3.14,3.14,1.3232850875710602,-3.14,2.8836809187724417,3.095396906086166
438,3.774418889744724,2.51371177688205,2.173130370322772,6.091282500376605,1.7261711959230357,-0.46332785690716033,5.959491934817464,1.0,-3.14,3.14,1.3232850875710604,-3.14,2.883680918772442,3.095396906086166
439,3.774418889744723,2.51371177688205,2.1731303703227725,6.091282500376605,1.7261711959230357,-0.4633278569071605,5.959491934817464,1.0,-3.14,3.14,1.3232850875710602,-3.14,2.883680918772442,3.095396906086166
440,3.7744188897447244,2.51371177688205,2.1731303703227725,6.091282500376605,1.7261711959230357,-0.4633278569071603,5.959491934817464,1.0,-3.14,3.14,1.3232850875710604,-3.14,2.8836809187724426,3.095396906086166
441,3.774418889744725,2.513711776882051,2.1731303703227725,6.091282500376605,1.7261711959230357,-0.46332785690716105,5.959491934817464,1.0,-3.14,3.14,1.3232850875710596,-3.14,2.8836809187724417,3.095396906086166
442,3.7744188897447244,2.513711776882051,2.173130370322772,6.091282500376605,1.7261711959230357,-0.4633278569071611,5.959491934817464,1.0,-3.14,3.14,1.3232850875710596,-3.14,2.8836809187724413,3.095396906086166
443,3.7744188897447235,2.51371177688205,2.173130370322772,6.091282500376605,1.7261711959230357,-0.46332785690716055,5.959491934817464,1.0,-3.14,3.14,1.3232850875710602,-3.14,2.8836809187724417,3.095396906086166
444,3.774418889744724,2.51371177688205,2.173130370322772,6.091282500376605,1.7261711959230357,-0.46332785690716033,5.959491934817464,1.0,-3.14,3.14,1.3232850875710604,-3.14,2.883680918772442,3.095396906086166
445,3.774418889744723,2.51371177688205,2.1731303703227725,6.091282500376605,1.7261711959230357,-0.4633278569071605,5.959491934817464,1.0,-3.14,3.14,1.3232850875710602,-3.14,2.883680918772442,3.095396906086166
446,3.7744188897447244,2.51371177688205,2.1731303703227725,6.091282500376605,1.7261711959230357,-0.4633278569071603,5.959491934817464,1.0,-3.14,3.14,1.3232850875710604,-3.14,2.8836809187724426,3.095396906086166
447,3.774418889744725,2.513711776882051,2.1731303703227725,6.091282500376605,1.7261711959230357,-0.46332785690716105,5.959491934817464,1.0,-3.14,3.14,1.3232850875710596,-3.14,2.8836809187724417,3.095396906086166
448,3.7744188897447244,2.513711776882051,2.173130370322772,6.091282500376605,1.7261711959230357,-0.4633278569071611,5.959491934817464,1.0,-3.14,3.14,1.3232850875710596,-3.14,2.8836809187724413,3.095396906086166
449,3.7744188897447235,2.51371177688205,2.173130370322772,6.091282500376605,1.7261711959230357,-0.46332785690716055,5.959491934817464,1.0,-3.14,3.14,1.3232850875710602,-3.14,2.8836809187724417,3.095396906086166
450,3.774418889744724,2.51371177688205,2.173130370322772,6.091282500376605,1.7261711959230357,-0.46332785690716033,5.959491934817464,1.0,-3.14,3.14,1.3232850875710604,-3.14,2.883680918772442,3.095396906086166
451,3.774418889744723,2.51371177688205,2.1731303703227725,6.091282500376605,1.7261711959230357,-0.4633278569071605,5.959491934817464,1.0,-3.14,3.14,1.3232850875710602,-3.14,2.883680918772442,3.095396906086166
452,3.7744188897447244,2.51371177688205,2.1731303703227725,6.091282500376605,1.7261711959230357,-0.4633278569071603,5.959491934817464,1.0,-3.14,3.14,1.3232850875710604,-3.14,2.8836809187724426,3.095396906086166
453,3.774418889744725,2.513711776882051,2.1731303703227725,6.091282500376605,1.7261711959230357,-0.46332785690716105,5.959491934817464,1.0,-3.14,3.14,1.3232850875710596,-3.14,2.8836809187724417,3.095396906086166
454,3.7744188897447244,2.513711776882051,2.173130370322772,6.091282500376605,1.7261711959230357,-0.4633278569071611,5.959491934817464,1.0,-3.14,3.14,1.3232850875710596,-3.14,2.8836809187724413,3.095396906086166
455,3.7744188897447235,2.51371177688205,2.173130370322772,6.091282500376605,1.7261711959230357,-0.46332785690716055,5.959491934817464,1.0,-3.14,3.14,1.3232850875710602,-3.14,2.8836809187724417,3.095396906086166
456,3.774418889744724,2.51371177688205,2.173130370322772,6.091282500376605,1.7261711959230357,-0.46332785690716033,5.959491934817464,1.0,-3.14,3.14,1.3232850875710604,-3.14,2.883680918772442,3.095396906086166
457,3.774418889744723,2.51371177688205,2.1731303703227725,6.091282500376605,1.7261711959230357,-0.4633278569071605,5.959491934817464,1.0,-3.14,3.14,1.3232850875710602,-3.14,2.883680918772442,3.095396906086166
458,3.7744188897447244,2.51371177688205,2.1731303703227725,6.091282500376605,1.7261711959230357,-0.4633278569071603,5.959491934817464,1.0,-3.14,3.14,1.3232850875710604,-3.14,2.8836809187724426,3.095396906086166
459,3.774418889744725,2.513711776882051,2.1731303703227725,6.091282500376605,1.7261711959230357,-0.46332785690716105,5.959491934817464,1.0,-3.14,3.14,1.3232850875710596,-3.14,2.8836809187724417,3.095396906086166
460,3.7744188897447244,2.513711776882051,2.173130370322772,6.091282500376605,1.7261711959230357,-0.4633278569071611,5.959491934817464,1.0,-3.14,3.14,1.3232850875710596,-3.14,2.8836809187724413,3.095396906086166
461,3.7744188897447235,2.51371177688205,2.173130370322772,6.091282500376605,1.7261711959230357,-0.46332785690716055,5.959491934817464,1.0,-3.14,3.14,1.3232850875710602,-3.14,2.8836809187724417,3.095396906086166
462,3.774418889744724,2.51371177688205,2.173130370322772,6.091282500376605,1.7261711959230357,-0.46332785690716033,5.959491934817464,1.0,-3.14,3.14,1.3232850875710604,-3.14,2.883680918772442,3.095396906086166
463,3.774418889744723,2.51371177688205,2.1731303703227725,6.091282500376605,1.7261711959230357,-0.4633278569071605,5.959491934817464,1.0,-3.14,3.14,1.3232850875710602,-3.14,2.883680918772442,3.095396906086166
464,3.7744188897447244,2.51371177688205,2.1731303703227725,6.091282500376605,1.7261711959230357,-0.4633278569071603,5.959491934817464,1.0,-3.14,3.14,1.3232850875710604,-3.14,2.8836809187724426,3.095396906086166
465,3.774418889744725,2.513711776882051,2.1731303703227725,6.091282500376605,1.7261711959230357,-0.46332785690716105,5.959491934817464,1.0,-3.14,3.14,1.3232850875710596,-3.14,2.8836809187724417,3.095396906086166
466,3.7744188897447244,2.513711776882051,2.173130370322772,6.091282500376605,1.7261711959230357,-0.4633278569071611,5.959491934817464,1.0,-3.14,3.14,1.3232850875710596,-3.14,2.8836809187724413,3.095396906086166
467,3.7744188897447235,2.51371177688205,2.173130370322772,6.091282500376605,1.7261711959230357,-0.46332785690716055,5.959491934817464,1.0,-3.14,3.14,1.3232850875710602,-3.14,2.8836809187724417,3.095396906086166
468,3.774418889744724,2.51371177688205,2.173130370322772,6.091282500376605,1.7261711959230357,-0.46332785690716033,5.959491934817464,1.0,-3.14,3.14,1.3232850875710604,-3.14,2.883680918772442,3.095396906086166
469,3.774418889744723,2.51371177688205,2.1731303703227725,6.091282500376605,1.7261711959230357,-0.4633278569071605,5.959491934817464,1.0,-3.14,3.14,1.3232850875710602,-3.14,2.883680918772442,3.095396906086166
470,3.7744188897447244,2.51371177688205,2.1731303703227725,6.091282500376605,1.7261711959230357,-0.4633278569071603,5.959491934817464,1.0,-3.14,3.14,1.3232850875710604,-3.14,2.8836809187724426,3.095396906086166
471,3.774418889744725,2.513711776882051,2.1731303703227725,6.091282500376605,1.7261711959230357,-0.46332785690716105,5.959491934817464,1.0,-3.14,3.14,1.3232850875710596,-3.14,2.8836809187724417,3.095396906086166
