jkpark150901/flame_robotics_drt/experiment/inspection_ik/session_20260716_113329/fallback/inspection_ik_20260716_113745_dda_rb10_1300e_normalized_fallback.csv
iteration,err_norm,position_error,orientation_error,tcp_x,tcp_y,tcp_z,q0_dda_joint_linear_track,q1_dda_joint_carriage,q2_dda_joint_base,q3_dda_joint_shoulder,q4_dda_joint_elbow,q5_dda_joint_wrist1,q6_dda_joint_wrist2,q7_dda_joint_wrist3
0,6.829835701310409,6.0265354452281,1.7186419958754036,0.47255,3.7499999999986655,2.697,0.0,0.0,0.0,0.0,0.0,0.0,0.0,0.0
1,4.807684856666233,4.177499673081777,1.5714684443084612,2.497542211694522,3.728924986985763,2.6972110213772673,2.025322354572254,-0.007962231328993513,-0.1133129557350237,-0.006890735575679018,0.04120892011063197,0.0859682128959269,-0.10104664073423035,0.09516500523092172
2,5.117851578097579,3.3565269285444983,2.8175147102709266,4.4184742062551114,4.787063398870009,1.4652749971830616,4.258365375217583,1.0,3.14,3.14,-3.14,-0.328544770056751,-3.14,3.14
3,3.4057009588120892,2.890810841234574,1.7175109665287842,5.884052465032965,4.74871600539791,1.2373012206486427,5.724004708161136,1.0,3.14,3.14,-3.14,3.14,-3.14,3.14
4,2.9131414735688788,2.2916220919899764,1.7175095661129762,6.231889078251074,4.1467829760966035,1.2373001068479734,6.07183932689832,0.39675128095518297,-3.14,3.14,3.14,3.14,-3.14,3.14
5,2.01276517022256,1.000106791772926,1.7175095661129762,6.382127073997945,2.7500316951414208,1.2373001068479734,6.222077322645191,-1.0,-3.14,3.14,3.14,3.14,-3.14,3.14
6,1.9982866183097707,0.982592797006088,1.7175095661129762,6.302274837801956,2.7500316951414208,1.2373001068479734,6.142225086449202,-1.0,-3.14,3.14,3.14,3.14,-3.14,3.14
7,1.990168174470501,0.9737378733609652,1.7175095661129762,6.243870897804985,2.7500316951414208,1.2373001068479734,6.083821146452231,-1.0,-3.14,3.14,3.14,3.14,-3.14,3.14
8,1.9855697202083966,0.9694404663420529,1.7175095661129762,6.201154245527424,2.7500316951414208,1.2373001068479734,6.04110449417467,-1.0,-3.14,3.14,3.14,3.14,-3.14,3.14
9,1.9829282546195783,0.9674801727916353,1.7175095661129762,6.169911278325268,2.7500316951414208,1.2373001068479734,6.0098615269725135,-1.0,-3.14,3.14,3.14,3.14,-3.14,3.14
10,1.9813840879952924,0.9666834627151968,1.7175095661129762,6.147060166462557,2.7500316951414208,1.2373001068479734,5.987010415109803,-1.0,-3.14,3.14,3.14,3.14,-3.14,3.14
11,1.9804626554614801,0.9664424997700293,1.7175095661129762,6.13034685911299,2.7500316951414208,1.2373001068479734,5.970297107760236,-1.0,-3.14,3.14,3.14,3.14,-3.14,3.14
12,1.9799001382558992,0.9664492459524877,1.7175095661129762,6.118122743094507,2.7500316951414208,1.2373001068479734,5.958072991741753,-1.0,-3.14,3.14,3.14,3.14,-3.14,3.14
13,1.97954836996956,0.9665520736567882,1.7175095661129762,6.10918202242756,2.7500316951414208,1.2373001068479734,5.949132271074806,-1.0,-3.14,3.14,3.14,3.14,-3.14,3.14
14,1.97932301778924,0.9666796345867623,1.7175095661129762,6.102642777714607,2.7500316951414208,1.2373001068479734,5.942593026361853,-1.0,-3.14,3.14,3.14,3.14,-3.14,3.14
15,1.979175282784234,0.9668009277496601,1.7175095661129762,6.097859972948771,2.7500316951414208,1.2373001068479734,5.937810221596017,-1.0,-3.14,3.14,3.14,3.14,-3.14,3.14
16,1.979076372480121,0.9669046118101631,1.7175095661129762,6.094361828677952,2.7500316951414208,1.2373001068479734,5.934312077325198,-1.0,-3.14,3.14,3.14,3.14,-3.14,3.14
17,1.9790089213023272,0.966988452003889,1.7175095661129762,6.09180328532555,2.7500316951414208,1.2373001068479734,5.931753533972796,-1.0,-3.14,3.14,3.14,3.14,-3.14,3.14
18,1.9789622046472395,0.9670540541949287,1.7175095661129762,6.089931966254829,2.7500316951414208,1.2373001068479734,5.929882214902075,-1.0,-3.14,3.14,3.14,3.14,-3.14,3.14
19,1.9789294362141778,0.9671043255220185,1.7175095661129762,6.088563283148029,2.7500316951414208,1.2373001068479734,5.928513531795275,-1.0,-3.14,3.14,3.14,3.14,-3.14,3.14
20,1.97890621841292,0.9671423187424081,1.7175095661129762,6.087562228076156,2.7500316951414208,1.2373001068479734,5.927512476723402,-1.0,-3.14,3.14,3.14,3.14,-3.14,3.14
21,1.9788896376178178,0.9671707620934299,1.7175095661129762,6.086830056215524,2.7500316951414208,1.2373001068479734,5.92678030486277,-1.0,-3.14,3.14,3.14,3.14,-3.14,3.14
22,1.9788777247845977,0.967191915978423,1.7175095661129762,6.0862945455842254,2.7500316951414208,1.2373001068479734,5.926244794231471,-1.0,-3.14,3.14,3.14,3.14,-3.14,3.14
23,1.9788691264112173,0.9672075753731213,1.7175095661129762,6.085902873011634,2.7500316951414208,1.2373001068479734,5.9258531216588795,-1.0,-3.14,3.14,3.14,3.14,-3.14,3.14
24,1.9788628989051524,0.967219128922207,1.7175095661129762,6.085616403621197,2.7500316951414208,1.2373001068479734,5.925566652268443,-1.0,-3.14,3.14,3.14,3.14,-3.14,3.14
25,1.9788583769231045,0.9672276328244827,1.7175095661129762,6.085406879857216,2.7500316951414208,1.2373001068479734,5.925357128504462,-1.0,-3.14,3.14,3.14,3.14,-3.14,3.14
26,1.9788550871000794,0.9672338812708758,1.7175095661129762,6.085253634138343,2.7500316951414208,1.2373001068479734,5.925203882785589,-1.0,-3.14,3.14,3.14,3.14,-3.14,3.14
27,1.9788526903142003,0.967238466733389,1.7175095661129762,6.0851415501918416,2.7500316951414208,1.2373001068479734,5.925091798839087,-1.0,-3.14,3.14,3.14,3.14,-3.14,3.14
28,1.978850942328422,0.9672418287515693,1.7175095661129762,6.085059571973097,2.7500316951414208,1.2373001068479734,5.9250098206203425,-1.0,-3.14,3.14,3.14,3.14,-3.14,3.14
29,1.9788496665388025,0.9672442921241725,1.7175095661129762,6.084999613089079,2.7500316951414208,1.2373001068479734,5.924949861736325,-1.0,-3.14,3.14,3.14,3.14,-3.14,3.14
30,1.9788487348637125,0.9672460961847508,1.7175095661129762,6.084955759150463,2.7500316951414208,1.2373001068479734,5.924906007797709,-1.0,-3.14,3.14,3.14,3.14,-3.14,3.14
31,1.9788480542054596,0.9672474169317852,1.7175095661129762,6.084923684371828,2.7500316951414208,1.2373001068479734,5.924873933019074,-1.0,-3.14,3.14,3.14,3.14,-3.14,3.14
32,1.9788475567833053,0.9672483835987231,1.7175095661129762,6.084900224872933,2.7500316951414208,1.2373001068479734,5.924850473520179,-1.0,-3.14,3.14,3.14,3.14,-3.14,3.14
33,1.9788471931887366,0.9672490909787493,1.7175095661129762,6.084883066591198,2.7500316951414208,1.2373001068479734,5.924833315238444,-1.0,-3.14,3.14,3.14,3.14,-3.14,3.14
34,1.9788469273733371,0.9672496085490231,1.7175095661129762,6.084870517020833,2.7500316951414208,1.2373001068479734,5.924820765668079,-1.0,-3.14,3.14,3.14,3.14,-3.14,3.14
35,1.9788467330188868,0.9672499872029355,1.7175095661129762,6.084861338262798,2.7500316951414208,1.2373001068479734,5.924811586910044,-1.0,-3.14,3.14,3.14,3.14,-3.14,3.14
36,1.9788465909016988,0.9672502642055324,1.7175095661129762,6.0848546249175115,2.7500316951414208,1.2373001068479734,5.924804873564757,-1.0,-3.14,3.14,3.14,3.14,-3.14,3.14
37,1.9788464869751845,0.9672504668347344,1.7175095661129762,6.0848497147755545,2.7500316951414208,1.2373001068479734,5.9247999634228,-1.0,-3.14,3.14,3.14,3.14,-3.14,3.14
38,1.9788464109729547,0.9672506150535247,1.7175095661129762,6.084846123496839,2.7500316951414208,1.2373001068479734,5.924796372144085,-1.0,-3.14,3.14,3.14,3.14,-3.14,3.14
39,1.978846355390068,0.9672507234692032,1.7175095661129762,6.084843496834937,2.7500316951414208,1.2373001068479734,5.924793745482183,-1.0,-3.14,3.14,3.14,3.14,-3.14,3.14
40,1.9788463147394935,0.9672508027689587,1.7175095661129762,6.084841575693947,2.7500316951414208,1.2373001068479734,5.924791824341193,-1.0,-3.14,3.14,3.14,3.14,-3.14,3.14
41,1.978846285009132,0.9672508607712261,1.7175095661129762,6.084840170571079,2.7500316951414208,1.2373001068479734,5.924790419218325,-1.0,-3.14,3.14,3.14,3.14,-3.14,3.14
42,1.9788462632651296,0.9672509031953853,1.7175095661129762,6.084839142863959,2.7500316951414208,1.2373001068479734,5.924789391511205,-1.0,-3.14,3.14,3.14,3.14,-3.14,3.14
43,1.9788462473619846,0.9672509342251132,1.7175095661129762,6.084838391198786,2.7500316951414208,1.2373001068479734,5.924788639846032,-1.0,-3.14,3.14,3.14,3.14,-3.14,3.14
44,1.9788462357306476,0.967250956920631,1.7175095661129762,6.084837841430742,2.7500316951414208,1.2373001068479734,5.924788090077988,-1.0,-3.14,3.14,3.14,3.14,-3.14,3.14
45,1.9788462272236065,0.9672509735203344,1.7175095661129762,6.084837439330296,2.7500316951414208,1.2373001068479734,5.924787687977542,-1.0,-3.14,3.14,3.14,3.14,-3.14,3.14
46,1.9788462210016198,0.9672509856614661,1.7175095661129762,6.084837145233957,2.7500316951414208,1.2373001068479734,5.924787393881203,-1.0,-3.14,3.14,3.14,3.14,-3.14,3.14
47,1.978846216450892,0.9672509945415485,1.7175095661129762,6.084836930131841,2.7500316951414208,1.2373001068479734,5.924787178779087,-1.0,-3.14,3.14,3.14,3.14,-3.14,3.14
48,1.9788462131225075,0.9672510010364727,1.7175095661129762,6.084836772806114,2.7500316951414208,1.2373001068479734,5.92478702145336,-1.0,-3.14,3.14,3.14,3.14,-3.14,3.14
49,1.9788462106881364,0.9672510057868775,1.7175095661129762,6.08483665773805,2.7500316951414208,1.2373001068479734,5.924786906385296,-1.0,-3.14,3.14,3.14,3.14,-3.14,3.14
50,1.978846208907642,0.9672510092613331,1.7175095661129762,6.084836573577246,2.7500316951414208,1.2373001068479734,5.924786822224492,-1.0,-3.14,3.14,3.14,3.14,-3.14,3.14
51,1.9788462076053912,0.9672510118025552,1.7175095661129762,6.08483651202202,2.7500316951414208,1.2373001068479734,5.9247867606692655,-1.0,-3.14,3.14,3.14,3.14,-3.14,3.14
52,1.9788462066529262,0.967251013661208,1.7175095661129762,6.084836467000516,2.7500316951414208,1.2373001068479734,5.924786715647762,-1.0,-3.14,3.14,3.14,3.14,-3.14,3.14
53,1.9788462059562937,0.9672510150206283,1.7175095661129762,6.0848364340717795,2.7500316951414208,1.2373001068479734,5.924786682719025,-1.0,-3.14,3.14,3.14,3.14,-3.14,3.14
54,1.9788462054467773,0.9672510160149093,1.7175095661129762,6.0848364099876955,2.7500316951414208,1.2373001068479734,5.924786658634941,-1.0,-3.14,3.14,3.14,3.14,-3.14,3.14
55,1.978846205074117,0.967251016742127,1.7175095661129762,6.084836392372592,2.7500316951414208,1.2373001068479734,5.924786641019838,-1.0,-3.14,3.14,3.14,3.14,-3.14,3.14
56,1.9788462048015534,0.9672510172740142,1.7175095661129762,6.084836379488903,2.7500316951414208,1.2373001068479734,5.9247866281361485,-1.0,-3.14,3.14,3.14,3.14,-3.14,3.14
57,1.9788462046022002,0.9672510176630369,1.7175095661129762,6.08483637006577,2.7500316951414208,1.2373001068479734,5.924786618713016,-1.0,-3.14,3.14,3.14,3.14,-3.14,3.14
58,1.9788462044563933,0.9672510179475682,1.7175095661129762,6.084836363173689,2.7500316951414208,1.2373001068479734,5.9247866118209345,-1.0,-3.14,3.14,3.14,3.14,-3.14,3.14
59,1.9788462043497503,0.9672510181556744,1.7175095661129762,6.0848363581328195,2.7500316951414208,1.2373001068479734,5.924786606780065,-1.0,-3.14,3.14,3.14,3.14,-3.14,3.14
60,1.9788462042717514,0.9672510183078833,1.7175095661129762,6.084836354445927,2.7500316951414208,1.2373001068479734,5.924786603093173,-1.0,-3.14,3.14,3.14,3.14,-3.14,3.14
61,1.9788462042147033,0.967251018419209,1.7175095661129762,6.084836351749333,2.7500316951414208,1.2373001068479734,5.924786600396579,-1.0,-3.14,3.14,3.14,3.14,-3.14,3.14
62,1.978846204172978,0.9672510185006327,1.7175095661129762,6.084836349777043,2.7500316951414208,1.2373001068479734,5.924786598424289,-1.0,-3.14,3.14,3.14,3.14,-3.14,3.14
63,1.9788462041424604,0.9672510185601859,1.7175095661129762,6.084836348334511,2.7500316951414208,1.2373001068479734,5.924786596981757,-1.0,-3.14,3.14,3.14,3.14,-3.14,3.14
64,1.9788462041201396,0.9672510186037431,1.7175095661129762,6.084836347279442,2.7500316951414208,1.2373001068479734,5.924786595926688,-1.0,-3.14,3.14,3.14,3.14,-3.14,3.14
65,1.9788462041038142,0.9672510186356009,1.7175095661129762,6.084836346507764,2.7500316951414208,1.2373001068479734,5.92478659515501,-1.0,-3.14,3.14,3.14,3.14,-3.14,3.14
66,1.9788462040918737,0.9672510186589017,1.7175095661129762,6.084836345943359,2.7500316951414208,1.2373001068479734,5.924786594590605,-1.0,-3.14,3.14,3.14,3.14,-3.14,3.14
67,1.9788462040831407,0.9672510186759439,1.7175095661129762,6.084836345530554,2.7500316951414208,1.2373001068479734,5.9247865941777995,-1.0,-3.14,3.14,3.14,3.14,-3.14,3.14
68,1.978846204076753,0.9672510186884086,1.7175095661129762,6.084836345228627,2.7500316951414208,1.2373001068479734,5.924786593875873,-1.0,-3.14,3.14,3.14,3.14,-3.14,3.14
69,1.9788462040720813,0.9672510186975252,1.7175095661129762,6.0848363450077985,2.7500316951414208,1.2373001068479734,5.924786593655044,-1.0,-3.14,3.14,3.14,3.14,-3.14,3.14
70,1.9788462040686645,0.9672510187041932,1.7175095661129762,6.084836344846284,2.7500316951414208,1.2373001068479734,5.92478659349353,-1.0,-3.14,3.14,3.14,3.14,-3.14,3.14
71,1.9788462040661652,0.96725101870907,1.7175095661129762,6.084836344728152,2.7500316951414208,1.2373001068479734,5.924786593375398,-1.0,-3.14,3.14,3.14,3.14,-3.14,3.14
72,1.9788462040643373,0.9672510187126371,1.7175095661129762,6.084836344641751,2.7500316951414208,1.2373001068479734,5.924786593288997,-1.0,-3.14,3.14,3.14,3.14,-3.14,3.14
73,1.9788462040630004,0.967251018715246,1.7175095661129762,6.084836344578557,2.7500316951414208,1.2373001068479734,5.924786593225803,-1.0,-3.14,3.14,3.14,3.14,-3.14,3.14
74,1.9788462040620227,0.967251018717154,1.7175095661129762,6.084836344532337,2.7500316951414208,1.2373001068479734,5.924786593179583,-1.0,-3.14,3.14,3.14,3.14,-3.14,3.14
75,1.9788462040613073,0.9672510187185497,1.7175095661129762,6.084836344498531,2.7500316951414208,1.2373001068479734,5.924786593145777,-1.0,-3.14,3.14,3.14,3.14,-3.14,3.14
76,1.9788462040607844,0.9672510187195704,1.7175095661129762,6.084836344473806,2.7500316951414208,1.2373001068479734,5.924786593121052,-1.0,-3.14,3.14,3.14,3.14,-3.14,3.14
77,1.9788462040604018,0.967251018720317,1.7175095661129762,6.084836344455722,2.7500316951414208,1.2373001068479734,5.924786593102968,-1.0,-3.14,3.14,3.14,3.14,-3.14,3.14
78,1.978846204060122,0.9672510187208632,1.7175095661129762,6.084836344442495,2.7500316951414208,1.2373001068479734,5.924786593089741,-1.0,-3.14,3.14,3.14,3.14,-3.14,3.14
79,1.9788462040599173,0.9672510187212625,1.7175095661129762,6.084836344432821,2.7500316951414208,1.2373001068479734,5.924786593080067,-1.0,-3.14,3.14,3.14,3.14,-3.14,3.14
80,1.9788462040597676,0.9672510187215546,1.7175095661129762,6.084836344425745,2.7500316951414208,1.2373001068479734,5.924786593072991,-1.0,-3.14,3.14,3.14,3.14,-3.14,3.14
81,1.9788462040596582,0.9672510187217683,1.7175095661129762,6.0848363444205695,2.7500316951414208,1.2373001068479734,5.924786593067815,-1.0,-3.14,3.14,3.14,3.14,-3.14,3.14
82,1.978846204059578,0.9672510187219245,1.7175095661129762,6.084836344416785,2.7500316951414208,1.2373001068479734,5.924786593064031,-1.0,-3.14,3.14,3.14,3.14,-3.14,3.14
83,1.9788462040595196,0.9672510187220388,1.7175095661129762,6.0848363444140166,2.7500316951414208,1.2373001068479734,5.924786593061262,-1.0,-3.14,3.14,3.14,3.14,-3.14,3.14
84,1.9788462040594765,0.9672510187221225,1.7175095661129762,6.0848363444119915,2.7500316951414208,1.2373001068479734,5.924786593059237,-1.0,-3.14,3.14,3.14,3.14,-3.14,3.14
85,1.9788462040594452,0.9672510187221836,1.7175095661129762,6.084836344410511,2.7500316951414208,1.2373001068479734,5.924786593057757,-1.0,-3.14,3.14,3.14,3.14,-3.14,3.14
86,1.9788462040594224,0.9672510187222283,1.7175095661129762,6.084836344409427,2.7500316951414208,1.2373001068479734,5.924786593056673,-1.0,-3.14,3.14,3.14,3.14,-3.14,3.14
87,1.9788462040594057,0.9672510187222609,1.7175095661129762,6.084836344408635,2.7500316951414208,1.2373001068479734,5.924786593055881,-1.0,-3.14,3.14,3.14,3.14,-3.14,3.14
88,1.9788462040593933,0.9672510187222849,1.7175095661129762,6.084836344408056,2.7500316951414208,1.2373001068479734,5.924786593055302,-1.0,-3.14,3.14,3.14,3.14,-3.14,3.14
89,1.9788462040593844,0.9672510187223023,1.7175095661129762,6.084836344407632,2.7500316951414208,1.2373001068479734,5.924786593054878,-1.0,-3.14,3.14,3.14,3.14,-3.14,3.14
90,1.978846204059378,0.9672510187223151,1.7175095661129762,6.084836344407322,2.7500316951414208,1.2373001068479734,5.924786593054568,-1.0,-3.14,3.14,3.14,3.14,-3.14,3.14
91,1.978846204059373,0.9672510187223246,1.7175095661129762,6.084836344407096,2.7500316951414208,1.2373001068479734,5.924786593054342,-1.0,-3.14,3.14,3.14,3.14,-3.14,3.14
92,1.9788462040593695,0.9672510187223314,1.7175095661129762,6.08483634440693,2.7500316951414208,1.2373001068479734,5.924786593054176,-1.0,-3.14,3.14,3.14,3.14,-3.14,3.14
93,1.9788462040593668,0.9672510187223364,1.7175095661129762,6.084836344406808,2.7500316951414208,1.2373001068479734,5.924786593054054,-1.0,-3.14,3.14,3.14,3.14,-3.14,3.14
94,1.978846204059365,0.9672510187223401,1.7175095661129762,6.084836344406719,2.7500316951414208,1.2373001068479734,5.924786593053965,-1.0,-3.14,3.14,3.14,3.14,-3.14,3.14
95,1.9788462040593637,0.9672510187223428,1.7175095661129762,6.084836344406654,2.7500316951414208,1.2373001068479734,5.9247865930539,-1.0,-3.14,3.14,3.14,3.14,-3.14,3.14
96,1.9788462040593628,0.9672510187223448,1.7175095661129762,6.084836344406607,2.7500316951414208,1.2373001068479734,5.924786593053853,-1.0,-3.14,3.14,3.14,3.14,-3.14,3.14
97,1.978846204059362,0.9672510187223462,1.7175095661129762,6.084836344406573,2.7500316951414208,1.2373001068479734,5.924786593053819,-1.0,-3.14,3.14,3.14,3.14,-3.14,3.14
98,1.9788462040593613,0.9672510187223472,1.7175095661129762,6.084836344406547,2.7500316951414208,1.2373001068479734,5.924786593053793,-1.0,-3.14,3.14,3.14,3.14,-3.14,3.14
99,1.9788462040593608,0.967251018722348,1.7175095661129762,6.084836344406528,2.7500316951414208,1.2373001068479734,5.924786593053774,-1.0,-3.14,3.14,3.14,3.14,-3.14,3.14
100,1.9788462040593608,0.9672510187223485,1.7175095661129762,6.084836344406515,2.7500316951414208,1.2373001068479734,5.924786593053761,-1.0,-3.14,3.14,3.14,3.14,-3.14,3.14
101,1.9788462040593606,0.9672510187223489,1.7175095661129762,6.084836344406505,2.7500316951414208,1.2373001068479734,5.924786593053751,-1.0,-3.14,3.14,3.14,3.14,-3.14,3.14
102,1.9788462040593604,0.9672510187223492,1.7175095661129762,6.084836344406498,2.7500316951414208,1.2373001068479734,5.924786593053744,-1.0,-3.14,3.14,3.14,3.14,-3.14,3.14
103,1.9788462040593602,0.9672510187223494,1.7175095661129762,6.084836344406493,2.7500316951414208,1.2373001068479734,5.924786593053739,-1.0,-3.14,3.14,3.14,3.14,-3.14,3.14
104,1.9788462040593602,0.9672510187223496,1.7175095661129762,6.084836344406489,2.7500316951414208,1.2373001068479734,5.924786593053735,-1.0,-3.14,3.14,3.14,3.14,-3.14,3.14
105,1.9788462040593602,0.9672510187223496,1.7175095661129762,6.084836344406487,2.7500316951414208,1.2373001068479734,5.9247865930537325,-1.0,-3.14,3.14,3.14,3.14,-3.14,3.14
106,1.9788462040593602,0.9672510187223498,1.7175095661129762,6.084836344406484,2.7500316951414208,1.2373001068479734,5.92478659305373,-1.0,-3.14,3.14,3.14,3.14,-3.14,3.14
107,1.97884620405936,0.9672510187223499,1.7175095661129762,6.084836344406482,2.7500316951414208,1.2373001068479734,5.924786593053728,-1.0,-3.14,3.14,3.14,3.14,-3.14,3.14
108,1.97884620405936,0.9672510187223499,1.7175095661129762,6.084836344406481,2.7500316951414208,1.2373001068479734,5.924786593053727,-1.0,-3.14,3.14,3.14,3.14,-3.14,3.14
109,1.97884620405936,0.96725101872235,1.7175095661129762,6.08483634440648,2.7500316951414208,1.2373001068479734,5.924786593053726,-1.0,-3.14,3.14,3.14,3.14,-3.14,3.14
110,1.97884620405936,0.96725101872235,1.7175095661129762,6.0848363444064795,2.7500316951414208,1.2373001068479734,5.924786593053725,-1.0,-3.14,3.14,3.14,3.14,-3.14,3.14
111,1.97884620405936,0.96725101872235,1.7175095661129762,6.0848363444064795,2.7500316951414208,1.2373001068479734,5.924786593053725,-1.0,-3.14,3.14,3.14,3.14,-3.14,3.14
112,1.97884620405936,0.96725101872235,1.7175095661129762,6.0848363444064795,2.7500316951414208,1.2373001068479734,5.924786593053725,-1.0,-3.14,3.14,3.14,3.14,-3.14,3.14
113,1.97884620405936,0.96725101872235,1.7175095661129762,6.0848363444064795,2.7500316951414208,1.2373001068479734,5.924786593053725,-1.0,-3.14,3.14,3.14,3.14,-3.14,3.14
114,1.97884620405936,0.96725101872235,1.7175095661129762,6.0848363444064795,2.7500316951414208,1.2373001068479734,5.924786593053725,-1.0,-3.14,3.14,3.14,3.14,-3.14,3.14
115,1.97884620405936,0.96725101872235,1.7175095661129762,6.0848363444064795,2.7500316951414208,1.2373001068479734,5.924786593053725,-1.0,-3.14,3.14,3.14,3.14,-3.14,3.14
116,1.97884620405936,0.96725101872235,1.7175095661129762,6.0848363444064795,2.7500316951414208,1.2373001068479734,5.924786593053725,-1.0,-3.14,3.14,3.14,3.14,-3.14,3.14
117,1.97884620405936,0.96725101872235,1.7175095661129762,6.0848363444064795,2.7500316951414208,1.2373001068479734,5.924786593053725,-1.0,-3.14,3.14,3.14,3.14,-3.14,3.14
118,1.97884620405936,0.96725101872235,1.7175095661129762,6.0848363444064795,2.7500316951414208,1.2373001068479734,5.924786593053725,-1.0,-3.14,3.14,3.14,3.14,-3.14,3.14
119,1.97884620405936,0.96725101872235,1.7175095661129762,6.0848363444064795,2.7500316951414208,1.2373001068479734,5.924786593053725,-1.0,-3.14,3.14,3.14,3.14,-3.14,3.14
120,1.97884620405936,0.96725101872235,1.7175095661129762,6.0848363444064795,2.7500316951414208,1.2373001068479734,5.924786593053725,-1.0,-3.14,3.14,3.14,3.14,-3.14,3.14
121,1.97884620405936,0.96725101872235,1.7175095661129762,6.0848363444064795,2.7500316951414208,1.2373001068479734,5.924786593053725,-1.0,-3.14,3.14,3.14,3.14,-3.14,3.14
122,1.97884620405936,0.96725101872235,1.7175095661129762,6.0848363444064795,2.7500316951414208,1.2373001068479734,5.924786593053725,-1.0,-3.14,3.14,3.14,3.14,-3.14,3.14
123,1.97884620405936,0.96725101872235,1.7175095661129762,6.0848363444064795,2.7500316951414208,1.2373001068479734,5.924786593053725,-1.0,-3.14,3.14,3.14,3.14,-3.14,3.14
124,1.97884620405936,0.96725101872235,1.7175095661129762,6.0848363444064795,2.7500316951414208,1.2373001068479734,5.924786593053725,-1.0,-3.14,3.14,3.14,3.14,-3.14,3.14
125,1.97884620405936,0.96725101872235,1.7175095661129762,6.0848363444064795,2.7500316951414208,1.2373001068479734,5.924786593053725,-1.0,-3.14,3.14,3.14,3.14,-3.14,3.14
126,1.97884620405936,0.96725101872235,1.7175095661129762,6.0848363444064795,2.7500316951414208,1.2373001068479734,5.924786593053725,-1.0,-3.14,3.14,3.14,3.14,-3.14,3.14
127,1.97884620405936,0.96725101872235,1.7175095661129762,6.0848363444064795,2.7500316951414208,1.2373001068479734,5.924786593053725,-1.0,-3.14,3.14,3.14,3.14,-3.14,3.14
128,1.97884620405936,0.96725101872235,1.7175095661129762,6.0848363444064795,2.7500316951414208,1.2373001068479734,5.924786593053725,-1.0,-3.14,3.14,3.14,3.14,-3.14,3.14
129,1.97884620405936,0.96725101872235,1.7175095661129762,6.0848363444064795,2.7500316951414208,1.2373001068479734,5.924786593053725,-1.0,-3.14,3.14,3.14,3.14,-3.14,3.14
130,1.97884620405936,0.96725101872235,1.7175095661129762,6.0848363444064795,2.7500316951414208,1.2373001068479734,5.924786593053725,-1.0,-3.14,3.14,3.14,3.14,-3.14,3.14
131,1.97884620405936,0.96725101872235,1.7175095661129762,6.0848363444064795,2.7500316951414208,1.2373001068479734,5.924786593053725,-1.0,-3.14,3.14,3.14,3.14,-3.14,3.14
132,1.97884620405936,0.96725101872235,1.7175095661129762,6.0848363444064795,2.7500316951414208,1.2373001068479734,5.924786593053725,-1.0,-3.14,3.14,3.14,3.14,-3.14,3.14
133,1.97884620405936,0.96725101872235,1.7175095661129762,6.0848363444064795,2.7500316951414208,1.2373001068479734,5.924786593053725,-1.0,-3.14,3.14,3.14,3.14,-3.14,3.14
134,1.97884620405936,0.96725101872235,1.7175095661129762,6.0848363444064795,2.7500316951414208,1.2373001068479734,5.924786593053725,-1.0,-3.14,3.14,3.14,3.14,-3.14,3.14
135,1.97884620405936,0.96725101872235,1.7175095661129762,6.0848363444064795,2.7500316951414208,1.2373001068479734,5.924786593053725,-1.0,-3.14,3.14,3.14,3.14,-3.14,3.14
136,1.97884620405936,0.96725101872235,1.7175095661129762,6.0848363444064795,2.7500316951414208,1.2373001068479734,5.924786593053725,-1.0,-3.14,3.14,3.14,3.14,-3.14,3.14
137,1.97884620405936,0.96725101872235,1.7175095661129762,6.0848363444064795,2.7500316951414208,1.2373001068479734,5.924786593053725,-1.0,-3.14,3.14,3.14,3.14,-3.14,3.14
138,1.97884620405936,0.96725101872235,1.7175095661129762,6.0848363444064795,2.7500316951414208,1.2373001068479734,5.924786593053725,-1.0,-3.14,3.14,3.14,3.14,-3.14,3.14
139,1.97884620405936,0.96725101872235,1.7175095661129762,6.0848363444064795,2.7500316951414208,1.2373001068479734,5.924786593053725,-1.0,-3.14,3.14,3.14,3.14,-3.14,3.14
140,1.97884620405936,0.96725101872235,1.7175095661129762,6.0848363444064795,2.7500316951414208,1.2373001068479734,5.924786593053725,-1.0,-3.14,3.14,3.14,3.14,-3.14,3.14
141,1.97884620405936,0.96725101872235,1.7175095661129762,6.0848363444064795,2.7500316951414208,1.2373001068479734,5.924786593053725,-1.0,-3.14,3.14,3.14,3.14,-3.14,3.14
142,1.97884620405936,0.96725101872235,1.7175095661129762,6.0848363444064795,2.7500316951414208,1.2373001068479734,5.924786593053725,-1.0,-3.14,3.14,3.14,3.14,-3.14,3.14
143,1.97884620405936,0.96725101872235,1.7175095661129762,6.0848363444064795,2.7500316951414208,1.2373001068479734,5.924786593053725,-1.0,-3.14,3.14,3.14,3.14,-3.14,3.14
144,1.97884620405936,0.96725101872235,1.7175095661129762,6.0848363444064795,2.7500316951414208,1.2373001068479734,5.924786593053725,-1.0,-3.14,3.14,3.14,3.14,-3.14,3.14
145,1.97884620405936,0.96725101872235,1.7175095661129762,6.0848363444064795,2.7500316951414208,1.2373001068479734,5.924786593053725,-1.0,-3.14,3.14,3.14,3.14,-3.14,3.14
146,1.97884620405936,0.96725101872235,1.7175095661129762,6.0848363444064795,2.7500316951414208,1.2373001068479734,5.924786593053725,-1.0,-3.14,3.14,3.14,3.14,-3.14,3.14
147,1.97884620405936,0.96725101872235,1.7175095661129762,6.0848363444064795,2.7500316951414208,1.2373001068479734,5.924786593053725,-1.0,-3.14,3.14,3.14,3.14,-3.14,3.14
148,1.97884620405936,0.96725101872235,1.7175095661129762,6.0848363444064795,2.7500316951414208,1.2373001068479734,5.924786593053725,-1.0,-3.14,3.14,3.14,3.14,-3.14,3.14
149,1.97884620405936,0.96725101872235,1.7175095661129762,6.0848363444064795,2.7500316951414208,1.2373001068479734,5.924786593053725,-1.0,-3.14,3.14,3.14,3.14,-3.14,3.14
150,1.97884620405936,0.96725101872235,1.7175095661129762,6.0848363444064795,2.7500316951414208,1.2373001068479734,5.924786593053725,-1.0,-3.14,3.14,3.14,3.14,-3.14,3.14
151,1.97884620405936,0.96725101872235,1.7175095661129762,6.0848363444064795,2.7500316951414208,1.2373001068479734,5.924786593053725,-1.0,-3.14,3.14,3.14,3.14,-3.14,3.14
152,1.97884620405936,0.96725101872235,1.7175095661129762,6.0848363444064795,2.7500316951414208,1.2373001068479734,5.924786593053725,-1.0,-3.14,3.14,3.14,3.14,-3.14,3.14
153,1.97884620405936,0.96725101872235,1.7175095661129762,6.0848363444064795,2.7500316951414208,1.2373001068479734,5.924786593053725,-1.0,-3.14,3.14,3.14,3.14,-3.14,3.14
154,1.97884620405936,0.96725101872235,1.7175095661129762,6.0848363444064795,2.7500316951414208,1.2373001068479734,5.924786593053725,-1.0,-3.14,3.14,3.14,3.14,-3.14,3.14
155,1.97884620405936,0.96725101872235,1.7175095661129762,6.0848363444064795,2.7500316951414208,1.2373001068479734,5.924786593053725,-1.0,-3.14,3.14,3.14,3.14,-3.14,3.14
156,1.97884620405936,0.96725101872235,1.7175095661129762,6.0848363444064795,2.7500316951414208,1.2373001068479734,5.924786593053725,-1.0,-3.14,3.14,3.14,3.14,-3.14,3.14
157,1.97884620405936,0.96725101872235,1.7175095661129762,6.0848363444064795,2.7500316951414208,1.2373001068479734,5.924786593053725,-1.0,-3.14,3.14,3.14,3.14,-3.14,3.14
158,1.97884620405936,0.96725101872235,1.7175095661129762,6.0848363444064795,2.7500316951414208,1.2373001068479734,5.924786593053725,-1.0,-3.14,3.14,3.14,3.14,-3.14,3.14
159,1.97884620405936,0.96725101872235,1.7175095661129762,6.0848363444064795,2.7500316951414208,1.2373001068479734,5.924786593053725,-1.0,-3.14,3.14,3.14,3.14,-3.14,3.14
160,1.97884620405936,0.96725101872235,1.7175095661129762,6.0848363444064795,2.7500316951414208,1.2373001068479734,5.924786593053725,-1.0,-3.14,3.14,3.14,3.14,-3.14,3.14
161,1.97884620405936,0.96725101872235,1.7175095661129762,6.0848363444064795,2.7500316951414208,1.2373001068479734,5.924786593053725,-1.0,-3.14,3.14,3.14,3.14,-3.14,3.14
162,1.97884620405936,0.96725101872235,1.7175095661129762,6.0848363444064795,2.7500316951414208,1.2373001068479734,5.924786593053725,-1.0,-3.14,3.14,3.14,3.14,-3.14,3.14
163,1.97884620405936,0.96725101872235,1.7175095661129762,6.0848363444064795,2.7500316951414208,1.2373001068479734,5.924786593053725,-1.0,-3.14,3.14,3.14,3.14,-3.14,3.14
164,1.97884620405936,0.96725101872235,1.7175095661129762,6.0848363444064795,2.7500316951414208,1.2373001068479734,5.924786593053725,-1.0,-3.14,3.14,3.14,3.14,-3.14,3.14
165,1.97884620405936,0.96725101872235,1.7175095661129762,6.0848363444064795,2.7500316951414208,1.2373001068479734,5.924786593053725,-1.0,-3.14,3.14,3.14,3.14,-3.14,3.14
166,1.97884620405936,0.96725101872235,1.7175095661129762,6.0848363444064795,2.7500316951414208,1.2373001068479734,5.924786593053725,-1.0,-3.14,3.14,3.14,3.14,-3.14,3.14
167,1.97884620405936,0.96725101872235,1.7175095661129762,6.0848363444064795,2.7500316951414208,1.2373001068479734,5.924786593053725,-1.0,-3.14,3.14,3.14,3.14,-3.14,3.14
168,1.97884620405936,0.96725101872235,1.7175095661129762,6.0848363444064795,2.7500316951414208,1.2373001068479734,5.924786593053725,-1.0,-3.14,3.14,3.14,3.14,-3.14,3.14
169,1.97884620405936,0.96725101872235,1.7175095661129762,6.0848363444064795,2.7500316951414208,1.2373001068479734,5.924786593053725,-1.0,-3.14,3.14,3.14,3.14,-3.14,3.14
170,1.97884620405936,0.96725101872235,1.7175095661129762,6.0848363444064795,2.7500316951414208,1.2373001068479734,5.924786593053725,-1.0,-3.14,3.14,3.14,3.14,-3.14,3.14
171,1.97884620405936,0.96725101872235,1.7175095661129762,6.0848363444064795,2.7500316951414208,1.2373001068479734,5.924786593053725,-1.0,-3.14,3.14,3.14,3.14,-3.14,3.14
172,1.97884620405936,0.96725101872235,1.7175095661129762,6.0848363444064795,2.7500316951414208,1.2373001068479734,5.924786593053725,-1.0,-3.14,3.14,3.14,3.14,-3.14,3.14
173,1.97884620405936,0.96725101872235,1.7175095661129762,6.0848363444064795,2.7500316951414208,1.2373001068479734,5.924786593053725,-1.0,-3.14,3.14,3.14,3.14,-3.14,3.14
174,1.97884620405936,0.96725101872235,1.7175095661129762,6.0848363444064795,2.7500316951414208,1.2373001068479734,5.924786593053725,-1.0,-3.14,3.14,3.14,3.14,-3.14,3.14
175,1.97884620405936,0.96725101872235,1.7175095661129762,6.0848363444064795,2.7500316951414208,1.2373001068479734,5.924786593053725,-1.0,-3.14,3.14,3.14,3.14,-3.14,3.14
176,1.97884620405936,0.96725101872235,1.7175095661129762,6.0848363444064795,2.7500316951414208,1.2373001068479734,5.924786593053725,-1.0,-3.14,3.14,3.14,3.14,-3.14,3.14
177,1.97884620405936,0.96725101872235,1.7175095661129762,6.0848363444064795,2.7500316951414208,1.2373001068479734,5.924786593053725,-1.0,-3.14,3.14,3.14,3.14,-3.14,3.14
178,1.97884620405936,0.96725101872235,1.7175095661129762,6.0848363444064795,2.7500316951414208,1.2373001068479734,5.924786593053725,-1.0,-3.14,3.14,3.14,3.14,-3.14,3.14
179,1.97884620405936,0.96725101872235,1.7175095661129762,6.0848363444064795,2.7500316951414208,1.2373001068479734,5.924786593053725,-1.0,-3.14,3.14,3.14,3.14,-3.14,3.14
180,1.97884620405936,0.96725101872235,1.7175095661129762,6.0848363444064795,2.7500316951414208,1.2373001068479734,5.924786593053725,-1.0,-3.14,3.14,3.14,3.14,-3.14,3.14
181,1.97884620405936,0.96725101872235,1.7175095661129762,6.0848363444064795,2.7500316951414208,1.2373001068479734,5.924786593053725,-1.0,-3.14,3.14,3.14,3.14,-3.14,3.14
182,1.97884620405936,0.96725101872235,1.7175095661129762,6.0848363444064795,2.7500316951414208,1.2373001068479734,5.924786593053725,-1.0,-3.14,3.14,3.14,3.14,-3.14,3.14
183,1.97884620405936,0.96725101872235,1.7175095661129762,6.0848363444064795,2.7500316951414208,1.2373001068479734,5.924786593053725,-1.0,-3.14,3.14,3.14,3.14,-3.14,3.14
184,1.97884620405936,0.96725101872235,1.7175095661129762,6.0848363444064795,2.7500316951414208,1.2373001068479734,5.924786593053725,-1.0,-3.14,3.14,3.14,3.14,-3.14,3.14
185,1.97884620405936,0.96725101872235,1.7175095661129762,6.0848363444064795,2.7500316951414208,1.2373001068479734,5.924786593053725,-1.0,-3.14,3.14,3.14,3.14,-3.14,3.14
186,1.97884620405936,0.96725101872235,1.7175095661129762,6.0848363444064795,2.7500316951414208,1.2373001068479734,5.924786593053725,-1.0,-3.14,3.14,3.14,3.14,-3.14,3.14
187,1.97884620405936,0.96725101872235,1.7175095661129762,6.0848363444064795,2.7500316951414208,1.2373001068479734,5.924786593053725,-1.0,-3.14,3.14,3.14,3.14,-3.14,3.14
188,1.97884620405936,0.96725101872235,1.7175095661129762,6.0848363444064795,2.7500316951414208,1.2373001068479734,5.924786593053725,-1.0,-3.14,3.14,3.14,3.14,-3.14,3.14
189,1.97884620405936,0.96725101872235,1.7175095661129762,6.0848363444064795,2.7500316951414208,1.2373001068479734,5.924786593053725,-1.0,-3.14,3.14,3.14,3.14,-3.14,3.14
190,1.97884620405936,0.96725101872235,1.7175095661129762,6.0848363444064795,2.7500316951414208,1.2373001068479734,5.924786593053725,-1.0,-3.14,3.14,3.14,3.14,-3.14,3.14
191,1.97884620405936,0.96725101872235,1.7175095661129762,6.0848363444064795,2.7500316951414208,1.2373001068479734,5.924786593053725,-1.0,-3.14,3.14,3.14,3.14,-3.14,3.14
192,1.97884620405936,0.96725101872235,1.7175095661129762,6.0848363444064795,2.7500316951414208,1.2373001068479734,5.924786593053725,-1.0,-3.14,3.14,3.14,3.14,-3.14,3.14
193,1.97884620405936,0.96725101872235,1.7175095661129762,6.0848363444064795,2.7500316951414208,1.2373001068479734,5.924786593053725,-1.0,-3.14,3.14,3.14,3.14,-3.14,3.14
194,1.97884620405936,0.96725101872235,1.7175095661129762,6.0848363444064795,2.7500316951414208,1.2373001068479734,5.924786593053725,-1.0,-3.14,3.14,3.14,3.14,-3.14,3.14
195,1.97884620405936,0.96725101872235,1.7175095661129762,6.0848363444064795,2.7500316951414208,1.2373001068479734,5.924786593053725,-1.0,-3.14,3.14,3.14,3.14,-3.14,3.14
196,1.97884620405936,0.96725101872235,1.7175095661129762,6.0848363444064795,2.7500316951414208,1.2373001068479734,5.924786593053725,-1.0,-3.14,3.14,3.14,3.14,-3.14,3.14
197,1.97884620405936,0.96725101872235,1.7175095661129762,6.0848363444064795,2.7500316951414208,1.2373001068479734,5.924786593053725,-1.0,-3.14,3.14,3.14,3.14,-3.14,3.14
198,1.97884620405936,0.96725101872235,1.7175095661129762,6.0848363444064795,2.7500316951414208,1.2373001068479734,5.924786593053725,-1.0,-3.14,3.14,3.14,3.14,-3.14,3.14
199,1.97884620405936,0.96725101872235,1.7175095661129762,6.0848363444064795,2.7500316951414208,1.2373001068479734,5.924786593053725,-1.0,-3.14,3.14,3.14,3.14,-3.14,3.14
200,1.97884620405936,0.96725101872235,1.7175095661129762,6.0848363444064795,2.7500316951414208,1.2373001068479734,5.924786593053725,-1.0,-3.14,3.14,3.14,3.14,-3.14,3.14
201,1.97884620405936,0.96725101872235,1.7175095661129762,6.0848363444064795,2.7500316951414208,1.2373001068479734,5.924786593053725,-1.0,-3.14,3.14,3.14,3.14,-3.14,3.14
202,1.97884620405936,0.96725101872235,1.7175095661129762,6.0848363444064795,2.7500316951414208,1.2373001068479734,5.924786593053725,-1.0,-3.14,3.14,3.14,3.14,-3.14,3.14
203,1.97884620405936,0.96725101872235,1.7175095661129762,6.0848363444064795,2.7500316951414208,1.2373001068479734,5.924786593053725,-1.0,-3.14,3.14,3.14,3.14,-3.14,3.14
204,1.97884620405936,0.96725101872235,1.7175095661129762,6.0848363444064795,2.7500316951414208,1.2373001068479734,5.924786593053725,-1.0,-3.14,3.14,3.14,3.14,-3.14,3.14
205,1.97884620405936,0.96725101872235,1.7175095661129762,6.0848363444064795,2.7500316951414208,1.2373001068479734,5.924786593053725,-1.0,-3.14,3.14,3.14,3.14,-3.14,3.14
206,1.97884620405936,0.96725101872235,1.7175095661129762,6.0848363444064795,2.7500316951414208,1.2373001068479734,5.924786593053725,-1.0,-3.14,3.14,3.14,3.14,-3.14,3.14
207,1.97884620405936,0.96725101872235,1.7175095661129762,6.0848363444064795,2.7500316951414208,1.2373001068479734,5.924786593053725,-1.0,-3.14,3.14,3.14,3.14,-3.14,3.14
208,1.97884620405936,0.96725101872235,1.7175095661129762,6.0848363444064795,2.7500316951414208,1.2373001068479734,5.924786593053725,-1.0,-3.14,3.14,3.14,3.14,-3.14,3.14
209,1.97884620405936,0.96725101872235,1.7175095661129762,6.0848363444064795,2.7500316951414208,1.2373001068479734,5.924786593053725,-1.0,-3.14,3.14,3.14,3.14,-3.14,3.14
210,1.97884620405936,0.96725101872235,1.7175095661129762,6.0848363444064795,2.7500316951414208,1.2373001068479734,5.924786593053725,-1.0,-3.14,3.14,3.14,3.14,-3.14,3.14
211,1.97884620405936,0.96725101872235,1.7175095661129762,6.0848363444064795,2.7500316951414208,1.2373001068479734,5.924786593053725,-1.0,-3.14,3.14,3.14,3.14,-3.14,3.14
212,1.97884620405936,0.96725101872235,1.7175095661129762,6.0848363444064795,2.7500316951414208,1.2373001068479734,5.924786593053725,-1.0,-3.14,3.14,3.14,3.14,-3.14,3.14
213,1.97884620405936,0.96725101872235,1.7175095661129762,6.0848363444064795,2.7500316951414208,1.2373001068479734,5.924786593053725,-1.0,-3.14,3.14,3.14,3.14,-3.14,3.14
214,1.97884620405936,0.96725101872235,1.7175095661129762,6.0848363444064795,2.7500316951414208,1.2373001068479734,5.924786593053725,-1.0,-3.14,3.14,3.14,3.14,-3.14,3.14
215,1.97884620405936,0.96725101872235,1.7175095661129762,6.0848363444064795,2.7500316951414208,1.2373001068479734,5.924786593053725,-1.0,-3.14,3.14,3.14,3.14,-3.14,3.14
216,1.97884620405936,0.96725101872235,1.7175095661129762,6.0848363444064795,2.7500316951414208,1.2373001068479734,5.924786593053725,-1.0,-3.14,3.14,3.14,3.14,-3.14,3.14
217,1.97884620405936,0.96725101872235,1.7175095661129762,6.0848363444064795,2.7500316951414208,1.2373001068479734,5.924786593053725,-1.0,-3.14,3.14,3.14,3.14,-3.14,3.14
218,1.97884620405936,0.96725101872235,1.7175095661129762,6.0848363444064795,2.7500316951414208,1.2373001068479734,5.924786593053725,-1.0,-3.14,3.14,3.14,3.14,-3.14,3.14
219,1.97884620405936,0.96725101872235,1.7175095661129762,6.0848363444064795,2.7500316951414208,1.2373001068479734,5.924786593053725,-1.0,-3.14,3.14,3.14,3.14,-3.14,3.14
220,1.97884620405936,0.96725101872235,1.7175095661129762,6.0848363444064795,2.7500316951414208,1.2373001068479734,5.924786593053725,-1.0,-3.14,3.14,3.14,3.14,-3.14,3.14
221,1.97884620405936,0.96725101872235,1.7175095661129762,6.0848363444064795,2.7500316951414208,1.2373001068479734,5.924786593053725,-1.0,-3.14,3.14,3.14,3.14,-3.14,3.14
222,1.97884620405936,0.96725101872235,1.7175095661129762,6.0848363444064795,2.7500316951414208,1.2373001068479734,5.924786593053725,-1.0,-3.14,3.14,3.14,3.14,-3.14,3.14
223,1.97884620405936,0.96725101872235,1.7175095661129762,6.0848363444064795,2.7500316951414208,1.2373001068479734,5.924786593053725,-1.0,-3.14,3.14,3.14,3.14,-3.14,3.14
224,1.97884620405936,0.96725101872235,1.7175095661129762,6.0848363444064795,2.7500316951414208,1.2373001068479734,5.924786593053725,-1.0,-3.14,3.14,3.14,3.14,-3.14,3.14
225,1.97884620405936,0.96725101872235,1.7175095661129762,6.0848363444064795,2.7500316951414208,1.2373001068479734,5.924786593053725,-1.0,-3.14,3.14,3.14,3.14,-3.14,3.14
226,1.97884620405936,0.96725101872235,1.7175095661129762,6.0848363444064795,2.7500316951414208,1.2373001068479734,5.924786593053725,-1.0,-3.14,3.14,3.14,3.14,-3.14,3.14
227,1.97884620405936,0.96725101872235,1.7175095661129762,6.0848363444064795,2.7500316951414208,1.2373001068479734,5.924786593053725,-1.0,-3.14,3.14,3.14,3.14,-3.14,3.14
228,1.97884620405936,0.96725101872235,1.7175095661129762,6.0848363444064795,2.7500316951414208,1.2373001068479734,5.924786593053725,-1.0,-3.14,3.14,3.14,3.14,-3.14,3.14
229,1.97884620405936,0.96725101872235,1.7175095661129762,6.0848363444064795,2.7500316951414208,1.2373001068479734,5.924786593053725,-1.0,-3.14,3.14,3.14,3.14,-3.14,3.14
230,1.97884620405936,0.96725101872235,1.7175095661129762,6.0848363444064795,2.7500316951414208,1.2373001068479734,5.924786593053725,-1.0,-3.14,3.14,3.14,3.14,-3.14,3.14
231,1.97884620405936,0.96725101872235,1.7175095661129762,6.0848363444064795,2.7500316951414208,1.2373001068479734,5.924786593053725,-1.0,-3.14,3.14,3.14,3.14,-3.14,3.14
232,1.97884620405936,0.96725101872235,1.7175095661129762,6.0848363444064795,2.7500316951414208,1.2373001068479734,5.924786593053725,-1.0,-3.14,3.14,3.14,3.14,-3.14,3.14
233,1.97884620405936,0.96725101872235,1.7175095661129762,6.0848363444064795,2.7500316951414208,1.2373001068479734,5.924786593053725,-1.0,-3.14,3.14,3.14,3.14,-3.14,3.14
234,1.97884620405936,0.96725101872235,1.7175095661129762,6.0848363444064795,2.7500316951414208,1.2373001068479734,5.924786593053725,-1.0,-3.14,3.14,3.14,3.14,-3.14,3.14
235,1.97884620405936,0.96725101872235,1.7175095661129762,6.0848363444064795,2.7500316951414208,1.2373001068479734,5.924786593053725,-1.0,-3.14,3.14,3.14,3.14,-3.14,3.14
236,1.97884620405936,0.96725101872235,1.7175095661129762,6.0848363444064795,2.7500316951414208,1.2373001068479734,5.924786593053725,-1.0,-3.14,3.14,3.14,3.14,-3.14,3.14
237,1.97884620405936,0.96725101872235,1.7175095661129762,6.0848363444064795,2.7500316951414208,1.2373001068479734,5.924786593053725,-1.0,-3.14,3.14,3.14,3.14,-3.14,3.14
238,1.97884620405936,0.96725101872235,1.7175095661129762,6.0848363444064795,2.7500316951414208,1.2373001068479734,5.924786593053725,-1.0,-3.14,3.14,3.14,3.14,-3.14,3.14
239,1.97884620405936,0.96725101872235,1.7175095661129762,6.0848363444064795,2.7500316951414208,1.2373001068479734,5.924786593053725,-1.0,-3.14,3.14,3.14,3.14,-3.14,3.14
240,1.97884620405936,0.96725101872235,1.7175095661129762,6.0848363444064795,2.7500316951414208,1.2373001068479734,5.924786593053725,-1.0,-3.14,3.14,3.14,3.14,-3.14,3.14
241,1.97884620405936,0.96725101872235,1.7175095661129762,6.0848363444064795,2.7500316951414208,1.2373001068479734,5.924786593053725,-1.0,-3.14,3.14,3.14,3.14,-3.14,3.14
242,1.97884620405936,0.96725101872235,1.7175095661129762,6.0848363444064795,2.7500316951414208,1.2373001068479734,5.924786593053725,-1.0,-3.14,3.14,3.14,3.14,-3.14,3.14
243,1.97884620405936,0.96725101872235,1.7175095661129762,6.0848363444064795,2.7500316951414208,1.2373001068479734,5.924786593053725,-1.0,-3.14,3.14,3.14,3.14,-3.14,3.14
244,1.97884620405936,0.96725101872235,1.7175095661129762,6.0848363444064795,2.7500316951414208,1.2373001068479734,5.924786593053725,-1.0,-3.14,3.14,3.14,3.14,-3.14,3.14
245,1.97884620405936,0.96725101872235,1.7175095661129762,6.0848363444064795,2.7500316951414208,1.2373001068479734,5.924786593053725,-1.0,-3.14,3.14,3.14,3.14,-3.14,3.14
246,1.97884620405936,0.96725101872235,1.7175095661129762,6.0848363444064795,2.7500316951414208,1.2373001068479734,5.924786593053725,-1.0,-3.14,3.14,3.14,3.14,-3.14,3.14
247,1.97884620405936,0.96725101872235,1.7175095661129762,6.0848363444064795,2.7500316951414208,1.2373001068479734,5.924786593053725,-1.0,-3.14,3.14,3.14,3.14,-3.14,3.14
248,1.97884620405936,0.96725101872235,1.7175095661129762,6.0848363444064795,2.7500316951414208,1.2373001068479734,5.924786593053725,-1.0,-3.14,3.14,3.14,3.14,-3.14,3.14
249,1.97884620405936,0.96725101872235,1.7175095661129762,6.0848363444064795,2.7500316951414208,1.2373001068479734,5.924786593053725,-1.0,-3.14,3.14,3.14,3.14,-3.14,3.14
250,1.97884620405936,0.96725101872235,1.7175095661129762,6.0848363444064795,2.7500316951414208,1.2373001068479734,5.924786593053725,-1.0,-3.14,3.14,3.14,3.14,-3.14,3.14
251,1.97884620405936,0.96725101872235,1.7175095661129762,6.0848363444064795,2.7500316951414208,1.2373001068479734,5.924786593053725,-1.0,-3.14,3.14,3.14,3.14,-3.14,3.14
252,1.97884620405936,0.96725101872235,1.7175095661129762,6.0848363444064795,2.7500316951414208,1.2373001068479734,5.924786593053725,-1.0,-3.14,3.14,3.14,3.14,-3.14,3.14
253,1.97884620405936,0.96725101872235,1.7175095661129762,6.0848363444064795,2.7500316951414208,1.2373001068479734,5.924786593053725,-1.0,-3.14,3.14,3.14,3.14,-3.14,3.14
254,1.97884620405936,0.96725101872235,1.7175095661129762,6.0848363444064795,2.7500316951414208,1.2373001068479734,5.924786593053725,-1.0,-3.14,3.14,3.14,3.14,-3.14,3.14
255,1.97884620405936,0.96725101872235,1.7175095661129762,6.0848363444064795,2.7500316951414208,1.2373001068479734,5.924786593053725,-1.0,-3.14,3.14,3.14,3.14,-3.14,3.14
256,1.97884620405936,0.96725101872235,1.7175095661129762,6.0848363444064795,2.7500316951414208,1.2373001068479734,5.924786593053725,-1.0,-3.14,3.14,3.14,3.14,-3.14,3.14
257,1.97884620405936,0.96725101872235,1.7175095661129762,6.0848363444064795,2.7500316951414208,1.2373001068479734,5.924786593053725,-1.0,-3.14,3.14,3.14,3.14,-3.14,3.14
258,1.97884620405936,0.96725101872235,1.7175095661129762,6.0848363444064795,2.7500316951414208,1.2373001068479734,5.924786593053725,-1.0,-3.14,3.14,3.14,3.14,-3.14,3.14
259,1.97884620405936,0.96725101872235,1.7175095661129762,6.0848363444064795,2.7500316951414208,1.2373001068479734,5.924786593053725,-1.0,-3.14,3.14,3.14,3.14,-3.14,3.14
260,1.97884620405936,0.96725101872235,1.7175095661129762,6.0848363444064795,2.7500316951414208,1.2373001068479734,5.924786593053725,-1.0,-3.14,3.14,3.14,3.14,-3.14,3.14
261,1.97884620405936,0.96725101872235,1.7175095661129762,6.0848363444064795,2.7500316951414208,1.2373001068479734,5.924786593053725,-1.0,-3.14,3.14,3.14,3.14,-3.14,3.14
262,1.97884620405936,0.96725101872235,1.7175095661129762,6.0848363444064795,2.7500316951414208,1.2373001068479734,5.924786593053725,-1.0,-3.14,3.14,3.14,3.14,-3.14,3.14
263,1.97884620405936,0.96725101872235,1.7175095661129762,6.0848363444064795,2.7500316951414208,1.2373001068479734,5.924786593053725,-1.0,-3.14,3.14,3.14,3.14,-3.14,3.14
264,1.97884620405936,0.96725101872235,1.7175095661129762,6.0848363444064795,2.7500316951414208,1.2373001068479734,5.924786593053725,-1.0,-3.14,3.14,3.14,3.14,-3.14,3.14
265,1.97884620405936,0.96725101872235,1.7175095661129762,6.0848363444064795,2.7500316951414208,1.2373001068479734,5.924786593053725,-1.0,-3.14,3.14,3.14,3.14,-3.14,3.14
266,1.97884620405936,0.96725101872235,1.7175095661129762,6.0848363444064795,2.7500316951414208,1.2373001068479734,5.924786593053725,-1.0,-3.14,3.14,3.14,3.14,-3.14,3.14
267,1.97884620405936,0.96725101872235,1.7175095661129762,6.0848363444064795,2.7500316951414208,1.2373001068479734,5.924786593053725,-1.0,-3.14,3.14,3.14,3.14,-3.14,3.14
268,1.97884620405936,0.96725101872235,1.7175095661129762,6.0848363444064795,2.7500316951414208,1.2373001068479734,5.924786593053725,-1.0,-3.14,3.14,3.14,3.14,-3.14,3.14
269,1.97884620405936,0.96725101872235,1.7175095661129762,6.0848363444064795,2.7500316951414208,1.2373001068479734,5.924786593053725,-1.0,-3.14,3.14,3.14,3.14,-3.14,3.14
270,1.97884620405936,0.96725101872235,1.7175095661129762,6.0848363444064795,2.7500316951414208,1.2373001068479734,5.924786593053725,-1.0,-3.14,3.14,3.14,3.14,-3.14,3.14
271,1.97884620405936,0.96725101872235,1.7175095661129762,6.0848363444064795,2.7500316951414208,1.2373001068479734,5.924786593053725,-1.0,-3.14,3.14,3.14,3.14,-3.14,3.14
272,1.97884620405936,0.96725101872235,1.7175095661129762,6.0848363444064795,2.7500316951414208,1.2373001068479734,5.924786593053725,-1.0,-3.14,3.14,3.14,3.14,-3.14,3.14
273,1.97884620405936,0.96725101872235,1.7175095661129762,6.0848363444064795,2.7500316951414208,1.2373001068479734,5.924786593053725,-1.0,-3.14,3.14,3.14,3.14,-3.14,3.14
274,1.97884620405936,0.96725101872235,1.7175095661129762,6.0848363444064795,2.7500316951414208,1.2373001068479734,5.924786593053725,-1.0,-3.14,3.14,3.14,3.14,-3.14,3.14
275,1.97884620405936,0.96725101872235,1.7175095661129762,6.0848363444064795,2.7500316951414208,1.2373001068479734,5.924786593053725,-1.0,-3.14,3.14,3.14,3.14,-3.14,3.14
276,1.97884620405936,0.96725101872235,1.7175095661129762,6.0848363444064795,2.7500316951414208,1.2373001068479734,5.924786593053725,-1.0,-3.14,3.14,3.14,3.14,-3.14,3.14
277,1.97884620405936,0.96725101872235,1.7175095661129762,6.0848363444064795,2.7500316951414208,1.2373001068479734,5.924786593053725,-1.0,-3.14,3.14,3.14,3.14,-3.14,3.14
278,1.97884620405936,0.96725101872235,1.7175095661129762,6.0848363444064795,2.7500316951414208,1.2373001068479734,5.924786593053725,-1.0,-3.14,3.14,3.14,3.14,-3.14,3.14
279,1.97884620405936,0.96725101872235,1.7175095661129762,6.0848363444064795,2.7500316951414208,1.2373001068479734,5.924786593053725,-1.0,-3.14,3.14,3.14,3.14,-3.14,3.14
280,1.97884620405936,0.96725101872235,1.7175095661129762,6.0848363444064795,2.7500316951414208,1.2373001068479734,5.924786593053725,-1.0,-3.14,3.14,3.14,3.14,-3.14,3.14
281,1.97884620405936,0.96725101872235,1.7175095661129762,6.0848363444064795,2.7500316951414208,1.2373001068479734,5.924786593053725,-1.0,-3.14,3.14,3.14,3.14,-3.14,3.14
282,1.97884620405936,0.96725101872235,1.7175095661129762,6.0848363444064795,2.7500316951414208,1.2373001068479734,5.924786593053725,-1.0,-3.14,3.14,3.14,3.14,-3.14,3.14
283,1.97884620405936,0.96725101872235,1.7175095661129762,6.0848363444064795,2.7500316951414208,1.2373001068479734,5.924786593053725,-1.0,-3.14,3.14,3.14,3.14,-3.14,3.14
284,1.97884620405936,0.96725101872235,1.7175095661129762,6.0848363444064795,2.7500316951414208,1.2373001068479734,5.924786593053725,-1.0,-3.14,3.14,3.14,3.14,-3.14,3.14
285,1.97884620405936,0.96725101872235,1.7175095661129762,6.0848363444064795,2.7500316951414208,1.2373001068479734,5.924786593053725,-1.0,-3.14,3.14,3.14,3.14,-3.14,3.14
286,1.97884620405936,0.96725101872235,1.7175095661129762,6.0848363444064795,2.7500316951414208,1.2373001068479734,5.924786593053725,-1.0,-3.14,3.14,3.14,3.14,-3.14,3.14
287,1.97884620405936,0.96725101872235,1.7175095661129762,6.0848363444064795,2.7500316951414208,1.2373001068479734,5.924786593053725,-1.0,-3.14,3.14,3.14,3.14,-3.14,3.14
288,1.97884620405936,0.96725101872235,1.7175095661129762,6.0848363444064795,2.7500316951414208,1.2373001068479734,5.924786593053725,-1.0,-3.14,3.14,3.14,3.14,-3.14,3.14
289,1.97884620405936,0.96725101872235,1.7175095661129762,6.0848363444064795,2.7500316951414208,1.2373001068479734,5.924786593053725,-1.0,-3.14,3.14,3.14,3.14,-3.14,3.14
290,1.97884620405936,0.96725101872235,1.7175095661129762,6.0848363444064795,2.7500316951414208,1.2373001068479734,5.924786593053725,-1.0,-3.14,3.14,3.14,3.14,-3.14,3.14
291,1.97884620405936,0.96725101872235,1.7175095661129762,6.0848363444064795,2.7500316951414208,1.2373001068479734,5.924786593053725,-1.0,-3.14,3.14,3.14,3.14,-3.14,3.14
292,1.97884620405936,0.96725101872235,1.7175095661129762,6.0848363444064795,2.7500316951414208,1.2373001068479734,5.924786593053725,-1.0,-3.14,3.14,3.14,3.14,-3.14,3.14
293,1.97884620405936,0.96725101872235,1.7175095661129762,6.0848363444064795,2.7500316951414208,1.2373001068479734,5.924786593053725,-1.0,-3.14,3.14,3.14,3.14,-3.14,3.14
294,1.97884620405936,0.96725101872235,1.7175095661129762,6.0848363444064795,2.7500316951414208,1.2373001068479734,5.924786593053725,-1.0,-3.14,3.14,3.14,3.14,-3.14,3.14
295,1.97884620405936,0.96725101872235,1.7175095661129762,6.0848363444064795,2.7500316951414208,1.2373001068479734,5.924786593053725,-1.0,-3.14,3.14,3.14,3.14,-3.14,3.14
296,1.97884620405936,0.96725101872235,1.7175095661129762,6.0848363444064795,2.7500316951414208,1.2373001068479734,5.924786593053725,-1.0,-3.14,3.14,3.14,3.14,-3.14,3.14
297,1.97884620405936,0.96725101872235,1.7175095661129762,6.0848363444064795,2.7500316951414208,1.2373001068479734,5.924786593053725,-1.0,-3.14,3.14,3.14,3.14,-3.14,3.14
298,1.97884620405936,0.96725101872235,1.7175095661129762,6.0848363444064795,2.7500316951414208,1.2373001068479734,5.924786593053725,-1.0,-3.14,3.14,3.14,3.14,-3.14,3.14
299,1.97884620405936,0.96725101872235,1.7175095661129762,6.0848363444064795,2.7500316951414208,1.2373001068479734,5.924786593053725,-1.0,-3.14,3.14,3.14,3.14,-3.14,3.14
300,1.97884620405936,0.96725101872235,1.7175095661129762,6.0848363444064795,2.7500316951414208,1.2373001068479734,5.924786593053725,-1.0,-3.14,3.14,3.14,3.14,-3.14,3.14
301,1.97884620405936,0.96725101872235,1.7175095661129762,6.0848363444064795,2.7500316951414208,1.2373001068479734,5.924786593053725,-1.0,-3.14,3.14,3.14,3.14,-3.14,3.14
302,1.97884620405936,0.96725101872235,1.7175095661129762,6.0848363444064795,2.7500316951414208,1.2373001068479734,5.924786593053725,-1.0,-3.14,3.14,3.14,3.14,-3.14,3.14
303,1.97884620405936,0.96725101872235,1.7175095661129762,6.0848363444064795,2.7500316951414208,1.2373001068479734,5.924786593053725,-1.0,-3.14,3.14,3.14,3.14,-3.14,3.14
304,1.97884620405936,0.96725101872235,1.7175095661129762,6.0848363444064795,2.7500316951414208,1.2373001068479734,5.924786593053725,-1.0,-3.14,3.14,3.14,3.14,-3.14,3.14
305,1.97884620405936,0.96725101872235,1.7175095661129762,6.0848363444064795,2.7500316951414208,1.2373001068479734,5.924786593053725,-1.0,-3.14,3.14,3.14,3.14,-3.14,3.14
306,1.97884620405936,0.96725101872235,1.7175095661129762,6.0848363444064795,2.7500316951414208,1.2373001068479734,5.924786593053725,-1.0,-3.14,3.14,3.14,3.14,-3.14,3.14
307,1.97884620405936,0.96725101872235,1.7175095661129762,6.0848363444064795,2.7500316951414208,1.2373001068479734,5.924786593053725,-1.0,-3.14,3.14,3.14,3.14,-3.14,3.14
308,1.97884620405936,0.96725101872235,1.7175095661129762,6.0848363444064795,2.7500316951414208,1.2373001068479734,5.924786593053725,-1.0,-3.14,3.14,3.14,3.14,-3.14,3.14
309,1.97884620405936,0.96725101872235,1.7175095661129762,6.0848363444064795,2.7500316951414208,1.2373001068479734,5.924786593053725,-1.0,-3.14,3.14,3.14,3.14,-3.14,3.14
310,1.97884620405936,0.96725101872235,1.7175095661129762,6.0848363444064795,2.7500316951414208,1.2373001068479734,5.924786593053725,-1.0,-3.14,3.14,3.14,3.14,-3.14,3.14
311,1.97884620405936,0.96725101872235,1.7175095661129762,6.0848363444064795,2.7500316951414208,1.2373001068479734,5.924786593053725,-1.0,-3.14,3.14,3.14,3.14,-3.14,3.14
312,1.97884620405936,0.96725101872235,1.7175095661129762,6.0848363444064795,2.7500316951414208,1.2373001068479734,5.924786593053725,-1.0,-3.14,3.14,3.14,3.14,-3.14,3.14
313,1.97884620405936,0.96725101872235,1.7175095661129762,6.0848363444064795,2.7500316951414208,1.2373001068479734,5.924786593053725,-1.0,-3.14,3.14,3.14,3.14,-3.14,3.14
314,1.97884620405936,0.96725101872235,1.7175095661129762,6.0848363444064795,2.7500316951414208,1.2373001068479734,5.924786593053725,-1.0,-3.14,3.14,3.14,3.14,-3.14,3.14
315,1.97884620405936,0.96725101872235,1.7175095661129762,6.0848363444064795,2.7500316951414208,1.2373001068479734,5.924786593053725,-1.0,-3.14,3.14,3.14,3.14,-3.14,3.14
316,1.97884620405936,0.96725101872235,1.7175095661129762,6.0848363444064795,2.7500316951414208,1.2373001068479734,5.924786593053725,-1.0,-3.14,3.14,3.14,3.14,-3.14,3.14
317,1.97884620405936,0.96725101872235,1.7175095661129762,6.0848363444064795,2.7500316951414208,1.2373001068479734,5.924786593053725,-1.0,-3.14,3.14,3.14,3.14,-3.14,3.14
318,1.97884620405936,0.96725101872235,1.7175095661129762,6.0848363444064795,2.7500316951414208,1.2373001068479734,5.924786593053725,-1.0,-3.14,3.14,3.14,3.14,-3.14,3.14
319,1.97884620405936,0.96725101872235,1.7175095661129762,6.0848363444064795,2.7500316951414208,1.2373001068479734,5.924786593053725,-1.0,-3.14,3.14,3.14,3.14,-3.14,3.14
320,1.97884620405936,0.96725101872235,1.7175095661129762,6.0848363444064795,2.7500316951414208,1.2373001068479734,5.924786593053725,-1.0,-3.14,3.14,3.14,3.14,-3.14,3.14
321,1.97884620405936,0.96725101872235,1.7175095661129762,6.0848363444064795,2.7500316951414208,1.2373001068479734,5.924786593053725,-1.0,-3.14,3.14,3.14,3.14,-3.14,3.14
322,1.97884620405936,0.96725101872235,1.7175095661129762,6.0848363444064795,2.7500316951414208,1.2373001068479734,5.924786593053725,-1.0,-3.14,3.14,3.14,3.14,-3.14,3.14
323,1.97884620405936,0.96725101872235,1.7175095661129762,6.0848363444064795,2.7500316951414208,1.2373001068479734,5.924786593053725,-1.0,-3.14,3.14,3.14,3.14,-3.14,3.14
324,1.97884620405936,0.96725101872235,1.7175095661129762,6.0848363444064795,2.7500316951414208,1.2373001068479734,5.924786593053725,-1.0,-3.14,3.14,3.14,3.14,-3.14,3.14
325,1.97884620405936,0.96725101872235,1.7175095661129762,6.0848363444064795,2.7500316951414208,1.2373001068479734,5.924786593053725,-1.0,-3.14,3.14,3.14,3.14,-3.14,3.14
326,1.97884620405936,0.96725101872235,1.7175095661129762,6.0848363444064795,2.7500316951414208,1.2373001068479734,5.924786593053725,-1.0,-3.14,3.14,3.14,3.14,-3.14,3.14
327,1.97884620405936,0.96725101872235,1.7175095661129762,6.0848363444064795,2.7500316951414208,1.2373001068479734,5.924786593053725,-1.0,-3.14,3.14,3.14,3.14,-3.14,3.14
328,1.97884620405936,0.96725101872235,1.7175095661129762,6.0848363444064795,2.7500316951414208,1.2373001068479734,5.924786593053725,-1.0,-3.14,3.14,3.14,3.14,-3.14,3.14
329,1.97884620405936,0.96725101872235,1.7175095661129762,6.0848363444064795,2.7500316951414208,1.2373001068479734,5.924786593053725,-1.0,-3.14,3.14,3.14,3.14,-3.14,3.14
330,1.97884620405936,0.96725101872235,1.7175095661129762,6.0848363444064795,2.7500316951414208,1.2373001068479734,5.924786593053725,-1.0,-3.14,3.14,3.14,3.14,-3.14,3.14
331,1.97884620405936,0.96725101872235,1.7175095661129762,6.0848363444064795,2.7500316951414208,1.2373001068479734,5.924786593053725,-1.0,-3.14,3.14,3.14,3.14,-3.14,3.14
332,1.97884620405936,0.96725101872235,1.7175095661129762,6.0848363444064795,2.7500316951414208,1.2373001068479734,5.924786593053725,-1.0,-3.14,3.14,3.14,3.14,-3.14,3.14
333,1.97884620405936,0.96725101872235,1.7175095661129762,6.0848363444064795,2.7500316951414208,1.2373001068479734,5.924786593053725,-1.0,-3.14,3.14,3.14,3.14,-3.14,3.14
334,1.97884620405936,0.96725101872235,1.7175095661129762,6.0848363444064795,2.7500316951414208,1.2373001068479734,5.924786593053725,-1.0,-3.14,3.14,3.14,3.14,-3.14,3.14
335,1.97884620405936,0.96725101872235,1.7175095661129762,6.0848363444064795,2.7500316951414208,1.2373001068479734,5.924786593053725,-1.0,-3.14,3.14,3.14,3.14,-3.14,3.14
336,1.97884620405936,0.96725101872235,1.7175095661129762,6.0848363444064795,2.7500316951414208,1.2373001068479734,5.924786593053725,-1.0,-3.14,3.14,3.14,3.14,-3.14,3.14
337,1.97884620405936,0.96725101872235,1.7175095661129762,6.0848363444064795,2.7500316951414208,1.2373001068479734,5.924786593053725,-1.0,-3.14,3.14,3.14,3.14,-3.14,3.14
338,1.97884620405936,0.96725101872235,1.7175095661129762,6.0848363444064795,2.7500316951414208,1.2373001068479734,5.924786593053725,-1.0,-3.14,3.14,3.14,3.14,-3.14,3.14
339,1.97884620405936,0.96725101872235,1.7175095661129762,6.0848363444064795,2.7500316951414208,1.2373001068479734,5.924786593053725,-1.0,-3.14,3.14,3.14,3.14,-3.14,3.14
340,1.97884620405936,0.96725101872235,1.7175095661129762,6.0848363444064795,2.7500316951414208,1.2373001068479734,5.924786593053725,-1.0,-3.14,3.14,3.14,3.14,-3.14,3.14
341,1.97884620405936,0.96725101872235,1.7175095661129762,6.0848363444064795,2.7500316951414208,1.2373001068479734,5.924786593053725,-1.0,-3.14,3.14,3.14,3.14,-3.14,3.14
342,1.97884620405936,0.96725101872235,1.7175095661129762,6.0848363444064795,2.7500316951414208,1.2373001068479734,5.924786593053725,-1.0,-3.14,3.14,3.14,3.14,-3.14,3.14
343,1.97884620405936,0.96725101872235,1.7175095661129762,6.0848363444064795,2.7500316951414208,1.2373001068479734,5.924786593053725,-1.0,-3.14,3.14,3.14,3.14,-3.14,3.14
344,1.97884620405936,0.96725101872235,1.7175095661129762,6.0848363444064795,2.7500316951414208,1.2373001068479734,5.924786593053725,-1.0,-3.14,3.14,3.14,3.14,-3.14,3.14
345,1.97884620405936,0.96725101872235,1.7175095661129762,6.0848363444064795,2.7500316951414208,1.2373001068479734,5.924786593053725,-1.0,-3.14,3.14,3.14,3.14,-3.14,3.14
346,1.97884620405936,0.96725101872235,1.7175095661129762,6.0848363444064795,2.7500316951414208,1.2373001068479734,5.924786593053725,-1.0,-3.14,3.14,3.14,3.14,-3.14,3.14
347,1.97884620405936,0.96725101872235,1.7175095661129762,6.0848363444064795,2.7500316951414208,1.2373001068479734,5.924786593053725,-1.0,-3.14,3.14,3.14,3.14,-3.14,3.14
348,1.97884620405936,0.96725101872235,1.7175095661129762,6.0848363444064795,2.7500316951414208,1.2373001068479734,5.924786593053725,-1.0,-3.14,3.14,3.14,3.14,-3.14,3.14
349,1.97884620405936,0.96725101872235,1.7175095661129762,6.0848363444064795,2.7500316951414208,1.2373001068479734,5.924786593053725,-1.0,-3.14,3.14,3.14,3.14,-3.14,3.14
350,1.97884620405936,0.96725101872235,1.7175095661129762,6.0848363444064795,2.7500316951414208,1.2373001068479734,5.924786593053725,-1.0,-3.14,3.14,3.14,3.14,-3.14,3.14
351,1.97884620405936,0.96725101872235,1.7175095661129762,6.0848363444064795,2.7500316951414208,1.2373001068479734,5.924786593053725,-1.0,-3.14,3.14,3.14,3.14,-3.14,3.14
352,1.97884620405936,0.96725101872235,1.7175095661129762,6.0848363444064795,2.7500316951414208,1.2373001068479734,5.924786593053725,-1.0,-3.14,3.14,3.14,3.14,-3.14,3.14
353,1.97884620405936,0.96725101872235,1.7175095661129762,6.0848363444064795,2.7500316951414208,1.2373001068479734,5.924786593053725,-1.0,-3.14,3.14,3.14,3.14,-3.14,3.14
354,1.97884620405936,0.96725101872235,1.7175095661129762,6.0848363444064795,2.7500316951414208,1.2373001068479734,5.924786593053725,-1.0,-3.14,3.14,3.14,3.14,-3.14,3.14
355,1.97884620405936,0.96725101872235,1.7175095661129762,6.0848363444064795,2.7500316951414208,1.2373001068479734,5.924786593053725,-1.0,-3.14,3.14,3.14,3.14,-3.14,3.14
356,1.97884620405936,0.96725101872235,1.7175095661129762,6.0848363444064795,2.7500316951414208,1.2373001068479734,5.924786593053725,-1.0,-3.14,3.14,3.14,3.14,-3.14,3.14
357,1.97884620405936,0.96725101872235,1.7175095661129762,6.0848363444064795,2.7500316951414208,1.2373001068479734,5.924786593053725,-1.0,-3.14,3.14,3.14,3.14,-3.14,3.14
358,1.97884620405936,0.96725101872235,1.7175095661129762,6.0848363444064795,2.7500316951414208,1.2373001068479734,5.924786593053725,-1.0,-3.14,3.14,3.14,3.14,-3.14,3.14
359,1.97884620405936,0.96725101872235,1.7175095661129762,6.0848363444064795,2.7500316951414208,1.2373001068479734,5.924786593053725,-1.0,-3.14,3.14,3.14,3.14,-3.14,3.14
360,1.97884620405936,0.96725101872235,1.7175095661129762,6.0848363444064795,2.7500316951414208,1.2373001068479734,5.924786593053725,-1.0,-3.14,3.14,3.14,3.14,-3.14,3.14
361,1.97884620405936,0.96725101872235,1.7175095661129762,6.0848363444064795,2.7500316951414208,1.2373001068479734,5.924786593053725,-1.0,-3.14,3.14,3.14,3.14,-3.14,3.14
362,1.97884620405936,0.96725101872235,1.7175095661129762,6.0848363444064795,2.7500316951414208,1.2373001068479734,5.924786593053725,-1.0,-3.14,3.14,3.14,3.14,-3.14,3.14
363,1.97884620405936,0.96725101872235,1.7175095661129762,6.0848363444064795,2.7500316951414208,1.2373001068479734,5.924786593053725,-1.0,-3.14,3.14,3.14,3.14,-3.14,3.14
364,1.97884620405936,0.96725101872235,1.7175095661129762,6.0848363444064795,2.7500316951414208,1.2373001068479734,5.924786593053725,-1.0,-3.14,3.14,3.14,3.14,-3.14,3.14
365,1.97884620405936,0.96725101872235,1.7175095661129762,6.0848363444064795,2.7500316951414208,1.2373001068479734,5.924786593053725,-1.0,-3.14,3.14,3.14,3.14,-3.14,3.14
366,1.97884620405936,0.96725101872235,1.7175095661129762,6.0848363444064795,2.7500316951414208,1.2373001068479734,5.924786593053725,-1.0,-3.14,3.14,3.14,3.14,-3.14,3.14
367,1.97884620405936,0.96725101872235,1.7175095661129762,6.0848363444064795,2.7500316951414208,1.2373001068479734,5.924786593053725,-1.0,-3.14,3.14,3.14,3.14,-3.14,3.14
368,1.97884620405936,0.96725101872235,1.7175095661129762,6.0848363444064795,2.7500316951414208,1.2373001068479734,5.924786593053725,-1.0,-3.14,3.14,3.14,3.14,-3.14,3.14
369,1.97884620405936,0.96725101872235,1.7175095661129762,6.0848363444064795,2.7500316951414208,1.2373001068479734,5.924786593053725,-1.0,-3.14,3.14,3.14,3.14,-3.14,3.14
370,1.97884620405936,0.96725101872235,1.7175095661129762,6.0848363444064795,2.7500316951414208,1.2373001068479734,5.924786593053725,-1.0,-3.14,3.14,3.14,3.14,-3.14,3.14
371,1.97884620405936,0.96725101872235,1.7175095661129762,6.0848363444064795,2.7500316951414208,1.2373001068479734,5.924786593053725,-1.0,-3.14,3.14,3.14,3.14,-3.14,3.14
372,1.97884620405936,0.96725101872235,1.7175095661129762,6.0848363444064795,2.7500316951414208,1.2373001068479734,5.924786593053725,-1.0,-3.14,3.14,3.14,3.14,-3.14,3.14
373,1.97884620405936,0.96725101872235,1.7175095661129762,6.0848363444064795,2.7500316951414208,1.2373001068479734,5.924786593053725,-1.0,-3.14,3.14,3.14,3.14,-3.14,3.14
374,1.97884620405936,0.96725101872235,1.7175095661129762,6.0848363444064795,2.7500316951414208,1.2373001068479734,5.924786593053725,-1.0,-3.14,3.14,3.14,3.14,-3.14,3.14
375,1.97884620405936,0.96725101872235,1.7175095661129762,6.0848363444064795,2.7500316951414208,1.2373001068479734,5.924786593053725,-1.0,-3.14,3.14,3.14,3.14,-3.14,3.14
376,1.97884620405936,0.96725101872235,1.7175095661129762,6.0848363444064795,2.7500316951414208,1.2373001068479734,5.924786593053725,-1.0,-3.14,3.14,3.14,3.14,-3.14,3.14
377,1.97884620405936,0.96725101872235,1.7175095661129762,6.0848363444064795,2.7500316951414208,1.2373001068479734,5.924786593053725,-1.0,-3.14,3.14,3.14,3.14,-3.14,3.14
378,1.97884620405936,0.96725101872235,1.7175095661129762,6.0848363444064795,2.7500316951414208,1.2373001068479734,5.924786593053725,-1.0,-3.14,3.14,3.14,3.14,-3.14,3.14
379,1.97884620405936,0.96725101872235,1.7175095661129762,6.0848363444064795,2.7500316951414208,1.2373001068479734,5.924786593053725,-1.0,-3.14,3.14,3.14,3.14,-3.14,3.14
380,1.97884620405936,0.96725101872235,1.7175095661129762,6.0848363444064795,2.7500316951414208,1.2373001068479734,5.924786593053725,-1.0,-3.14,3.14,3.14,3.14,-3.14,3.14
381,1.97884620405936,0.96725101872235,1.7175095661129762,6.0848363444064795,2.7500316951414208,1.2373001068479734,5.924786593053725,-1.0,-3.14,3.14,3.14,3.14,-3.14,3.14
382,1.97884620405936,0.96725101872235,1.7175095661129762,6.0848363444064795,2.7500316951414208,1.2373001068479734,5.924786593053725,-1.0,-3.14,3.14,3.14,3.14,-3.14,3.14
383,1.97884620405936,0.96725101872235,1.7175095661129762,6.0848363444064795,2.7500316951414208,1.2373001068479734,5.924786593053725,-1.0,-3.14,3.14,3.14,3.14,-3.14,3.14
384,1.97884620405936,0.96725101872235,1.7175095661129762,6.0848363444064795,2.7500316951414208,1.2373001068479734,5.924786593053725,-1.0,-3.14,3.14,3.14,3.14,-3.14,3.14
385,1.97884620405936,0.96725101872235,1.7175095661129762,6.0848363444064795,2.7500316951414208,1.2373001068479734,5.924786593053725,-1.0,-3.14,3.14,3.14,3.14,-3.14,3.14
386,1.97884620405936,0.96725101872235,1.7175095661129762,6.0848363444064795,2.7500316951414208,1.2373001068479734,5.924786593053725,-1.0,-3.14,3.14,3.14,3.14,-3.14,3.14
387,1.97884620405936,0.96725101872235,1.7175095661129762,6.0848363444064795,2.7500316951414208,1.2373001068479734,5.924786593053725,-1.0,-3.14,3.14,3.14,3.14,-3.14,3.14
388,1.97884620405936,0.96725101872235,1.7175095661129762,6.0848363444064795,2.7500316951414208,1.2373001068479734,5.924786593053725,-1.0,-3.14,3.14,3.14,3.14,-3.14,3.14
389,1.97884620405936,0.96725101872235,1.7175095661129762,6.0848363444064795,2.7500316951414208,1.2373001068479734,5.924786593053725,-1.0,-3.14,3.14,3.14,3.14,-3.14,3.14
390,1.97884620405936,0.96725101872235,1.7175095661129762,6.0848363444064795,2.7500316951414208,1.2373001068479734,5.924786593053725,-1.0,-3.14,3.14,3.14,3.14,-3.14,3.14
391,1.97884620405936,0.96725101872235,1.7175095661129762,6.0848363444064795,2.7500316951414208,1.2373001068479734,5.924786593053725,-1.0,-3.14,3.14,3.14,3.14,-3.14,3.14
392,1.97884620405936,0.96725101872235,1.7175095661129762,6.0848363444064795,2.7500316951414208,1.2373001068479734,5.924786593053725,-1.0,-3.14,3.14,3.14,3.14,-3.14,3.14
393,1.97884620405936,0.96725101872235,1.7175095661129762,6.0848363444064795,2.7500316951414208,1.2373001068479734,5.924786593053725,-1.0,-3.14,3.14,3.14,3.14,-3.14,3.14
394,1.97884620405936,0.96725101872235,1.7175095661129762,6.0848363444064795,2.7500316951414208,1.2373001068479734,5.924786593053725,-1.0,-3.14,3.14,3.14,3.14,-3.14,3.14
395,1.97884620405936,0.96725101872235,1.7175095661129762,6.0848363444064795,2.7500316951414208,1.2373001068479734,5.924786593053725,-1.0,-3.14,3.14,3.14,3.14,-3.14,3.14
396,1.97884620405936,0.96725101872235,1.7175095661129762,6.0848363444064795,2.7500316951414208,1.2373001068479734,5.924786593053725,-1.0,-3.14,3.14,3.14,3.14,-3.14,3.14
397,1.97884620405936,0.96725101872235,1.7175095661129762,6.0848363444064795,2.7500316951414208,1.2373001068479734,5.924786593053725,-1.0,-3.14,3.14,3.14,3.14,-3.14,3.14
398,1.97884620405936,0.96725101872235,1.7175095661129762,6.0848363444064795,2.7500316951414208,1.2373001068479734,5.924786593053725,-1.0,-3.14,3.14,3.14,3.14,-3.14,3.14
399,1.97884620405936,0.96725101872235,1.7175095661129762,6.0848363444064795,2.7500316951414208,1.2373001068479734,5.924786593053725,-1.0,-3.14,3.14,3.14,3.14,-3.14,3.14
400,1.97884620405936,0.96725101872235,1.7175095661129762,6.0848363444064795,2.7500316951414208,1.2373001068479734,5.924786593053725,-1.0,-3.14,3.14,3.14,3.14,-3.14,3.14
401,1.97884620405936,0.96725101872235,1.7175095661129762,6.0848363444064795,2.7500316951414208,1.2373001068479734,5.924786593053725,-1.0,-3.14,3.14,3.14,3.14,-3.14,3.14
402,1.97884620405936,0.96725101872235,1.7175095661129762,6.0848363444064795,2.7500316951414208,1.2373001068479734,5.924786593053725,-1.0,-3.14,3.14,3.14,3.14,-3.14,3.14
403,1.97884620405936,0.96725101872235,1.7175095661129762,6.0848363444064795,2.7500316951414208,1.2373001068479734,5.924786593053725,-1.0,-3.14,3.14,3.14,3.14,-3.14,3.14
404,1.97884620405936,0.96725101872235,1.7175095661129762,6.0848363444064795,2.7500316951414208,1.2373001068479734,5.924786593053725,-1.0,-3.14,3.14,3.14,3.14,-3.14,3.14
405,1.97884620405936,0.96725101872235,1.7175095661129762,6.0848363444064795,2.7500316951414208,1.2373001068479734,5.924786593053725,-1.0,-3.14,3.14,3.14,3.14,-3.14,3.14
406,1.97884620405936,0.96725101872235,1.7175095661129762,6.0848363444064795,2.7500316951414208,1.2373001068479734,5.924786593053725,-1.0,-3.14,3.14,3.14,3.14,-3.14,3.14
407,1.97884620405936,0.96725101872235,1.7175095661129762,6.0848363444064795,2.7500316951414208,1.2373001068479734,5.924786593053725,-1.0,-3.14,3.14,3.14,3.14,-3.14,3.14
408,1.97884620405936,0.96725101872235,1.7175095661129762,6.0848363444064795,2.7500316951414208,1.2373001068479734,5.924786593053725,-1.0,-3.14,3.14,3.14,3.14,-3.14,3.14
409,1.97884620405936,0.96725101872235,1.7175095661129762,6.0848363444064795,2.7500316951414208,1.2373001068479734,5.924786593053725,-1.0,-3.14,3.14,3.14,3.14,-3.14,3.14
410,1.97884620405936,0.96725101872235,1.7175095661129762,6.0848363444064795,2.7500316951414208,1.2373001068479734,5.924786593053725,-1.0,-3.14,3.14,3.14,3.14,-3.14,3.14
411,1.97884620405936,0.96725101872235,1.7175095661129762,6.0848363444064795,2.7500316951414208,1.2373001068479734,5.924786593053725,-1.0,-3.14,3.14,3.14,3.14,-3.14,3.14
412,1.97884620405936,0.96725101872235,1.7175095661129762,6.0848363444064795,2.7500316951414208,1.2373001068479734,5.924786593053725,-1.0,-3.14,3.14,3.14,3.14,-3.14,3.14
413,1.97884620405936,0.96725101872235,1.7175095661129762,6.0848363444064795,2.7500316951414208,1.2373001068479734,5.924786593053725,-1.0,-3.14,3.14,3.14,3.14,-3.14,3.14
414,1.97884620405936,0.96725101872235,1.7175095661129762,6.0848363444064795,2.7500316951414208,1.2373001068479734,5.924786593053725,-1.0,-3.14,3.14,3.14,3.14,-3.14,3.14
415,1.97884620405936,0.96725101872235,1.7175095661129762,6.0848363444064795,2.7500316951414208,1.2373001068479734,5.924786593053725,-1.0,-3.14,3.14,3.14,3.14,-3.14,3.14
416,1.97884620405936,0.96725101872235,1.7175095661129762,6.0848363444064795,2.7500316951414208,1.2373001068479734,5.924786593053725,-1.0,-3.14,3.14,3.14,3.14,-3.14,3.14
417,1.97884620405936,0.96725101872235,1.7175095661129762,6.0848363444064795,2.7500316951414208,1.2373001068479734,5.924786593053725,-1.0,-3.14,3.14,3.14,3.14,-3.14,3.14
418,1.97884620405936,0.96725101872235,1.7175095661129762,6.0848363444064795,2.7500316951414208,1.2373001068479734,5.924786593053725,-1.0,-3.14,3.14,3.14,3.14,-3.14,3.14
419,1.97884620405936,0.96725101872235,1.7175095661129762,6.0848363444064795,2.7500316951414208,1.2373001068479734,5.924786593053725,-1.0,-3.14,3.14,3.14,3.14,-3.14,3.14
420,1.97884620405936,0.96725101872235,1.7175095661129762,6.0848363444064795,2.7500316951414208,1.2373001068479734,5.924786593053725,-1.0,-3.14,3.14,3.14,3.14,-3.14,3.14
421,1.97884620405936,0.96725101872235,1.7175095661129762,6.0848363444064795,2.7500316951414208,1.2373001068479734,5.924786593053725,-1.0,-3.14,3.14,3.14,3.14,-3.14,3.14
422,1.97884620405936,0.96725101872235,1.7175095661129762,6.0848363444064795,2.7500316951414208,1.2373001068479734,5.924786593053725,-1.0,-3.14,3.14,3.14,3.14,-3.14,3.14
423,1.97884620405936,0.96725101872235,1.7175095661129762,6.0848363444064795,2.7500316951414208,1.2373001068479734,5.924786593053725,-1.0,-3.14,3.14,3.14,3.14,-3.14,3.14
424,1.97884620405936,0.96725101872235,1.7175095661129762,6.0848363444064795,2.7500316951414208,1.2373001068479734,5.924786593053725,-1.0,-3.14,3.14,3.14,3.14,-3.14,3.14
425,1.97884620405936,0.96725101872235,1.7175095661129762,6.0848363444064795,2.7500316951414208,1.2373001068479734,5.924786593053725,-1.0,-3.14,3.14,3.14,3.14,-3.14,3.14
426,1.97884620405936,0.96725101872235,1.7175095661129762,6.0848363444064795,2.7500316951414208,1.2373001068479734,5.924786593053725,-1.0,-3.14,3.14,3.14,3.14,-3.14,3.14
427,1.97884620405936,0.96725101872235,1.7175095661129762,6.0848363444064795,2.7500316951414208,1.2373001068479734,5.924786593053725,-1.0,-3.14,3.14,3.14,3.14,-3.14,3.14
428,1.97884620405936,0.96725101872235,1.7175095661129762,6.0848363444064795,2.7500316951414208,1.2373001068479734,5.924786593053725,-1.0,-3.14,3.14,3.14,3.14,-3.14,3.14
429,1.97884620405936,0.96725101872235,1.7175095661129762,6.0848363444064795,2.7500316951414208,1.2373001068479734,5.924786593053725,-1.0,-3.14,3.14,3.14,3.14,-3.14,3.14
430,1.97884620405936,0.96725101872235,1.7175095661129762,6.0848363444064795,2.7500316951414208,1.2373001068479734,5.924786593053725,-1.0,-3.14,3.14,3.14,3.14,-3.14,3.14
431,1.97884620405936,0.96725101872235,1.7175095661129762,6.0848363444064795,2.7500316951414208,1.2373001068479734,5.924786593053725,-1.0,-3.14,3.14,3.14,3.14,-3.14,3.14
432,1.97884620405936,0.96725101872235,1.7175095661129762,6.0848363444064795,2.7500316951414208,1.2373001068479734,5.924786593053725,-1.0,-3.14,3.14,3.14,3.14,-3.14,3.14
433,1.97884620405936,0.96725101872235,1.7175095661129762,6.0848363444064795,2.7500316951414208,1.2373001068479734,5.924786593053725,-1.0,-3.14,3.14,3.14,3.14,-3.14,3.14
434,1.97884620405936,0.96725101872235,1.7175095661129762,6.0848363444064795,2.7500316951414208,1.2373001068479734,5.924786593053725,-1.0,-3.14,3.14,3.14,3.14,-3.14,3.14
435,1.97884620405936,0.96725101872235,1.7175095661129762,6.0848363444064795,2.7500316951414208,1.2373001068479734,5.924786593053725,-1.0,-3.14,3.14,3.14,3.14,-3.14,3.14
436,1.97884620405936,0.96725101872235,1.7175095661129762,6.0848363444064795,2.7500316951414208,1.2373001068479734,5.924786593053725,-1.0,-3.14,3.14,3.14,3.14,-3.14,3.14
437,1.97884620405936,0.96725101872235,1.7175095661129762,6.0848363444064795,2.7500316951414208,1.2373001068479734,5.924786593053725,-1.0,-3.14,3.14,3.14,3.14,-3.14,3.14
438,1.97884620405936,0.96725101872235,1.7175095661129762,6.0848363444064795,2.7500316951414208,1.2373001068479734,5.924786593053725,-1.0,-3.14,3.14,3.14,3.14,-3.14,3.14
439,1.97884620405936,0.96725101872235,1.7175095661129762,6.0848363444064795,2.7500316951414208,1.2373001068479734,5.924786593053725,-1.0,-3.14,3.14,3.14,3.14,-3.14,3.14
440,1.97884620405936,0.96725101872235,1.7175095661129762,6.0848363444064795,2.7500316951414208,1.2373001068479734,5.924786593053725,-1.0,-3.14,3.14,3.14,3.14,-3.14,3.14
441,1.97884620405936,0.96725101872235,1.7175095661129762,6.0848363444064795,2.7500316951414208,1.2373001068479734,5.924786593053725,-1.0,-3.14,3.14,3.14,3.14,-3.14,3.14
442,1.97884620405936,0.96725101872235,1.7175095661129762,6.0848363444064795,2.7500316951414208,1.2373001068479734,5.924786593053725,-1.0,-3.14,3.14,3.14,3.14,-3.14,3.14
443,1.97884620405936,0.96725101872235,1.7175095661129762,6.0848363444064795,2.7500316951414208,1.2373001068479734,5.924786593053725,-1.0,-3.14,3.14,3.14,3.14,-3.14,3.14
444,1.97884620405936,0.96725101872235,1.7175095661129762,6.0848363444064795,2.7500316951414208,1.2373001068479734,5.924786593053725,-1.0,-3.14,3.14,3.14,3.14,-3.14,3.14
445,1.97884620405936,0.96725101872235,1.7175095661129762,6.0848363444064795,2.7500316951414208,1.2373001068479734,5.924786593053725,-1.0,-3.14,3.14,3.14,3.14,-3.14,3.14
446,1.97884620405936,0.96725101872235,1.7175095661129762,6.0848363444064795,2.7500316951414208,1.2373001068479734,5.924786593053725,-1.0,-3.14,3.14,3.14,3.14,-3.14,3.14
447,1.97884620405936,0.96725101872235,1.7175095661129762,6.0848363444064795,2.7500316951414208,1.2373001068479734,5.924786593053725,-1.0,-3.14,3.14,3.14,3.14,-3.14,3.14
448,1.97884620405936,0.96725101872235,1.7175095661129762,6.0848363444064795,2.7500316951414208,1.2373001068479734,5.924786593053725,-1.0,-3.14,3.14,3.14,3.14,-3.14,3.14
449,1.97884620405936,0.96725101872235,1.7175095661129762,6.0848363444064795,2.7500316951414208,1.2373001068479734,5.924786593053725,-1.0,-3.14,3.14,3.14,3.14,-3.14,3.14
450,1.97884620405936,0.96725101872235,1.7175095661129762,6.0848363444064795,2.7500316951414208,1.2373001068479734,5.924786593053725,-1.0,-3.14,3.14,3.14,3.14,-3.14,3.14
451,1.97884620405936,0.96725101872235,1.7175095661129762,6.0848363444064795,2.7500316951414208,1.2373001068479734,5.924786593053725,-1.0,-3.14,3.14,3.14,3.14,-3.14,3.14
452,1.97884620405936,0.96725101872235,1.7175095661129762,6.0848363444064795,2.7500316951414208,1.2373001068479734,5.924786593053725,-1.0,-3.14,3.14,3.14,3.14,-3.14,3.14
453,1.97884620405936,0.96725101872235,1.7175095661129762,6.0848363444064795,2.7500316951414208,1.2373001068479734,5.924786593053725,-1.0,-3.14,3.14,3.14,3.14,-3.14,3.14
454,1.97884620405936,0.96725101872235,1.7175095661129762,6.0848363444064795,2.7500316951414208,1.2373001068479734,5.924786593053725,-1.0,-3.14,3.14,3.14,3.14,-3.14,3.14
455,1.97884620405936,0.96725101872235,1.7175095661129762,6.0848363444064795,2.7500316951414208,1.2373001068479734,5.924786593053725,-1.0,-3.14,3.14,3.14,3.14,-3.14,3.14
456,1.97884620405936,0.96725101872235,1.7175095661129762,6.0848363444064795,2.7500316951414208,1.2373001068479734,5.924786593053725,-1.0,-3.14,3.14,3.14,3.14,-3.14,3.14
457,1.97884620405936,0.96725101872235,1.7175095661129762,6.0848363444064795,2.7500316951414208,1.2373001068479734,5.924786593053725,-1.0,-3.14,3.14,3.14,3.14,-3.14,3.14
458,1.97884620405936,0.96725101872235,1.7175095661129762,6.0848363444064795,2.7500316951414208,1.2373001068479734,5.924786593053725,-1.0,-3.14,3.14,3.14,3.14,-3.14,3.14
459,1.97884620405936,0.96725101872235,1.7175095661129762,6.0848363444064795,2.7500316951414208,1.2373001068479734,5.924786593053725,-1.0,-3.14,3.14,3.14,3.14,-3.14,3.14
460,1.97884620405936,0.96725101872235,1.7175095661129762,6.0848363444064795,2.7500316951414208,1.2373001068479734,5.924786593053725,-1.0,-3.14,3.14,3.14,3.14,-3.14,3.14
461,1.97884620405936,0.96725101872235,1.7175095661129762,6.0848363444064795,2.7500316951414208,1.2373001068479734,5.924786593053725,-1.0,-3.14,3.14,3.14,3.14,-3.14,3.14
462,1.97884620405936,0.96725101872235,1.7175095661129762,6.0848363444064795,2.7500316951414208,1.2373001068479734,5.924786593053725,-1.0,-3.14,3.14,3.14,3.14,-3.14,3.14
463,1.97884620405936,0.96725101872235,1.7175095661129762,6.0848363444064795,2.7500316951414208,1.2373001068479734,5.924786593053725,-1.0,-3.14,3.14,3.14,3.14,-3.14,3.14
464,1.97884620405936,0.96725101872235,1.7175095661129762,6.0848363444064795,2.7500316951414208,1.2373001068479734,5.924786593053725,-1.0,-3.14,3.14,3.14,3.14,-3.14,3.14
465,1.97884620405936,0.96725101872235,1.7175095661129762,6.0848363444064795,2.7500316951414208,1.2373001068479734,5.924786593053725,-1.0,-3.14,3.14,3.14,3.14,-3.14,3.14
466,1.97884620405936,0.96725101872235,1.7175095661129762,6.0848363444064795,2.7500316951414208,1.2373001068479734,5.924786593053725,-1.0,-3.14,3.14,3.14,3.14,-3.14,3.14
467,1.97884620405936,0.96725101872235,1.7175095661129762,6.0848363444064795,2.7500316951414208,1.2373001068479734,5.924786593053725,-1.0,-3.14,3.14,3.14,3.14,-3.14,3.14
468,1.97884620405936,0.96725101872235,1.7175095661129762,6.0848363444064795,2.7500316951414208,1.2373001068479734,5.924786593053725,-1.0,-3.14,3.14,3.14,3.14,-3.14,3.14
469,1.97884620405936,0.96725101872235,1.7175095661129762,6.0848363444064795,2.7500316951414208,1.2373001068479734,5.924786593053725,-1.0,-3.14,3.14,3.14,3.14,-3.14,3.14
470,1.97884620405936,0.96725101872235,1.7175095661129762,6.0848363444064795,2.7500316951414208,1.2373001068479734,5.924786593053725,-1.0,-3.14,3.14,3.14,3.14,-3.14,3.14
471,1.97884620405936,0.96725101872235,1.7175095661129762,6.0848363444064795,2.7500316951414208,1.2373001068479734,5.924786593053725,-1.0,-3.14,3.14,3.14,3.14,-3.14,3.14
472,1.97884620405936,0.96725101872235,1.7175095661129762,6.0848363444064795,2.7500316951414208,1.2373001068479734,5.924786593053725,-1.0,-3.14,3.14,3.14,3.14,-3.14,3.14
473,1.97884620405936,0.96725101872235,1.7175095661129762,6.0848363444064795,2.7500316951414208,1.2373001068479734,5.924786593053725,-1.0,-3.14,3.14,3.14,3.14,-3.14,3.14
474,1.97884620405936,0.96725101872235,1.7175095661129762,6.0848363444064795,2.7500316951414208,1.2373001068479734,5.924786593053725,-1.0,-3.14,3.14,3.14,3.14,-3.14,3.14
475,1.97884620405936,0.96725101872235,1.7175095661129762,6.0848363444064795,2.7500316951414208,1.2373001068479734,5.924786593053725,-1.0,-3.14,3.14,3.14,3.14,-3.14,3.14
476,1.97884620405936,0.96725101872235,1.7175095661129762,6.0848363444064795,2.7500316951414208,1.2373001068479734,5.924786593053725,-1.0,-3.14,3.14,3.14,3.14,-3.14,3.14
477,1.97884620405936,0.96725101872235,1.7175095661129762,6.0848363444064795,2.7500316951414208,1.2373001068479734,5.924786593053725,-1.0,-3.14,3.14,3.14,3.14,-3.14,3.14
478,1.97884620405936,0.96725101872235,1.7175095661129762,6.0848363444064795,2.7500316951414208,1.2373001068479734,5.924786593053725,-1.0,-3.14,3.14,3.14,3.14,-3.14,3.14
479,1.97884620405936,0.96725101872235,1.7175095661129762,6.0848363444064795,2.7500316951414208,1.2373001068479734,5.924786593053725,-1.0,-3.14,3.14,3.14,3.14,-3.14,3.14
480,1.97884620405936,0.96725101872235,1.7175095661129762,6.0848363444064795,2.7500316951414208,1.2373001068479734,5.924786593053725,-1.0,-3.14,3.14,3.14,3.14,-3.14,3.14
481,1.97884620405936,0.96725101872235,1.7175095661129762,6.0848363444064795,2.7500316951414208,1.2373001068479734,5.924786593053725,-1.0,-3.14,3.14,3.14,3.14,-3.14,3.14
482,1.97884620405936,0.96725101872235,1.7175095661129762,6.0848363444064795,2.7500316951414208,1.2373001068479734,5.924786593053725,-1.0,-3.14,3.14,3.14,3.14,-3.14,3.14
483,1.97884620405936,0.96725101872235,1.7175095661129762,6.0848363444064795,2.7500316951414208,1.2373001068479734,5.924786593053725,-1.0,-3.14,3.14,3.14,3.14,-3.14,3.14
484,1.97884620405936,0.96725101872235,1.7175095661129762,6.0848363444064795,2.7500316951414208,1.2373001068479734,5.924786593053725,-1.0,-3.14,3.14,3.14,3.14,-3.14,3.14
485,1.97884620405936,0.96725101872235,1.7175095661129762,6.0848363444064795,2.7500316951414208,1.2373001068479734,5.924786593053725,-1.0,-3.14,3.14,3.14,3.14,-3.14,3.14
486,1.97884620405936,0.96725101872235,1.7175095661129762,6.0848363444064795,2.7500316951414208,1.2373001068479734,5.924786593053725,-1.0,-3.14,3.14,3.14,3.14,-3.14,3.14
487,1.97884620405936,0.96725101872235,1.7175095661129762,6.0848363444064795,2.7500316951414208,1.2373001068479734,5.924786593053725,-1.0,-3.14,3.14,3.14,3.14,-3.14,3.14
488,1.97884620405936,0.96725101872235,1.7175095661129762,6.0848363444064795,2.7500316951414208,1.2373001068479734,5.924786593053725,-1.0,-3.14,3.14,3.14,3.14,-3.14,3.14
489,1.97884620405936,0.96725101872235,1.7175095661129762,6.0848363444064795,2.7500316951414208,1.2373001068479734,5.924786593053725,-1.0,-3.14,3.14,3.14,3.14,-3.14,3.14
490,1.97884620405936,0.96725101872235,1.7175095661129762,6.0848363444064795,2.7500316951414208,1.2373001068479734,5.924786593053725,-1.0,-3.14,3.14,3.14,3.14,-3.14,3.14
491,1.97884620405936,0.96725101872235,1.7175095661129762,6.0848363444064795,2.7500316951414208,1.2373001068479734,5.924786593053725,-1.0,-3.14,3.14,3.14,3.14,-3.14,3.14
492,1.97884620405936,0.96725101872235,1.7175095661129762,6.0848363444064795,2.7500316951414208,1.2373001068479734,5.924786593053725,-1.0,-3.14,3.14,3.14,3.14,-3.14,3.14
493,1.97884620405936,0.96725101872235,1.7175095661129762,6.0848363444064795,2.7500316951414208,1.2373001068479734,5.924786593053725,-1.0,-3.14,3.14,3.14,3.14,-3.14,3.14
494,1.97884620405936,0.96725101872235,1.7175095661129762,6.0848363444064795,2.7500316951414208,1.2373001068479734,5.924786593053725,-1.0,-3.14,3.14,3.14,3.14,-3.14,3.14
495,1.97884620405936,0.96725101872235,1.7175095661129762,6.0848363444064795,2.7500316951414208,1.2373001068479734,5.924786593053725,-1.0,-3.14,3.14,3.14,3.14,-3.14,3.14
496,1.97884620405936,0.96725101872235,1.7175095661129762,6.0848363444064795,2.7500316951414208,1.2373001068479734,5.924786593053725,-1.0,-3.14,3.14,3.14,3.14,-3.14,3.14
497,1.97884620405936,0.96725101872235,1.7175095661129762,6.0848363444064795,2.7500316951414208,1.2373001068479734,5.924786593053725,-1.0,-3.14,3.14,3.14,3.14,-3.14,3.14
498,1.97884620405936,0.96725101872235,1.7175095661129762,6.0848363444064795,2.7500316951414208,1.2373001068479734,5.924786593053725,-1.0,-3.14,3.14,3.14,3.14,-3.14,3.14
499,1.97884620405936,0.96725101872235,1.7175095661129762,6.0848363444064795,2.7500316951414208,1.2373001068479734,5.924786593053725,-1.0,-3.14,3.14,3.14,3.14,-3.14,3.14
500,1.97884620405936,0.96725101872235,1.7175095661129762,6.0848363444064795,2.7500316951414208,1.2373001068479734,5.924786593053725,-1.0,-3.14,3.14,3.14,3.14,-3.14,3.14
501,1.97884620405936,0.96725101872235,1.7175095661129762,6.0848363444064795,2.7500316951414208,1.2373001068479734,5.924786593053725,-1.0,-3.14,3.14,3.14,3.14,-3.14,3.14
502,1.97884620405936,0.96725101872235,1.7175095661129762,6.0848363444064795,2.7500316951414208,1.2373001068479734,5.924786593053725,-1.0,-3.14,3.14,3.14,3.14,-3.14,3.14
503,1.97884620405936,0.96725101872235,1.7175095661129762,6.0848363444064795,2.7500316951414208,1.2373001068479734,5.924786593053725,-1.0,-3.14,3.14,3.14,3.14,-3.14,3.14
504,1.97884620405936,0.96725101872235,1.7175095661129762,6.0848363444064795,2.7500316951414208,1.2373001068479734,5.924786593053725,-1.0,-3.14,3.14,3.14,3.14,-3.14,3.14
505,1.97884620405936,0.96725101872235,1.7175095661129762,6.0848363444064795,2.7500316951414208,1.2373001068479734,5.924786593053725,-1.0,-3.14,3.14,3.14,3.14,-3.14,3.14
506,1.97884620405936,0.96725101872235,1.7175095661129762,6.0848363444064795,2.7500316951414208,1.2373001068479734,5.924786593053725,-1.0,-3.14,3.14,3.14,3.14,-3.14,3.14
507,1.97884620405936,0.96725101872235,1.7175095661129762,6.0848363444064795,2.7500316951414208,1.2373001068479734,5.924786593053725,-1.0,-3.14,3.14,3.14,3.14,-3.14,3.14
508,1.97884620405936,0.96725101872235,1.7175095661129762,6.0848363444064795,2.7500316951414208,1.2373001068479734,5.924786593053725,-1.0,-3.14,3.14,3.14,3.14,-3.14,3.14
509,1.97884620405936,0.96725101872235,1.7175095661129762,6.0848363444064795,2.7500316951414208,1.2373001068479734,5.924786593053725,-1.0,-3.14,3.14,3.14,3.14,-3.14,3.14
510,1.97884620405936,0.96725101872235,1.7175095661129762,6.0848363444064795,2.7500316951414208,1.2373001068479734,5.924786593053725,-1.0,-3.14,3.14,3.14,3.14,-3.14,3.14
511,1.97884620405936,0.96725101872235,1.7175095661129762,6.0848363444064795,2.7500316951414208,1.2373001068479734,5.924786593053725,-1.0,-3.14,3.14,3.14,3.14,-3.14,3.14
512,1.97884620405936,0.96725101872235,1.7175095661129762,6.0848363444064795,2.7500316951414208,1.2373001068479734,5.924786593053725,-1.0,-3.14,3.14,3.14,3.14,-3.14,3.14
513,1.97884620405936,0.96725101872235,1.7175095661129762,6.0848363444064795,2.7500316951414208,1.2373001068479734,5.924786593053725,-1.0,-3.14,3.14,3.14,3.14,-3.14,3.14
514,1.97884620405936,0.96725101872235,1.7175095661129762,6.0848363444064795,2.7500316951414208,1.2373001068479734,5.924786593053725,-1.0,-3.14,3.14,3.14,3.14,-3.14,3.14
515,1.97884620405936,0.96725101872235,1.7175095661129762,6.0848363444064795,2.7500316951414208,1.2373001068479734,5.924786593053725,-1.0,-3.14,3.14,3.14,3.14,-3.14,3.14
516,1.97884620405936,0.96725101872235,1.7175095661129762,6.0848363444064795,2.7500316951414208,1.2373001068479734,5.924786593053725,-1.0,-3.14,3.14,3.14,3.14,-3.14,3.14
517,1.97884620405936,0.96725101872235,1.7175095661129762,6.0848363444064795,2.7500316951414208,1.2373001068479734,5.924786593053725,-1.0,-3.14,3.14,3.14,3.14,-3.14,3.14
518,1.97884620405936,0.96725101872235,1.7175095661129762,6.0848363444064795,2.7500316951414208,1.2373001068479734,5.924786593053725,-1.0,-3.14,3.14,3.14,3.14,-3.14,3.14
519,1.97884620405936,0.96725101872235,1.7175095661129762,6.0848363444064795,2.7500316951414208,1.2373001068479734,5.924786593053725,-1.0,-3.14,3.14,3.14,3.14,-3.14,3.14
520,1.97884620405936,0.96725101872235,1.7175095661129762,6.0848363444064795,2.7500316951414208,1.2373001068479734,5.924786593053725,-1.0,-3.14,3.14,3.14,3.14,-3.14,3.14
521,1.97884620405936,0.96725101872235,1.7175095661129762,6.0848363444064795,2.7500316951414208,1.2373001068479734,5.924786593053725,-1.0,-3.14,3.14,3.14,3.14,-3.14,3.14
522,1.97884620405936,0.96725101872235,1.7175095661129762,6.0848363444064795,2.7500316951414208,1.2373001068479734,5.924786593053725,-1.0,-3.14,3.14,3.14,3.14,-3.14,3.14
523,1.97884620405936,0.96725101872235,1.7175095661129762,6.0848363444064795,2.7500316951414208,1.2373001068479734,5.924786593053725,-1.0,-3.14,3.14,3.14,3.14,-3.14,3.14
524,1.97884620405936,0.96725101872235,1.7175095661129762,6.0848363444064795,2.7500316951414208,1.2373001068479734,5.924786593053725,-1.0,-3.14,3.14,3.14,3.14,-3.14,3.14
525,1.97884620405936,0.96725101872235,1.7175095661129762,6.0848363444064795,2.7500316951414208,1.2373001068479734,5.924786593053725,-1.0,-3.14,3.14,3.14,3.14,-3.14,3.14
526,1.97884620405936,0.96725101872235,1.7175095661129762,6.0848363444064795,2.7500316951414208,1.2373001068479734,5.924786593053725,-1.0,-3.14,3.14,3.14,3.14,-3.14,3.14
527,1.97884620405936,0.96725101872235,1.7175095661129762,6.0848363444064795,2.7500316951414208,1.2373001068479734,5.924786593053725,-1.0,-3.14,3.14,3.14,3.14,-3.14,3.14
528,1.97884620405936,0.96725101872235,1.7175095661129762,6.0848363444064795,2.7500316951414208,1.2373001068479734,5.924786593053725,-1.0,-3.14,3.14,3.14,3.14,-3.14,3.14
529,1.97884620405936,0.96725101872235,1.7175095661129762,6.0848363444064795,2.7500316951414208,1.2373001068479734,5.924786593053725,-1.0,-3.14,3.14,3.14,3.14,-3.14,3.14
530,1.97884620405936,0.96725101872235,1.7175095661129762,6.0848363444064795,2.7500316951414208,1.2373001068479734,5.924786593053725,-1.0,-3.14,3.14,3.14,3.14,-3.14,3.14
531,1.97884620405936,0.96725101872235,1.7175095661129762,6.0848363444064795,2.7500316951414208,1.2373001068479734,5.924786593053725,-1.0,-3.14,3.14,3.14,3.14,-3.14,3.14
532,1.97884620405936,0.96725101872235,1.7175095661129762,6.0848363444064795,2.7500316951414208,1.2373001068479734,5.924786593053725,-1.0,-3.14,3.14,3.14,3.14,-3.14,3.14
533,1.97884620405936,0.96725101872235,1.7175095661129762,6.0848363444064795,2.7500316951414208,1.2373001068479734,5.924786593053725,-1.0,-3.14,3.14,3.14,3.14,-3.14,3.14
534,1.97884620405936,0.96725101872235,1.7175095661129762,6.0848363444064795,2.7500316951414208,1.2373001068479734,5.924786593053725,-1.0,-3.14,3.14,3.14,3.14,-3.14,3.14
535,1.97884620405936,0.96725101872235,1.7175095661129762,6.0848363444064795,2.7500316951414208,1.2373001068479734,5.924786593053725,-1.0,-3.14,3.14,3.14,3.14,-3.14,3.14
536,1.97884620405936,0.96725101872235,1.7175095661129762,6.0848363444064795,2.7500316951414208,1.2373001068479734,5.924786593053725,-1.0,-3.14,3.14,3.14,3.14,-3.14,3.14
537,1.97884620405936,0.96725101872235,1.7175095661129762,6.0848363444064795,2.7500316951414208,1.2373001068479734,5.924786593053725,-1.0,-3.14,3.14,3.14,3.14,-3.14,3.14
538,1.97884620405936,0.96725101872235,1.7175095661129762,6.0848363444064795,2.7500316951414208,1.2373001068479734,5.924786593053725,-1.0,-3.14,3.14,3.14,3.14,-3.14,3.14
539,1.97884620405936,0.96725101872235,1.7175095661129762,6.0848363444064795,2.7500316951414208,1.2373001068479734,5.924786593053725,-1.0,-3.14,3.14,3.14,3.14,-3.14,3.14
540,1.97884620405936,0.96725101872235,1.7175095661129762,6.0848363444064795,2.7500316951414208,1.2373001068479734,5.924786593053725,-1.0,-3.14,3.14,3.14,3.14,-3.14,3.14
541,1.97884620405936,0.96725101872235,1.7175095661129762,6.0848363444064795,2.7500316951414208,1.2373001068479734,5.924786593053725,-1.0,-3.14,3.14,3.14,3.14,-3.14,3.14
542,1.97884620405936,0.96725101872235,1.7175095661129762,6.0848363444064795,2.7500316951414208,1.2373001068479734,5.924786593053725,-1.0,-3.14,3.14,3.14,3.14,-3.14,3.14
543,1.97884620405936,0.96725101872235,1.7175095661129762,6.0848363444064795,2.7500316951414208,1.2373001068479734,5.924786593053725,-1.0,-3.14,3.14,3.14,3.14,-3.14,3.14
544,1.97884620405936,0.96725101872235,1.7175095661129762,6.0848363444064795,2.7500316951414208,1.2373001068479734,5.924786593053725,-1.0,-3.14,3.14,3.14,3.14,-3.14,3.14
545,1.97884620405936,0.96725101872235,1.7175095661129762,6.0848363444064795,2.7500316951414208,1.2373001068479734,5.924786593053725,-1.0,-3.14,3.14,3.14,3.14,-3.14,3.14
546,1.97884620405936,0.96725101872235,1.7175095661129762,6.0848363444064795,2.7500316951414208,1.2373001068479734,5.924786593053725,-1.0,-3.14,3.14,3.14,3.14,-3.14,3.14
547,1.97884620405936,0.96725101872235,1.7175095661129762,6.0848363444064795,2.7500316951414208,1.2373001068479734,5.924786593053725,-1.0,-3.14,3.14,3.14,3.14,-3.14,3.14
548,1.97884620405936,0.96725101872235,1.7175095661129762,6.0848363444064795,2.7500316951414208,1.2373001068479734,5.924786593053725,-1.0,-3.14,3.14,3.14,3.14,-3.14,3.14
549,1.97884620405936,0.96725101872235,1.7175095661129762,6.0848363444064795,2.7500316951414208,1.2373001068479734,5.924786593053725,-1.0,-3.14,3.14,3.14,3.14,-3.14,3.14
550,1.97884620405936,0.96725101872235,1.7175095661129762,6.0848363444064795,2.7500316951414208,1.2373001068479734,5.924786593053725,-1.0,-3.14,3.14,3.14,3.14,-3.14,3.14
551,1.97884620405936,0.96725101872235,1.7175095661129762,6.0848363444064795,2.7500316951414208,1.2373001068479734,5.924786593053725,-1.0,-3.14,3.14,3.14,3.14,-3.14,3.14
552,1.97884620405936,0.96725101872235,1.7175095661129762,6.0848363444064795,2.7500316951414208,1.2373001068479734,5.924786593053725,-1.0,-3.14,3.14,3.14,3.14,-3.14,3.14
553,1.97884620405936,0.96725101872235,1.7175095661129762,6.0848363444064795,2.7500316951414208,1.2373001068479734,5.924786593053725,-1.0,-3.14,3.14,3.14,3.14,-3.14,3.14
554,1.97884620405936,0.96725101872235,1.7175095661129762,6.0848363444064795,2.7500316951414208,1.2373001068479734,5.924786593053725,-1.0,-3.14,3.14,3.14,3.14,-3.14,3.14
555,1.97884620405936,0.96725101872235,1.7175095661129762,6.0848363444064795,2.7500316951414208,1.2373001068479734,5.924786593053725,-1.0,-3.14,3.14,3.14,3.14,-3.14,3.14
556,1.97884620405936,0.96725101872235,1.7175095661129762,6.0848363444064795,2.7500316951414208,1.2373001068479734,5.924786593053725,-1.0,-3.14,3.14,3.14,3.14,-3.14,3.14
557,1.97884620405936,0.96725101872235,1.7175095661129762,6.0848363444064795,2.7500316951414208,1.2373001068479734,5.924786593053725,-1.0,-3.14,3.14,3.14,3.14,-3.14,3.14
558,1.97884620405936,0.96725101872235,1.7175095661129762,6.0848363444064795,2.7500316951414208,1.2373001068479734,5.924786593053725,-1.0,-3.14,3.14,3.14,3.14,-3.14,3.14
559,1.97884620405936,0.96725101872235,1.7175095661129762,6.0848363444064795,2.7500316951414208,1.2373001068479734,5.924786593053725,-1.0,-3.14,3.14,3.14,3.14,-3.14,3.14
560,1.97884620405936,0.96725101872235,1.7175095661129762,6.0848363444064795,2.7500316951414208,1.2373001068479734,5.924786593053725,-1.0,-3.14,3.14,3.14,3.14,-3.14,3.14
561,1.97884620405936,0.96725101872235,1.7175095661129762,6.0848363444064795,2.7500316951414208,1.2373001068479734,5.924786593053725,-1.0,-3.14,3.14,3.14,3.14,-3.14,3.14
562,1.97884620405936,0.96725101872235,1.7175095661129762,6.0848363444064795,2.7500316951414208,1.2373001068479734,5.924786593053725,-1.0,-3.14,3.14,3.14,3.14,-3.14,3.14
563,1.97884620405936,0.96725101872235,1.7175095661129762,6.0848363444064795,2.7500316951414208,1.2373001068479734,5.924786593053725,-1.0,-3.14,3.14,3.14,3.14,-3.14,3.14
564,1.97884620405936,0.96725101872235,1.7175095661129762,6.0848363444064795,2.7500316951414208,1.2373001068479734,5.924786593053725,-1.0,-3.14,3.14,3.14,3.14,-3.14,3.14
565,1.97884620405936,0.96725101872235,1.7175095661129762,6.0848363444064795,2.7500316951414208,1.2373001068479734,5.924786593053725,-1.0,-3.14,3.14,3.14,3.14,-3.14,3.14
566,1.97884620405936,0.96725101872235,1.7175095661129762,6.0848363444064795,2.7500316951414208,1.2373001068479734,5.924786593053725,-1.0,-3.14,3.14,3.14,3.14,-3.14,3.14
567,1.97884620405936,0.96725101872235,1.7175095661129762,6.0848363444064795,2.7500316951414208,1.2373001068479734,5.924786593053725,-1.0,-3.14,3.14,3.14,3.14,-3.14,3.14
568,1.97884620405936,0.96725101872235,1.7175095661129762,6.0848363444064795,2.7500316951414208,1.2373001068479734,5.924786593053725,-1.0,-3.14,3.14,3.14,3.14,-3.14,3.14
569,1.97884620405936,0.96725101872235,1.7175095661129762,6.0848363444064795,2.7500316951414208,1.2373001068479734,5.924786593053725,-1.0,-3.14,3.14,3.14,3.14,-3.14,3.14
570,1.97884620405936,0.96725101872235,1.7175095661129762,6.0848363444064795,2.7500316951414208,1.2373001068479734,5.924786593053725,-1.0,-3.14,3.14,3.14,3.14,-3.14,3.14
571,1.97884620405936,0.96725101872235,1.7175095661129762,6.0848363444064795,2.7500316951414208,1.2373001068479734,5.924786593053725,-1.0,-3.14,3.14,3.14,3.14,-3.14,3.14
572,1.97884620405936,0.96725101872235,1.7175095661129762,6.0848363444064795,2.7500316951414208,1.2373001068479734,5.924786593053725,-1.0,-3.14,3.14,3.14,3.14,-3.14,3.14
573,1.97884620405936,0.96725101872235,1.7175095661129762,6.0848363444064795,2.7500316951414208,1.2373001068479734,5.924786593053725,-1.0,-3.14,3.14,3.14,3.14,-3.14,3.14
574,1.97884620405936,0.96725101872235,1.7175095661129762,6.0848363444064795,2.7500316951414208,1.2373001068479734,5.924786593053725,-1.0,-3.14,3.14,3.14,3.14,-3.14,3.14
575,1.97884620405936,0.96725101872235,1.7175095661129762,6.0848363444064795,2.7500316951414208,1.2373001068479734,5.924786593053725,-1.0,-3.14,3.14,3.14,3.14,-3.14,3.14
576,1.97884620405936,0.96725101872235,1.7175095661129762,6.0848363444064795,2.7500316951414208,1.2373001068479734,5.924786593053725,-1.0,-3.14,3.14,3.14,3.14,-3.14,3.14
577,1.97884620405936,0.96725101872235,1.7175095661129762,6.0848363444064795,2.7500316951414208,1.2373001068479734,5.924786593053725,-1.0,-3.14,3.14,3.14,3.14,-3.14,3.14
578,1.97884620405936,0.96725101872235,1.7175095661129762,6.0848363444064795,2.7500316951414208,1.2373001068479734,5.924786593053725,-1.0,-3.14,3.14,3.14,3.14,-3.14,3.14
579,1.97884620405936,0.96725101872235,1.7175095661129762,6.0848363444064795,2.7500316951414208,1.2373001068479734,5.924786593053725,-1.0,-3.14,3.14,3.14,3.14,-3.14,3.14
580,1.97884620405936,0.96725101872235,1.7175095661129762,6.0848363444064795,2.7500316951414208,1.2373001068479734,5.924786593053725,-1.0,-3.14,3.14,3.14,3.14,-3.14,3.14
581,1.97884620405936,0.96725101872235,1.7175095661129762,6.0848363444064795,2.7500316951414208,1.2373001068479734,5.924786593053725,-1.0,-3.14,3.14,3.14,3.14,-3.14,3.14
582,1.97884620405936,0.96725101872235,1.7175095661129762,6.0848363444064795,2.7500316951414208,1.2373001068479734,5.924786593053725,-1.0,-3.14,3.14,3.14,3.14,-3.14,3.14
583,1.97884620405936,0.96725101872235,1.7175095661129762,6.0848363444064795,2.7500316951414208,1.2373001068479734,5.924786593053725,-1.0,-3.14,3.14,3.14,3.14,-3.14,3.14
584,1.97884620405936,0.96725101872235,1.7175095661129762,6.0848363444064795,2.7500316951414208,1.2373001068479734,5.924786593053725,-1.0,-3.14,3.14,3.14,3.14,-3.14,3.14
585,1.97884620405936,0.96725101872235,1.7175095661129762,6.0848363444064795,2.7500316951414208,1.2373001068479734,5.924786593053725,-1.0,-3.14,3.14,3.14,3.14,-3.14,3.14
586,1.97884620405936,0.96725101872235,1.7175095661129762,6.0848363444064795,2.7500316951414208,1.2373001068479734,5.924786593053725,-1.0,-3.14,3.14,3.14,3.14,-3.14,3.14
587,1.97884620405936,0.96725101872235,1.7175095661129762,6.0848363444064795,2.7500316951414208,1.2373001068479734,5.924786593053725,-1.0,-3.14,3.14,3.14,3.14,-3.14,3.14
