jkpark150901/flame_robotics_drt/experiment/inspection_ik/session_20260716_113329/fallback/inspection_ik_20260716_113638_dda_rb10_1300e_raw_fallback.csv
iteration,err_norm,position_error,orientation_error,tcp_x,tcp_y,tcp_z,q0_dda_joint_linear_track,q1_dda_joint_carriage,q2_dda_joint_base,q3_dda_joint_shoulder,q4_dda_joint_elbow,q5_dda_joint_wrist1,q6_dda_joint_wrist2,q7_dda_joint_wrist3
0,6.829835701310409,6.0265354452281,1.7186419958754036,0.47255,3.7499999999986655,2.697,0.0,0.0,0.0,0.0,0.0,0.0,0.0,0.0
1,4.80732983712451,4.1754600296630295,1.5734886642006272,2.499519340548976,3.728740356130447,2.69618504059139,2.0233314749854814,-0.04457798693407376,-0.11061438645330207,0.019345782769157722,0.046658715357594374,0.07207485460240776,-0.10364907599640108,0.07729716577057383
2,4.741554267104211,3.437466634767222,2.7847442138726146,4.608220193052804,4.971501923364441,1.3565197957708666,4.236166457180259,1.0,0.384294799702276,-3.123447277819473,-3.14,2.123480777947699,-0.7347175389936028,3.14
3,3.8600316434857542,2.8291233257748694,2.0490442460445863,4.842295300052815,4.206904693670071,0.6756122081882094,4.944917507672807,0.04714419581240292,-2.794675294328178,-2.0062742268217386,-1.5301529667907896,3.14,-1.6653064643014022,-1.2268117591835428
4,2.4469278212851373,1.9469055655905687,1.309864772464667,5.518499573939041,3.2828352795622204,0.4728718798983779,5.402843330871023,-0.1436166456922041,-2.942384083873776,-3.064781724912547,-1.1647657376904357,3.14,-1.6529710588233455,-1.4204030962019292
5,1.9501514191426184,1.5703305602540298,1.059449355946659,5.797961055450964,2.8307940509809773,0.4826807922373291,5.665852079935709,-0.5138314900128086,-2.9417339418604485,-3.14,-1.1800534899618427,2.9972943063402013,-1.6502524955159015,-1.557900544472608
6,1.7138242998515707,1.3519310483327247,0.9820696565308913,5.899622305308281,2.6226515547338893,0.5850960553211721,5.767710806838895,-0.6835738929125018,-2.9480929730727277,-3.14,-1.3840492278647527,3.14,-1.6060300962089673,-1.6402067033100973
7,1.4274317063982804,1.1753108993201853,0.7675051963158249,5.957332236114689,2.440817997768398,0.6761391756103607,5.8246558853464645,-0.8331870809087422,-2.9487369465564353,-3.14,-1.5907059034464297,3.14,-1.5617172973152926,-1.6898172411981636
8,1.1637350740870482,1.0231461685041285,0.5321456640084283,5.991576519625724,2.319794713815339,0.783095467263303,5.86105014892122,-0.9409119372761231,-2.948720204841319,-3.14,-1.8211141723846407,3.14,-1.5215707409095156,-1.7119495978221937
9,0.9523224840346828,0.9021111873288443,0.2955826884752831,6.017179424392058,2.272542650029176,0.8920656385284549,5.8931116811421616,-1.0,-2.950042767799081,-3.14,-2.0556688423013116,3.14,-1.4916757252808424,-1.7165771161845702
10,0.8283265613511739,0.8253263218994565,0.06890174608714572,6.03883271054071,2.3088541642302847,0.994010606879284,5.92542125255959,-1.0,-2.9534202692323084,-3.14,-2.2877103729655413,3.14,-1.4731995002232445,-1.7123783520388236
11,0.8002330561513671,0.7788324907491428,0.17943746227770832,6.057411932859515,2.3690375579333502,1.0864166290629433,5.958137526438715,-1.0,-2.9576840616890294,-3.14,-2.5247905717613897,3.14,-1.4635834108601915,-1.7060166811762314
12,0.907796450445353,0.7759901020794828,0.459696262969298,6.072982802585963,2.465847879147426,1.1739018574024442,5.993045345067528,-1.0,-2.9602382107419922,-3.14,-2.8068830739502877,3.14,-1.457970785200414,-1.701437112369253
13,1.1728750520802909,0.842434739288867,0.792631054860504,6.0987000344839775,2.603835304030941,1.2371142676823066,6.044580374739883,-1.0,-2.9519046567941847,-3.14,-3.14,3.14,-1.4451571970563535,-1.7013900078722783
14,1.1472830876759341,0.8481548875136138,0.7502179984945793,6.107407802586917,2.607831088529645,1.2324155849422018,6.054492258965864,-1.0,-2.9347555303331405,-3.09817088337871,-3.14,3.14,-1.4250010110217923,-1.6968509242594696
15,1.348985605033772,1.048095904290013,0.8219326011965856,6.3536126880847785,2.8393677074943806,1.2893397159954194,6.386725786183826,-1.0,-2.796382645830738,-1.541008192919168,-3.14,3.14,-1.28426995454359,-1.70569710796691
16,1.2294051462961313,1.0272413103040667,0.6529217278512576,6.304407664560977,2.817143713498409,1.2687110771722439,6.330564461929209,-1.0,-2.765497959147174,-1.6136266507803945,-3.14,3.064461013551636,-1.3148863092261014,-1.7688732864191439
17,1.1723105330033994,1.0115915536912699,0.5724771057107688,6.263972023881509,2.802847999097844,1.2610623661521245,6.288474153530837,-1.0,-2.7362986643801794,-1.6419099228146268,-3.14,3.0280976204558123,-1.3167655745696754,-1.8239674940658905
18,1.141948539400463,0.9994268775791066,0.5339219347489128,6.231544569416534,2.7924156228580914,1.2587314011974975,6.257328023420643,-1.0,-2.7058409738862013,-1.6493270353091338,-3.14,3.010188227289675,-1.3051607511869896,-1.8710913719593736
19,1.1235760482824682,0.9891427743443895,0.5153697949617854,6.206265969775744,2.783563797854541,1.2588352422316902,6.2347925261549575,-1.0,-2.6735806206724093,-1.6466271817993727,-3.14,3.0012293564370682,-1.2870263049881578,-1.9126651549126925
20,1.110773207468309,0.9797236404652974,0.5065919443455401,6.1870107982360345,2.775218007161634,1.2601843498925887,6.218933353625678,-1.0,-2.639669051561823,-1.638776689981241,-3.14,2.996819927283021,-1.2657050284294138,-1.9507266898979103
21,1.1006288888757358,0.9706046119953742,0.5028025494959308,6.1725954039482165,2.7669199275304073,1.2622548577410726,6.208130105571989,-1.0,-2.6044391690665805,-1.628077921523875,-3.14,2.994911184137043,-1.2428856519580147,-1.9866879060988782
22,1.0917874259611504,0.9614950213214623,0.5017313594767584,6.161924684911662,2.7584959005167367,1.264805163445916,6.201047616053203,-1.0,-2.568235289069674,-1.6156089765794592,-3.14,2.9945366860790683,-1.2194614118937013,-2.0214796010735614
23,1.0836068911209562,0.9522571196938948,0.5022706482344261,6.1540587365591435,2.7498964256527563,1.2677192322683968,6.196609405924541,-1.0,-2.5313602788182576,-1.6018854201480663,-3.14,2.9952282666019237,-1.1959280884719234,-2.0557058675645172
24,1.0757805612326214,0.9428344940161121,0.5038550526597833,6.148228523509371,2.741123255193984,1.2709384391677543,6.19396500735408,-1.0,-2.494065151089502,-1.587163646779024,-3.14,2.9967480983261088,-1.1725770389901935,-2.0897549969477276
25,1.0681620561446985,0.933212620570169,0.5061769646276577,6.143825087734607,2.7321976793288325,1.2744306748651903,6.1924540419500875,-1.0,-2.4565533930051378,-1.571580275155106,-3.14,2.998965454735854,-1.1495918625724453,-2.123872844450658
26,1.0606831800183876,0.9233980984837515,0.5090548077763235,6.14037755687673,2.723147356081056,1.2781759213511354,6.19157106340088,-1.0,-2.418989251788276,-1.5552165969327236,-3.14,3.0017996427829714,-1.1270978135576049,-2.1582105739476725
27,1.0533148371425143,0.9134081468954348,0.5123711541994811,6.13752839823335,2.714001212847232,1.2821593561160813,6.190933871172635,-1.0,-2.381505916824134,-1.5381286373467489,-3.14,3.0051933186363358,-1.1051873242203,-2.1928558053160705
28,1.046048205262196,0.9032655026536522,0.5160430028971363,6.1350101260055085,2.7047877175158765,1.286367995540331,6.190256558018586,-1.0,-2.3442122970276085,-1.5203613093786077,-3.14,3.00909987127387,-1.0839331932058238,-2.227853083338363
29,1.0388855037704499,0.8929960365015017,0.5200070723370958,6.132625229056424,2.695534460033764,1.2907890508445776,6.189327525057755,-1.0,-2.3071982015127626,-1.5019551179081123,-3.14,3.0134774043715478,-1.0633953329428825,-2.2632174400766827
30,1.0318353297251441,0.8826276636965558,0.5242122509644982,6.130229767931495,2.6862681716929,1.29540914244645,6.187992100797039,-1.0,-2.270538133577253,-1.4829493103065783,-3.14,3.0182858716248844,-1.0436241521342178,-2.2989434603767296
31,1.0249101834451648,0.8721898216958894,0.5286155681625894,6.127720435599947,2.6770148328326626,1.300213964601841,6.186139120735016,-1.0,-2.234294011826324,-1.4633832871591754,-3.14,3.023485759585481,-1.02466220603293,-2.3350114046285073
32,1.0181250594118665,0.8617131604394767,0.5331799734756466,6.12502459907016,2.6677997452848454,1.3051881998802068,6.183690744923622,-1.0,-2.1985171182145287,-1.4432971303081612,-3.14,3.02903755705211,-1.0065449892040728,-2.371391399140661
33,1.0114965730075243,0.8512292838566337,0.5378730966470787,6.122092765148949,2.658647539346201,1.3103155808005285,6.180594823629061,-1.0,-2.1632495195311154,-1.4227316635862681,-3.14,3.0349016407184197,-0.9893013389821401,-2.408046353486044
34,1.005042374865741,0.840770477725291,0.5426665714785969,6.118892941391019,2.6495821207966035,1.3155790423673532,6.176819207561888,-1.0,-2.1285251492762503,-1.4017282562268139,-3.14,3.041038388734286,-0.9729536960100384,-2.444934034967909
35,0.9987807363973565,0.8303694052934644,0.54753569974374,6.115406435010834,2.640626574689069,1.3209609314630533,6.172347503748104,-1.0,-2.0943706834803573,-1.3803284825526385,-3.14,3.0474084195879425,-0.9575183455774039,-2.482008579877214
36,0.9927302507933831,0.8200587730795347,0.5524593246728341,6.111624716931426,2.63180304394361,1.3264432499056744,6.167175881496645,-1.0,-2.0608063005366892,-1.358573705371374,-3.14,3.053972895151083,-0.9430056952009064,-2.519221622529429
37,0.986909621041636,0.8098709779688705,0.5574198306526913,6.107547059421187,2.623132598485915,1.3320079136170384,6.161310625541006,-1.0,-2.0278463817031236,-1.3365046272864372,-3.14,3.0606938478876513,-0.9294206061141647,-2.556523158799415
38,0.9813375181948591,0.7998377496021903,0.5624032115292487,6.103178726897014,2.6146351074009564,1.3376370137181888,6.154766211611044,-1.0,-1.9955001844327496,-1.3141608412498331,-3.14,3.0675345042230364,-0.9167627760524553,-2.593862219498516
39,0.9760324978638745,0.7899898022106356,0.5673991656981356,6.098529558202193,2.6063291233316725,1.3433130678733551,6.147563742955536,-1.0,-1.963772503598183,-1.2915804033649025,-3.14,3.0744595839672297,-0.90502716067556,-2.631187402696803
40,0.9710129647355094,0.7803565089137301,0.572401187263895,6.093612825187997,2.598231785479565,1.3490192524531968,6.139729635816202,-1.0,-1.9326643244657304,-1.2687994446490702,-3.14,3.0814355617042053,-0.8942044170025266,-2.668447297716702
41,0.96629717572055,0.7709656096870227,0.5774066313004517,6.088444288041987,2.5903587451278383,1.3547396083027987,6.131294479349459,-1.0,-1.9021734645684958,-1.2458518331505046,-3.14,3.08843088109787,-0.8842813518479704,-2.7055908234468085
42,0.9619032729677264,0.7618429620138676,0.5824167386534199,6.083041394211931,2.5827241155886576,1.3604592151042967,6.1222920229720215,-1.0,-1.8722951982156437,-1.222768893125431,-3.14,3.0954161174244517,-0.8752413599082597,-2.7425674974644325
43,0.9578493387765383,0.7530123408234736,0.5874366121582103,6.077422586699498,2.575340446834335,1.3661643314555576,6.11275826346026,-1.0,-1.8430228562440065,-1.1995791838601484,-3.14,3.1023640873790512,-0.8670648388602091,-2.7793276486542053
44,0.9541534654992573,0.7444952918161606,0.5924751416957461,6.071606700527937,2.568218723771621,1.37184249975444,6.102730617064501,-1.0,-1.8143483939480745,-1.1763083371988643,-3.14,3.109249908297627,-0.8597295719642711,-2.815822583577695
45,0.9508338348172056,0.7363110398167882,0.5975448801531412,6.065612434701104,2.5613683861313588,1.377482616697236,6.092247169891571,-1.0,-1.7862629212827934,-1.152978949963741,-3.14,3.1160510113572775,-0.8532110717980442,-2.8520047151775247
46,0.9479088022320333,0.72847645150931,0.602661876064741,6.059457892125796,2.55479736725093,1.3830749716060768,6.0813460041252165,-1.0,-1.758757190960628,-1.1296105252531705,-3.14,3.1227471150637656,-0.8474828816325468,-2.887827661130218
47,0.9453969841360721,0.7210060499104443,0.6078454714683074,6.053160182715536,2.5485121486038045,1.38861125585796,6.070064599351496,-1.0,-1.731822041650746,-1.1062194550713682,-3.14,3.1293201664334003,-0.8425168334626311,-2.923246318091605
48,0.9433173463273374,0.7139120763372718,0.6131180753523329,6.046735085994665,2.5425178267558124,1.3940845473913512,6.058439308202737,-1.0,-1.7054487949488455,-1.0828190358374825,-3.14,3.1357542577827773,-0.8382832637500053,-2.9582169170963373
49,0.9404374177052615,0.7073257899996965,0.6164746710155318,6.040232563339026,2.5368142784662306,1.3991954210596071,6.0465049044247285,-1.0,-1.6796296060322322,-1.059419507979271,-3.14,3.14,-0.8347511895183202,-2.992697064420366
50,0.9357744695066109,0.7013736245371586,0.6163483666643033,6.033515899856362,2.5314126935079146,1.4037209041801268,6.034150871484581,-1.0,-1.6544249869305523,-1.035622416555812,-3.14,3.14,-0.8318091125101745,-3.0265791813756184
51,0.9324821209614929,0.6957995506630501,0.6178151407480801,6.026239925869371,2.5263317467378887,1.4084117401079839,6.021147094060695,-1.0,-1.6299331989085408,-1.010700413368552,-3.14,3.14,-0.8293158459864283,-3.059713571221997
52,0.9304340740748003,0.6906245758688369,0.620644056042269,6.018523796610891,2.521563249946478,1.4132131646330177,6.0076063938745845,-1.0,-1.606074928112398,-0.9849044697388203,-3.14,3.14,-0.8273664097175855,-3.0921084337210387
53,0.9295297122888061,0.6858635411291264,0.6246524122735574,6.0104583259085596,2.517099824333442,1.418085544126723,5.993618947664379,-1.0,-1.582795322569458,-0.9584254966930742,-3.14,3.14,-0.8259954050191076,-3.1237794794310454
54,0.9368658404447043,0.6815271236429621,0.6399850135961755,6.0021086465778195,2.5129347812576497,1.4230009621036208,5.979252712331524,-1.0,-1.5600556203870906,-0.9314035426967968,-3.14,3.14,-0.8252018624905155,-3.14
55,0.9524451020675556,0.6776737154249028,0.6660954316789454,5.995383273084876,2.5093977046864397,1.4276746826933673,5.96694171944514,-1.0,-1.5398035464195337,-0.9054277960086676,-3.14,3.14,-0.8249490572243459,-3.14
56,0.9672670743395998,0.6743158528741787,0.6900672967889454,5.991460457954971,2.50671330124588,1.4318593113360851,5.958359797174658,-1.0,-1.5236946988499978,-0.8819439154291702,-3.14,3.14,-0.8250892419045321,-3.14
57,0.9813234814074931,0.6714626947610959,0.7120458188424243,5.988906110333294,2.5046744659433977,1.4356382022699121,5.951911502338234,-1.0,-1.5108782023655687,-0.8605528020357494,-3.14,3.14,-0.8254918250280701,-3.14
58,0.9945948841148319,0.6690936759705461,0.7321556714737615,5.986932729459225,2.5031245275247076,1.43906257414162,5.946669406895844,-1.0,-1.5006555531139343,-0.8410112613718964,-3.14,3.14,-0.8260834525313544,-3.14
59,1.0067494738745628,0.6671897284661971,0.7500768180327595,5.985135592271154,2.501944348648639,1.442103822589304,5.942119844422563,-1.0,-1.4924647534947737,-0.8231661807078117,-3.14,3.1395715959138175,-0.8268175660056134,-3.14
60,1.0170386961073645,0.6657588156775477,0.7649108777824982,5.983289017949103,2.5010425761340205,1.4446458315771356,5.937963848639053,-1.0,-1.4858702066623002,-0.8068224333329516,-3.14,3.137625846364861,-0.827644109105189,-3.14
61,1.0259065955039166,0.6647205058225604,0.7774099625010998,5.981239308167,2.5003526431312633,1.4468169673854065,5.933961771520855,-1.0,-1.4805512999767383,-0.7915907905822831,-3.14,3.134528077819333,-0.8284880441271885,-3.14
62,1.0336663372857793,0.6640069874405672,0.7881007438553621,5.978931866489144,2.499824182548359,1.4487043551531642,5.929987039643173,-1.0,-1.4762420736168744,-0.7772039616646591,-3.14,3.1305314967749647,-0.829316805835889,-3.14
63,1.0405484248901287,0.6635614624549292,0.7973681613239457,5.9763639041362495,2.4994189920845473,1.4503700128160217,5.925977884918502,-1.0,-1.4727267272300295,-0.7634698174762438,-3.14,3.125819636664688,-0.8301182913776812,-3.14
64,1.0467307198585394,0.6633368159142768,0.8055059059118351,5.973556711390761,2.4991080479604215,1.4518602968592207,5.921907749305634,-1.0,-1.4698326373836106,-0.7502434639579372,-3.14,3.1205316383534853,-0.8308898771873791,-3.14
65,1.0523562363410819,0.6632943757371613,0.812746320215186,5.970540160288698,2.4988692780070068,1.4532113448512827,5.917767848855402,-1.0,-1.467422944866822,-0.7374109162578633,-3.14,3.114777048148365,-0.831633169848159,-3.14
66,1.0575434363899645,0.6634027374348439,0.8192781100488845,5.967344615752611,2.498685887080193,1.454452210146552,5.9135573570643905,-1.0,-1.4653896928731502,-0.7248796094464616,-3.14,3.108644477789139,-0.8323516141490612,-3.14
67,1.0623922165947228,0.6636366677709568,0.8252570880576009,5.96399717218631,2.4985450898630375,1.4556067075426173,5.909278190651364,-1.0,-1.463647904267074,-0.7125727946258816,-3.14,3.1022067922536536,-0.8330494535243966,-3.14
68,1.0669875547702272,0.6639761055050042,0.8308130424054876,5.960520297081649,2.4984371485489634,1.4566945579095127,5.904932465405551,-1.0,-1.4621306772926834,-0.7004260742390159,-3.14,3.095524388608002,-0.8337312903763071,-3.14
69,1.0714019488772983,0.6644052722966385,0.8360544846258565,5.956931723204513,2.4983546412177136,1.4577321580517648,5.9005214259761605,-1.0,-1.4607852308195917,-0.6883850870106347,-3.14,3.088647443821938,-0.8344018916345024,-3.14
70,1.0756972548942632,0.6649118997229666,0.8410722271201247,5.953244915450775,2.498291905894763,1.4587331491796636,5.896045135690381,-1.0,-1.4595697700398333,-0.6764038071524554,-3.14,3.081617602250867,-0.8350660860477925,-3.14
71,1.079926222352058,0.6654865715565021,0.8459422802529498,5.94946973947331,2.498244618722285,1.4597088716825573,5.891502518213045,-1.0,-1.4584510296424769,-0.6644431832454145,-3.14,3.0744693422364597,-0.83572869523849,-3.14
72,1.0841338582377782,0.6661221749822626,0.8507283085088572,5.9456131404444506,2.498209474454952,1.4606687481847036,5.8868915302191684,-1.0,-1.4574023601688775,-0.6524699844677849,-3.14,3.067231136714056,-0.8363944817807033,-3.14
73,1.0883586663540132,0.6668134506954849,0.8554837576748653,5.94167974522238,2.498183944855043,1.4616206139990722,5.882209354712547,-1.0,-1.456402241305146,-0.6404557945175257,-3.14,3.059926460045666,-0.8370681125364056,-3.14
74,1.0926337731566322,0.6675566297973,0.8602537058659145,5.937672358724259,2.498166096219519,1.462571003667895,5.877452566730518,-1.0,-1.455433126259957,-0.6283761274079336,-3.14,3.0525746647117384,-0.8377541389435603,-3.14
75,1.0969879396759166,0.6683491448168157,0.8650764675848583,5.933592354434281,2.498154451666963,1.4635253981952796,5.872617255943631,-1.0,-1.4544805406179018,-0.6162096528100212,-3.14,3.045191740432599,-0.8384569952171051,-3.14
76,1.1014464589779749,0.6691894026458679,0.8699849731252688,5.929439971781356,2.498147887233593,1.4644884364263264,5.867699106356974,-1.0,-1.4535323756725453,-0.6039375224121503,-3.14,3.037790965362885,-0.8391810138139666,-3.14
77,1.1060319424896559,0.6700766082892164,0.8750079453908561,5.925214537084796,2.4981455534820163,1.4654640940127461,5.862693439592507,-1.0,-1.4525783298383377,-0.591542788627254,-3.14,3.0303834592132137,-0.839930456299231,-3.14
78,1.1107650028403657,0.6710106297828298,0.8801708976558227,5.920914624343279,2.4981468163730893,1.4664558336611802,5.857595229663705,-1.0,-1.4516094624695723,-0.5790099057686372,-3.14,3.0229786490754607,-0.8407095572396758,-3.14
79,1.115664844219428,0.6719918961771277,0.885496976824062,5.916538169865583,2.498151212718173,1.4674667305298494,5.852399096371225,-1.0,-1.4506178326613974,-0.56632430278052,-3.14,3.0155846593542344,-0.8415225788580493,-3.14
80,1.1207497732534908,0.6730213219643678,0.8910076767395351,5.912082551964435,2.4981584167205373,1.468499576621305,5.847099282869774,-1.0,-1.4495962018151634,-0.5534720161434218,-3.14,3.00820863725617,-0.8423738747111922,-3.14
81,1.126037644224417,0.6741002526617395,0.8967234451160411,5.9075446443127735,2.4981682150159554,1.4695569678288887,5.8416896212851235,-1.0,-1.448537783332803,-0.5404393716715827,-3.14,3.00085702480825,-0.843267961424851,-3.14
82,1.1315462524002553,0.6752304274052677,0.9026642060020406,5.902920849359917,2.498180488302299,1.4706413769869018,5.836163488797497,-1.0,-1.447436026111209,-0.5272127044207419,-3.14,2.993535787529666,-0.8442095984017028,-3.14
83,1.1372936886817755,0.6764139553571634,0.9088498177211949,5.898207116486412,2.4981951981613295,1.471755215907869,5.830513755442574,-1.0,-1.4462844208090442,-0.5137781066401638,-3.14,2.9862506088430965,-0.8452038763525606,-3.14
84,1.1432986679621577,0.67765330349113,0.9153004842241141,5.893398948310926,2.4982123780658925,1.4729008890120485,5.824732724003583,-1.0,-1.4450763193502218,-0.5001211944660848,-3.14,2.979007058223103,-0.8462563164740019,-3.14
85,1.1495808427722265,0.678951293913917,0.9220371359633251,5.888491397690508,2.4982321278665673,1.4740808407966155,5.81881206172918,-1.0,-1.4438047589345886,-0.48622688473740955,-3.14,2.971810740039714,-0.8473729831430493,-3.14
86,1.156161113082186,0.6803111093234254,0.9290817948976708,5.883479057421529,2.4982546112897412,1.4752975990727677,5.812742723160397,-1.0,-1.4424622820046424,-0.4720791738295964,-3.14,2.9646674291200257,-0.8485606141936167,-3.14
87,1.1630619426378794,0.6817363055034881,0.936457937117769,5.878356044420526,2.498280056175327,1.4765538156244469,5.806514863048239,-1.0,-1.441040743157932,-0.4576609106910501,-3.14,2.9575831982392424,-0.8498267742915288,-3.14
88,1.17030769195902,0.68323082990921,0.94419086588489,5.873115980246992,2.498308757353936,1.477852305708754,5.8001177381797415,-1.0,-1.4395310928138696,-0.4429535562927526,-3.14,2.9505645420525415,-0.8511800387940288,-3.14
89,1.1779249781020655,0.6847990453795797,0.9523081075709451,5.867751970282046,2.49834108222516,1.479196087611935,5.793539596930818,-1.0,-1.4379231253626192,-0.4279369214494184,-3.14,2.943618501345321,-0.8526302179927103,-3.14
90,1.1859430714096333,0.6864457577672372,0.9608398430020799,5.862256584832853,2.498377479264441,1.4805884232709519,5.786767555612596,-1.0,-1.4362051762329224,-0.4125888744427686,-3.14,2.9367527908239417,-0.8541886351266772,-3.14
91,1.194394339542903,0.6881762456842856,0.9698193868774284,5.856621847150265,2.4984184898698807,1.4820328607252613,5.779787461352411,-1.0,-1.4343637473091146,-0.3968850091130465,-3.14,2.929975932836031,-0.8558684765118011,-3.14
92,1.2033147487355607,0.6899962894170242,0.9792837279214146,5.850839236287806,2.4984647641775224,1.4835332788000746,5.772583742693947,-1.0,-1.4323830325896063,-0.38079826319366955,-3.14,2.923297398121669,-0.8576852393270215,-3.14
93,1.212744430643587,0.6919121939797227,0.989274141553617,5.8448997177124244,2.498517081741653,1.4850939338036289,5.765139251957142,-1.0,-1.4302443045892703,-0.3642984759089178,-3.14,2.9167277524512536,-0.859657313238425,-3.14
94,1.2227283188503661,0.6939307975614378,0.9998368837498848,5.838793823069031,2.498576378314503,1.486719506892197,5.757435108879465,-1.0,-1.4279251045774686,-0.3473518738261194,-3.14,2.910278803865817,-0.8618067480837066,-3.14
95,1.2333168489210706,0.6960594499800697,1.0110239666209024,5.832511815181428,2.4986437803851356,1.4884151486336068,5.749450565479331,-1.0,-1.4253981526783013,-0.329920475939816,-3.14,2.903963737415184,-0.8641602845313465,-3.14
96,1.2445666935744784,0.6983059337468853,1.0228939972725872,5.826044000263814,2.498720649654458,1.490186513237573,5.741162931948419,-1.0,-1.4226298509091906,-0.31196141575409053,-3.14,2.897797209297384,-0.8667507634979416,-3.14
97,1.2565414569755522,0.7006782781932261,1.0355130196290208,5.819381296103556,2.4988086401899237,1.4920397670230368,5.732547641704834,-1.0,-1.4195781824307196,-0.2934261957794017,-3.14,2.891795343133135,-0.8696190928159566,-3.14
98,1.26931215159337,0.7031843752274535,1.0489552081604494,5.812516251956436,2.4989097714385284,1.4939815400398835,5.7235786090786185,-1.0,-1.4161896937616971,-0.274259931720926,-3.14,2.885975513283575,-0.8728170535702454,-3.14
99,1.282957066934017,0.705831223701506,1.0633030658258067,5.8054448829350305,2.4990265200115838,1.4960187579841375,5.714229184949373,-1.0,-1.4123950463890658,-0.2544007397513811,-3.14,2.880355682729971,-0.8764114058676488,-3.14
100,1.2975601751475527,0.7086234648675074,1.0786463465665908,5.798170014403748,2.499161930551656,1.498158225101129,5.704474331228181,-1.0,-1.4081022685693427,-0.2337796401569495,-3.14,2.874952817694171,-0.8804900661106005,-3.14
101,1.3132061848218064,0.7115605266784853,1.0950779512422395,5.790707522058796,2.4993197364318096,1.5004056849579688,5.69429531473416,-1.0,-1.403186184860254,-0.21232186052090427,-3.14,2.869779370652386,-0.8851716962933311,-3.14
102,1.3299679774362396,0.7146309414473502,1.1126827942776534,5.783098348638294,2.4995044513932414,1.5027637624311336,5.683689743947707,-1.0,-1.3974712585328435,-0.18995163287918987,-3.14,2.8648356318062485,-0.8906211151179791,-3.14
103,1.3478765040206684,0.7178006849027229,1.1315102448603054,5.7754325633150945,2.499721305406604,1.5052274327235642,5.672693326055965,-1.0,-1.3907026425870337,-0.16660554333842492,-3.14,2.860092966645311,-0.8970750102966963,-3.14
104,1.3668493703619675,0.7209883365132361,1.151507472939263,5.767899682646522,2.4999756392840418,1.5077738282276583,5.661428302669034,-1.0,-1.3824953462690805,-0.14226693828187462,-3.14,2.8554562485493036,-0.9048864912696822,-3.14
105,1.3865204569199203,0.7240102737174884,1.1723584142333983,5.760898331344411,2.5002706121636504,1.5103387155077104,5.650214372047635,-1.0,-1.372241761295837,-0.1170526165577165,-3.14,2.850677563746945,-0.9146047396428602,-3.14
106,1.4058384160580049,0.7264586434077117,1.1931010761907022,5.755279243640485,2.5005999631193605,1.5127619610809195,5.6398240530703205,-1.0,-1.3589408718740938,-0.09142592300934871,-3.14,2.8451576951522215,-0.9271182225633348,-3.14
107,1.4222230088327017,0.727454012481016,1.2113193883125346,5.752843401692195,2.5009283181772153,1.514671960028468,5.632018296754562,-1.0,-1.340896866325993,-0.06666410437186274,-3.14,2.8375323039491462,-0.943894203672917,-3.14
108,1.430623585106924,0.7253624758113213,1.2222464621520266,5.756967077271105,2.50115743673022,1.5153407862930781,5.630196401561206,-1.0,-1.315284900067411,-0.045436715185918394,-3.14,2.825182939351793,-0.9672732153942065,-3.14
109,1.4262757251116611,0.7184572748415053,1.221497667814548,5.77155555206778,2.5011722804655196,1.513979747340619,5.637993511285575,-1.0,-1.2777928165581067,-0.03046178628938505,-3.14,2.8053735139636373,-1.000546733201606,-3.14
110,1.4131231847363577,0.7070773466935918,1.2133436704527156,5.7971576404932454,2.5011346563723773,1.5108056089826016,5.654578644970715,-1.0,-1.2228338216019246,-0.020015633420186696,-3.14,2.7789455496655364,-1.047484423683082,-3.14
111,1.3924155506266502,0.6914468144545434,1.1989664343973558,5.836499454167293,2.5012865283508257,1.5053759368824422,5.681811770706135,-1.0,-1.1457615838182973,-0.015021565793103236,-3.14,2.744591327319933,-1.1106213450097755,-3.14
112,1.385578126512938,0.6768985327641504,1.1995824427986865,5.88146606397727,2.502937986523903,1.5004677192621345,5.709480853981508,-1.0,-1.044808767410941,-0.0045001982771546226,-3.14,2.7105846087308225,-1.1888241363120702,-3.14
113,1.3302258661742026,0.6555423336879964,1.1478252815600456,5.97374886857201,2.5028008965883863,1.4819418120226338,5.7865015378681965,-1.0,-0.9274625983891193,-0.0400113818400409,-3.14,2.6347523195401217,-1.2751567082724091,-3.14
114,1.6143814578696378,0.6957030045385567,1.4484503112275955,5.869150578008332,2.5300759918400537,1.5354530245434437,5.63547517317075,-1.0,-0.8306248353362536,0.19404369181726355,-3.14,2.77691748083709,-1.3201783189534857,-3.14
115,1.3588959593966365,0.5785613710152315,1.2217729414391343,6.014334612058224,2.4329091628310473,1.495482577395478,5.897512172788417,-1.0,-0.8547733196346399,-0.07177895990384753,-2.941182820556618,2.539265704201579,-1.3243410178801749,-3.14
116,1.2367720790348882,0.5619092312302452,1.0943406513298872,6.133888476020554,2.4348886433991823,1.5175407753364216,6.005537747948853,-1.0,-0.8364289060899256,0.3582174397793251,-2.908145721197684,1.8673719736593801,-1.3131889857439931,-3.14
117,1.102900569522843,0.4792120054795022,0.9878383705201572,6.202998174862897,2.3553149172715853,1.5597615294240805,6.166954074334994,-1.0,-0.8653754081764753,0.25915048782509964,-2.6780859554318006,1.5903522403844859,-1.238511316430975,-3.14
118,1.0085825033291238,0.43743981201888826,0.9045046018154248,6.239302989517327,2.316226709055638,1.6061669175367193,6.259206803832518,-1.0,-0.8986643189972258,0.24638602732513798,-2.523183208918574,1.3492308928490764,-1.1617972921011146,-3.14
119,0.9302978943587602,0.41897523112050894,0.827088606357223,6.252111202759586,2.300362493096435,1.6422925389112975,6.315309932624516,-1.0,-0.9452401334714087,0.23848023379308803,-2.419743290598503,1.1818671511647796,-1.0866954368729207,-3.14
120,0.8613722367546772,0.4128070070714552,0.7529936171386822,6.25274444496805,2.297244023607147,1.6685076194516424,6.355290024580964,-1.0,-0.9990656508866781,0.22751874707445033,-2.345711211944552,1.0618888118639367,-1.0206965897292104,-3.14
121,0.8005628429665032,0.4141557934394143,0.6824450347057679,6.247616653441719,2.301790257198671,1.6866808571239713,6.386932435285152,-1.0,-1.0546148371782467,0.21402539680320942,-2.2904350130740876,0.9713753835405264,-0.9664033494019172,-3.14
122,0.7480704422047005,0.4201510525042866,0.6165270274694227,6.240113654701516,2.310806128352052,1.6988123299743012,6.413237525033844,-1.0,-1.1079129767709832,0.1991682085360474,-2.247704510439043,0.899935372767743,-0.9236792168158019,-3.14
123,0.7041231098963456,0.4287633261165302,0.5563107261055922,6.2319272552330345,2.322090580472418,1.7066156752751014,6.435401041679626,-1.0,-1.1566128519653522,0.18387408769631952,-2.2136751570878537,0.841810073101738,-0.8910840625438632,-3.14
124,0.6684823377796226,0.4385360199215844,0.5024741590173135,6.223855309570818,2.3341373858919185,1.7114194572999168,6.454046323219533,-1.0,-1.199667213378925,0.1687505972553891,-2.1858894089583325,0.793776704452639,-0.8667303744335865,-3.14
125,0.6404120250657274,0.4484759269545483,0.4552313840884979,6.216250425321837,2.345969250489779,1.714198221457506,6.469664214752983,-1.0,-1.2368864606312873,0.15414939539485112,-2.1627197270488394,0.7538827956729698,-0.8487659845868355,-3.14
126,0.6188486470045418,0.45795524542937693,0.4144150026289995,6.20925501846229,2.3570012381253314,1.7156435003685477,6.482725442901368,-1.0,-1.2685637826879723,0.1402462427122516,-2.1430436002953455,0.720781536589932,-0.8355993843280712,-3.14
127,0.6026086868650951,0.46661518053044015,0.3796018321376965,6.20291591907951,2.366924294440568,1.7162355461646983,6.49368343324149,-1.0,-1.295221254135922,0.12710580869487195,-2.1260559047100225,0.6934227760387751,-0.8259636679448651,-3.14
128,0.5905520683586574,0.47428285276801824,0.35022665417631216,6.1972363766327,2.375613344652771,1.7163023594424058,6.502954536237318,-1.0,-1.3174600195579178,0.11472640887836627,-2.111160246941349,0.670924126534117,-0.8188968294142402,-3.14
129,0.5816788372400958,0.48090704212900875,0.32566689063244886,6.192198195374749,2.383059791765661,1.7160642452428205,6.510902829848427,-1.0,-1.335880152624561,0.10306858813495512,-2.0979042686832634,0.6525217231294492,-0.8136896531308319,-3.14
130,0.5751676211981518,0.48651183188562525,0.30529887125943206,6.1877709100124045,2.389324346859823,1.7156661949323868,6.517834116168875,-1.0,-1.3510415494049945,0.09207283153847987,-2.0859392105682586,0.6375514755575968,-0.8098286379121618,-3.14
131,0.5703750852540801,0.49116462759214696,0.2885319141051913,6.183915968642285,2.3945052154402906,1.7152010679307441,6.523997121753579,-1.0,-1.3634473491272674,0.08167051391486857,-2.0749931619489996,0.6254397393404694,-0.806945729703334,-3.14
132,0.5668147247016987,0.49495481405305547,0.2748267456266021,6.180589281758886,2.398717292574279,1.714726085871168,6.529588952335071,-1.0,-1.3735392394296495,0.07179072376310189,-2.064852425451955,0.6156956703906313,-0.8047782623795532,-3.14
133,0.5641281055671804,0.49797995874670564,0.2637035079509921,6.177743326401108,2.4020790278194424,1.7142745100724985,6.53476246234314,-1.0,-1.3816988466867353,0.06236451171933646,-2.055348019106094,0.6079031471153233,-0.8031387535997444,-3.14
134,0.5620562160362421,0.5003372392964311,0.25474317032926824,6.175329083240444,2.404704532006563,1.7138638456991153,6.5396340135856725,-1.0,-1.3882521021206071,0.05332745949442114,-2.046345646295847,0.6017121817312913,-0.8018928833587307,-3.14
135,0.5604145397262215,0.502118421349563,0.2475849914649719,6.173297771927484,2.406699201187368,1.7135015385091799,6.544290751728265,-1.0,-1.3934749051502873,0.04462110855601706,-2.037738124684643,0.5968302820254889,-0.8009437761402848,-3.14
136,0.5590729769184065,0.5034072032443677,0.2419218139372491,6.171602293780806,2.4081576469591677,1.713188867688008,6.5487969785757105,-1.0,-1.3975991639207108,0.03619359978082584,-2.0294396137823925,0.5930142181956447,-0.8002209322730125,-3.14
137,0.5579404500588487,0.5042780994416375,0.2374943574943548,6.170198324811891,2.4091630917425766,1.7129235523168445,6.553199480073665,-1.0,-1.4008187058846442,0.02799977186828306,-2.0213811804072357,0.5900624950232622,-0.7996724952621648,-3.14
138,0.5569534913632093,0.5047962894390626,0.2340852504832258,6.1690450525937655,2.409787651940818,1.712701452864652,6.557531832415776,-1.0,-1.4032947861325753,0.020000902248488522,-2.0135073677671462,0.5878086748035964,-0.7992598698037192,-3.14
139,0.5560679813770611,0.5050180406197521,0.23151324577547042,6.168105590097066,2.4100931203880025,1.7125176468744545,6.561817791755788,-1.0,-1.4051610605699842,0.012164228450819735,-2.0057735212640724,0.5861155828886936,-0.798953976511056,-3.14
140,0.555253270206422,0.5049914426075807,0.22962787039562563,6.167347122077481,2.4101319928210923,1.7123670805750484,6.56607390639506,-1.0,-1.4065279759485518,0.004462351900567752,-1.9981436876944776,0.5848703572835325,-0.7987326378145607,-3.14
141,0.5544880459239436,0.5047572817475078,0.22830462847303928,6.166740847196016,2.4099485762150783,1.7122449397544959,6.570311494518426,-1.0,-1.4074865803310752,-0.003127403095001438,-1.9905889517135837,0.5839802665061532,-0.7985787427250243,-3.14
142,0.5537574566782553,0.5043499477476127,0.22744079474343593,6.166261776511399,2.4095800807016645,1.7121468398021782,6.574538119231757,-1.0,-1.4081117876841036,-0.01062362581706075,-1.983086108501259,0.5833692048114261,-0.7984789476009647,-3.14
143,0.5530511184501692,0.503798307951053,0.2269517858941245,6.165888440806463,2.4090576396607624,1.7120689031215408,6.578758674436107,-1.0,-1.4084651462711995,-0.018041419865862177,-1.9756165974431306,0.5829747720762742,-0.7984227466854329,-3.14
144,0.5523617413746155,0.503126513802735,0.22676806899518728,6.165602548787037,2.408407230566738,1.712007769443907,6.582976175086328,-1.0,-1.4085971672327178,-0.02539295047146721,-1.9681656405728363,0.5827458510648897,-0.7984017990613368,-3.14
145,0.5516841845560156,0.502354723028745,0.22683255256589707,6.165388627706038,2.4076504868270763,1.7119605687031247,6.58719232642897,-1.0,-1.4085492705537956,-0.032687930310331306,-1.9607215432956502,0.5826406035837094,-0.7984094348043106,-3.14
146,0.5510148060058008,0.5014997329455887,0.22709840122844932,6.165233668618725,2.406805401476265,1.7119248752565508,6.59140793021728,-1.0,-1.4083554028885947,-0.03993404222976989,-1.9532751249267275,0.5826248169267736,-0.7984402876290833,-3.14
147,0.5503510150789425,0.5005755274094917,0.2275272157906898,6.165126790778358,2.40588692954504,1.711898654946629,6.595623172093905,-1.0,-1.4080433770375782,-0.047137301371908455,-1.9458192538905679,0.582670541759042,-0.7984900178968921,-3.14
148,0.5496909635662414,0.499593743813663,0.22808752455984427,6.16505893371735,2.4049074988692425,1.7118802117171399,6.599837823255134,-1.0,-1.4076359773393436,-0.054302361539418774,-1.9383484678246097,0.5827549715725742,-0.7985551010384151,-3.14
149,0.5490333316697883,0.49856406837523576,0.22875353714805635,6.1650225811745685,2.4038774401676797,1.7118681374399294,6.604051380863969,-1.0,-1.4071518695239589,-0.061432771785424826,-1.9308586628704494,0.5828595218265887,-0.7986326640081227,-3.14
150,0.5483771789558834,0.49749456850310253,0.22950411800256693,6.165011517970553,2.402805347165066,1.711861266705891,6.608263165073218,-1.0,-1.4066063480913784,-0.06853118954758228,-1.9233468395149311,0.582969073795517,-0.79872035751598,-3.14
151,0.5477218398950469,0.4963919708279349,0.2303219427899447,6.165020618919658,2.4016983768622255,1.7118586371922477,6.612472385559833,-1.0,-1.406011949249802,-0.07559955648291401,-1.9158108947324968,0.5830713540495727,-0.7988162552844477,-3.14
152,0.5470668500963614,0.49526189285133754,0.23119280625944252,6.165045667643635,2.4005624990783048,1.7118594555657785,6.616678186801211,-1.0,-1.4053789529753375,-0.08263924270902558,-1.9082494520663784,0.5831564254765619,-0.7989187739898752,-3.14
153,0.5464118937657235,0.4941090353523671,0.23210505514828875,6.165083202494655,2.3994027033038874,1.7118630685365503,6.62087967864126,-1.0,-1.4047157938595713,-0.08965116456409972,-1.9006617227975633,0.583216269933683,-0.7990266092253641,-3.14
154,0.5457567659216341,0.49293734181198195,0.23304912401894082,6.16513038653135,2.398223169824445,1.7118689385193528,6.625075956753636,-1.0,-1.404029397073734,-0.09663588035706462,-1.8930473925756317,0.5832444461054959,-0.7991386840047818,-3.14
155,0.5451013449412279,0.49175013025846814,0.23401715564378592,6.1651848984852275,2.3970274110631404,1.7118766233130194,6.629266116219523,-1.0,-1.403325452950912,-0.10359366794875256,-1.885406528887252,0.583235809042643,-0.7992541071729451,-3.14
156,0.5444455723937855,0.4905502021422492,0.23500269071860302,6.165244841807618,2.3958183881810284,1.7118857592224588,6.633449260449861,-1.0,-1.402608641314287,-0.11052458741782915,-1.877739505561542,0.583186280257553,-0.7993721397004303,-3.14
157,0.5437894380602764,0.4893399321363934,0.23600041435050287,6.165308669129265,2.3945986071713476,1.7118960470942515,6.63762450698595,-1.0,-1.401882814700351,-0.11742853153824301,-1.8700469411905907,0.5830926592387324,-0.7994921672935585,-3.14
158,0.5431329686789999,0.4881213421354465,0.2370059489917864,6.165375119748053,2.393370197991971,1.7119072407961196,6.641790991225428,-1.0,-1.4011511479844792,-0.12430526633366677,-1.862329648904152,0.5829524688833341,-0.799613678088375,-3.14
159,0.5424762193959769,0.486896162187626,0.23801568534009937,6.165443168053665,2.392134979688675,1.7119191377330003,6.645947868782409,-1.0,-1.400416260560071,-0.13115446357816038,-1.8545885954005363,0.5827638286970753,-0.7997362444542302,-3.14
160,0.5418192671999688,0.4856658806374929,0.23902664425448902,6.165511981081652,2.3908945139617,1.7119315710522125,6.650094316957209,-1.0,-1.399680316105528,-0.13797572677673067,-1.8468248675176473,0.5825253507206499,-0.7998595081300802,-3.14
161,0.5411622058298227,0.4844317853693952,0.24003636399761025,6.165580883652415,2.3896501492077125,1.711944403244526,6.654229535631392,-1.0,-1.3989451040556045,-0.14476861187838627,-1.8390396449427238,0.5822360540539343,-0.799983168070345,-3.14
162,0.5405051417863052,0.4831949977174693,0.24104280815072812,6.165649329787406,2.388403056718028,1.7119575208957905,6.658352747795329,-1.0,-1.398212106141016,-0.15153264374090877,-1.831234177917994,0.581895294598087,-0.8001069704980049,-3.14
163,0.5398481911815406,0.4819565003369082,0.24204429039874575,6.165716879303373,2.3871542604213962,1.7119708303850378,6.662463199842346,-1.0,-1.3974825507437605,-0.15826732917412376,-1.8234097690116793,0.581502707249802,-0.8002307007584523,-3.14
164,0.539191477230459,0.4807171601057386,0.2430394130792318,6.1657831786664286,2.3859046613168546,1.711984254359972,6.666560161714771,-1.0,-1.3967574573113015,-0.16497216723068214,-1.8155677581975904,0.5810581582853891,-0.8003541766441336,-3.14
165,0.5385351282392992,0.47947774693921047,0.24402701695969076,6.1658479453425645,2.384655057540968,1.7119977288502948,6.670642926955018,-1.0,-1.396037672660502,-0.17164665728458012,-1.8077095106285657,0.5805617060846728,-0.8004772429215015,-3.14
166,0.5378792759826465,0.47823894924401184,0.24500614017355743,6.165910955012677,2.383406160847502,1.7120112009038633,6.674710812693935,-1.0,-1.3953239006653984,-0.17829030533295614,-1.7998364066048735,0.5800135686822947,-0.8005997668414,-3.14
167,0.5372240543868879,0.47700138661143116,0.24597598462628242,6.16597203113063,2.3821586101401735,1.712024626651164,6.678763159595249,-1.0,-1.3946167265478648,-0.18490262887183695,-1.791949833333013,0.5794140969102327,-0.800721634454192,-3.14
168,0.5365695984573339,0.47576562024285435,0.24693588849401404,6.166031036395356,2.3809129825858264,1.7120379697204426,6.682799331766583,-1.0,-1.3939166367656879,-0.19148316062790582,-1.7840511781470378,0.5787637521213271,-0.8008427475835915,-3.14
169,0.535916043400592,0.474532161513729,0.24788530369129835,6.16608786578492,2.3796698027419225,1.7120511999398214,6.6868187166425095,-1.0,-1.3932240353093222,-0.19803145137301675,-1.7761418229267631,0.5780630876683636,-0.8009630213397421,-3.14
170,0.5352635239045324,0.47330147901022146,0.24882377739145367,6.166142440864035,2.3784295500552908,1.7120642922741884,6.690820724842117,-1.0,-1.3925392570690578,-0.2045470720036172,-1.768223139497657,0.5773127334643121,-0.8010823820737768,-3.14
171,0.5346121735462834,0.47207400431349056,0.24975093685241706,6.166194705129231,2.3771926650256106,1.712077225954083,6.694804790002081,-1.0,-1.3918625788123156,-0.2110296150314018,-1.7602964858380707,0.5765133830727623,-0.8012007656938087,-3.14
172,0.5339621243048964,0.47085013675769377,0.2506664769387646,6.166244620199036,2.375959554274936,1.7120899837615688,6.6987703685854445,-1.0,-1.3911942282112302,-0.2174786956027318,-1.7523632029524736,0.5756657828784396,-0.801318116276792,-3.14
173,0.5333135061600979,0.46963024734762215,0.25157014984318377,6.166292162692077,2.3747305947215622,1.7121025514444137,6.702716939666159,-1.0,-1.3905343912794732,-0.223893952141261,-1.7444246122960556,0.5747707229700798,-0.8014343849225536,-3.14
174,0.5326664467622259,0.4684146819887198,0.25246175660243975,6.166337321665129,2.3735061370211232,1.7121149172351344,6.706644004689451,-1.0,-1.3898832185109942,-0.23027504668968024,-1.7364820136575887,0.5738290294352141,-0.8015495288060087,-3.14
175,0.5320210711613843,0.4672037641550118,0.2533411400777673,6.1663800965069075,2.3722865084087434,1.7121270714557169,6.710551087208323,-1.0,-1.3892408299593189,-0.23662166501164456,-1.7285366834248248,0.5728415578213524,-0.8016635103915306,-3.14
176,0.5313775015860815,0.46599779709797906,0.25420817913064925,6.166420495202859,2.3710720150520297,1.7121390061923245,6.7144377325967355,-1.0,-1.3886073194519346,-0.2429335165030459,-1.7205898731707105,0.5718091875628961,-0.8017762967799734,-3.14
177,0.5307358572634606,0.46479706568097096,0.2550627837747854,6.166458532902055,2.3698629440050327,1.7121507150271764,6.718303507740323,-1.0,-1.3879827580983317,-0.24921033395225864,-1.7126428085100043,0.5707328172097182,-0.8018878591641911,-3.14
178,0.5300962542746691,0.46360183790850784,0.2559048911256022,6.166494230730227,2.368659564837026,1.712162192817111,6.722148000705708,-1.0,-1.387367197220924,-0.25545187318133683,-1.7046966881849739,0.5696133603232099,-0.8019981723732843,-3.14
179,0.5294588054400203,0.46241236620731974,0.2567344620018348,6.166527614803454,2.3674621309966306,1.712173435510288,6.725970820389701,-1.0,-1.3867606708141367,-0.261657912594008,-1.696752683346194,0.5684517419299554,-0.8021072144894016,-3.14
180,0.5288236202295997,0.4612288885056768,0.2575514780606355,6.166558715405651,2.366270880960835,1.7121844399940258,6.7297715961498605,-1.0,-1.3861631976174424,-0.2678282526513954,-1.6888119370003838,0.5672488954430878,-0.8022149665238734,-3.14
181,0.5281908046956258,0.4600516291490579,0.2583559393697459,6.1665875662998575,2.3650860392094035,1.712195203968086,6.733549977417969,-1.0,-1.3855747828721974,-0.27396271529243243,-1.6808755636019916,0.5660057599775621,-0.8023214121418721,-3.14
182,0.5275604614235739,0.4588807996832847,0.2591478623381392,6.1666142041490675,2.3639078170577794,1.7122057258387313,6.737305633298112,-1.0,-1.3849954198191679,-0.2800611433127668,-1.672944648769099,0.564723277998824,-0.8024265374267748,-3.14
183,0.5269326894994669,0.45771659953046046,0.2599272779412008,6.166638668026866,2.3627364133754583,1.7122160046297847,6.741038252151058,-1.0,-1.3844250909830451,-0.28612339971337153,-1.6650202491073254,0.5634023932550987,-0.8025303306770304,-3.14
184,0.5263075844912152,0.45655921657839504,0.26069423018841087,6.166660999001896,2.3615720152118103,1.7122260399075726,6.744747541166663,-1.0,-1.3838637692816407,-0.29214936702802635,-1.657103392127955,0.5620440489523286,-0.8026327822296622,-3.14
185,0.5256852384421651,0.4554088277002912,0.26144877479118844,6.166681239783166,2.360414798347212,1.7122358317172526,6.748433225926024,-1.0,-1.3833114189904225,-0.29813894663714285,-1.6491950762485545,0.5606491861379281,-0.8027338843056272,-3.14
186,0.5250657398752981,0.45426559921831605,0.2621909779964542,6.16669943441566,2.359264927783977,1.7122453805284577,6.752095049955055,-1.0,-1.3827679965873376,-0.3040920580740576,-1.641296270866029,0.5592187422653652,-0.8028336308731449,-3.14
187,0.5244491738067598,0.4531296873220694,0.2629209155578954,6.166715628017737,2.3581225581888026,1.7122546871885973,6.755732774271127,-1.0,-1.382233451498212,-0.3100086383288033,-1.6334079164934383,0.5577536499163315,-0.8029320175258362,-3.14
188,0.5238356217675458,0.45200123845082285,0.26363867182213774,6.166729866553333,2.3569878342961856,1.7122637528824498,6.759346176924337,-1.0,-1.3817077267592275,-0.3158886411534671,-1.625530924953015,0.5562548356611319,-0.8030290413731125,-3.14
189,0.5232251618323531,0.4508803896466681,0.2643443389113178,6.166742196633342,2.3558608912804004,1.7122725790969509,6.762935052534897,-1.0,-1.381190759609899,-0.3217320363725031,-1.6176661796187688,0.5547232190410905,-0.8031247009407348,-3.14
190,0.5226178686547162,0.4497672688842788,0.26503801598692256,6.166752665341572,2.3547418551021373,1.7122811675902694,6.7664992118280685,-1.0,-1.3806824820274701,-0.32753880920075623,-1.6098145357028342,0.5531597116593449,-0.803218996079867,-3.14
191,0.5220138135076615,0.448661995381832,0.26571980858264127,6.166761320081515,2.3536308428346393,1.7122895203644566,6.770038481167964,-1.0,-1.3801828212116136,-0.3333089595714457,-1.6019768205803657,0.551565216368499,-0.8033119278832636,-3.14
192,0.5214130643291925,0.44756467989668147,0.26638982799622707,6.166768208440909,2.3525279629731877,1.7122976396410654,6.773552702091458,-1.0,-1.379691700026671,-0.3390425014759428,-1.5941538341483454,0.5499406265453339,-0.8034034986074987,-3.14
193,0.5208156857720019,0.4464754250086176,0.2670481907321931,6.166773378071537,2.3514333157309655,1.7123055278392678,6.777041730843369,-1.0,-1.3792090374073336,-0.34473946231682373,-1.5863463492141268,0.5482868254441747,-0.8034937116003553,-3.14
194,0.5202217392568698,0.44539432539290935,0.2676950179886637,6.166776876582218,2.3503469933236665,1.7123131875560786,6.780505437913937,-1.0,-1.3787347487325754,-0.35039988227538504,-1.5785551119099481,0.5466046856216635,-0.8035825712326654,-3.14
195,0.5196312830292592,0.4443214680848361,0.2683304351829511,6.1667787514433305,2.3492690802446825,1.7123206215483728,6.7839437075796285,-1.0,-1.378268746171783,-0.3560238136945625,-1.570780842130003,0.5448950684266484,-0.8036700828340314,-3.14
196,0.5190443722186682,0.44325693273700545,0.2689545715113327,6.166779049901395,2.348199653532282,1.7123278327164366,6.7873564374480875,-1.0,-1.377810939006308,-0.3616113204779882,-1.563024233986952,0.5431588235496603,-0.8037562526319734,-3.14
197,0.5184610589003511,0.44220079187042927,0.26956755953937844,6.166777818902616,2.3471387830298323,1.7123348240888452,6.790743538008084,-1.0,-1.3773612339291026,-0.36716247750573683,-1.5552859562850485,0.541396788627114,-0.8038410876941349,-3.14
198,0.5178813921590374,0.44115311112007627,0.27016953481971423,6.166775105024337,2.3460865316398642,1.7123415988085053,6.79410493218515,-1.0,-1.3769195353246353,-0.37267737006716495,-1.5475666530072747,0.53960978889589,-0.8039245958732526,-3.14
199,0.517305418154321,0.44011394947541377,0.27076063553473473,6.166770954413653,2.345042955572551,1.712348160119714,6.797440554903559,-1.0,-1.3764857455309105,-0.3781560933111173,-1.5398669438141235,0.5377986368944104,-0.8040067857546559,-3.14
200,0.5167331801874335,0.43908335951629757,0.27134100216209006,6.16676541273241,2.3440081045890055,1.7123545113561278,6.800750352655206,-1.0,-1.3760597650851218,-0.3835987517136639,-1.532187424551845,0.5359641322067015,-0.8040876666061033,-3.14
201,0.516164718769111,0.4380613876444302,0.27191077716116024,6.166758525108068,2.3429820222396573,1.7123606559295483,6.804034283075912,-1.0,-1.3756414929542211,-0.3890054585634326,-1.5245286677681646,0.5341070612462401,-0.8041672483298031,-3.14
202,0.5156000716883169,0.4370480743105416,0.27247010467898475,6.166750336089826,2.3419647460979136,1.7123665973194497,6.8072923145295405,-1.0,-1.375230826751501,-0.3943763354645258,-1.5168912232336438,0.5322281970766662,-0.8042455414164925,-3.14
203,0.5150392740815891,0.43604345423733853,0.273019130274318,6.166740889609632,2.340956307989158,1.7123723390631829,6.81052442570035,-1.0,-1.3748276629401248,-0.39971151185693427,-1.5092756184670084,0.5303282992666702,-0.8043225569014707,-3.14
204,0.5144823585027976,0.4350475566382552,0.27355800065869035,6.166730228947642,2.3399567342151633,1.7123778847468016,6.813730605193856,-1.0,-1.374431897024422,-0.40501112455430394,-1.5016823592629132,0.5284081137765647,-0.8043983063225014,-3.14
205,0.5139293549931317,0.434060405431974,0.27408686345341904,6.166718396701785,2.338966045773903,1.7123832379964754,6.816910851146492,-1.0,-1.3740434237296624,-0.41027531729885913,-1.49411193022074,0.5264683728742349,-0.8044728016795099,-3.14
206,0.5133802911511299,0.43308201945266617,0.2746058669617233,6.166705434761123,2.3379842585747284,1.712388402470437,6.820065170844257,-1.0,-1.3736621371709439,-0.41550424033324146,-1.4865647952731493,0.5245097950783083,-0.8045460553960123,-3.14
207,0.5128351922026008,0.43211241265590006,0.27511515995508967,6.1666913842827205,2.3370113836488886,1.7123933818514434,6.823193580350537,-1.0,-1.373287931011765,-0.42069804998898525,-1.479041398213225,0.5225330851265344,-0.8046180802822223,-3.14
208,0.5122940810702903,0.4311515943201398,0.27561489147320567,6.1666762856717545,2.3360474273553185,1.712398179839717,6.826296104143213,-1.0,-1.3729206986128,-0.4258569082913192,-1.4715421632191503,0.5205389339674849,-0.8046888894997819,-3.14
209,0.5117569784431553,0.4301995692437646,0.2761052106367209,6.166660178564656,2.33509239158165,1.7124028001463407,6.8293727747611435,-1.0,-1.3725603331713552,-0.4309809825799594,-1.4640674953754635,0.5185280187738033,-0.8047584965280751,-3.14
210,0.5112239028451304,0.4292563379375407,0.27658626647227774,6.166643101815041,2.3341462739403895,1.7124072464870854,6.832423632460076,-1.0,-1.3722067278519459,-0.43607044514553267,-1.4566177811900214,0.5165010029753375,-0.8048269151320753,-3.14
211,0.5106948707032781,0.42832189681247856,0.27705820774916984,6.166625093482223,2.333209067960208,1.712411522576648,6.835448724877998,-1.0,-1.3718597759084121,-0.4411254728812563,-1.449193389105898,0.5144585363105857,-0.8048941593316892,-3.14
212,0.5101698964152164,0.4273962383630206,0.2775211828271099,6.166606190822141,2.332280763272304,1.7124156321232822,6.838448106709933,-1.0,-1.37151937079796,-0.4461462469494815,-1.4417946700075217,0.5124012548949791,-0.8049602433725543,-3.14
213,0.5096489924157521,0.4264793513455199,0.27797533951456715,6.166586430280524,2.3313613457918025,1.7124195788238015,6.841421839392131,-1.0,-1.371185406287504,-0.4511329524626988,-1.4344219577204311,0.5103297813046079,-0.8050251816982519,-3.14
214,0.5091321692426203,0.42557122095195843,0.27842082493717873,6.1665658474881075,2.330450797894169,1.7124233663589412,6.844369990795603,-1.0,-1.370857776552659,-0.4560857781785973,-1.4270755695040962,0.5082447246740786,-0.8050889889238941,-3.14
215,0.5086194356012734,0.42467182897889527,0.278857785415762,6.166544477257762,2.3295490985866167,1.7124269983890559,6.847292634928915,-1.0,-1.3705363762697271,-0.4610049162087607,-1.4197558065373257,0.5061466808072651,-0.805151679811049,-3.14
216,0.5081107984286544,0.4237811539916217,0.2792863663534561,6.16652235358339,2.3286562236745167,1.7124304785501478,6.850189851650153,-1.0,-1.3702211007010014,-0.46589056174058113,-1.4124629543958356,0.5040362322997908,-0.8052132692439605,-3.14
217,0.5076062629558992,0.42289917148352724,0.2797067121315625,6.1664995096404445,2.32777214592281,1.7124338104501993,6.8530617263879305,-1.0,-1.369911845773702,-0.47074291277197045,-1.4051972835216127,0.5019139486721388,-0.8052737722070283,-3.14
218,0.5071058327699184,0.42202585403068044,0.2801189660136634,6.166475977787944,2.3268968352124406,1.7124369976658063,6.855908349871318,-1.0,-1.369608508152849,-0.475562169858449,-1.397959049683761,0.4997803865123636,-0.8053332037635047,-3.14
219,0.5066095098738143,0.4211611714416446,0.28052327005758904,6.1664517895718705,2.326030258691846,1.7124400437390885,6.858729817868562,-1.0,-1.369310985308363,-0.4803485358721944,-1.390748494430568,0.49763608962743217,-0.8053915790353718,-3.14
220,0.5061172947461118,0.4203050909025631,0.2809197650348603,6.166426975729801,2.325172380923539,1.7124429521748692,6.861526230934412,-1.0,-1.3690191755766776,-0.4851022157726343,-1.3835658455325657,0.4954815892022767,-0.8054489131843579,-3.14
221,0.5056291863987574,0.41945757711754245,0.28130859035720146,6.166401566196715,2.3243231640258246,1.7124457264381117,6.864297694165937,-1.0,-1.3687329782171396,-0.48982341638817417,-1.3764113174164192,0.49331740396571283,-0.8055052213940537,-3.14
222,0.5051451824338692,0.41861859244439253,0.2816898840097882,6.16637559011184,2.323482567809717,1.712448369951594,6.867044316966625,-1.0,-1.3684522934634562,-0.4945123462086527,-1.3692851115894908,0.4911440403624101,-0.8055605188530924,-3.14
223,0.5046652790992192,0.41778809702577213,0.2820637824908349,6.166349075826429,2.3226505499111196,1.7124508860938175,6.869766212818606,-1.0,-1.3681770225704508,-0.4991692151881295,-1.3621874170549844,0.4889619927301683,-0.8056148207393496,-3.14
224,0.5041894713424336,0.41696604891580297,0.2824304207572058,6.166322050912425,2.321827065918333,1.7124532781971282,6.872463499062822,-1.0,-1.3679070678563703,-0.5037942345576125,-1.3551184107175958,0.48677174348179847,-0.8056681422051278,-3.14
225,0.5037177528638975,0.4161524042022233,0.2827899321757193,6.166294542171873,2.3210120694949703,1.7124555495460483,6.875136296686954,-1.0,-1.367642332740983,-0.5083876166473409,-1.3480782577796233,0.4845737632909442,-0.8057204983632869,-3.14
226,0.5032501161683557,0.41534711712415856,0.28314244847981496,6.166266575647037,2.320205512498374,1.7124577033757993,6.8777847301209105,-1.0,-1.3673827217796974,-0.5129495747182489,-1.3410671121275262,0.48236851128123576,-0.8057719042742814,-3.14
227,0.5027865526152137,0.4145501401855797,0.28348809973128336,6.166238176631118,2.3194073450936,1.7124597428710084,6.880408927039706,-1.0,-1.3671281406939233,-0.5174803228022461,-1.3340851167089358,0.4801564352182057,-0.8058223749340685,-3.14
228,0.5023270524675326,0.41376142426455026,0.28382701428676715,6.166209369679541,2.3186175158630857,1.7124616711645908,6.883009018173522,-1.0,-1.3668784963978844,-0.5219800755509532,-1.327132403900155,0.47793797170342955,-0.8058719252628495,-3.14
229,0.5018716049397183,0.412980918718331,0.2841593187687639,6.166180178621687,2.3178359719120785,1.712463491336791,6.885585137124756,-1.0,-1.3666336970220925,-0.5264490480925493,-1.3202090958641883,0.4757135463704032,-0.8059205700946085,-3.14
230,0.5014201982439208,0.4122085714844523,0.2844851380408183,6.166150626573079,2.3170626589699315,1.7124652064143795,6.888137420191896,-1.0,-1.3663936519336746,-0.5308874558963921,-1.3133153048993804,0.4734835740816967,-0.8059683241674138,-3.14
231,0.5009728196351395,0.41144432917783735,0.2848045951867034,6.166120735947879,2.3162975214873716,1.7124668193699897,6.8906660061999805,-1.0,-1.3661582717537446,-0.5352955146450804,-1.306451133778739,0.47124845912696,-0.8060152021144468,-3.14
232,0.5005294554550557,0.4106881371840737,0.2851178114933061,6.166090528471734,2.315540502729829,1.712468333121592,6.8931710363375025,-1.0,-1.3659274683719975,-0.5396734401136442,-1.299616676080046,0.46900859542139023,-0.8060612184557245,-3.14
233,0.5000900911745881,0.4099399397489379,0.2854249064369785,6.166060025194841,2.3147915448669467,1.712469750532093,6.895652653999531,-1.0,-1.3657011549587,-0.5440214480555503,-1.2928120165068657,0.46676436670429683,-0.8061063875904845,-3.14
234,0.4996547114352176,0.40919968006427093,0.2857259976731471,6.166029246505241,2.3140505890583736,1.712471074409046,6.89811100463689,-1.0,-1.3654792459742437,-0.5483397540952311,-1.2860372312005754,0.46451614673743746,-0.8061507237901971,-3.14
235,0.4992233000890484,0.4084673003502929,0.28602120102896417,6.165998212142259,2.3133175755359305,1.7124723075044803,6.900546235611189,-1.0,-1.3652616571764158,-0.5526285736268391,-1.2792923880435456,0.46226429950280945,-0.8061942411921785,-3.14
236,0.4987958402376716,0.4077427419344799,0.2863106304987721,6.165966941210077,2.312592443682278,1.7124734525148213,6.90295849605554,-1.0,-1.3650483056255391,-0.5568881217189587,-1.2725775469536185,0.4600091793996279,-0.80623695379377,-3.14
237,0.4983723142698172,0.4070259453270842,0.2865943982422204,6.165935452191387,2.3118751321061772,1.7124745120809124,6.905347936740772,-1.0,-1.364839109687627,-0.5611186130249988,-1.265892760170025,0.45775113144022556,-0.8062788754470578,-3.14
238,0.49795270389782215,0.4063168502934063,0.2868726145848134,6.165903762961096,2.311165578714452,1.7124754887881186,6.907714709946972,-1.0,-1.3646339890356838,-0.5653202616990112,-1.2592380725309023,0.45549049144464776,-0.8063200198541028,-3.14
239,0.497536990192948,0.40561539592292345,0.2871453880207425,6.165871890800062,2.310463720780757,1.7124763851665117,6.9100589693401755,-1.0,-1.3644328646492894,-0.5694932813166843,-1.252613521742567,0.45322758623372644,-0.8063604005626558,-3.14
240,0.4971251536195457,0.404921520695365,0.2874128252178178,6.1658398524087925,2.309769495011261,1.7124772036911304,6.91238086985404,-1.0,-1.3642356588125817,-0.57363788480127,-1.246019138640709,0.45096273382044094,-0.8064000309623292,-3.14
241,0.4967171740681072,0.4042351625438383,0.2876750310243434,6.165807663921144,2.3090828376073347,1.7124779467823084,6.91468056757634,-1.0,-1.3640422951107614,-0.5777542843542149,-1.2394549474436773,0.44869624359939725,-0.806438924281202,-3.14
242,0.4963130308872234,0.4035562589151023,0.28793210847779266,6.165775340917935,2.308403684325356,1.7124786168060608,6.9169582196401125,-1.0,-1.3638526984252268,-0.5818426913902736,-1.2329209659980245,0.4464284165342651,-0.8064770935828334,-3.14
243,0.4959127029144645,0.4028847468270828,0.288184158815134,6.165742898440483,2.3077319705337285,1.712479216074533,6.919213984119299,-1.0,-1.3636667949274452,-0.5859033164768868,-1.226417206016484,0.4441595453430344,-0.8065145517636608,-3.14
244,0.49551616850621083,0.4022205629237263,0.2884312814846666,6.165710351004056,2.3070676312672047,1.712479746846497,6.921448019928744,-1.0,-1.3634845120716597,-0.5899363692776242,-1.2199436733085556,0.44188991468097005,-0.8065513115507618,-3.14
245,0.4951234055664627,0.4015636435272825,0.28867357415925876,6.165677712611179,2.3064106012786243,1.712480211327895,6.923660486728368,-1.0,-1.3633057785865264,-0.593942058499492,-1.2135003680038725,0.4396198013211515,-0.8065873854999561,-3.14
246,0.49473439157464066,0.40091392468810744,0.288911132750851,6.165644996764827,2.305760815088141,1.7124806116724283,6.925851544831402,-1.0,-1.3631305244657712,-0.5979205918439172,-1.2070872847685261,0.4373494743325047,-0.8066227859942303,-3.14
247,0.4943491036124094,0.40027134223207333,0.28914405142611344,6.165612216481454,2.3051182070300436,1.7124809499821803,6.92802135511652,-1.0,-1.3629586809579486,-0.6018721759612267,-1.2007044130145228,0.43507919525523775,-0.806657525242462,-3.14
248,0.4939675183895555,0.39963583180568535,0.2893724226231564,6.16557938430387,2.3044827112972674,1.712481228308278,6.930170078943744,-1.0,-1.3627901805553857,-0.6057970164084504,-1.1943517371025494,0.43280921827361435,-0.8066916152784279,-3.14
249,0.4935896122689181,0.3990073289189668,0.28959633706919696,6.165546512313932,2.3038542619836577,1.7124814486515776,6.932297878073974,-1.0,-1.3626249569823816,-0.6096953176102795,-1.188029236538217,0.43053979038599716,-0.8067250679600764,-3.14
250,0.4932153612904303,0.398385768986218,0.2898158837990617,6.165513612145052,2.3032327931240975,1.712481612963384,6.934404914592021,-1.0,-1.3624629451827364,-0.6135672828230214,-1.181736886161961,0.42827115157211254,-0.8067578949690469,-3.14
251,0.4928447411942687,0.3977710873647217,0.29003115017448594,6.1654806949945336,2.3026182387325704,1.7124817231461882,6.936491350833025,-1.0,-1.3623040813066731,-0.6174131141014011,-1.1754746563327634,0.426003534957496,-0.8067901078104223,-3.14
252,0.49247772744314516,0.3971632193914662,0.2902422219040656,6.165447771635667,2.302010532838234,1.7124817810544284,6.938557349312113,-1.0,-1.3621483026972176,-0.6212330122680598,-1.169242513105866,0.423737166975078,-0.806821717812695,-3.14
253,0.49211429524376543,0.39656210041797585,0.2904491830638349,6.16541485242965,2.301409609519596,1.7124817884952668,6.9406030726571935,-1.0,-1.3619955478760926,-0.6250271768856168,-1.1630404184046461,0.4214722675238931,-0.8068527361279362,-3.14
254,0.4917544195674768,0.39596766584331794,0.2906521161183702,6.165381947337288,2.30081540293686,1.7124817472293816,6.942628683544775,-1.0,-1.361845756529182,-0.6287958062311555,-1.1568683301868137,0.419209050124885,-0.8068831737321513,-3.14
255,0.4913980751701242,0.3953798511453526,0.2908511019423557,6.1653490659304655,2.3002278473625095,1.712481658971773,6.94463434463868,-1.0,-1.3616988694916168,-0.6325390972730114,-1.1507262026050935,0.41694772207380043,-0.8069130414258093,-3.14
256,0.4910452366111408,0.39479859191030603,0.291046219842551,6.165316217403403,2.299646877210222,1.7124815253925758,6.946620218531569,-1.0,-1.36155482873253,-0.6362572456497387,-1.1446139861625528,0.41468848459116475,-0.8069423498345327,-3.14
257,0.49069587827189814,0.3942238238607281,0.29123754758009696,6.165283410583687,2.299072427062155,1.712481348117882,6.948586467689146,-1.0,-1.3614135773395277,-0.6399504456511405,-1.1385316278627293,0.4124315329693382,-0.806971109409938,-3.14
258,0.4903499743733335,0.39365548288190194,0.2914251613931089,6.165250653943086,2.2985044316946954,1.7124811287305706,6.950533254396967,-1.0,-1.3612750595029135,-0.6436188902012487,-1.1324790713547135,0.4101770567166582,-0.8069993304306123,-3.14
259,0.4900074989928739,0.3930935050467706,0.29160913601949595,6.165217955608111,2.2979428261027195,1.7124808687711375,6.952460740709732,-1.0,-1.3611392204997124,-0.6472627708431548,-1.1264562570733327,0.407925239698675,-0.8070270230032187,-3.14
260,0.48966842608068756,0.39253782663944126,0.2917895447199718,6.16518532337037,2.297387545522442,1.7124805697385306,6.95436908840299,-1.0,-1.3610060066775254,-0.650882277725583,-1.120463122374592,0.4056762602764987,-0.8070541970637168,-3.14
261,0.4893327294752761,0.3919883841773278,0.2919664593012009,6.165152764696685,2.2968385254528965,1.7124802330909865,6.956258458927138,-1.0,-1.360875365438251,-0.6544775995911168,-1.1144996016665059,0.4034302914422706,-0.8070808623786916,-3.14
262,0.48900038291842807,0.39144511443198565,0.29213995013903915,6.165120286738979,2.296295701676123,1.7124798602468603,6.958129013363654,-1.0,-1.3607472452217058,-0.6580489237659826,-1.1085656265354693,0.40118750095178274,-0.8071070285467798,-3.14
263,0.48867136006955825,0.39090795444870047,0.2923100862018322,6.165087896343926,2.295759010276109,1.7124794525854616,6.95998091238345,-1.0,-1.3606215954891716,-0.6615964361513053,-1.102661125868302,0.3989480514542682,-0.8071327050001865,-3.14
264,0.48834563451945107,0.390376841564882,0.2924769350737488,6.1650556000623915,2.2952283876565414,1.712479011447881,6.961814316207298,-1.0,-1.360498366706899,-0.665120321215753,-1.0967860259701019,0.39671210061939133,-0.8071579010062818,-3.14
265,0.4880231798034225,0.3898517134273089,0.29264056297808433,6.165023404158623,2.2947037705574185,1.7124785381378138,6.963629384568204,-1.0,-1.3603775103295912,-0.6686207619894912,-1.0909402506780383,0.3944798012614639,-0.8071826256692725,-3.14
266,0.4877039694139285,0.3893325080082868,0.2928010348005388,6.164991314619234,2.2941850960705796,1.7124780339223802,6.965426276675702,-1.0,-1.3602589787838915,-0.6720979400593703,-1.085123721471213,0.39225130146092396,-0.8072068879319397,-3.14
267,0.4873879768126267,0.3888191636207554,0.29295841411241996,6.164959337161956,2.293672301654195,1.7124775000329373,6.967205151181957,-1.0,-1.3601427254518959,-0.6755520355652767,-1.0793363575767125,0.3900267446831061,-0.8072306965774362,-3.14
268,0.48707517544192397,0.3883116189323997,0.2931127631937454,6.164927477244172,2.293165325146262,1.712476937665881,6.968966166149626,-1.0,-1.360028704654713,-0.6789832271975789,-1.0735780760719766,0.38780626989434486,-0.8072540602311369,-3.14
269,0.4867655387360131,0.3878098129788052,0.2932641430562391,6.164895740071223,2.2926641047771623,1.7124763479834462,6.970709479021397,-1.0,-1.3599168716360865,-0.6823916921956013,-1.0678487919835964,0.3855900116754409,-0.8072769873625373,-3.14
270,0.486459040131423,0.38731368517570175,0.2934126134661752,6.164864130604525,2.292168579181306,1.7124757321144928,6.972435246591153,-1.0,-1.3598071825460982,-0.6857776063470675,-1.0621484183826604,0.38337810033253694,-0.8072994862871928,-3.14
271,0.48615565307709874,0.38682317533033855,0.29355823296706557,6.164832653569435,2.291678687407923,1.7124750911552855,6.974143624976677,-1.0,-1.359699594424969,-0.6891411439884515,-1.0564768664767592,0.3811706620054354,-0.8073215651686956,-3.14
272,0.48585535104402744,0.3863382236520248,0.293701058902169,6.16480131346294,2.2911943689310297,1.7124744261702607,6.975834769593861,-1.0,-1.3595940651869682,-0.6924824780061833,-1.0508340456987577,0.378967818773406,-0.807343232020681,-3.14
273,0.48555810753442513,0.38585877076188513,0.29384114743680684,6.1647701145611284,2.2907155636586145,1.712473738192789,6.977508835132338,-1.0,-1.359490553604448,-0.6958017798386533,-1.0452198637924397,0.3767696887585173,-0.8073644947088633,-3.14
274,0.4852638960904952,0.3853847577018509,0.2939785535804613,6.164739060926454,2.2902422119410737,1.7124730282259168,6.97916597553249,-1.0,-1.3593890192920115,-0.6990992194789695,-1.0396342268951295,0.3745763862265426,-0.8073853609530913,-3.14
275,0.48497269030278406,0.38491612594293934,0.29411333120866434,6.164708156414806,2.2897742545789423,1.7124722972431083,6.980806343963784,-1.0,-1.359289422690828,-0.7023749654784127,-1.0340770396173875,0.37238802168547475,-0.8074058383294247,-3.14
276,0.4846844638181415,0.3844528173928413,0.294245533084632,6.164677404682384,2.2893116328299454,1.7124715461889681,6.982430092804364,-1.0,-1.3591917250531027,-0.7056291849505524,-1.0285482051198787,0.3702047019817002,-0.8074259342722229,-3.14
277,0.4843991903472964,0.38399477440285734,0.2943752108806698,6.16464680919238,2.288854288415406,1.7124707759799531,6.9840373736218675,-1.0,-1.3590958884267101,-0.7088620435759734,-1.0230476251875071,0.36802653039387234,-0.8074456560762465,-3.14
278,0.4841168436720713,0.38354193977421175,0.2945024151993105,6.164616373221477,2.288402163526042,1.7124699875050773,6.985628337155405,-1.0,-1.3590018756399997,-0.712073705607576,-1.0175752003009064,0.3658536067245269,-0.8074650108987661,-3.14
279,0.4838373976522384,0.38309425676377196,0.29462719559419276,6.164586099866148,2.2879552008271773,1.7124691816265978,6.987203133298658,-1.0,-1.358909650286781,-0.7152643338764105,-1.0121308297053762,0.36368602738948685,-0.8074840057616749,-3.14
280,0.4835608262320381,0.38265166908920506,0.2947496005906683,6.164555992048795,2.287513343463404,1.7124683591806937,6.9887619110840555,-1.0,-1.358819176711491,-0.718434089798007,-1.0067144114773494,0.3615238855050978,-0.8075026475536043,-3.14
281,0.4832871034463702,0.3822141209336026,0.294869677706123,6.164526052523704,2.287076535062715,1.7124675209781286,6.990304818667977,-1.0,-1.3587304199945553,-0.7215831333791689,-1.0013258425884737,0.3593672709733388,-0.8075209430320385,-3.14
282,0.4830162034266652,0.38178155694958543,0.294987473470027,6.164496283882813,2.2866447197401376,1.7124666678049039,6.9918320033169445,-1.0,-1.3586433459379414,-0.7247116232251937,-0.9959650189673853,0.35721627056485183,-0.8075388988254244,-3.14
283,0.482748100406456,0.38135392226293735,0.29510303344368444,6.164466688561335,2.2862178421008963,1.7124658004228974,6.993343611394763,-1.0,-1.3585579210509122,-0.7278197165474917,-0.9906318355592573,0.3550709679999338,-0.8075565214352782,-3.14
284,0.48248276872665236,0.38093116247576525,0.29521640223968976,6.1644372688432005,2.2857958472431186,1.7124649195704902,6.994839788350568,-1.0,-1.3584741125359812,-0.7309075691715725,-0.9853261863831932,0.35293144402753424,-0.8075738172382828,-3.14
285,0.4822201828405367,0.3805132236692327,0.2953276235411021,6.164408026866347,2.2853786807601173,1.7124640259631803,6.996320678707747,-1.0,-1.358391888275074,-0.7339753355453705,-0.9800479645875432,0.35079777650230104,-0.8075907924883757,-3.14
286,0.48196031731848454,0.3801000524058737,0.2954367401203037,6.16437896462784,2.2849662887422744,1.7124631202941856,6.997786426053689,-1.0,-1.3583112168158977,-0.7370231687478827,-0.9747970625032087,0.3486700404597165,-0.8076074533188261,-3.14
287,0.4817031468524279,0.37969159573151406,0.29554379385756707,6.164350083988854,2.2845586177785275,1.712462203235031,6.999237173030345,-1.0,-1.358232067358519,-0.7400512204980944,-0.9695733716950101,0.346548308189368,-0.8076238057442982,-3.14
288,0.4814486462600686,0.37928780117682287,0.29564882575931983,6.1643213866795055,2.284155614957509,1.7124612754361244,7.000673061325545,-1.0,-1.3581544097421545,-0.7430596411641694,-0.9643767830111778,0.3444326493063921,-0.8076398556629006,-3.14
289,0.4811967904888397,0.37888861675850094,0.2957518759761022,6.164292874303509,2.283757227868324,1.7124603375273233,7.002094231665048,-1.0,-1.3580782144321726,-0.7460485797728779,-0.959207186631033,0.34232313082113247,-0.8076556088582199,-3.14
290,0.4809475546196511,0.37849399098015063,0.2958529838202247,6.164264548342743,2.283363404601023,1.712459390118484,7.003500823805309,-1.0,-1.3580034525073095,-0.749018184019247,-0.9540644721109232,0.34021981720705813,-0.8076710710013356,-3.14
291,0.48070091387039476,0.378103872832813,0.2959521877831259,6.164236410161629,2.2829740937467484,1.7124584338000028,7.004892976526906,-1.0,-1.357930095647098,-0.7519686002764082,-0.9489485284284664,0.3381227704669736,-0.8076862476528194,-3.14
292,0.4804568435992502,0.3777182117952147,0.2960495255524129,6.1642084610114045,2.282589244397604,1.7124574691433416,7.006270827628617,-1.0,-1.35785811611951,-0.7548999736056271,-0.9438592440251686,0.33603205019756804,-0.807701144264712,-3.14
293,0.4802153193077733,0.37733695783372867,0.2961450340286265,6.164180702034253,2.282208806146241,1.712456496701544,7.007634513922113,-1.0,-1.3577874867688111,-0.7578124477664921,-0.9387965068474636,0.33394771365233683,-0.807715766182482,-3.14
294,0.4799763166437928,0.37696006140206595,0.2962387493416715,6.164153134267307,2.2818327290851927,1.712455517009739,7.008984171227248,-1.0,-1.3577181810036298,-0.7607061652272508,-0.9337602043862367,0.3318698158029165,-0.8077301186469623,-3.14
295,0.47973981140411404,0.37658747344071763,0.29633070686698304,6.164125758646538,2.2814609638059586,1.712454530585632,7.010319934367907,-1.0,-1.3576501727852373,-0.7635812671752726,-0.9287502237148794,0.32979840939887023,-0.8077442067962654,-3.14
296,0.4795057795370422,0.37621914537615586,0.2964209412413652,6.164098576010498,2.281093461397865,1.7124535379299861,7.011641937168393,-1.0,-1.3575834366160378,-0.7664378935276275,-0.923766451525927,0.3277335450259599,-0.8077580356676751,-3.14
297,0.479274197144729,0.37585502911981056,0.29650948637856134,6.164071587103985,2.280730173446704,1.7124525395270893,7.0129503124503465,-1.0,-1.3575179475282697,-0.7692761829417616,-0.9188087741663309,0.32567527116294326,-0.8077716101995167,-3.14
298,0.47904504048534796,0.37549507706683405,0.2965963754845087,6.164044792581543,2.2803710520331704,1.712451535845214,7.014245192030138,-1.0,-1.3574536810729143,-0.7720962728262599,-0.9138770776714079,0.3236236342369279,-0.8077849352330013,-3.14
299,0.47881828597511655,0.37513924209466665,0.29668164107231826,6.1640181930108975,2.28001604973111,1.7124505273370614,7.015526706716757,-1.0,-1.3573906133088107,-0.7748982993516819,-0.908971247797518,0.3215786786773226,-0.8077980155140481,-3.14
300,0.4785939101901559,0.37478747756141484,0.2967653149769621,6.163991788876254,2.2796651196055855,1.7124495144402,7.0167949863101295,-1.0,-1.3573287207919758,-0.777682397461457,-0.9040911700535095,0.319540446968414,-0.8078108556950798,-3.14
301,0.4783718898682037,0.37443973730405233,0.2968474283696768,6.163965580581507,2.2793182152107723,1.712448497577486,7.018050159599892,-1.0,-1.3572679805651282,-0.7804487008828315,-0.8992367297309787,0.317508979700609,-0.8078234603367963,-3.14
302,0.47815220191018826,0.3740959756364569,0.2969280117720838,6.163939568453327,2.2789752905877045,1.7124474771574834,7.019292354364556,-1.0,-1.3572083701474111,-0.783197342137852,-0.8944078119333818,0.3154843156203679,-0.8078358339099195,-3.14
303,0.47793482338166193,0.37375614734729096,0.2970070950700373,6.16391375274418,2.278636300261864,1.7124464535748631,7.0205216973710804,-1.0,-1.3571498675243157,-0.7859284525543809,-0.8896043016040424,0.31346649167887,-0.807847980796916,-3.14
304,0.4777197315141068,0.3734202076977372,0.29708470752719035,6.163888133635212,2.2783011992406372,1.7124454272107998,7.0217383143748195,-1.0,-1.3570924511378004,-0.7886421622771294,-0.8848260835530888,0.3114555430794345,-0.8078599052936919,-3.14
305,0.47750690370611043,0.3730881124190971,0.29716087779829864,6.163862711239074,2.277969943010641,1.7124443984333557,7.022942330119822,-1.0,-1.3570360998766038,-0.7913386002787017,-0.8800730424833635,0.30945150332373333,-0.8078716116112635,-3.14
306,0.47729631752443186,0.37275981771026595,0.2972356339422476,6.163837485602637,2.27764248753493,1.7124433675978525,7.024133868339482,-1.0,-1.3569807930667501,-0.7940178943706434,-0.8753450630153361,0.30745440425682413,-0.8078831038774009,-3.14
307,0.47708795070493715,0.3724352802350858,0.2973090034348245,6.1638124567096195,2.277318789250094,1.71244233504724,7.025313051757512,-1.0,-1.3569265104622432,-0.7966801712144814,-0.8706420297110569,0.3054642761110323,-0.8078943861382469,-3.14
308,0.4768817811534415,0.3721144571195897,0.297381013181224,6.163787624483144,2.2769988050632453,1.7124413011124477,7.026480002089227,-1.0,-1.3568732322359478,-0.7993255563327558,-0.8659638270971852,0.30348114754871397,-0.8079054623599093,-3.14
309,0.47667778694643537,0.3717973059491417,0.29745168952830164,6.163762988788191,2.27668249234892,1.712440266112733,7.027634840043131,-1.0,-1.3568209389706543,-0.8019541741200293,-0.8613103396871221,0.30150504570392495,-0.8079163364300278,-3.14
310,0.47647594633170964,0.37148378476548327,0.2975210582765781,6.163738549433978,2.2763698089458786,1.7124392303560183,7.028777685322779,-1.0,-1.356769611650325,-0.8045661478538711,-0.8566814520022811,0.29953599622302357,-0.8079270121593143,-3.14
311,0.47627623772889677,0.3711738520636946,0.29758914469198344,6.16371430617628,2.27606071315384,1.7124381941392186,7.029908656628915,-1.0,-1.3567192316515195,-0.8071615997058124,-0.8520770485925273,0.29757402330423993,-0.807937493283069,-3.14
312,0.476078639729901,0.37086746678906507,0.2976559735173714,6.1636902587196385,2.2757551637301248,1.712437157748562,7.031027871661862,-1.0,-1.3566697807349961,-0.8097406507522609,-0.8474970140558111,0.2956191497362284,-0.8079477834626693,-3.14
313,0.4758831310992571,0.37056458833389766,0.2977215689837832,6.163666406719526,2.275453119886237,1.712436121459901,7.032135447124159,-1.0,-1.3566212410374847,-0.8123034209853762,-0.8429412330570292,0.29367139693563854,-0.8079578862870339,-3.14
314,0.4756896907743984,0.37026517653424085,0.29778595482148273,6.16364274978443,2.2751545412843863,1.7124350855390138,7.033231498723431,-1.0,-1.356573595063633,-0.8148500293238975,-0.8384095903461356,0.2917307849837247,-0.8079678052740618,-3.14
315,0.4754982978658445,0.36996919166655595,0.29784915427075265,6.163619287477865,2.2748593880339434,1.7124340502419018,7.0343161411754735,-1.0,-1.3565268256781176,-0.8173805936239177,-0.8339019707755315,0.28979733266201757,-0.8079775438720455,-3.14
316,0.4753089316573098,0.36967659444432666,0.29791119009246697,6.163596019320321,2.274567620687849,1.7124330158150776,7.035389488207555,-1.0,-1.3564809160979205,-0.8198952306896045,-0.8294182593167589,0.28787105748708725,-0.80798710546106,-3.14
317,0.47512157160574736,0.3693873460146206,0.29797208457843766,6.163572944791141,2.2742792002389773,1.7124319824958403,7.036451652561909,-1.0,-1.3564358498847704,-0.8223940562838622,-0.8249583410765218,0.28595197574441666,-0.8079964933543261,-3.14
318,0.47493619734131376,0.3691014079545942,0.2980318595615394,6.16355006333034,2.273994088116451,1.712430950512551,7.037502745999427,-1.0,-1.3563916109377387,-0.824877185138928,-0.8205221013120593,0.2840401025214093,-0.8080057107995499,-3.14
319,0.4747527886672749,0.36881874226796324,0.29809053642562183,6.163527374340376,2.2737122461819235,1.7124299200848974,7.038542879303517,-1.0,-1.3563481834859952,-0.8273447309669048,-0.8161094254458934,0.28213545173955473,-0.8080147609802374,-3.14
320,0.4745713255598413,0.36853931138142915,0.2981481361152073,6.163504877187823,2.2734336367258257,1.7124288914241494,7.039572162284139,-1.0,-1.3563055520817162,-0.8297968064702221,-0.8117201990799715,0.2802380361857716,-0.8080236470169855,-3.14
321,0.4743917881679522,0.3682630781410744,0.29820467914498,6.163482571205047,2.273158222463583,1.7124278647334106,7.040590703782006,-1.0,-1.356263701593144,-0.8322335233520282,-0.8073543080092295,0.2783478675429531,-0.8080323719687488,-3.14
322,0.4742141568129916,0.3679900058087223,0.2982601856090731,6.163460455691756,2.272885966531807,1.7124268402078628,7.041598611672922,-1.0,-1.356222617197793,-0.8346549923265032,-0.8030116382345892,0.2764649564197293,-0.8080409388340828,-3.14
323,0.47403841198845753,0.367720058058278,0.2983146751901475,6.163438529916552,2.272616832484468,1.7124258180350025,7.042595992872276,-1.0,-1.3561822843758031,-0.8370613231290993,-0.798692075975417,0.274589312379474,-0.8080493505523646,-3.14
324,0.47386453435957804,0.3674531989720382,0.29836816716828773,6.16341679311841,2.272350784289043,1.7124247983948713,7.043582953339672,-1.0,-1.3561426889034351,-0.8394526245267001,-0.794395507681458,0.27272094396857105,-0.8080576100049891,-3.14
325,0.4736925047628761,0.3671893930369896,0.29842068042969455,6.163395244508103,2.272087786322656,1.7124237814602796,7.044559598083675,-1.0,-1.356103816846705,-0.8418290043276985,-0.7901218200442649,0.27085985874395924,-0.8080657200165436,-3.14
326,0.4735223042056848,0.36692860514108006,0.29847223347518553,6.163373883269576,2.2718278033681996,1.7124227673970258,7.0455260311666885,-1.0,-1.3560656545551562,-0.8441905693919918,-0.7858709000081416,0.26900606329997645,-0.8080736833559603,-3.14
327,0.473353913865628,0.3666708005694899,0.29852284442852595,6.163352708561295,2.271570800610453,1.7124217563641084,7.046482355709947,-1.0,-1.3560281886557661,-0.846537425640894,-0.7816426347806165,0.26715956329452145,-0.8080815027376452,-3.14
328,0.4731873150900425,0.3664159450008808,0.2985725310445577,6.1633317195175135,2.271316743632191,1.7124207485139316,7.0474286738986,-1.0,-1.3559914060469855,-0.8488696780669596,-0.7774369118424616,0.26532036347454774,-0.8080891808225869,-3.14
329,0.4730224893953813,0.36616400450364567,0.2986213107171702,6.163310915249534,2.2710655984102894,1.7124197439925062,7.048365086986914,-1.0,-1.355955293892906,-0.8511874307437236,-0.7732536189572772,0.2634884677009129,-0.8080967202194423,-3.14
330,0.4728594184665559,0.3659149455321462,0.29866920048707607,6.163290294846891,2.2708173313118305,1.7124187429396434,7.049291695303557,-1.0,-1.3559198396175545,-0.8534907868353503,-0.7690926441806525,0.26166387897259236,-0.8081041234856027,-3.14
331,0.4726980841562619,0.365668734922955,0.2987162170494384,6.163269857378514,2.270571909090208,1.7124177454891463,7.050208598256975,-1.0,-1.3558850308993122,-0.8557798486061944,-0.7649538758689204,0.259846599450281,-0.8081113931282373,-3.14
332,0.47253846848425785,0.3654253398910921,0.298762376761311,6.1632496018938525,2.2703292988812382,1.7124167517689923,7.051115894340852,-1.0,-1.3558508556654552,-0.8580547174302718,-0.7608372026875206,0.2580366304793954,-0.8081185316053179,-3.14
333,0.4723805536366198,0.36518472802626484,0.2988076956489272,6.1632295274239395,2.270089468199275,1.7124157619015141,7.052013681139642,-1.0,-1.3558173020868145,-0.8603154938006401,-0.7567425136189836,0.2562339726124918,-0.8081255413266221,-3.14
334,0.4722243219649597,0.36494686728911463,0.29885218941482267,6.163209632982443,2.2698523849333316,1.7124147760035708,7.052902055334176,-1.0,-1.3557843585725524,-0.8625622773386865,-0.7526696979705495,0.2544386256311168,-0.8081324246547169,-3.14
335,0.4720697559856224,0.3647117260074649,0.29889587344480273,6.163189917566664,2.2696180173432134,1.7124137941867201,7.053781112707331,-1.0,-1.3557520137650534,-0.8647951668033251,-0.7486186453814352,0.2526505885671036,-0.8081391839059234,-3.14
336,0.4719168383788453,0.36447927287257814,0.2989387628147571,6.1631703801585,2.269386334055661,1.7124128165573813,7.054650948149766,-1.0,-1.3557202565349264,-0.8670142601001004,-0.7445892458297616,0.25086985972332987,-0.8081458213512609,-3.14
337,0.4717655519879007,0.36424947693542503,0.29898087229731946,6.1631510197253885,2.2691573040605046,1.7124118432169957,7.055511655665714,-1.0,-1.3556890759761184,-0.8692196542902,-0.7405813896391542,0.2490964366939516,-0.8081523392173734,-3.14
338,0.4716158798182161,0.36402230760296395,0.2990222163683859,6.163131835221203,2.2689308967068382,1.71241087426218,7.056363328378818,-1.0,-1.3556584614011342,-0.8714114455993738,-0.7365949674850267,0.24733031638412428,-0.8081587396874365,-3.14
339,0.47146780503646174,0.36379773463442894,0.29906280921348616,6.163112825587113,2.2687070816992017,1.7124099097848797,7.057206058538024,-1.0,-1.3556284023363612,-0.8735897294267586,-0.73262987040056,0.24557149502922562,-0.8081650249020464,-3.14
340,0.47132131096962665,0.3635757281376375,0.2991026647340092,6.163093989752435,2.2684858290937857,1.7124089498725155,7.058039937523516,-1.0,-1.3555988885174974,-0.8757546003536121,-0.7286859897823883,0.24381996821359467,-0.8081711969600912,-3.14
341,0.4711763811040737,0.36335625856530873,0.2991417965533,6.163075326635425,2.2682671092946514,1.712407994608122,7.058865055852684,-1.0,-1.3555699098850806,-0.8779061521519528,-0.724763217396001,0.24207573088879775,-0.8081772579196036,-3.14
342,0.4710329990845709,0.3631392967114034,0.2991802180226151,6.163056835144069,2.268050893049974,1.7124070440704922,7.05968150318614,-1.0,-1.3555414565801145,-0.8800444777931056,-0.7208614453808714,0.24033877739143347,-0.8081832097985971,-3.14
343,0.47089114871330817,0.36292481370747454,0.29921794222694686,6.163038514176819,2.267837151448302,1.7124060983343066,7.060489368333753,-1.0,-1.3555135189397938,-0.8821696694561572,-0.716980566255322,0.23860910146049052,-0.8081890545758852,-3.14
344,0.4707508139489058,0.3627127810190458,0.29925498199071704,6.163020362623329,2.267625855914839,1.7124051574702663,7.061288739260723,-1.0,-1.3554860874933217,-0.8842818185363174,-0.7131204729211363,0.23688669625426867,-0.8081947941918827,-3.14
345,0.47061197890539436,0.36250317044200236,0.29929134988334916,6.163002379365135,2.2674169782077533,1.7124042215452213,7.0620797030936755,-1.0,-1.3554591529578202,-0.886381015653187,-0.7092810586679241,0.23517155436687276,-0.808200430549392,-3.14
346,0.47047462785119126,0.3622959540990063,0.29932705822471023,6.1629845632763445,2.267210490414503,1.7124032906222895,7.0628623461267805,-1.0,-1.3554327062343308,-0.888467350658937,-0.7054622171772523,0.23346366784429562,-0.8082059655143723,-3.14
347,0.47033874520806174,0.3620911044359326,0.29936211909043525,6.162966913224257,2.267006364948192,1.71240236476098,7.063636753827888,-1.0,-1.3554067384039046,-0.8905409126463921,-0.7016638425265461,0.23176302820009367,-0.8082114009166935,-3.14
348,0.4702043155500651,0.36188859421832764,0.29939654431713547,6.1629494280700055,2.2668045745439445,1.7124014440173094,7.064403010844683,-1.0,-1.3553812407237762,-0.8926017899570254,-0.697885829192772,0.2300696264306716,-0.8082167385508742,-3.14
349,0.4700713236024953,0.3616883965278941,0.299430345507488,6.162932106669149,2.2666050922553143,1.712400528443913,7.065161201010855,-1.0,-1.355356204623626,-0.8946500701888622,-0.6941280720559083,0.22838345303018415,-0.808221980176804,-3.14
350,0.4699397542408098,0.36149048475899337,0.2994635340352043,6.162914947872242,2.2664078914507098,1.712399618090154,7.065911407352272,-1.0,-1.3553316217019218,-0.8966858402042934,-0.690390466402212,0.22670449800506423,-0.8082271275204527,-3.14
351,0.4698095924895466,0.3612948326151794,0.29949612104991025,6.162897950525393,2.2662129458098557,1.7123987130022338,7.066653712093168,-1.0,-1.3553074837223427,-0.898709186137797,-0.6866729079272876,0.2250327508881859,-0.8082321822745624,-3.14
352,0.46968082352123747,0.3611014141057534,0.2995281174818937,6.1628811134708,2.2660202293202727,1.7123978132232913,7.067388196662339,-1.0,-1.3552837826102826,-0.9007201934035745,-0.6829752927389684,0.2233682007526766,-0.8082371460993266,-3.14
353,0.4695534326553122,0.360910203542348,0.2995595340467585,6.162864435547262,2.2658297162737955,1.7123969187935058,7.068114941699335,-1.0,-1.3552605104494302,-0.902718946703094,-0.6792975173600126,0.22171083622538182,-0.8082420206230555,-3.14
354,0.46942740535699545,0.3607211755355336,0.29959038124997683,6.162847915590667,2.26564138126311,1.7123960297501934,7.068834027060658,-1.0,-1.3552376594784252,-0.9047055300325498,-0.6756394787306249,0.22006064549999446,-0.8082468074428261,-3.14
355,0.46930272723619815,0.36053430499145556,0.2996206693913309,6.162831552434473,2.2654551991783247,1.7123951461279034,7.06954553182596,-1.0,-1.3552152220875882,-0.9066800266902305,-0.6720010742108069,0.21841761634985635,-0.8082515081251199,-3.14
356,0.4691793840464079,0.36034956710849514,0.2996504085692669,6.162815344910158,2.2652711452035694,1.7123942679585085,7.070249534304232,-1.0,-1.3551931908157226,-0.9086425192838041,-0.668382201582545,0.2167817361404421,-0.8082561242064469,-3.14
357,0.4690573616835654,0.3601669373739601,0.2996796086851431,6.162799291847663,2.2650891948136227,1.7123933952712949,7.07094611204,-1.0,-1.355171558346989,-0.9105930897375143,-0.6647827590518395,0.21515299184152992,-0.8082606571939566,-3.14
358,0.46893664618494824,0.3599863915608054,0.29970827944739,6.16278339207581,2.2649093237705733,1.7123925280930494,7.071635341819497,-1.0,-1.3551503175078459,-0.9125318192992925,-0.6612026452505821,0.21353137003907052,-0.8082651085660361,-3.14
359,0.468817223728047,0.3598079057243771,0.29973643037557446,6.162767644422706,2.264731508120505,1.7123916664481427,7.072317299676845,-1.0,-1.3551294612640608,-0.9144587885477865,-0.6576417592382877,0.21191685694676202,-0.8082694797728958,-3.14
360,0.46869908062943216,0.3596314561991871,0.29976407080437145,6.162752047716135,2.2645557241902177,1.7123908103586127,7.072992060900215,-1.0,-1.3551089827177853,-0.9163740773993028,-0.654100000503683,0.21030943841733518,-0.8082737722371431,-3.14
361,0.4685822033436318,0.35945701959571763,0.2997912098874565,6.162736600783923,2.2643819485839733,1.7123899598442422,7.073659700037974,-1.0,-1.3550888751046966,-0.9182777651146687,-0.6505772689661613,0.20870909995356,-0.8082779873543435,-3.14
362,0.4684665784619995,0.35928457279725595,0.29981785660130256,6.162721302454309,2.26421015818028,1.712389114922637,7.074320290904832,-1.0,-1.3550691317912003,-0.9201699303060101,-0.6470734649771053,0.2071158267189783,-0.8082821264935701,-3.14
363,0.46835219271158035,0.35911409295675323,0.29984401974889546,6.162706151556272,2.2640403301286973,1.7123882756093005,7.074973906587953,-1.0,-1.355049746271697,-0.9220506509434484,-0.6435884893210831,0.20552960354836972,-0.8082861909979421,-3.14
364,0.46823903295398284,0.35894555749371704,0.29986970796336815,6.162691146919874,2.263872441846683,1.712387441917707,7.075620619453073,-1.0,-1.3550307121659078,-0.9239200043617174,-0.6401222432169247,0.20395041495796062,-0.8082901821851511,-3.14
365,0.4681270861842449,0.35877894409113315,0.29989492971155784,6.162676287376566,2.263706471016461,1.7123866138593697,7.076260501150581,-1.0,-1.3550120232162588,-0.9257780672666998,-0.6366746283186787,0.2023782451553776,-0.8082941013479773,-3.14
366,0.4680163395297062,0.35861423069241344,0.2999196932974728,6.1626615717595,2.2635423955819247,1.7123857914439116,7.076893622621595,-1.0,-1.3549936732853243,-0.9276249157418841,-0.633245546716459,0.200813078049356,-0.808297949754794,-3.14
367,0.4679067802488717,0.3584513954983772,0.2999440068656934,6.162646998903808,2.263380193745573,1.712384974679133,7.077520054104007,-1.0,-1.354975656353326,-0.929460625254744,-0.6298349009371804,0.19925489725920711,-0.8083017286500617,-3.14
368,0.4677983957302884,0.3582904169642605,0.2999678784046997,6.162632567646891,2.2632198439654747,1.7123841635710717,7.078139865138516,-1.0,-1.3549579665156868,-0.9312852706630416,-0.6264425939451923,0.19770368612405426,-0.8083054392548125,-3.14
369,0.46769117349141587,0.3581312737967557,0.2999913157501115,6.162618276828673,2.2630613249522655,1.7123833581240697,7.078753124574629,-1.0,-1.354940597980639,-0.9330989262210507,-0.6230685291428094,0.19615942771183686,-0.8083090827671234,-3.14
370,0.4675851011775008,0.35797394495107815,0.3000143265878723,6.16260412529187,2.2629046156661725,1.712382558340831,7.079359900576653,-1.0,-1.354923545066885,-0.9349016655857086,-0.6197126103707478,0.1946221048280956,-0.8083126603625798,-3.14
371,0.46748016656045516,0.35781840962806816,0.30003691845734853,6.16259011188222,2.262749695314075,1.7123817642224828,7.079960260629647,-1.0,-1.3549068022013093,-0.9366935618226888,-0.6163747419084655,0.19309170002453793,-0.8083161731947298,-3.14
372,0.4673763575377347,0.3576646472713153,0.3000590987543785,6.162576235448723,2.2625965433465924,1.7123809757686304,7.080554271545354,-1.0,-1.3548903639167413,-0.9384746874124035,-0.6130548284744156,0.191568195607395,-0.8083196223955283,-3.14
373,0.46727366213122284,0.35751263756432056,0.3000808747342367,6.162562494843865,2.2624451394552043,1.7123801929774163,7.081141999468115,-1.0,-1.3548742248497667,-0.9402451142559299,-0.6097527752262113,0.1900515736455703,-0.8083230090757721,-3.14
374,0.4671720684861159,0.3573623604276805,0.3001022535145379,6.162548888923818,2.262295463569401,1.7123794158455679,7.081723509880743,-1.0,-1.354858379738588,-0.9420049136808674,-0.6064684877607092,0.18854181597858996,-0.8083263343255257,-3.14
375,0.467071564869816,0.35721379601630554,0.3001232420780857,6.162535416548665,2.262147495853865,1.7123786443684568,7.0822988676103815,-1.0,-1.3548428234209295,-0.9437541564471187,-0.6032018721140119,0.18703890422435504,-0.8083295992145378,-3.14
376,0.4669721396708213,0.3570669247166674,0.30014384727564514,6.1625220765825715,2.2620012167056838,1.7123778785401442,7.082868136834322,-1.0,-1.354827550831992,-0.9454929127526053,-0.5999528347613942,0.185542819786704,-0.8083328047926501,-3.14
377,0.46687378139762375,0.35692172714407,0.30016407582866694,6.162508867893982,2.261856606751586,1.7123771183534322,7.083431381085801,-1.0,-1.354812557002448,-0.9472212522389094,-0.5967212826171548,0.1840535438627895,-0.8083359520901963,-3.14
378,0.46677647867761346,0.3567781841399628,0.3001839343319423,6.1624957893557974,2.2617136468452244,1.7123763637999128,7.083988663259769,-1.0,-1.354797837056485,-0.9489392439968485,-0.5935071230343987,0.182571057450273,-0.808339042118393,-3.14
379,0.4666802202559874,0.3566362767692675,0.3002034292562024,6.162482839845533,2.2615723180644687,1.7123756148700093,7.084540045618617,-1.0,-1.3547833862098888,-0.9506469565719831,-0.5903102638047488,0.18109534135434371,-0.8083420758697228,-3.14
380,0.4665849949946543,0.3564959863177438,0.30022256695066635,6.162470018245486,2.2614326017087425,1.7123748715530276,7.085085589797886,-1.0,-1.3547691997681692,-0.9523444579700533,-0.5871306131579936,0.17962637619456318,-0.8083450543183092,-3.14
381,0.4664907918711579,0.35635729428938245,0.30024135364552273,6.162457323442888,2.261294479296385,1.7123741338371952,7.085625356811937,-1.0,-1.3547552731247274,-0.9540318156623531,-0.5839680797616718,0.17816414241154385,-0.8083479784202828,-3.14
382,0.4663975999775959,0.3562201824038242,0.300259795454365,6.1624447543300445,2.2611579325620426,1.7123734017097039,7.086159407059584,-1.0,-1.3547416017590637,-0.9557090965910366,-0.5808225727205948,0.17670862027346196,-0.8083508491141415,-3.14
383,0.4663054085195471,0.3560846325938095,0.3002778983765733,6.16243230980447,2.2610229434540896,1.7123726751567538,7.086687800329708,-1.0,-1.3547281812350216,-0.95737636717436,-0.5776940015763132,0.17525978988241128,-0.8083536673211006,-3.14
384,0.46621420681500647,0.35595062700265523,0.30029566829963905,6.162419988769024,2.26088949413208,1.7123719541635887,7.087210595806827,-1.0,-1.3547150071990743,-0.9590336933118604,-0.5745822763065259,0.1738176311806018,-0.8083564339454385,-3.14
385,0.4661239842933223,0.3558181479817635,0.3003131110014463,6.1624077901320335,2.260757566964225,1.7123712387145376,7.087727852076635,-1.0,-1.3547020753786452,-0.9606811403894695,-0.5714873073244353,0.17238212395640415,-0.8083591498748328,-3.14
386,0.4660347304941361,0.35568717808814937,0.30033023215248844,6.162395712807403,2.2606271445249018,1.7123705287930522,7.088239627131507,-1.0,-1.3546893815804655,-0.9623187732845665,-0.568409005478052,0.17095324785024693,-0.8083618159806901,-3.14
387,0.4659464350663425,0.3555577000820096,0.3003470373180616,6.162383755714734,2.2604982095921935,1.712369824381739,7.088745978375974,-1.0,-1.3546769216889696,-0.9639466563709704,-0.5653472820494496,0.1695309823603711,-0.8083644331184694,-3.14
388,0.4658590877670381,0.35542969692430587,0.3003635319603877,6.162371917779417,2.26037074514545,1.7123691254624005,7.089246962632154,-1.0,-1.3546646916647225,-0.9655648535238682,-0.562302048753972,0.1681153068484394,-0.8083670021279976,-3.14
389,0.46577267846048676,0.3553031517743848,0.3003797214406963,6.162360197932745,2.2602447343628844,1.7123684320160644,7.089742636145155,-1.0,-1.354652687542883,-0.9671734281246862,-0.5592732177393951,0.16670620054501198,-0.8083695238337797,-3.14
390,0.4656871971170897,0.355178047987621,0.3003956110212723,6.162348595111992,2.2601201606191936,1.7123677440230185,7.090233054588445,-1.0,-1.3546409054317,-0.9687724430659005,-0.5562607015850444,0.16530364255488494,-0.8083719990453012,-3.14
391,0.4656026338123606,0.35505436911308724,0.3004112058674461,6.16233710826051,2.2599970074832068,1.7123670614628437,7.090718273069177,-1.0,-1.3546293415110402,-0.9703619607557897,-0.5532644133008722,0.16390761186229968,-0.8083744285573253,-3.14
392,0.46551897872590553,0.35493209889125216,0.30042651104954804,6.162325736327801,2.259875258715563,1.712366384314442,7.091198346133486,-1.0,-1.3546179920309496,-0.9719420431231304,-0.5502842663264932,0.16251808733602438,-0.8083768131501825,-3.14
393,0.46543622214041475,0.35481122125170506,0.3004415315448151,6.162314478269605,2.259754898266414,1.7123657125560692,7.091673327771748,-1.0,-1.3546068533102444,-0.9735127516218339,-0.5473201745301823,0.1611350477343098,-0.808379153590056,-3.14
394,0.46535435444065976,0.35469172031090873,0.3004562722392649,6.162303333047964,2.2596359102731594,1.7123650461653632,7.0921432714238,-1.0,-1.3545959217351335,-0.975074147235529,-0.5443720522078357,0.15975847170972413,-0.8083814506292587,-3.14
395,0.46527336611249104,0.3545735803699702,0.300470737929518,6.162292299631285,2.2595182790581965,1.7123643851193724,7.092608229984128,-1.0,-1.3545851937578692,-0.9766262904820877,-0.5414398140818959,0.1583883378138698,-0.8083837050065074,-3.14
396,0.46519324774185067,0.3544567859124511,0.3004849333245904,6.162281376994421,2.2594019891267125,1.712363729394582,7.093068255807016,-1.0,-1.3545746658954283,-0.9781692414180979,-0.5385233753002451,0.15702462450198376,-0.8083859174471881,-3.14
397,0.4651139900137877,0.35434132160218856,0.30049886304764367,6.162270564118701,2.2592870251644896,1.7123630789669417,7.093523400711658,-1.0,-1.3545643347282212,-0.9797030596432803,-0.5356226514350632,0.15566731013742513,-0.8083880886636184,-3.14
398,0.46503558371148446,0.3542271722811558,0.3005125316376961,6.162259859992013,2.259173372035745,1.7123624338118906,7.093973715987232,-1.0,-1.3545541968988286,-0.9812278043048537,-0.532737558481658,0.15431637299605308,-0.8083902193553026,-3.14
399,0.46495801971528056,0.35411432296733625,0.3005259435512944,6.162249263608828,2.2590610147809898,1.712361793904384,7.094419252397941,-1.0,-1.3545442491107653,-0.982743534101846,-0.5298680128572639,0.15297179127049607,-0.8083923102091827,-3.14
400,0.4648812890017189,0.3540027588526314,0.3005391031641671,6.162238773970265,2.258949938614922,1.7123611592189134,7.094860060188013,-1.0,-1.3545344881272707,-0.9842503072893565,-0.5270139313998133,0.15163354307431845,-0.8083943618998827,-3.14
401,0.46480538264258275,0.353892465300786,0.3005520147728084,6.1622283900841195,2.2588401289243327,1.712360529729534,7.095296189086667,-1.0,-1.3545249107701245,-0.9857481816827631,-0.5241752313666809,0.1503016064460819,-0.8083963750899499,-3.14
402,0.4647302918039538,0.3537834278453454,0.3005646825960675,6.162218110964913,2.2587315712660523,1.7123599054098841,7.095727688313036,-1.0,-1.3545155139184892,-0.987237214661883,-0.5213518304334022,0.14897595935330948,-0.8083983504300895,-3.14
403,0.46465600774526744,0.3536756321876303,0.30057711077667326,6.162207935633915,2.258624251364907,1.7123592862332102,7.096154606581061,-1.0,-1.3545062945077755,-0.9887174631750799,-0.5185436466923677,0.1476565796963499,-0.8084002885593943,-3.14
404,0.46458252181838294,0.35356906419473977,0.30058930338274303,6.16219786311919,2.258518155111709,1.712358672172386,7.096576992104344,-1.0,-1.354497249528533,-0.9901889837433254,-0.5157505986514942,0.146343445312149,-0.8084021901055711,-3.14
405,0.46450982546665404,0.3534637098975757,0.3006012644092522,6.162187892455606,2.2584132685612683,1.7123580631999333,7.096994892600958,-1.0,-1.354488376025365,-0.991651832464211,-0.5129726052328722,0.14503653397792696,-0.8084040556851607,-3.14
406,0.4644379102240113,0.3533595554888947,0.3006129977794727,6.162178022684881,2.2583095779304294,1.7123574592880415,7.0974083552982306,-1.0,-1.3544796710958646,-0.9931060650159113,-0.5102095857713949,0.1437358234147657,-0.8084058859037545,-3.14
407,0.4643667677140526,0.35325658732137744,0.3006245073463873,6.162168252855582,2.2582070695961285,1.7123568604085875,7.097817426937481,-1.0,-1.3544711318895761,-0.9945517366611015,-0.5074614600133637,0.14244129129110633,-0.808407681356206,-3.14
408,0.4642963896491351,0.35315479190572496,0.3006357968940658,6.162158582023165,2.2581057300934786,1.7123562665331549,7.098222153778725,-1.0,-1.3544627556069753,-0.9959889022508281,-0.5047281481150776,0.14115291522616272,-0.8084094426268379,-3.14
409,0.46422676782948474,0.3530541559087789,0.3006468701390132,6.162149009249981,2.258005546113874,1.7123556776330489,7.0986225816053405,-1.0,-1.3544545394984742,-0.9974176162283341,-0.502009570641403,0.13987067279324888,-0.8084111702896453,-3.14
410,0.4641578941423006,0.3529546661516602,0.30065773073149427,6.162139533605282,2.2579065045031226,1.7123550936793193,7.099018755728695,-1.0,-1.3544464808634447,-0.998837932632837,-0.499305648564325,0.13859454152302383,-0.8084128649084947,-3.14
411,0.4640897605608773,0.35285630960793435,0.3006683822568276,6.162130154165248,2.257808592259596,1.7123545146427723,7.09941072099274,-1.0,-1.3544385770492648,-1.0002499051032663,-0.49661630326148565,0.13732449890665896,-0.8084145270373184,-3.14
412,0.46402235914372886,0.3527590734017949,0.30067882823664993,6.162120870012987,2.257711796532403,1.712353940493988,7.099798521778564,-1.0,-1.3544308254503834,-1.0016535868819534,-0.4939414565147032,0.13606052239892383,-0.8084161572203051,-3.14
