jkpark150901/flame_robotics_drt/experiment/inspection_ik/session_20260722_135839/success/inspection_ik_20260722_135919_dda_rb10_1300e_normalized_success.csv
iteration,err_norm,position_error,orientation_error,tcp_x,tcp_y,tcp_z,q0_dda_joint_linear_track,q1_dda_joint_carriage,q2_dda_joint_base,q3_dda_joint_shoulder,q4_dda_joint_elbow,q5_dda_joint_wrist1,q6_dda_joint_wrist2,q7_dda_joint_wrist3
0,2.784637844611818,1.8328641123667995,2.0943951007947725,4.210475110265341,1.8135100818577254,1.7220255355042193,3.777583485599013,-1.0,0.07644524912412254,-1.3927562557989155,0.29309112730732734,2.148128221752967,1.5326016322917213,-1.637032087348724
1,1.8109313912313116,1.185076391190524,1.3688119162565073,4.857700117190108,1.787623869570357,1.6860191148035684,4.2853797659683694,-1.0,0.20024560671600217,-1.3958563359936071,0.014647104240980091,1.701817130111402,1.4223211955490462,-1.7164508801822822
2,1.1882860058313867,0.765109168603528,0.9086267849114903,5.27442306504821,1.7872236623930489,1.619709999888574,4.560756188938651,-0.988122211543678,0.3096851926670568,-1.4238852132621882,-0.14629162217062924,1.4168524066370014,1.2565611354905266,-1.6461323369700802
3,0.7825566313481385,0.4963666471642891,0.604706833517768,5.542264476864638,1.8008499192215137,1.58046845334032,4.731804387766474,-0.9746295199456213,0.38439569189843054,-1.4187764652630166,-0.26320713603918033,1.1930279341453296,1.1807800436784297,-1.493064857196838
4,0.511207755619118,0.32282021924102855,0.39628543083055934,5.716219536223858,1.8095075948531036,1.568160136861066,4.854940124690515,-0.965207483356132,0.4254254623912435,-1.3942780922766964,-0.34499164269786053,1.0203503456327265,1.186730115305928,-1.3588623207034116
5,0.3323445420028546,0.21003904062015047,0.25752910069839086,5.829274330072012,1.8131277573013036,1.5684311640277586,4.942767060040554,-0.9601680292340374,0.4476255664621401,-1.3694146268632819,-0.39607398275061195,0.9028753131550464,1.2208099083710353,-1.2730862885056815
6,0.21585532955363426,0.13663261913011465,0.16709947402643432,5.902657498273891,1.8142700996981127,1.5724134833114565,5.002739763406006,-0.957963059903612,0.4605641578548527,-1.350255303605201,-0.426624444745125,0.8267223630659681,1.2545839499550893,-1.222710530144679
7,0.14020829686748446,0.0888605496905089,0.10845118514972808,5.950269252654115,1.8144350125855675,1.57662453796631,5.042724202252615,-0.9571057562637373,0.4684766657153769,-1.3367391601766176,-0.4450190748358513,0.7776554336677435,1.2807556358777257,-1.1930480961734302
8,0.0910914834327215,0.057781387454513194,0.07041930216350842,5.981166551383552,1.8142808364584715,1.5800434256913056,5.06908602812955,-0.9568124735075003,0.4734303893697249,-1.3275434665830703,-0.45630401640629353,0.7459654358850494,1.2993433341580178,-1.1751975138376358
9,0.0591910220454494,0.0375676323931656,0.04574094132509305,6.001224891116474,1.8140648945179436,1.5825516358647993,5.086367671363785,-0.9567371078860699,0.4765721879704213,-1.3214001948597167,-0.46334755988097504,0.7254468283857971,1.3120357058412255,-1.164221237216358
10,0.03846661368241567,0.024423244553856548,0.029718387701790645,6.014251349718238,1.8138740234606663,1.5843020571196655,5.097660417819496,-0.9567376024916571,0.47858117874387734,-1.3173383127361316,-0.46780150762330286,0.712139926165414,1.3205288260000883,-1.1573558449956711
11,0.02500025985127339,0.01587699934325296,0.01931148264349154,6.022713470286244,1.8137281389827298,1.5854903604981039,5.105025459676549,-0.9567590126389188,0.47987283732333075,-1.3146693133213436,-0.47064389821457375,0.7035018777807088,1.3261480960379934,-1.1530080402895848
12,0.016248973031212414,0.010320891225997584,0.012550228506160627,6.028211649597092,1.813623956706308,1.5862840611775793,5.1098231042871,-0.9567818845074665,0.4807063547801352,-1.312922347797383,-0.4724691929507992,0.6978915371951229,1.3298412808179796,-1.1502306481593252
13,0.010561380287842778,0.006708960063866369,0.008156751300955764,6.0317845281604345,1.8135522444555654,1.5868089653669255,5.112945938690966,-0.9568005462487018,0.481245558003989,-1.311781697822116,-0.4736462378728643,0.6942465212906574,1.3322587489426205,-1.1484459589191915
14,0.006864739237501342,0.004361000482511805,0.005301539079906699,6.034106504107195,1.813503932297685,1.5871539618722952,5.114977626203761,-0.9568142825216833,0.4815949416341759,-1.3110381015530246,-0.4744073527932508,0.6918779259616495,1.3338371708962085,-1.1472946287122903
15,0.004462034857361687,0.002834734753512618,0.003445871938126303,6.03561562417502,1.8134718078606964,1.5873798255600313,5.116299005649945,-0.9568238902215933,0.48182157465818937,-1.310553837487533,-0.47490040620782525,0.6903385959998994,1.3348661147281724,-1.1465499463010502
16,0.0029003169534724156,0.0018426196330457469,0.002239774815258329,6.036596485027861,1.8134506209155246,1.5875273247402402,5.117158235477684,-0.9568304221558926,0.48196868835709133,-1.3102386686845977,-0.4752201870685121,0.689338127986867,1.3355361803271288,-1.146067456189782
17,0.0018852124029919274,0.001197724645776384,0.0014558438994808009,6.037234017778677,1.8134367196232455,1.5876234932538094,5.1177168774520885,-0.9568347890456728,0.48206422843212016,-1.3100336373204478,-0.4754277486812272,0.6886878576245812,1.3359722525795952,-1.1457544920339418
18,0.0012253964645872232,0.0007785329395433834,0.0009462996109993621,6.037648403810505,1.8134276287390656,1.5876861293200182,5.118080056196418,-0.9568376786137737,0.4821262939459629,-1.309900291884083,-0.47556253961382805,0.6882651919681109,1.336255924306346,-1.1455513404563413
19,0.0007965149581695019,0.0005060531833171798,0.000615098572081196,6.0379177511029,1.8134216962954428,1.587726897730194,5.118316149148975,-0.9568395783530532,0.48216662145784733,-1.3098135839878429,-0.47565010187784185,0.6879904608808248,1.3364404067089017,-1.1454194072480752
20,0.0005177401968050971,0.00032893855893032837,0.0003998178778585725,6.038092825771181,1.813417830267857,1.587753421403798,5.118469621401204,-0.9568408222310022,0.4821928279396381,-1.3097572086819196,-0.4757069958334881,0.6878118846313671,1.3365603613148984,-1.1453336987747604
21,0.00033653500589137636,0.00021381248231191392,0.0002598846508080014,6.038206624153333,1.8134153131099615,1.5877706726592762,5.118569383705257,-0.9568416345443974,0.4822098594285145,-1.309720557621143,-0.47574396806590985,0.6876958085200476,1.3366383495375767,-1.1452780081954101
22,0.0002187504096268967,0.00013897961217473716,0.00016892722947880437,6.0382805932330434,1.8134136751401848,1.5877818909832921,5.118634231680582,-0.9568421641309394,0.48222092873281563,-1.3096967309708842,-0.47576799644628337,0.6876203576740969,1.3366890496279669,-1.1452418174782732
23,0.0001421895496177896,9.033769092017886e-05,0.00010980422928484233,6.038328673317561,1.8134126096755483,1.5877891852804809,5.118676384055345,-0.9568425090181313,0.48222812328110043,-1.3096812418896093,-0.4757836134913215,0.687571313576904,1.3367220081260536,-1.1452182967900366
24,9.242439056538972e-05,5.8720098901378766e-05,7.137378716621258e-05,6.038359925532412,1.8134119167814928,1.5877939277579685,5.11870378369563,-0.9568427334635898,0.4822327995213286,-1.3096711730510637,-0.4757937640473531,0.6875394341678027,1.33674343271158,-1.1452030096173493
