jkpark150901/flame_robotics_drt/experiment/inspection_ik/session_20260722_135839/success/inspection_ik_20260722_135914_rb20_1900es_normalized_success.csv
iteration,err_norm,position_error,orientation_error,tcp_x,tcp_y,tcp_z,q0_rt_joint_linear_track,q1_rt_joint_carriage,q2_rt_base,q3_rt_shoulder,q4_rt_elbow,q5_rt_wrist1,q6_rt_wrist2,q7_rt_wrist3
0,2.332004603366043,0.8592236754135292,2.088425015895641,2.2726914133163043,1.8130062474534971,2.051017132588862,2.2779623346426705,1.0,0.3272340708160114,0.5051978229009405,0.06522009005082548,-0.2819267927713615,-3.14,3.14
1,1.5824154199061484,0.74830085117196,1.3599257501583946,2.3350898663846866,1.9633582471832298,1.9850548715710885,2.1502022248017743,1.0,0.07421838623458898,0.5498709232337091,0.23080921456384373,-0.17511644352490457,-2.6526784999527444,3.033509614280682
2,1.0358917261519789,0.5229107484318436,0.8838252849045278,2.376844142604289,2.1515503599870045,1.7683669890340619,2.165466627076855,0.9506955559969488,0.03464650851423238,0.6569474772604562,0.4381581664515442,-0.17957860744071977,-2.4926842452124784,3.028680927694379
3,0.670788379587169,0.341500834993513,0.5745229645352822,2.407595960764522,2.1876087037156537,1.5772844408165587,2.1651833008149253,0.8764481126383021,0.007113043697866861,0.6885018513129294,0.6611750396726916,-0.1827849007790791,-2.439414908863683,3.0295205812099106
4,0.4343756867005467,0.2204709652103277,0.3735054873693585,2.4269416928378638,2.1742005812595,1.4542642584781669,2.1586269443214174,0.8304487692993372,-0.012920854556970899,0.6878272063935984,0.827367130663349,-0.18497225238632486,-2.4054934613998387,3.0354581410290775
5,0.28154538919200034,0.14214004947970563,0.2428261606410689,2.439207294600181,2.1511458757872406,1.3791539164019504,2.151548307059644,0.8029420621718562,-0.0276934966767817,0.6791510991491534,0.9402916594348801,-0.18742087252006312,-2.380506907243088,3.04187325621008
6,0.18263924973989618,0.0917531128559403,0.1578637828518177,2.4470954761240713,2.130581507412161,1.3334611063538584,2.145719407622338,0.7861815804609905,-0.038351079361242005,0.6701992714070216,1.0147276988834975,-0.18987824465954053,-2.3622069390963736,3.0471597635866843
7,0.1185534844201337,0.059329410313802136,0.10262485962504588,2.4522102505886174,2.115012763746954,1.3053730682325586,2.141405965273569,0.7757654926942147,-0.04582605264856121,0.6629953551571235,1.0632781028895164,-0.19199630521964733,-2.3492054423707405,3.051071857401734
8,0.07698925367700882,0.038421895510747595,0.06671248783158742,2.4555379505614723,2.10401000885064,1.2878770866090243,2.1383821066115867,0.7691963864113021,-0.05094566974529678,0.657724085752584,1.094832803422758,-0.1936427193496262,-2.340216666302751,3.0538155667856506
9,0.05001275470957748,0.024911158516403034,0.0433660310311519,2.457704938219573,2.096498943326708,1.2768484881685103,2.1363250188272,0.7650110947735442,-0.05439178984353032,0.6540465788337467,1.1153217492523728,-0.19484166110466564,-2.334126133759381,3.0556835298839293
10,0.03249545199104312,0.016164869989202815,0.028189254889849722,2.459115958669051,2.0914688679480036,1.2698312756595582,2.1349498404729905,0.7623262395411229,-0.056683982606209486,0.6515490880066344,1.128624865619054,-0.19567964123985648,-2.330056662299625,3.056933308220496
11,0.02111665653543363,0.010495455167638758,0.01832363296256039,2.4600343966933322,2.088137901208636,1.2653357297678454,2.1340401018078503,0.7605960513591884,-0.058196566796913644,0.6498801119711849,1.1372641939596406,-0.19625031445870403,-2.3273631019224674,3.057760670950561
12,0.013723595043810363,0.00681710001423548,0.011910653191851143,2.460631983196889,2.0859470920677983,1.2624418192568787,2.1334421272724784,0.7594777230968496,-0.05918948574184146,0.6487758816526403,1.142876133032453,-0.1966325648866131,-2.325591380069528,3.0583047895595947
13,0.0089194284609712,0.004429052399292539,0.007742066973791132,2.4610206856471533,2.0845122712898454,1.2605728133798917,2.1330506510578195,0.7587534534346637,-0.05983904599510572,0.648049886881178,1.1465222853877877,-0.19688589973133303,-2.324430807095185,3.0586611420671566
14,0.005797268807236288,0.0028780373120099617,0.005032415860126606,2.4612734610925946,2.0835750796450028,1.2593630768471662,2.132795013024804,0.7582837860785796,-0.060263034223021664,0.6475744836496296,1.1488916009161303,-0.19705265135730518,-2.3236726230009004,3.0588939027723066
15,0.003768088847405649,0.0018703845364700048,0.00327110870055539,2.4614378162341137,2.0829639717686494,1.2585789176645896,2.1326283489725997,0.7579789647968086,-0.060539381662352384,0.6472639777657675,1.1504313772293921,-0.1971619274506878,-2.323178188054189,3.059045676486422
16,0.0024492109280037397,0.0012156186879742853,0.002126241947342402,2.4615446687217224,2.082565927401018,1.2580701320332166,2.132519804770409,0.7577810228020666,-0.06071932894945681,0.6470615106556146,1.151432124051094,-0.19723333385267786,-2.3228561235534317,3.0591445327460156
17,0.0015919742364044916,0.0007901048165885313,0.001382069552725526,2.461614131875825,2.082306844785273,1.2577398089187295,2.1324491599956588,0.7576524392552054,-0.06083643175321144,0.6469296329246951,1.1520825714183336,-0.19727990781946353,-2.322646495073965,3.0592088758143996
18,0.0010347823229067234,0.000513553458705075,0.0008983525379450557,2.4616592866342666,2.0821382878240793,1.257525262194188,2.132403201570653,0.7575688917287324,-0.06091260721307625,0.6468437937685648,1.1525053512486871,-0.19731024857225032,-2.32251011676383,3.0592507357430594
19,0.0006726110482138028,0.000333807022572648,0.0005839336351425358,2.4616886387116415,2.0820286585292536,1.2573858754541087,2.1323733114098893,0.7575145982933184,-0.06096214648424487,0.6467879463798673,1.1527801569145308,-0.19732999870076312,-2.322421421155579,3.059277960555416
20,0.00043720016024596136,0.00021697567430903293,0.00037955966052581977,2.4617077181325553,2.081957369414974,1.2572953028114802,2.1323538751694566,0.757479312192817,-0.06099435795136441,0.6467516224584186,1.1529587823151377,-0.19734284839959298,-2.322363748622568,3.0592956635492765
21,0.0002841826022755771,0.00014103612797436213,0.00024671554797201905,2.4617201199596623,2.081911017707714,1.2572364425617697,2.1323412381417595,0.757456377774798,-0.06101530021054622,0.6467280013791651,1.1530748910099522,-0.19735120582825222,-2.3223262532675966,3.0593071735037607
22,0.00018472055275165663,9.167525910580928e-05,0.0001603662346326163,2.461728181208617,2.081880882573299,1.2571981883410623,2.132333022447353,0.7574414707902897,-0.061028914827822654,0.6467126427332588,1.1531503635343494,-0.1973566403244936,-2.322301878084079,3.059314656315243
23,0.00012006966951499858,5.959029054774056e-05,0.00010423877450205171,2.461733421030266,2.0818612915230115,1.2571733251102393,2.132327681454914,0.7574317812406647,-0.06103776531378076,0.6467026572025452,1.1531994220843749,-0.19736017366419678,-2.322286033034628,3.059319520754796
24,7.804617927931003e-05,3.873467281105822e-05,6.775566680557297e-05,2.4617368269080186,2.0818485556862156,1.2571571648115099,2.1323242094080235,0.7574254829166539,-0.06104351859561874,0.6466961653797959,1.1532313111390806,-0.1973624707232713,-2.322275733366496,3.0593226829286775
