jkpark150901/flame_robotics_drt/experiment/inspection_ik/session_20260722_135839/fallback/inspection_ik_20260722_135925_rb20_1900es_normalized_fallback.csv
iteration,err_norm,position_error,orientation_error,tcp_x,tcp_y,tcp_z,q0_rt_joint_linear_track,q1_rt_joint_carriage,q2_rt_base,q3_rt_shoulder,q4_rt_elbow,q5_rt_wrist1,q6_rt_wrist2,q7_rt_wrist3
0,1.8313145649618188,1.8297486772003941,0.06707116678890471,4.11583050466897,2.279648832567384,1.7105964670163196,4.001535928263726,1.0,0.12424355990366509,0.9270499062385208,-0.010280233705482245,0.08253874271065545,-2.4859166303135094,3.14
1,1.2031094611657045,1.188785379001201,0.17514983884439334,4.75678456494642,2.299549896753026,1.6887746146735425,4.5279176227399525,1.0,0.0424509829645071,0.9465178787067766,-0.019294624971137115,0.21751153244122534,-2.4909834347737414,3.14
2,0.8106388820616711,0.7739495020621913,0.23535708658916224,5.1726900853659625,2.318461593543779,1.659883508100383,4.8820164723698065,1.0,-0.0008371456944697153,0.9758026581581608,-0.0377959205522026,0.2913156278810162,-2.49248051214671,3.14
3,0.5706925697857355,0.5055953369153403,0.2619334734609596,5.4436086939788,2.3260937092048932,1.6459486078930945,5.122758040873898,1.0,-0.021521454740186095,0.9947954381160329,-0.056686039347851616,0.3248529592320968,-2.4862840849714622,3.14
4,0.42603261144941507,0.3316490474634417,0.2662007028115712,5.62061952832076,2.3251852777390014,1.6457012422545503,5.290262582585158,1.0,-0.028039753502664893,1.0022623130650172,-0.07141951576267516,0.3321097807182385,-2.4766325245090566,3.14
5,0.3387605855770667,0.2195119190177137,0.2575000958374907,5.736060720216414,2.3198635273704737,1.6532969657900998,5.409715884509729,1.0,-0.025375205619815377,1.0017889795362482,-0.08105826381167595,0.32358984283835934,-2.4670587469270973,3.14
6,0.2846221141505174,0.1489409486448291,0.24232313469168382,5.810959150826703,2.3130682321415525,1.6638287373419092,5.4968683812117884,1.0,-0.017009894167267628,0.9970975241668346,-0.08632146197972229,0.3065726874807514,-2.459272796878152,3.14
7,0.24900264677175127,0.10718509445577883,0.22465932878731457,5.859244690358273,2.3064350746230327,1.674345816032039,5.561795146965159,1.0,-0.005500215416908446,0.9907658873664489,-0.08830074063982535,0.2857327688187745,-2.4537664158294645,3.14
8,0.22372204005129628,0.08538598097966654,0.20674582534272473,5.890182408254308,2.3006915441314444,1.6834692886957152,5.611126444028268,1.0,0.007350952907993815,0.9842442251007258,-0.08796996282272948,0.26389063602951757,-2.450417245147257,3.14
9,0.2044639494562125,0.07616151789864994,0.1897306961371824,5.909900687442282,2.2960379696262563,1.6907838725662385,5.649324440744058,1.0,0.020359267332896627,0.9782050492500068,-0.08607688883865229,0.24264532712189243,-2.448856343776613,3.14
10,0.18901209462288276,0.07348191616786237,0.17413416384891642,5.922415415529256,2.2924125680944756,1.6963643596715443,5.679436709003082,1.0,0.03280992781074405,0.9728733425500232,-0.08316342258131741,0.22283132353501192,-2.448660276653344,3.14
11,0.17621532234216547,0.07353509448020594,0.16013369002829053,5.930332717577511,2.2896503797164223,1.7004830145258498,5.70356694467532,1.0,0.044317344139907774,0.9682528599851811,-0.07961376186125868,0.2048230586106852,-2.4494403273551066,3.14
12,0.16544136867552378,0.07447330816013956,0.1477283608514195,5.935329497774315,2.2875673406085077,1.7034542382878357,5.723183009164799,1.0,0.05471167313759423,0.9642580578772034,-0.07569856419846444,0.1887279010660803,-2.4508758094537657,3.14
13,0.156306440678528,0.07555643729756822,0.1368297033705222,5.938477410269359,2.2859982161920094,1.7055642203132964,5.739323075919382,1.0,0.06395609364922536,0.9607817036585199,-0.07160831958215753,0.17450451589932037,-2.4527190069881466,3.14
14,0.14854674551720795,0.07653604530274558,0.127310581178006,5.940457781597321,2.284809147766922,1.7070468345640868,5.7527341325806995,1.0,0.07209055977608098,0.957724687654052,-0.06747688535823841,0.16203388438824876,-2.4547873583466626,3.14
15,0.1419594422197041,0.07735499159166799,0.1190310873101516,5.941702157405036,2.283897893007239,1.7080818249101202,5.7639646473288115,1.0,0.07919544443816594,0.9550059972681225,-0.06339774329892682,0.15116120336026248,-2.4569513271345382,3.14
16,0.1363763745161079,0.07802185201615024,0.1118520222443696,5.942483157234855,2.283189146060451,1.7088020460263993,5.773426270444229,1.0,0.08536900305923341,0.9525634544189523,-0.05943526258086252,0.14172015244824193,-2.459122145437108,3.14
17,0.13165272941364364,0.07856260008975893,0.10564168038571137,5.94297269496674,2.282628673827221,1.7093031347266134,5.781434856504473,1.0,0.09071397684905912,0.9503508718260745,-0.05563261345491231,0.13354655958451306,-2.4612411973647523,3.14
18,0.12766214515687244,0.07900364419980362,0.10027900231404543,5.943279050188284,2.282177910748879,1.709652671577516,5.7882378332211415,1.0,0.09533003288198529,0.9483343608901678,-0.052017426816702975,0.12648571513345308,-2.463271538567548,3.14
19,0.12429437081833368,0.07936694023949901,0.0956547352130382,5.943470367766963,2.281809566036221,1.7098977844087946,5.794032625130913,1.0,0.09930982721809568,0.9464889469590386,-0.0486059111142062,0.1203959005770526,-2.4651914505680983,3.14
20,0.12145377875101358,0.07966943632720859,0.0916714999171829,5.943589509203367,2.281504291453167,1.7100710311636635,5.798979233177991,1.0,0.10273725580776229,0.944795865503639,-0.04540589017369323,0.11514968598608354,-2.46698970157963,3.14
21,0.11905806272582199,0.07992384584130315,0.08824326817828078,5.943663420016345,2.281248259954019,1.7101947598508112,5.803208987181366,1.0,0.10568698464790882,0.9432405624210785,-0.04241906947084591,0.11063394151217165,-2.468662142425004,3.14
22,0.11703691705783642,0.08013964790987528,0.08529453930927493,5.943709031018545,2.2810314560361524,1.7102842486424754,5.806830773357051,1.0,0.10822469518830742,0.9418112897931283,-0.03964273987810134,0.10674913877282147,-2.4702093029727594,3.14
23,0.11533068082508645,0.08032396025184879,0.08275938514366749,5.943736973440812,2.2808464922976928,1.7103499225091046,5.809935575362872,1.0,0.1104077012755256,0.9404981583252945,-0.03707106462995367,0.1034082920069611,-2.4716347172280217,3.14
24,0.11388899287268484,0.08048220824549966,0.08058046251702523,5.943753916934319,2.2806878012669602,1.710398895407716,5.812599869738381,1.0,0.1122857324513052,0.9392925195588663,-0.034696053534827354,0.10053574955485246,-2.4729437687342353,3.14
25,0.11266951004099837,0.08061860807002225,0.07870805077363803,5.943764040670961,2.280551088222208,1.7104360317908234,5.8148882267637605,1.0,0.11390176437509776,0.9381865760942486,-0.03250830020242802,0.09806595989975958,-2.4741429024032335,3.14
26,0.11163672790684959,0.08073650517524855,0.07709914628532753,5.943769958891632,2.2804329622436073,1.710464671457669,5.8168553468950925,1.0,0.11529282981764755,0.9371731439268449,-0.03049753839952328,0.09594228295920891,-2.475239091881729,3.14
27,0.1107609262062006,0.08083860806549956,0.07571663016130618,5.9437733031575455,2.280330687356962,1.7104871216238398,5.818547685871677,1.0,0.11649077553160936,0.9362455129222428,-0.028653059651583823,0.09411588419534578,-2.476239483882522,3.14
28,0.11001724639903064,0.08092714925082929,0.07452851552709307,5.943775088569005,2.2802420138110056,1.7105049895766884,5.820004772222855,1.0,0.11752294925745814,0.935397368401264,-0.026964024041940145,0.09254472881380099,-2.4771511644552504,3.14
29,0.1093848983513132,0.0810039966623832,0.07350727475320411,5.943775944029731,2.280165062480232,1.7105194069539125,5.821260289016098,1.0,0.11841281213655862,0.9346227491922665,-0.025419688652921955,0.09119268108970634,-2.477981008965439,3.14
30,0.10884648666395079,0.08107073179773419,0.07262924345783307,5.943776256950719,2.2800982443749964,1.710531180748064,5.822342970851332,1.0,0.11918047797369533,0.9339160262231953,-0.02400957247387716,0.0900287067102009,-2.478735589353908,3.14
31,0.10838744389949731,0.08112870563576097,0.07187409612589879,5.943776264113176,2.280040203361934,1.7105408949722074,5.8232773532778666,1.0,0.11984318403617114,0.933271891678744,-0.022723572347590336,0.08902617206294285,-2.479421120460774,3.14
32,0.10799555687768764,0.08117907967659538,0.07122438721711778,5.943776108658896,2.279989774303056,1.7105489791987927,5.824084402454514,1.0,0.12041569957807838,0.9326853527117558,-0.021552041278076587,0.0881622324264219,-2.480043432873451,3.14
33,0.10766057251086743,0.08122285694830461,0.07066515130877275,5.943775875779999,2.2799459515409652,1.7105557548961152,5.824782046398526,1.0,0.12091067876222412,0.9321517262734385,-0.020485837923190073,0.0874173002631551,-2.480607963663791,3.14
34,0.10737387072023914,0.08126090614374977,0.07018355589002044,5.943775615022902,2.2799078644396835,1.710561466894696,5.825385624572456,1.0,0.12133896456146924,0.9316666332569845,-0.019516354160514428,0.08677458479217556,-2.481119759062132,3.14
35,0.10712819339810613,0.08129398094842266,0.06976860073248572,5.943775354188585,2.2798747578478453,1.710566304890461,5.825908269206228,1.0,0.12170984982436106,0.9312259911489428,-0.018635526109556343,0.08621969441179435,-2.481583484958248,3.14
36,0.10691741989794674,0.0813227359041827,0.06941085820019122,5.943775107963949,2.279845976096744,1.7105704182618025,5.8263612292408204,1.0,0.1220313011476986,0.9308260049707476,-0.017835832817160446,0.08574029416116627,-2.482003442386084,3.14
37,0.10673638099195462,0.0813477396934225,0.06910224936093,5.943774883255589,2.2798209496229944,1.7105739263865567,5.826754145850937,1.0,0.12231015060564744,0.930463156617667,-0.01711028589118563,0.08532581112722978,-2.4823835860228236,3.14
38,0.10658070455706276,0.08136948643407164,0.06883585127750935,5.943774682464503,2.27979918360954,1.7105769259166572,5.827095286987815,1.0,0.1225522597952258,0.9301341928631529,-0.016452412642950515,0.08496718144711442,-2.482727544337727,3.14
39,0.10644668740449137,0.08138840538862696,0.06860573136208807,5.943774505479066,2.279780248231859,1.7105794959832297,5.827391747168453,1.0,0.12276266010065331,0.9298361123581778,-0.01585623472837837,0.08465663328068072,-2.4830386404470537,3.14
40,0.10633118865114646,0.08140486937138632,0.06840680515529508,5.94377435087323,2.2797637702188216,1.7105817019823255,5.82764961774856,1.0,0.12294567256852636,0.9295661519595028,-0.015316243827798491,0.08438750080853598,-2.4833199130258343,3.14
41,0.1062315408546982,0.08141920206184623,0.06823471433364166,5.943774216614548,2.2797494255161226,1.710583598377191,5.827874132101466,1.0,0.12310501032748838,0.9293217726944452,-0.01482737554921675,0.08415406493514181,-2.483574136834518,3.14
42,0.10614547581606304,0.08143168438297389,0.06808572215099212,5.943774100471924,2.279736932890875,1.7105852308105607,5.828069789447106,1.0,0.12324386608033025,0.9291006456289046,-0.014384982459517985,0.08395141693966811,-2.4838038425652025,3.14
43,0.1060710625130803,0.08144256007037133,0.0679566238810709,5.943774000241161,2.279726048349545,1.710586637725782,5.828240460506973,1.0,0.12336498684075337,0.9289006378599263,-0.013984806926860237,0.08377534181897858,-2.4840113358165383,3.14
44,0.10600665508704384,0.08145204053603125,0.06784467014975347,5.943773913861405,2.27971656026432,1.7105878516325164,5.828389477682524,1.0,0.1234707377774048,0.9287197988094499,-0.01362295428319715,0.08362221851022085,-2.4841987150809297,3.14
45,0.10595084917687264,0.0814603091143589,0.06774750132977105,5.943773839467389,2.2797082851194066,1.7105889001106487,5.828519712050088,1.0,0.12356315675970242,0.928556346955035,-0.013295866678758294,0.0834889345691037,-2.48436788868101,3.14
46,0.10590244519953919,0.08146752476615064,0.06766309142027735,5.9437737754050115,2.279701063800996,1.7105898066177587,5.828633639122762,1.0,0.12364400096875695,0.9284086570975614,-0.013000297892798999,0.08337281321895855,-2.484520590630492,3.14
47,0.10586041742261665,0.0814738253066318,0.06758970005174464,5.9437737202268215,2.279694758364387,1.7105905911464756,5.828733395038991,1.0,0.12371478673789846,0.928275248235515,-0.012733289280953262,0.08327155098016926,-2.4846583954216412,3.14
48,0.10582388787640198,0.08147933021583598,0.0675258314466389,5.9437736726773,2.2796892492197034,1.710591270765053,5.8288208245904745,1.0,0.12377682361678759,0.9281547720903175,-0.0124921469742804,0.08318316434448517,-2.484782731760716,3.14
49,0.10579210431750141,0.08148414308281782,0.06747019933121576,5.943773631673758,2.2796844326844963,1.7105918600656138,5.828897522291995,1.0,0.12383124350707085,0.9280460023067659,-0.012274420394766098,0.08310594417882308,-2.484894895285944,3.14
50,0.10576442159032731,0.08148835372929669,0.06742169693638567,5.943773596286107,2.279680218857486,1.7105923715383256,5.828964867517086,1.0,0.12387902559269102,0.9279478243364528,-0.012077882113560636,0.08303841673272293,-2.484996060311446,3.14
51,0.10574028584325533,0.08149204005308118,0.06737937134880632,5.943773565717278,2.279676529772974,1.7105928158854087,5.8290240545714305,1.0,0.12392101768132628,0.9278592259994255,-0.011900509049182283,0.08297931028659024,-2.4850872906461445,3.14
52,0.10571922114685832,0.0814952696269165,0.06734240157945595,5.943773539285162,2.279673297800199,1.7105932022857606,5.829076118446521,1.0,0.123957954482433,0.9277792887097582,-0.011740464981317315,0.08292752661774278,-2.4851695495399295,3.14
53,0.10570081813637512,0.08149810108417878,0.06731007980832684,5.943773516406469,2.2796704642561365,1.7105935386186804,5.829121956886022,1.0,0.12399047326976101,0.9277071793436132,-0.011596084340153636,0.08288211658118734,-2.485243708810777,3.14
54,0.10568472436235793,0.08150058531909597,0.06728179534218415,5.943773496582508,2.27966797820402,1.710593831653512,5.829162349303575,1.0,0.12401912731006376,0.9276421427233067,-0.011465857220136244,0.08284225920472965,-2.48531055720667,3.14
55,0.10567063608456051,0.08150276652573266,0.06725702088973147,5.943773479386861,2.279665795413294,1.7105940872107042,5.829197973011072,1.0,0.12404439738335973,0.9275834946874817,-0.011348415559622474,0.08280724378586414,-2.485370808055339,3.14
56,0.10565829128672685,0.0815046830970415,0.06723530081605675,5.943773464454766,2.2796638774596687,1.7105943102988181,5.829229417148555,1.0,0.12406670167209632,0.9275306157153748,-0.01124252042334351,0.08277645455297057,-2.485425106253329,3.14
57,0.10564746372525072,0.08150636840254469,0.06721624108767428,5.943773451474018,2.279662190946681,1.7105945052312195,5.829257194649133,1.0,0.12408640425567538,0.9274829450720891,-0.011147050322194341,0.08274935751749686,-2.485474034643919,3.14
58,0.10563795785426587,0.0815078514608563,0.06719950066168055,5.943773440177207,2.2796607068325323,1.7105946757255635,5.829281752523195,1.0,0.12410382241198055,0.9274399754414896,-0.011060990504168743,0.08272548919857516,-2.485518119831106,3.14
59,0.10562960449439125,0.08150915752118239,0.06718478410857213,5.943773430335094,2.2796593998480423,1.7105948249886889,5.8293034807042945,1.0,0.12411923289789739,0.9274012480136707,-0.010983423150810733,0.08270444694826125,-2.4855578374743597,3.14
60,0.10562225713305654,0.08151030856605662,0.06717183528919972,5.943773421751001,2.2796582479934533,1.7105949557891091,5.829322719663543,1.0,0.12413287735556718,0.9273663479947144,-0.010913518415050618,0.08268588064546979,-2.4855936171062356,3.14
61,0.10561578876168144,0.081511323745986,0.06716043193257928,5.943773414256018,2.2796572321033897,1.7105950705189588,5.829339766968956,1.0,0.12414496696961409,0.9273349005075721,-0.010850526238460542,0.08266948556069036,-2.485625846512288,3.14
62,0.10561008916955467,0.08151221975523362,0.06715038098385213,5.943773407704943,2.2796563354707406,1.7105951712469512,5.8293548829404065,1.0,0.124155686482271,0.927306566854238,-0.010793768888610554,0.08265499622257859,-2.485654875710087,3.14
63,0.10560506262658108,0.08151301115676951,0.06714151461069383,5.943773401972831,2.2796555435214234,1.7105952597636966,5.829368295528863,1.0,0.12416519765773085,0.9272810411108767,-0.010742634160157359,0.08264218114224457,-2.4856810205615587,3.14
64,0.1056006258973297,0.08151371066328889,0.06713368677309085,5.943773396952059,2.279654843533121,1.7105953376204792,5.829380204529822,1.0,0.12417364227375624,0.927258047029152,-0.01069656918643741,0.08263083827215266,-2.485704566050385,3.14
65,0.10559670653763488,0.08151432938032234,0.06712677027502517,5.9437733925498195,2.2796542243919635,1.7105954061624862,5.829390785224901,1.0,0.12418114470725682,0.9272373352186256,-0.010655074811561801,0.08262079109451513,-2.485725769253782,3.14
66,0.10559324143228137,0.08151487701658656,0.06712065422891231,5.9437733886860045,2.2796536763819994,1.7105954665572711,5.829400191531968,1.0,0.12418781417088452,0.927218680586738,-0.010617700476253053,0.0826118852493964,-2.48574486203573,3.14
67,0.10559017553861388,0.08151536206607526,0.06711524187326084,5.943773385291389,2.279653191002952,1.7105955198191718,5.82940855873254,1.0,0.12419374664946854,0.9272018800144813,-0.01058403957385793,0.0826039856258029,-2.485762053486542,3.14
68,0.1055874608061173,0.08151579196573111,0.06711044869330116,5.943773382306098,2.2796527608124157,1.7105955668302557,5.829416005835347,1.0,0.12419902657808535,0.9271867502474533,-0.010553725236089124,0.08259697385018243,-2.4857775321316633,3.14
69,0.1055850552465171,0.0815161732320394,0.06710620080108964,5.9437733796782695,2.2796523792891525,1.7105956083583114,5.8294226376264495,1.0,0.12420372829757056,0.9271731259834861,-0.010526426511046254,0.08259074611625378,-2.485791467930671,3.14
70,0.10558292213272137,0.08151651157941628,0.06710243353827774,5.94377337736295,2.2796520407146055,1.7105956450722986,5.829428546449182,1.0,0.12420791731816289,0.9271608581394915,-0.010501844898936538,0.08258521130819638,-2.4858040140856987,3.14
71,0.10558102930812902,0.08151681202287528,0.06709909027009621,5.943773375321128,2.2796517400701504,1.7105956775556406,5.829433813750938,1.0,0.12421165141760508,0.9271498122815279,-0.010479711213633478,0.08258028937613887,-2.4858153086768544,3.14
72,0.10557934859055002,0.08151707896709455,0.06709612134330738,5.943773373518904,2.2796514729479576,1.7105957063176571,5.829438511428649,1.0,0.12421498159629304,0.9271398672033926,-0.010459782740778734,0.0825759099287928,-2.485825476140678,3.14
73,0.10557785525731152,0.08151731628375453,0.067093483185287,5.943773371926796,2.279651235473593,1.7105957318034093,5.8294427030002725,1.0,0.12421795290887683,0.9271309136402432,-0.010441840665538995,0.08257201101310978,-2.485834628606286,3.14
74,0.1055765276000662,0.08151752737870806,0.06709113752439302,5.943773370519139,2.2796510242387953,1.7105957544021875,5.829446444625752,1.0,0.12422060518898986,0.9271228531048966,-0.01042568774537898,0.08256853805514314,-2.485842867102542,3.14
75,0.10557534653950887,0.08151771525037674,0.06708905071463012,5.943773369273556,2.2796508362430346,1.7105957744548272,5.829449785997679,1.0,0.12422297368144929,0.9271155968354929,-0.01041114620530652,0.08256544293996855,-2.4858502826484106,3.14
76,0.10557429529161146,0.0815178825405381,0.06708719315019525,5.94377336817053,2.2796506688426854,1.710595792260031,5.829452771119009,1.0,0.12422508959427038,0.9271090648442014,-0.01039805583498831,0.08256268321166091,-2.4858569572375404,3.14
77,0.1055733590782169,0.08151803157854146,0.06708553875755353,5.943773367193003,2.279650519706778,1.7105958080798218,5.829455438982832,1.0,0.12422698058113255,0.927103185057538,-0.010386272268933521,0.0825602213770011,-2.4858629647271338,3.14
78,0.10557252487584762,0.08151816441981567,0.06708406455421201,5.943773366326068,2.2796503867784597,1.7105958221442672,5.829457824167077,1.0,0.12422867116346041,0.9270978925397068,-0.010375665432602777,0.08255802429889178,-2.485868371640221,3.14
79,0.10557178119746388,0.08151828287943984,0.06708275026521378,5.943773365556675,2.2796502682414013,1.7105958346555612,5.829459957355326,1.0,0.12423018310003214,0.9270931287911389,-0.010366118138827369,0.08255606266741652,-2.485873237889632,3.14
80,0.10557111790267262,0.08151838856143331,0.06708157798940773,5.943773364873385,2.279650162490483,1.7105958457915689,5.829461865793314,1.0,0.12423153571094399,0.927088841115112,-0.010357524820331648,0.08255431053816384,-2.485877617431183,3.14
81,0.10557052603250476,0.08151848288432173,0.06708053190880564,5.943773364266168,2.2796500681062106,1.7105958557088872,5.829463573689467,1.0,0.12423274616183404,0.9270849820459811,-0.010349790385437294,0.08255274492887653,-2.485881558852881,3.14
82,0.10556999766544073,0.08151856710347545,0.0670795980351874,5.943773363726217,2.27964998383236,1.7105958645455164,5.829465102566638,1.0,0.12423382971347108,0.9270815088331383,-0.010342829185213807,0.08255134546672115,-2.4858851059063403,3.14
83,0.10556952579183441,0.08151864233065163,0.06707876398901035,5.943773363245798,2.2796499085564212,1.7105958724231705,5.829466471571282,1.0,0.124234799941131,0.9270783829753707,-0.010336564081416467,0.08255009407952994,-2.4858882979859898,3.14
84,0.10556910420426242,0.08151870955108545,0.06707801880626793,5.943773362818098,2.2796498412924944,1.7105958794492895,5.829467697745464,1.0,0.12423566892759,0.9270755698007732,-0.010330925605543466,0.08254897472528008,-2.485891170561145,3.14
85,0.10556872740169582,0.08151876963846633,0.06707735276963617,5.943773362437127,2.279649781166303,1.7105958857187937,5.829468796266384,1.0,0.12423644743305924,0.9270730380878277,-0.010325851200242923,0.0825479731548506,-2.48589375556552,3.14
86,0.10556839050566723,0.08151882336806336,0.06707675726073585,5.943773362097596,2.279649727402058,1.7105958913156072,5.829469780657464,1.0,0.12423714504494557,0.9270707597236731,-0.01032128453512387,0.08254707670377066,-2.485896081748335,3.14
87,0.10556808918685257,0.08151887142824124,0.06707622463067647,5.943773361794851,2.2796496793109364,1.7105958963139924,5.829470662974562,1.0,0.12423777030994482,0.9270687093959635,-0.010317174889771555,0.08254627410925067,-2.4858981749907607,3.14
88,0.10556781960072863,0.08151891443057377,0.06707574808659497,5.943773361524774,2.279649636280957,1.710595900779709,5.8294714539703465,1.0,0.12423833085065182,0.9270668643150526,-0.010313476597449784,0.08254555534927581,-2.485900058591091,3.14
89,0.10556757833110904,0.08151895291872474,0.06707532159204975,5.943773361283731,2.279649597768095,1.7105959047710333,5.829472163239538,1.0,0.12423883346858174,0.9270652039635571,-0.01031014854359078,0.08254491150098299,-2.4859017535217105,3.14
90,0.10556736234056487,0.08151898737626334,0.06707493977955926,5.943773361068509,2.279649563288462,1.710595908339644,5.829472799347331,1.0,0.12423928423526148,0.9270637098706269,-0.010307153713736267,0.08254433461589523,-2.485903278660617,3.14
91,0.1055671689268434,0.0815190182335435,0.06707459787367301,5.943773360876259,2.2796495324114203,1.7105959115314036,5.829473369943036,1.0,0.12423968857283352,0.9270623654085096,-0.01030445878610329,0.08254381760991523,-2.485904651000008,3.14
92,0.10556699568452167,0.08151904587375897,0.06707429162331262,5.943773360704466,2.279649504753524,1.7105959143870353,5.829473881860721,1.0,0.12424005132543241,0.9270611556092283,-0.010302033764411687,0.08254335416625129,-2.485905885834177,3.14
93,0.10556684047124278,0.08151907063828717,0.06707401724215352,5.9437733605508924,2.2796494799731715,1.710595916942726,5.829474341208395,1.0,0.12424037682243794,0.9270600669994014,-0.01029985164702964,0.0825429386496827,-2.485906996928768,3.14
94,0.10556670137795304,0.0815190928313997,0.06707377135607825,5.94377336041356,2.2796494577658923,1.7105959192306497,5.82947475344711,1.0,0.12424066893456683,0.9270590874514226,-0.010297888128875918,0.08254256603078193,-2.4859079966732165,3.14
95,0.10556657670265075,0.08151911272442086,0.06707355095681572,5.943773360290707,2.279649437860185,1.7105959212794315,5.829475123461147,1.0,0.12424093112364935,0.9270582060493939,-0.01029612133285961,0.08254223181888308,-2.4859088962180462,3.14
96,0.10556646492720742,0.08151913055940681,0.06707335336101505,5.943773360180774,2.2796494200138357,1.7105959231145493,5.82947545562035,1.0,0.12424116648682991,0.9270574129683592,-0.010294531567952462,0.08254193200274336,-2.4859097055985107,3.14
97,0.10556636469688933,0.08151914655239434,0.06707317617407989,5.9437733600823695,2.279649404010667,1.7105959247586964,5.829475753835515,1.0,0.12424137779584116,0.9270566993655274,-0.010293101111270615,0.0825416629979757,-2.4859104338459352,3.14
98,0.10556627480224734,0.08151916089627725,0.06707301725815704,5.943773359994264,2.2796493896576604,1.710595926232093,5.829476021607638,1.0,0.12424156753192235,0.9270560572823019,-0.010291814011797996,0.0825414216004467,-2.485911089087975,3.14
99,0.10556619416309009,0.08151917376335448,0.06707287470384335,5.943773359915353,2.279649376782405,1.7105959275527678,5.829476262071719,1.0,0.12424173791688352,0.9270554795560496,-0.01029065591361487,0.08254120494493351,-2.485911678638887,3.14
100,0.10556612181428866,0.08151918530758637,0.06707274680509086,5.943773359844662,2.2796493652308407,1.7105959287368007,5.829476478035769,1.0,0.12424189094075488,0.9270549597406459,-0.010289613896703974,0.08254101046842449,-2.4859122090808103,3.14
101,0.10556605689319828,0.0815191956665957,0.06707263203699589,5.943773359781319,2.2796493548652563,1.7105959297985414,5.82947667201554,1.0,0.12424202838641299,0.927054492034928,-0.010288676333595165,0.08254083587751666,-2.4859126863369387,3.14
102,0.10556599862849768,0.08151920496344467,0.06707252903606854,5.9437733597245455,2.27964934556251,1.7105959307508012,5.829476846265475,1.0,0.12424215185152238,0.927054071218271,-0.010287832760281319,0.08254067911943953,-2.4859131157374015,3.14
103,0.10556594633029193,0.081519213308209,0.06707243658274718,5.943773359673651,2.2796493372124558,1.7105959316050205,5.829477002806303,1.0,0.12424226276809787,0.9270536925925849,-0.01028707375999005,0.08254053835628247,-2.485913502078568,3.14
104,0.10556589938131418,0.08151922079938388,0.06707235358584707,5.943773359628016,2.2796493297165346,1.710595932371423,5.82947714344965,1.0,0.12424236241995167,0.9270533519300891,-0.010286390858537062,0.08254041194206117,-2.485913849676435,3.14
105,0.10556585722911051,0.08151922752512311,0.06707227906875089,5.943773359587092,2.279649322986536,1.7105959330591454,5.829477269820003,1.0,0.12424245195826232,0.9270530454262984,-0.010285776430111979,0.08254029840229773,-2.4859141624146837,3.14
106,0.10556581937909401,0.08151923356435113,0.0670722121571328,5.943773359550381,2.2796493169434857,1.7105959336763585,5.829477383374312,1.0,0.12424253241547406,0.9270527696576947,-0.010285223612459192,0.08254019641582841,-2.4859144437879372,3.14
107,0.10556578538835737,0.08151923898774434,0.0670721520680171,5.943773359517445,2.2796493115166614,1.7105959342303696,5.82947748541951,1.0,0.12424260471770851,0.9270525215436267,-0.010284726230521948,0.08254010479859153,-2.4859146969406978,3.14
108,0.1055657548601745,0.08151924385861471,0.06707209810006909,5.943773359487894,2.279649306642711,1.7105959347277169,5.829477577128151,1.0,0.1242426696958557,0.9270522983120101,-0.010284278727706287,0.08254002248916743,-2.4859149247023926,3.14
109,0.10556572743909054,0.08151924823368414,0.06707204962491603,5.943773359461375,2.279649302264876,1.7105959351742517,5.829477659552399,1.0,0.1242427280954855,0.9270520974684533,-0.010283876104008188,0.08253994853588027,-2.485915129618915,3.14
110,0.10556570280656116,0.0815192521637893,0.06707200607942197,5.943773359437571,2.2796492983322874,1.7105959355752138,5.829477733636528,1.0,0.12424278058571009,0.9270519167684682,-0.010283513860319067,0.08253988208528468,-2.4859153139810153,3.14
111,0.1055656806770519,0.08151925569449442,0.0670719669588106,5.9437733594162,2.279649294799352,1.7105959359352945,5.829477800228108,1.0,0.12424282776711024,0.9270517541924569,-0.010283187948296331,0.0825398223718859,-2.48591547984985,3.14
112,0.1055656607945655,0.08151925886665504,0.06707193181053003,5.94377335939702,2.2796492916251885,1.7105959362586958,5.829477860088009,1.0,0.12424287017882682,0.927051607923198,-0.010282894725242296,0.08253976870895696,-2.4859156290799778,3.14
113,0.10556564292953767,0.08151926171690292,0.06707190022875036,5.943773359379792,2.2796492887731414,1.7105959365491827,5.829477913899354,1.0,0.12424290830490861,0.9270514763255845,-0.010282630913493787,0.08253972048033084,-2.485915763340053,3.14
114,0.1055656268760765,0.08151926427809623,0.06707187184948385,5.943773359364325,2.279649286210332,1.7105959368101302,5.829477962275544,1.0,0.12424294257999265,0.9270513579283872,-0.010282393563871424,0.08253967713306688,-2.485915884131448,3.14
115,0.10556561244948055,0.0815192665797091,0.06707184634621208,5.94377335935043,2.279649283907267,1.7105959370445625,5.829478005767428,1.0,0.1242429733943932,0.9270512514078418,-0.010282180022784708,0.08253963817088855,-2.4859159928050154,3.14
116,0.10556559948403485,0.08151926864818575,0.06707182342597673,5.9437733593379525,2.279649281837486,1.7105959372551922,5.82947804486974,1.0,0.12424300109865832,0.9270511555728786,-0.010281987902626822,0.08253960314831635,-2.485916090576169,3.14
117,0.10556558783103455,0.08151927050725616,0.06707180282589782,5.943773359326743,2.279649279977243,1.7105959374444488,5.829478080026854,1.0,0.12424302600765387,0.9270510693518303,-0.010281815055131517,0.08253957166541473,-2.485916178538455,3.14
118,0.10556557735702018,0.08151927217821778,0.06707178431003968,5.9437733593166735,2.2796492783052282,1.7105959376145157,5.829478111637955,1.0,0.12424304840422136,0.9270509917804678,-0.010281659547396288,0.08253954336309295,-2.485916257675768,3.14
119,0.10556556794219421,0.08151927368018497,0.06707176766662486,5.943773359307626,2.2796492768023144,1.7105959377673474,5.829478140061659,1.0,0.12424306854245835,0.9270509219912367,-0.010281519640304541,0.08253951791889573,-2.4859163288733366,3.14
120,0.10556555947901321,0.08151927503031976,0.06707175270552618,5.943773359299497,2.279649275451329,1.7105959379047013,5.829478165620169,1.0,0.1242430866506584,0.9270508592035693,-0.010281393769108327,0.08253949504323391,-2.4859163929276185,3.14
121,0.10556555187091825,0.08151927624403031,0.06707173925605378,5.9437733592921935,2.2796492742368537,1.7105959380281517,5.82947818860299,1.0,0.12424310293394783,0.9270508027151669,-0.010281280525954737,0.08253947447600794,-2.4859164505551945,3.14
122,0.10556554503120541,0.08151927733515056,0.06707172716492094,5.943773359285629,2.279649273145046,1.710595938139112,5.82947820927027,1.0,0.12424311757665074,0.927050751894156,-0.010281178644161953,0.08253945598358163,-2.485916502400779,3.14
123,0.10556553888200823,0.08151927831610493,0.06707171629449149,5.94377335927973,2.279649272163474,1.710595938238852,5.829478227855794,1.0,0.12424313074440953,0.927050706172028,-0.010281086984069782,0.08253943935607147,-2.4859165490444246,3.14
124,0.10556553335339312,0.08151927919805121,0.06707170652112346,5.943773359274428,2.2796492712809724,1.71059593832851,5.829478244569664,1.0,0.1242431425860889,0.9270506650372892,-0.01028100452030775,0.0825394244049144,-2.485916591008003,3.14
125,0.10556552838254432,0.0815192799910155,0.0670716977337609,5.943773359269663,2.279649270487509,1.71059593840911,5.829478259600716,1.0,0.12424315323548303,0.9270506280297435,-0.010280930330338259,0.08253941096068908,-2.485916628761042,3.14
126,0.10556552391303035,0.08151928070399779,0.06707168983265852,5.9437733592653785,2.279649269774078,1.7105959384815697,5.829478273118678,1.0,0.12424316281284858,0.9270505947353508,-0.010280863584147426,0.08253939887116066,-2.485916662725972,3.14
127,0.10556551989415622,0.08151928134508912,0.06707168272819558,5.943773359261527,2.279649269132583,1.7105959385467149,5.829478285276115,1.0,0.12424317142628001,0.9270505647815985,-0.010280803534969116,0.08253938799952805,-2.4859166932828494,3.14
128,0.10556551628037136,0.08151928192155469,0.06707167633984558,5.943773359258067,2.2796492685557546,1.710595938605285,5.829478296210169,1.0,0.12424317917294522,0.927050537833339,-0.010280749510938143,0.08253937822284999,-2.4859167207736066,3.14
129,0.10556551303075047,0.08151928243992693,0.06707167059525523,5.943773359254954,2.279649268037056,1.7105959386579466,5.829478306044127,1.0,0.12424318614019396,0.9270505135890408,-0.010280700907579973,0.08253936943063427,-2.4859167455058735,3.14
130,0.10556551010851284,0.08151928290607074,0.06707166542940626,5.943773359252158,2.279649267570619,1.7105959387052971,5.8294783148888225,1.0,0.12424319240655314,0.9270504917774197,-0.010280657181053412,0.08253936152357187,-2.4859167677564207,3.14
131,0.10556550748061017,0.08151928332526127,0.06707166078388327,5.943773359249643,2.279649267151165,1.710595938747873,5.829478322843899,1.0,0.12424319804262182,0.9270504721544046,-0.010280617842070192,0.08253935441239851,-2.4859167877742525,3.14
132,0.105565505117337,0.08151928370223617,0.0670716566061614,5.943773359247381,2.2796492667739527,1.7105959387861576,5.8294783299989446,1.0,0.12424320311187328,0.9270504545004078,-0.010280582450424094,0.08253934801687596,-2.485916805783392,3.14
133,0.10556550299199716,0.08151928404125601,0.06707165284905642,5.943773359245347,2.2796492664347197,1.7105959388205851,5.829478336434509,1.0,0.12424320767137713,0.9270504386178706,-0.010280550610068592,0.08253934226487479,-2.4859168219853873,3.14
134,0.10556550108059444,0.0815192843461482,0.06707164947014486,5.94377335924352,2.2796492661296357,1.7105959388515435,5.829478342223016,1.0,0.12424321177244682,0.9270504243290536,-0.010280521964688035,0.082539337091552,-2.4859168365615663,3.14
135,0.10556549936155857,0.08151928462035406,0.0670716464312937,5.9437733592418756,2.2796492658552574,1.7105959388793837,5.82947834742959,1.0,0.12424321546122191,0.9270504114740484,-0.010280496193712725,0.08253933243861268,-2.485916849675064,3.14
136,0.10556549781549979,0.08151928486696647,0.06707164369822624,5.943773359240396,2.27964926560849,1.7105959389044205,5.829478352112788,1.0,0.12424321877919095,0.9270503999089893,-0.010280473008733514,0.08253932825364624,-2.485916861472648,3.14
137,0.1055654964249877,0.08151928508876724,0.06707164124013124,5.943773359239067,2.2796492653865497,1.7105959389269372,5.829478356325268,1.0,0.12424322176366144,0.9270503895044442,-0.01028045215027607,0.08253932448953097,-2.4859168720863596,3.14
138,0.10556549517435182,0.08151928528825458,0.06707163902930173,5.943773359237871,2.279649265186937,1.7105959389471872,5.829478360114382,1.0,0.12424322444818245,0.9270503801439671,-0.010280433384898455,0.08253932110389807,-2.4859168816349935,3.14
139,0.10556549404950323,0.08151928546767638,0.06707163704084024,5.943773359236796,2.2796492650074023,1.7105959389653986,5.829478363522713,1.0,0.12424322686292344,0.9270503717227949,-0.010280416502579793,0.08253931805865189,-2.4859168902254245,3.14
140,0.10556549303777625,0.0815192856290542,0.06707163525234731,5.943773359235828,2.279649264845923,1.710595938981778,5.829478366588556,1.0,0.12424322903501593,0.9270503641466752,-0.010280401314370713,0.08253931531953702,-2.485916897953803,3.14
141,0.10556549212778192,0.08151928577420543,0.06707163364369291,5.943773359234959,2.2796492647006805,1.7105959389965095,5.829478369346349,1.0,0.12424323098885962,0.9270503573308128,-0.010280387650279688,0.08253931285575078,-2.4859169049066328,3.14
142,0.10556549130927863,0.08151928590476064,0.06707163219677459,5.943773359234179,2.2796492645700432,1.7105959390097591,5.829478371827065,1.0,0.12424323274639813,0.9270503511989201,-0.010280375357371219,0.08253931063959402,-2.485916911161737,3.14
143,0.1055654905730598,0.08151928602219194,0.06707163089532199,5.943773359233475,2.279649264452538,1.7105959390216758,5.829478374058558,1.0,0.12424323432736677,0.9270503456823644,-0.010280364298054716,0.08253930864615767,-2.485916916789132,3.14
144,0.10556548991084559,0.08151928612781834,0.0670716297246915,5.943773359232841,2.2796492643468453,1.7105959390323946,5.829478376065881,1.0,0.12424323574951451,0.927050340719399,-0.01028035434854489,0.08253930685304195,-2.4859169218518065,3.14
145,0.10556548931519075,0.0815192862228279,0.06707162867171705,5.943773359232273,2.279649264251776,1.7105959390420349,5.829478377871565,1.0,0.1242432370288048,0.9270503362544729,-0.010280345397476876,0.08253930524010233,-2.485916926406429,3.14
146,0.10556548877939925,0.08151928630828846,0.06707162772456782,5.943773359231761,2.279649264166262,1.7105959390507064,5.829478379495876,1.0,0.12424323817959519,0.9270503322376092,-0.010280337344660242,0.08253930378922214,-2.4859169305039823,3.14
147,0.1055654882974512,0.08151928638516083,0.06707162687260229,5.943773359231303,2.279649264089341,1.7105959390585064,5.829478380957041,1.0,0.12424323921479916,0.9270503286238457,-0.01028033009995774,0.0825393024841083,-2.4859169341903335,3.14
148,0.10556548786393055,0.08151928645430914,0.06707162610624247,5.943773359230888,2.2796492640201493,1.710595939065522,5.829478382271453,1.0,0.12424324014603165,0.927050325372732,-0.010280323582276398,0.0825393013101072,-2.485916937506747,3.14
149,0.10556548747396773,0.08151928651650782,0.06707162541688437,5.943773359230514,2.2796492639579116,1.7105959390718322,5.829478383453857,1.0,0.1242432409837395,0.9270503224478768,-0.010280317718660672,0.08253930025403987,-2.485916940490346,3.14
150,0.1055654871231854,0.081519286572459,0.06707162479678876,5.943773359230182,2.2796492639019252,1.7105959390775085,5.829478384517517,1.0,0.12424324173731897,0.9270503198165394,-0.010280312443475421,0.0825392993040534,-2.485916943174529,3.14
151,0.10556548680764352,0.08151928662278884,0.06707162423898495,5.943773359229877,2.2796492638515637,1.710595939082615,5.829478385474361,1.0,0.12424324241522228,0.9270503174492656,-0.010280307697671619,0.08253929844948639,-2.485916945589343,3.14
152,0.10556548652379866,0.08151928666806194,0.06707162373721796,5.943773359229607,2.279649263806262,1.7105959390872076,5.829478386335121,1.0,0.12424324302505121,0.9270503153195565,-0.010280303428125734,0.08253929768075091,-2.4859169477618197,3.14
153,0.10556548626846658,0.08151928670878776,0.06707162328585561,5.943773359229364,2.279649263765511,1.710595939091339,5.829478387109448,1.0,0.12424324357364436,0.927050313403572,-0.01028029958704476,0.0825392969892218,-2.485916949716278,3.14
154,0.10556548603878148,0.08151928674542253,0.06707162287982894,5.943773359229145,2.279649263728853,1.710595939095055,5.829478387806025,1.0,0.12424324406715245,0.9270503116798647,-0.01028029613143175,0.08253929636714201,-2.485916951474597,3.14
155,0.10556548583216623,0.08151928677837855,0.06707162251458582,5.943773359228948,2.2796492636958763,1.7105959390983978,5.829478388432658,1.0,0.12424324451110826,0.927050310129139,-0.010280293022604286,0.08253929580753423,-2.4859169530564595,3.14
156,0.10556548564630153,0.08151928680802374,0.0670716221860247,5.94377335922877,2.2796492636662125,1.7105959391014054,5.829478388996375,1.0,0.12424324491048856,0.9270503087340358,-0.010280290225761643,0.08253929530412253,-2.4859169544795736,3.14
157,0.10556548547910297,0.08151928683469142,0.06707162189045819,5.94377335922861,2.279649263639528,1.7105959391041103,5.829478389503493,1.0,0.12424324526977014,0.9270503074789382,-0.010280287709595447,0.08253929485126173,-2.485916955759871,3.14
158,0.10556548532869604,0.0815192868586816,0.06707162162457324,5.943773359228466,2.279649263615523,1.7105959391065435,5.829478389959697,1.0,0.12424324559298,0.927050306349796,-0.010280285445938946,0.082539294443874,-2.485916956911683,3.14
159,0.10556548519339286,0.08151928688026187,0.0670716213853914,5.943773359228338,2.279649263593929,1.7105959391087324,5.829478390370101,1.0,0.12424324588374037,0.927050305333969,-0.010280283409452024,0.0825392940773922,-2.4859169579479037,3.14
160,0.1055654850716765,0.08151928689967591,0.06707162117022582,5.9437733592282225,2.2796492635745027,1.710595939110702,5.829478390739301,1.0,0.12424324614530999,0.9270503044200858,-0.010280281577337446,0.08253929374770748,-2.4859169588801335,3.14
161,0.10556548496218196,0.08151928691713986,0.0670716209766679,5.943773359228117,2.279649263557028,1.7105959391124728,5.8294783910714365,1.0,0.12424324638062008,0.9270503035979162,-0.010280279929085676,0.08253929345112412,-2.485916959718809,3.14
162,0.10556548486368203,0.08151928693285074,0.0670716208025443,5.943773359228023,2.279649263541307,1.7105959391140668,5.829478391370229,1.0,0.12424324659230712,0.9270503028582556,-0.010280278446245293,0.08253929318431821,-2.4859169604733173,3.14
163,0.10556548477507224,0.08151928694698388,0.0670716206459036,5.943773359227939,2.279649263527165,1.7105959391155003,5.829478391639026,1.0,0.12424324678274329,0.9270503021928246,-0.010280277112216586,0.08253929294429906,-2.4859169611521064,3.14
164,0.10556548469535987,0.08151928695969861,0.06707162050498994,5.943773359227864,2.2796492635144423,1.7105959391167895,5.82947839188084,1.0,0.12424324695406226,0.9270503015941736,-0.010280275912065621,0.08253929272837675,-2.4859169617627748,3.14
165,0.10556548462364965,0.0815192869711356,0.06707162037822628,5.9437733592277935,2.279649263502998,1.7105959391179495,5.829478392098379,1.0,0.12424324710818331,0.9270503010556009,-0.010280274832357087,0.0825392925341318,-2.4859169623121584,3.14
166,0.10556548455913926,0.08151928698142445,0.06707162026418803,5.943773359227735,2.279649263492703,1.710595939118993,5.829478392294081,1.0,0.12424324724683312,0.9270503005710774,-0.010280273861004049,0.08253929235938742,-2.485916962806408,3.14
167,0.10556548450110582,0.081519286990681,0.06707162016160295,5.943773359227678,2.2796492634834404,1.7105959391199324,5.829478392470137,1.0,0.12424324737156524,0.9270503001351789,-0.010280272987132402,0.0825392922021852,-2.485916963251056,3.14
168,0.10556548444889857,0.08151928699900778,0.0670716200693082,5.9437733592276265,2.2796492634751084,1.7105959391207763,5.829478392628521,1.0,0.12424324748377666,0.9270502997430258,-0.01028027220095946,0.0825392920607642,-2.4859169636510807,3.14
169,0.10556548440193206,0.08151928700649885,0.06707161998628665,5.943773359227582,2.2796492634676127,1.710595939121536,5.829478392771007,1.0,0.12424324758472428,0.9270502993902279,-0.01028027149368414,0.08253929193354007,-2.4859169640109604,3.14
170,0.10556548435968025,0.08151928701323723,0.06707161991159409,5.943773359227542,2.27964926346087,1.7105959391222192,5.8294783928991905,1.0,0.12424324767553906,0.9270502990728354,-0.010280270857388567,0.08253929181908712,-2.485916964334723,3.14
171,0.1055654843216709,0.08151928701929968,0.06707161984440557,5.943773359227507,2.279649263454804,1.7105959391228347,5.829478393014508,1.0,0.12424324775723815,0.9270502987872955,-0.010280270284949643,0.08253929171612323,-2.485916964625994,3.14
172,0.10556548428747739,0.08151928702475411,0.06707161978395579,5.943773359227474,2.279649263449346,1.7105959391233874,5.82947839311825,1.0,0.12424324783073667,0.9270502985304115,-0.010280269769958873,0.08253929162349495,-2.4859169648880344,3.14
173,0.10556548425671605,0.08151928702966087,0.06707161972958213,5.943773359227444,2.279649263444436,1.7105959391238852,5.829478393211579,1.0,0.12424324789685778,0.9270502982993075,-0.010280269306650963,0.08253929154016472,-2.4859169651237765,3.14
174,0.10556548422904247,0.081519287034075,0.06707161968066172,5.943773359227419,2.279649263440019,1.710595939124333,5.82947839329554,1.0,0.1242432479563421,0.9270502980913965,-0.010280268889839241,0.08253929146519905,-2.48591696533586,3.14
175,0.10556548420414628,0.0815192870380449,0.06707161963665126,5.943773359227395,2.279649263436047,1.7105959391247354,5.829478393371073,1.0,0.1242432480098559,0.9270502979043509,-0.010280268514857487,0.08253929139775809,-2.48591696552666,3.14
176,0.10556548418175059,0.08151928704161801,0.0670716195970604,5.943773359227374,2.2796492634324714,1.7105959391250978,5.829478393439026,1.0,0.12424324805799838,0.9270502977360766,-0.010280268177507865,0.08253929133708664,-2.4859169656983116,3.14
177,0.10556548416160162,0.0815192870448312,0.06707161956144186,5.943773359227355,2.2796492634292562,1.7105959391254237,5.829478393500158,1.0,0.12424324810130881,0.9270502975846898,-0.010280267874013736,0.08253929128250503,-2.485916965852737,3.14
178,0.1055654841434751,0.08151928704772218,0.06707161952939811,5.943773359227337,2.2796492634263634,1.7105959391257173,5.829478393555154,1.0,0.1242432481402722,0.9270502974484959,-0.010280267600977316,0.08253929123340197,-2.485916965991664,3.14
179,0.10556548412716896,0.08151928705032291,0.06707161950057132,5.943773359227321,2.279649263423761,1.7105959391259806,5.82947839360463,1.0,0.12424324817532487,0.9270502973259701,-0.01028026735534221,0.08253929118922747,-2.485916966116649,3.14
180,0.10556548411249869,0.08151928705266268,0.06707161947463683,5.943773359227306,2.27964926342142,1.710595939126218,5.82947839364914,1.0,0.12424324820685928,0.9270502972157406,-0.01028026713435845,0.08253929114948695,-2.485916966229091,3.14
181,0.10556548409930178,0.08151928705476812,0.067071619451313,5.943773359227295,2.279649263419313,1.7105959391264314,5.829478393689183,1.0,0.12424324823522857,0.9270502971165734,-0.010280266935552012,0.08253929111373537,-2.4859169663302483,3.14
182,0.10556548408742893,0.08151928705666141,0.06707161943032819,5.943773359227283,2.2796492634174186,1.7105959391266234,5.829478393725207,1.0,0.1242432482607506,0.9270502970273583,-0.010280266756697234,0.08253929108157204,-2.4859169664212537,3.14
183,0.10556548407674747,0.08151928705836475,0.06707161941144384,5.943773359227272,2.279649263415714,1.7105959391267962,5.829478393757615,1.0,0.12424324828371108,0.9270502969470967,-0.010280266595791905,0.08253929105263691,-2.485916966503126,3.14
184,0.10556548406713873,0.08151928705989724,0.06707161939445787,5.943773359227265,2.2796492634141807,1.7105959391269514,5.829478393786771,1.0,0.12424324830436705,0.92705029687489,-0.010280266451034623,0.08253929102660605,-2.4859169665767817,3.14
185,0.10556548405849435,0.08151928706127659,0.06707161937917479,5.943773359227255,2.2796492634128005,1.7105959391270917,5.829478393813,1.0,0.12424324832294993,0.9270502968099296,-0.010280266320804895,0.08253929100318773,-2.4859169666430456,3.14
186,0.10556548405071783,0.08151928706251704,0.06707161936542898,5.943773359227247,2.2796492634115593,1.7105959391272174,5.829478393836597,1.0,0.12424324833966767,0.9270502967514886,-0.010280266203644712,0.08253929098211998,-2.4859169667026597,3.14
187,0.1055654840437213,0.08151928706363279,0.06707161935306138,5.943773359227242,2.279649263410443,1.7105959391273304,5.829478393857825,1.0,0.12424324835470749,0.9270502966989127,-0.010280266098242388,0.08253929096316687,-2.4859169667562906,3.14
188,0.1055654840374271,0.08151928706463668,0.06707161934193619,5.943773359227235,2.2796492634094383,1.7105959391274324,5.829478393876923,1.0,0.12424324836823797,0.9270502966516131,-0.010280266003418005,0.08253929094611576,-2.4859169668045396,3.14
189,0.10556548403176505,0.08151928706553983,0.06707161933192417,5.943773359227228,2.2796492634085346,1.710595939127524,5.829478393894104,1.0,0.12424324838041041,0.9270502966090605,-0.01028026591811002,0.08253929093077611,-2.485916966847946,3.14
190,0.10556548402667047,0.081519287066352,0.06707161932291932,5.943773359227225,2.279649263407722,1.7105959391276062,5.829478393909562,1.0,0.12424324839136108,0.9270502965707785,-0.01028026584136337,0.08253929091697622,-2.4859169668869967,3.14
191,0.10556548402208771,0.08151928706708253,0.06707161931481893,5.943773359227221,2.279649263406991,1.7105959391276795,5.829478393923467,1.0,0.12424324840121284,0.9270502965363384,-0.010280265772318876,0.0825392909045611,-2.485916966922128,3.14
192,0.10556548401796509,0.08151928706774025,0.06707161930753024,5.943773359227216,2.279649263406333,1.7105959391277472,5.829478393935977,1.0,0.12424324841007574,0.9270502965053542,-0.010280265710203521,0.08253929089339218,-2.485916966953734,3.14
193,0.10556548401425571,0.08151928706833185,0.06707161930097372,5.9437733592272135,2.279649263405741,1.710595939127807,5.829478393947232,1.0,0.12424324841804918,0.9270502964774798,-0.010280265654321894,0.08253929088334419,-2.4859169669821677,3.14
194,0.1055654840109193,0.08151928706886398,0.0670716192950765,5.943773359227211,2.2796492634052083,1.710595939127861,5.8294783939573565,1.0,0.12424324842522251,0.9270502964524029,-0.010280265604048464,0.08253929087430445,-2.485916967007748,3.14
195,0.10556548400791699,0.08151928706934285,0.0670716192897657,5.943773359227206,2.279649263404729,1.7105959391279095,5.829478393966465,1.0,0.12424324843167586,0.9270502964298426,-0.010280265558820298,0.08253929086617202,-2.4859169670307613,3.14
196,0.10556548400521629,0.08151928706977335,0.06707161928499492,5.9437733592272055,2.2796492634042984,1.7105959391279526,5.82947839397466,1.0,0.12424324843748148,0.9270502964095464,-0.010280265518131148,0.08253929085885592,-2.4859169670514647,3.14
197,0.10556548400278709,0.08151928707016125,0.0670716192806979,5.943773359227202,2.2796492634039103,1.7105959391279923,5.829478393982032,1.0,0.12424324844270447,0.9270502963912868,-0.010280265481525509,0.082539290852274,-2.4859169670700902,3.14
198,0.10556548400060137,0.08151928707051007,0.06707161927683489,5.9437733592272,2.279649263403561,1.7105959391280277,5.829478393988665,1.0,0.12424324844740323,0.9270502963748599,-0.010280265448593529,0.08253929084635275,-2.485916967086847,3.14
199,0.10556548399863507,0.0815192870708234,0.0670716192733562,5.943773359227197,2.2796492634032477,1.71059593912806,5.829478393994631,1.0,0.12424324845163047,0.9270502963600814,-0.010280265418966487,0.08253929084102565,-2.4859169671019217,3.14
200,0.10556548399686565,0.08151928707110521,0.06707161927023199,5.943773359227197,2.2796492634029657,1.7105959391280885,5.829478393999999,1.0,0.12424324845543341,0.9270502963467864,-0.01028026539231277,0.08253929083623329,-2.4859169671154837,3.14
201,0.10556548399527485,0.08151928707135997,0.06707161926741922,5.943773359227196,2.279649263402711,1.710595939128114,5.829478394004828,1.0,0.12424324845885475,0.9270502963348255,-0.01028026536833397,0.08253929083192182,-2.4859169671276846,3.14
202,0.10556548399384304,0.08151928707158809,0.06707161926489137,5.943773359227194,2.2796492634024825,1.710595939128137,5.829478394009172,1.0,0.1242432484619327,0.927050296324065,-0.01028026534676165,0.0825392908280431,-2.485916967138661,3.14
203,0.10556548399255497,0.08151928707179358,0.0670716192626153,5.943773359227193,2.279649263402277,1.710595939128158,5.829478394013081,1.0,0.1242432484647017,0.9270502963143843,-0.010280265327354264,0.08253929082455372,-2.485916967148536,3.14
204,0.10556548399139648,0.0815192870719782,0.06707161926056122,5.943773359227192,2.279649263402092,1.7105959391281766,5.829478394016597,1.0,0.12424324846719281,0.9270502963056753,-0.010280265309894591,0.08253929082141448,-2.48591696715742,3.14
205,0.10556548399035369,0.08151928707214419,0.06707161925872249,5.9437733592271895,2.279649263401926,1.7105959391281937,5.82947839401976,1.0,0.12424324846943391,0.9270502962978401,-0.010280265294187109,0.08253929081859034,-2.485916967165412,3.14
206,0.10556548398941597,0.0815192870722942,0.06707161925706265,5.9437733592271895,2.279649263401776,1.710595939128209,5.829478394022606,1.0,0.12424324847145009,0.9270502962907913,-0.01028026528005606,0.0825392908160496,-2.4859169671726025,3.14
207,0.10556548398857246,0.08151928707242867,0.06707161925556847,5.943773359227189,2.2796492634016414,1.7105959391282224,5.829478394025166,1.0,0.12424324847326396,0.92705029628445,-0.010280265267343153,0.08253929081376382,-2.485916967179071,3.14
208,0.10556548398781286,0.08151928707254938,0.06707161925423,5.943773359227189,2.2796492634015206,1.7105959391282346,5.82947839402747,1.0,0.12424324847489568,0.927050296278745,-0.010280265255906076,0.0825392908117076,-2.4859169671848904,3.14
209,0.10556548398713024,0.08151928707265856,0.06707161925302073,5.943773359227189,2.2796492634014114,1.710595939128246,5.829478394029542,1.0,0.1242432484763638,0.9270502962736126,-0.010280265245616791,0.0825392908098575,-2.485916967190126,3.14
210,0.10556548398651586,0.08151928707275664,0.06707161925193406,5.943773359227187,2.2796492634013132,1.7105959391282557,5.829478394031406,1.0,0.12424324847768459,0.9270502962689953,-0.010280265236360152,0.08253929080819306,-2.485916967194836,3.14
211,0.10556548398596326,0.08151928707284495,0.0670716192509534,5.943773359227185,2.279649263401225,1.7105959391282646,5.8294783940330825,1.0,0.12424324847887278,0.9270502962648413,-0.010280265228032437,0.08253929080669574,-2.4859169671990733,3.14
212,0.10556548398546599,0.0815192870729244,0.06707161925008207,5.943773359227186,2.2796492634011454,1.710595939128273,5.829478394034592,1.0,0.12424324847994163,0.9270502962611041,-0.01028026522054049,0.08253929080534883,-2.4859169672028854,3.14
213,0.10556548398501849,0.08151928707299541,0.06707161924929025,5.943773359227186,2.2796492634010743,1.7105959391282797,5.829478394035949,1.0,0.12424324848090326,0.9270502962577422,-0.01028026521380043,0.08253929080413706,-2.485916967206315,3.14
214,0.10556548398461588,0.08151928707305932,0.06707161924858125,5.943773359227185,2.2796492634010104,1.7105959391282868,5.82947839403717,1.0,0.12424324848176843,0.9270502962547175,-0.010280265207736733,0.08253929080304681,-2.4859169672094,3.14
215,0.10556548398425444,0.08151928707311745,0.06707161924793521,5.943773359227185,2.279649263400952,1.7105959391282923,5.829478394038269,1.0,0.1242432484825468,0.9270502962519964,-0.010280265202281619,0.0825392908020659,-2.4859169672121757,3.14
216,0.10556548398392854,0.08151928707316938,0.06707161924735874,5.943773359227184,2.2796492634009002,1.7105959391282974,5.829478394039256,1.0,0.12424324848324701,0.9270502962495485,-0.010280265197374003,0.08253929080118351,-2.485916967214673,3.14
217,0.10556548398363527,0.08151928707321598,0.06707161924683859,5.943773359227182,2.2796492634008536,1.710595939128302,5.829478394040145,1.0,0.12424324848387697,0.9270502962473463,-0.01028026519295886,0.08253929080038967,-2.4859169672169195,3.14
218,0.10556548398337182,0.0815192870732577,0.06707161924637477,5.943773359227184,2.279649263400812,1.7105959391283065,5.829478394040946,1.0,0.1242432484844436,0.927050296245365,-0.010280265188986839,0.08253929079967563,-2.4859169672189405,3.14
219,0.10556548398313498,0.08151928707329631,0.06707161924596064,5.943773359227183,2.2796492634007732,1.7105959391283105,5.829478394041665,1.0,0.12424324848495343,0.9270502962435825,-0.01028026518541344,0.08253929079903317,-2.4859169672207586,3.14
220,0.10556548398292141,0.08151928707333003,0.06707161924557964,5.943773359227182,2.2796492634007395,1.7105959391283139,5.8294783940423125,1.0,0.1242432484854121,0.9270502962419789,-0.010280265182198663,0.08253929079845516,-2.4859169672223946,3.14
221,0.10556548398272991,0.08151928707336066,0.0670716192452384,5.943773359227183,2.279649263400709,1.7105959391283165,5.829478394042895,1.0,0.12424324848582464,0.9270502962405363,-0.010280265179306497,0.08253929079793532,-2.4859169672238663,3.14
222,0.10556548398255672,0.08151928707338774,0.0670716192449369,5.943773359227183,2.2796492634006817,1.7105959391283196,5.829478394043419,1.0,0.12424324848619578,0.9270502962392384,-0.010280265176704585,0.08253929079746768,-2.48591696722519,3.14
223,0.10556548398240137,0.08151928707341259,0.06707161924465861,5.9437733592271815,2.279649263400657,1.7105959391283225,5.82947839404389,1.0,0.12424324848652978,0.9270502962380707,-0.010280265174363786,0.08253929079704676,-2.4859169672263812,3.14
224,0.10556548398226116,0.08151928707343478,0.06707161924441345,5.9437733592271815,2.2796492634006347,1.7105959391283245,5.8294783940443144,1.0,0.12424324848683022,0.9270502962370202,-0.010280265172257939,0.08253929079666816,-2.485916967227453,3.14
225,0.1055654839821358,0.08151928707345475,0.06707161924419147,5.943773359227182,2.2796492634006147,1.7105959391283265,5.829478394044696,1.0,0.12424324848710057,0.9270502962360753,-0.010280265170363413,0.08253929079632745,-2.485916967228417,3.14
226,0.10556548398202284,0.08151928707347339,0.06707161924399269,5.943773359227182,2.279649263400596,1.7105959391283283,5.829478394045039,1.0,0.12424324848734375,0.9270502962352251,-0.010280265168658992,0.08253929079602101,-2.485916967229284,3.14
227,0.10556548398192157,0.08151928707348981,0.06707161924381379,5.9437733592271815,2.2796492634005796,1.71059593912833,5.829478394045348,1.0,0.12424324848756252,0.9270502962344602,-0.010280265167125628,0.0825392907957453,-2.485916967230064,3.14
228,0.10556548398182936,0.08151928707350402,0.06707161924365145,5.943773359227182,2.2796492634005654,1.7105959391283319,5.829478394045626,1.0,0.12424324848775925,0.9270502962337721,-0.010280265165746209,0.08253929079549742,-2.4859169672307657,3.14
229,0.1055654839817474,0.08151928707351733,0.06707161924350567,5.943773359227182,2.279649263400552,1.7105959391283327,5.829478394045876,1.0,0.12424324848793641,0.9270502962331532,-0.010280265164505201,0.08253929079527414,-2.485916967231397,3.14
230,0.10556548398167363,0.0815192870735293,0.06707161924337315,5.943773359227181,2.27964926340054,1.7105959391283343,5.829478394046101,1.0,0.12424324848809573,0.9270502962325962,-0.010280265163388725,0.08253929079507337,-2.485916967231965,3.14
231,0.10556548398160616,0.08151928707353952,0.06707161924325389,5.9437733592271815,2.27964926340053,1.710595939128335,5.829478394046303,1.0,0.12424324848823899,0.9270502962320953,-0.01028026516238431,0.08253929079489286,-2.4859169672324763,3.14
232,0.10556548398154614,0.08151928707354929,0.0670716192431545,5.943773359227182,2.27964926340052,1.7105959391283359,5.829478394046485,1.0,0.12424324848836793,0.9270502962316446,-0.01028026516148073,0.08253929079473035,-2.485916967232936,3.14
233,0.10556548398149297,0.08151928707355816,0.0670716192430551,5.943773359227182,2.279649263400511,1.710595939128337,5.829478394046649,1.0,0.12424324848848398,0.927050296231239,-0.01028026516066783,0.08253929079458411,-2.48591696723335,3.14
234,0.10556548398144326,0.08151928707356526,0.06707161924296896,5.943773359227181,2.279649263400504,1.7105959391283379,5.829478394046795,1.0,0.12424324848858836,0.9270502962308742,-0.010280265159936465,0.08253929079445259,-2.485916967233722,3.14
235,0.10556548398140023,0.08151928707357281,0.06707161924289608,5.943773359227182,2.2796492634004966,1.7105959391283383,5.829478394046928,1.0,0.12424324848868225,0.9270502962305461,-0.010280265159278526,0.0825392907943343,-2.485916967234057,3.14
236,0.10556548398136062,0.08151928707357857,0.06707161924282319,5.9437733592271815,2.279649263400491,1.710595939128339,5.829478394047047,1.0,0.12424324848876667,0.9270502962302509,-0.010280265158686607,0.0825392907942279,-2.485916967234358,3.14
237,0.10556548398132527,0.08151928707358436,0.06707161924276356,5.943773359227182,2.279649263400485,1.7105959391283394,5.829478394047155,1.0,0.12424324848884265,0.9270502962299852,-0.01028026515815409,0.08253929079413215,-2.485916967234629,3.14
238,0.10556548398129414,0.08151928707358967,0.06707161924270391,5.9437733592271815,2.2796492634004797,1.7105959391283403,5.829478394047251,1.0,0.12424324848891105,0.9270502962297461,-0.010280265157675054,0.08253929079404593,-2.4859169672348727,3.14
239,0.10556548398126508,0.08151928707359411,0.06707161924265091,5.94377335922718,2.2796492634004752,1.7105959391283403,5.829478394047337,1.0,0.12424324848897249,0.9270502962295311,-0.010280265157243968,0.08253929079396846,-2.485916967235092,3.14
240,0.10556548398123944,0.0815192870735981,0.06707161924260784,5.943773359227181,2.2796492634004712,1.7105959391283414,5.829478394047415,1.0,0.12424324848902771,0.9270502962293375,-0.01028026515685619,0.0825392907938989,-2.485916967235289,3.14
241,0.10556548398121648,0.08151928707360209,0.06707161924256809,5.943773359227181,2.2796492634004673,1.7105959391283412,5.829478394047485,1.0,0.12424324848907752,0.9270502962291637,-0.010280265156507372,0.08253929079383616,-2.485916967235467,3.14
242,0.1055654839811957,0.0815192870736052,0.06707161924253165,5.9437733592271815,2.279649263400464,1.7105959391283418,5.829478394047549,1.0,0.12424324848912216,0.9270502962290071,-0.010280265156193617,0.08253929079377993,-2.4859169672356267,3.14
243,0.10556548398117654,0.08151928707360831,0.0670716192424985,5.9437733592271815,2.279649263400461,1.710595939128342,5.829478394047606,1.0,0.12424324848916253,0.9270502962288664,-0.010280265155911216,0.08253929079372907,-2.48591696723577,3.14
244,0.10556548398116018,0.08151928707361097,0.06707161924246538,5.943773359227181,2.2796492634004584,1.7105959391283423,5.829478394047657,1.0,0.1242432484891988,0.9270502962287397,-0.010280265155657253,0.08253929079368333,-2.4859169672358994,3.14
245,0.10556548398114476,0.0815192870736132,0.06707161924244551,5.943773359227181,2.279649263400456,1.7105959391283425,5.829478394047703,1.0,0.12424324848923136,0.9270502962286258,-0.010280265155428745,0.0825392907936423,-2.4859169672360157,3.14
246,0.10556548398113096,0.08151928707361497,0.06707161924241237,5.943773359227181,2.2796492634004544,1.7105959391283425,5.829478394047745,1.0,0.12424324848926062,0.9270502962285233,-0.010280265155223171,0.08253929079360547,-2.4859169672361205,3.14
247,0.1055654839811194,0.08151928707361719,0.0670716192423925,5.9437733592271815,2.279649263400452,1.710595939128343,5.829478394047782,1.0,0.12424324848928703,0.9270502962284308,-0.010280265155038264,0.0825392907935722,-2.4859169672362147,3.14
248,0.1055654839811077,0.08151928707361897,0.06707161924237592,5.943773359227181,2.2796492634004504,1.7105959391283432,5.829478394047816,1.0,0.1242432484893107,0.9270502962283479,-0.010280265154871876,0.08253929079354234,-2.4859169672362995,3.14
249,0.10556548398109807,0.08151928707362073,0.06707161924235937,5.943773359227182,2.2796492634004486,1.7105959391283432,5.829478394047846,1.0,0.12424324848933212,0.9270502962282733,-0.010280265154722173,0.0825392907935154,-2.485916967236376,3.14
250,0.10556548398108904,0.08151928707362206,0.06707161924234611,5.9437733592271815,2.2796492634004473,1.7105959391283434,5.8294783940478725,1.0,0.12424324848935137,0.9270502962282061,-0.010280265154587428,0.08253929079349114,-2.4859169672364443,3.14
251,0.10556548398108086,0.0815192870736234,0.06707161924232623,5.943773359227181,2.279649263400446,1.7105959391283436,5.8294783940478965,1.0,0.1242432484893687,0.9270502962281456,-0.0102802651544662,0.08253929079346926,-2.4859169672365056,3.14
252,0.10556548398107361,0.08151928707362428,0.06707161924231297,5.943773359227181,2.279649263400445,1.7105959391283438,5.829478394047919,1.0,0.12424324848938423,0.9270502962280912,-0.010280265154357185,0.08253929079344971,-2.485916967236561,3.14
253,0.1055654839810672,0.08151928707362563,0.06707161924229972,5.94377335922718,2.2796492634004437,1.7105959391283436,5.829478394047938,1.0,0.1242432484893982,0.9270502962280422,-0.01028026515425914,0.0825392907934321,-2.485916967236611,3.14
254,0.10556548398106176,0.08151928707362695,0.06707161924229642,5.9437733592271815,2.2796492634004424,1.710595939128344,5.829478394047957,1.0,0.1242432484894107,0.9270502962279983,-0.01028026515417097,0.08253929079341639,-2.4859169672366557,3.14
255,0.1055654839810562,0.08151928707362784,0.06707161924228316,5.943773359227181,2.2796492634004415,1.7105959391283438,5.829478394047973,1.0,0.124243248489422,0.9270502962279588,-0.010280265154091615,0.08253929079340216,-2.485916967236696,3.14
256,0.10556548398105128,0.08151928707362784,0.06707161924227653,5.9437733592271815,2.2796492634004415,1.7105959391283438,5.829478394047987,1.0,0.12424324848943218,0.9270502962279231,-0.010280265154020213,0.08253929079338934,-2.4859169672367325,3.14
257,0.10556548398104704,0.08151928707362872,0.0670716192422666,5.943773359227182,2.2796492634004406,1.7105959391283445,5.829478394048,1.0,0.12424324848944138,0.927050296227891,-0.010280265153956008,0.08253929079337773,-2.4859169672367654,3.14
258,0.1055654839810432,0.08151928707362917,0.06707161924225997,5.9437733592271815,2.27964926340044,1.7105959391283438,5.829478394048012,1.0,0.12424324848944975,0.9270502962278624,-0.010280265153898165,0.08253929079336715,-2.4859169672367947,3.14
259,0.10556548398103989,0.08151928707363006,0.06707161924225666,5.9437733592271815,2.2796492634004393,1.710595939128344,5.829478394048023,1.0,0.12424324848945714,0.9270502962278364,-0.010280265153846226,0.08253929079335783,-2.4859169672368213,3.14
260,0.10556548398103673,0.0815192870736305,0.06707161924225002,5.9437733592271815,2.279649263400439,1.710595939128344,5.8294783940480315,1.0,0.12424324848946385,0.9270502962278131,-0.010280265153799399,0.08253929079334935,-2.485916967236845,3.14
261,0.1055654839810339,0.08151928707363094,0.06707161924224672,5.943773359227181,2.2796492634004384,1.710595939128344,5.8294783940480395,1.0,0.12424324848946988,0.9270502962277921,-0.010280265153757339,0.08253929079334171,-2.485916967236866,3.14
262,0.10556548398103159,0.08151928707363139,0.06707161924224009,5.9437733592271815,2.279649263400438,1.710595939128344,5.8294783940480475,1.0,0.12424324848947517,0.9270502962277732,-0.010280265153719525,0.08253929079333508,-2.4859169672368853,3.14
263,0.10556548398102937,0.08151928707363183,0.06707161924223347,5.9437733592271815,2.2796492634004375,1.7105959391283445,5.829478394048055,1.0,0.12424324848948,0.9270502962277561,-0.010280265153685521,0.08253929079332896,-2.4859169672369026,3.14
264,0.10556548398102714,0.08151928707363183,0.06707161924223015,5.943773359227182,2.2796492634004375,1.7105959391283443,5.829478394048061,1.0,0.12424324848948438,0.9270502962277409,-0.010280265153654934,0.08253929079332344,-2.4859169672369186,3.14
265,0.10556548398102551,0.08151928707363228,0.06707161924223347,5.9437733592271815,2.279649263400437,1.7105959391283443,5.829478394048066,1.0,0.1242432484894884,0.9270502962277272,-0.010280265153627325,0.08253929079331837,-2.4859169672369323,3.14
266,0.1055654839810236,0.08151928707363228,0.06707161924222683,5.9437733592271815,2.279649263400437,1.7105959391283447,5.8294783940480706,1.0,0.12424324848949193,0.9270502962277147,-0.010280265153602476,0.08253929079331393,-2.4859169672369448,3.14
267,0.1055654839810218,0.08151928707363272,0.06707161924222683,5.943773359227181,2.2796492634004366,1.710595939128344,5.829478394048075,1.0,0.1242432484894951,0.9270502962277037,-0.010280265153580171,0.08253929079330995,-2.4859169672369563,3.14
268,0.10556548398102113,0.08151928707363316,0.06707161924222022,5.9437733592271815,2.279649263400436,1.7105959391283447,5.829478394048079,1.0,0.12424324848949794,0.9270502962276936,-0.010280265153560108,0.08253929079330638,-2.4859169672369665,3.14
269,0.10556548398101977,0.08151928707363316,0.06707161924222022,5.9437733592271815,2.279649263400436,1.7105959391283443,5.829478394048083,1.0,0.12424324848950051,0.9270502962276848,-0.010280265153542077,0.08253929079330317,-2.485916967236976,3.14
270,0.10556548398101859,0.08151928707363361,0.06707161924222022,5.9437733592271815,2.2796492634004357,1.7105959391283438,5.8294783940480865,1.0,0.12424324848950277,0.9270502962276768,-0.01028026515352586,0.08253929079330034,-2.4859169672369843,3.14
271,0.10556548398101757,0.08151928707363361,0.06707161924222022,5.9437733592271815,2.2796492634004357,1.7105959391283443,5.829478394048089,1.0,0.12424324848950488,0.9270502962276693,-0.010280265153511195,0.08253929079329766,-2.4859169672369914,3.14
272,0.10556548398101687,0.08151928707363361,0.06707161924221358,5.943773359227181,2.2796492634004357,1.7105959391283445,5.829478394048092,1.0,0.12424324848950673,0.9270502962276627,-0.010280265153498095,0.08253929079329533,-2.485916967236998,3.14
273,0.10556548398101613,0.08151928707363405,0.0670716192422169,5.9437733592271815,2.2796492634004353,1.7105959391283445,5.8294783940480945,1.0,0.12424324848950838,0.9270502962276568,-0.010280265153486328,0.08253929079329325,-2.4859169672370043,3.14
274,0.10556548398101548,0.08151928707363405,0.06707161924221358,5.943773359227181,2.2796492634004353,1.7105959391283447,5.829478394048096,1.0,0.12424324848950993,0.9270502962276513,-0.010280265153475656,0.08253929079329128,-2.4859169672370096,3.14
275,0.10556548398101456,0.08151928707363405,0.06707161924221358,5.9437733592271815,2.2796492634004353,1.710595939128345,5.829478394048099,1.0,0.12424324848951122,0.9270502962276466,-0.01028026515346604,0.0825392907932897,-2.4859169672370145,3.14
276,0.10556548398101409,0.08151928707363405,0.06707161924221358,5.943773359227181,2.2796492634004353,1.7105959391283445,5.829478394048101,1.0,0.1242432484895125,0.9270502962276425,-0.010280265153457438,0.08253929079328809,-2.485916967237019,3.14
277,0.10556548398101347,0.08151928707363405,0.06707161924220696,5.943773359227181,2.2796492634004353,1.7105959391283445,5.8294783940481025,1.0,0.12424324848951361,0.9270502962276386,-0.01028026515344971,0.08253929079328666,-2.485916967237023,3.14
278,0.10556548398101306,0.08151928707363405,0.06707161924220696,5.9437733592271815,2.2796492634004353,1.7105959391283447,5.829478394048104,1.0,0.12424324848951461,0.927050296227635,-0.010280265153442728,0.0825392907932854,-2.4859169672370265,3.14
279,0.10556548398101255,0.0815192870736345,0.06707161924221028,5.943773359227181,2.279649263400435,1.710595939128345,5.829478394048105,1.0,0.12424324848951558,0.9270502962276318,-0.010280265153436432,0.08253929079328413,-2.4859169672370296,3.14
280,0.10556548398101229,0.0815192870736345,0.06707161924220696,5.943773359227182,2.279649263400435,1.7105959391283445,5.829478394048107,1.0,0.12424324848951637,0.927050296227629,-0.010280265153430754,0.08253929079328316,-2.4859169672370323,3.14
281,0.10556548398101236,0.08151928707363494,0.06707161924220696,5.9437733592271815,2.2796492634004344,1.7105959391283447,5.829478394048108,1.0,0.12424324848951718,0.9270502962276265,-0.01028026515342576,0.08253929079328212,-2.485916967237035,3.14
282,0.10556548398101162,0.0815192870736345,0.06707161924220365,5.943773359227182,2.279649263400435,1.7105959391283447,5.829478394048109,1.0,0.12424324848951773,0.9270502962276241,-0.010280265153421165,0.08253929079328146,-2.485916967237037,3.14
283,0.10556548398101162,0.08151928707363494,0.06707161924220696,5.9437733592271815,2.2796492634004344,1.7105959391283452,5.829478394048109,1.0,0.12424324848951841,0.9270502962276219,-0.010280265153417031,0.08253929079328053,-2.4859169672370394,3.14
284,0.10556548398101076,0.0815192870736345,0.06707161924220696,5.9437733592271815,2.279649263400435,1.7105959391283445,5.82947839404811,1.0,0.124243248489519,0.9270502962276203,-0.010280265153413298,0.08253929079327979,-2.485916967237041,3.14
285,0.1055654839810109,0.08151928707363494,0.06707161924220696,5.9437733592271815,2.2796492634004344,1.7105959391283447,5.8294783940481105,1.0,0.12424324848951947,0.9270502962276186,-0.01028026515341,0.08253929079327921,-2.485916967237043,3.14
286,0.10556548398101066,0.0815192870736345,0.06707161924220365,5.9437733592271815,2.279649263400435,1.7105959391283445,5.8294783940481105,1.0,0.12424324848951993,0.9270502962276171,-0.010280265153407003,0.08253929079327862,-2.4859169672370443,3.14
287,0.1055654839810104,0.0815192870736345,0.06707161924220696,5.943773359227181,2.279649263400435,1.7105959391283447,5.8294783940481105,1.0,0.12424324848952031,0.9270502962276158,-0.010280265153404333,0.08253929079327813,-2.4859169672370456,3.14
288,0.10556548398101036,0.08151928707363494,0.06707161924220696,5.943773359227181,2.2796492634004344,1.7105959391283447,5.829478394048111,1.0,0.12424324848952065,0.9270502962276147,-0.010280265153401996,0.08253929079327771,-2.485916967237047,3.14
289,0.10556548398101012,0.08151928707363494,0.06707161924220696,5.9437733592271815,2.2796492634004344,1.710595939128345,5.829478394048112,1.0,0.12424324848952088,0.9270502962276136,-0.010280265153399812,0.08253929079327743,-2.485916967237048,3.14
290,0.10556548398100987,0.0815192870736345,0.06707161924220034,5.9437733592271815,2.279649263400435,1.7105959391283447,5.829478394048113,1.0,0.12424324848952117,0.9270502962276127,-0.010280265153397883,0.08253929079327707,-2.485916967237049,3.14
291,0.10556548398101004,0.08151928707363494,0.06707161924220034,5.9437733592271815,2.2796492634004344,1.7105959391283447,5.829478394048113,1.0,0.12424324848952148,0.9270502962276118,-0.010280265153396079,0.08253929079327667,-2.48591696723705,3.14
292,0.10556548398100958,0.0815192870736345,0.06707161924220034,5.9437733592271815,2.279649263400435,1.7105959391283445,5.829478394048113,1.0,0.12424324848952172,0.927050296227611,-0.010280265153394523,0.08253929079327638,-2.485916967237051,3.14
293,0.10556548398100961,0.08151928707363494,0.06707161924220365,5.9437733592271815,2.2796492634004344,1.7105959391283445,5.829478394048113,1.0,0.12424324848952194,0.9270502962276103,-0.010280265153393059,0.08253929079327607,-2.485916967237052,3.14
294,0.10556548398100928,0.08151928707363494,0.06707161924220365,5.943773359227181,2.2796492634004344,1.7105959391283447,5.829478394048113,1.0,0.12424324848952212,0.9270502962276095,-0.010280265153391735,0.08253929079327585,-2.4859169672370522,3.14
295,0.10556548398100968,0.08151928707363494,0.06707161924220034,5.943773359227181,2.2796492634004344,1.7105959391283447,5.829478394048113,1.0,0.12424324848952227,0.9270502962276089,-0.010280265153390573,0.08253929079327565,-2.4859169672370527,3.14
296,0.10556548398100954,0.08151928707363494,0.06707161924220034,5.9437733592271815,2.2796492634004344,1.710595939128345,5.829478394048114,1.0,0.12424324848952234,0.9270502962276084,-0.010280265153389555,0.08253929079327561,-2.485916967237053,3.14
297,0.10556548398100919,0.08151928707363494,0.06707161924220365,5.9437733592271815,2.2796492634004344,1.710595939128345,5.829478394048114,1.0,0.12424324848952249,0.9270502962276079,-0.010280265153388616,0.08253929079327546,-2.4859169672370536,3.14
298,0.10556548398100916,0.08151928707363494,0.06707161924220365,5.943773359227181,2.2796492634004344,1.710595939128345,5.829478394048114,1.0,0.12424324848952266,0.9270502962276076,-0.010280265153387785,0.08253929079327524,-2.485916967237054,3.14
299,0.1055654839810089,0.0815192870736345,0.06707161924220034,5.9437733592271815,2.279649263400435,1.7105959391283447,5.829478394048115,1.0,0.12424324848952273,0.9270502962276074,-0.010280265153387072,0.08253929079327516,-2.4859169672370545,3.14
300,0.10556548398100951,0.08151928707363494,0.06707161924220034,5.9437733592271815,2.2796492634004344,1.7105959391283447,5.829478394048115,1.0,0.12424324848952287,0.927050296227607,-0.010280265153386413,0.08253929079327496,-2.485916967237055,3.14
301,0.10556548398100887,0.0815192870736345,0.06707161924220034,5.943773359227181,2.279649263400435,1.7105959391283447,5.829478394048115,1.0,0.12424324848952296,0.9270502962276067,-0.010280265153385773,0.08253929079327484,-2.4859169672370554,3.14
302,0.10556548398100901,0.0815192870736345,0.06707161924220034,5.943773359227181,2.279649263400435,1.7105959391283443,5.829478394048115,1.0,0.12424324848952308,0.9270502962276066,-0.010280265153385216,0.0825392907932747,-2.485916967237056,3.14
303,0.10556548398100915,0.08151928707363494,0.06707161924220034,5.943773359227181,2.2796492634004344,1.7105959391283447,5.829478394048115,1.0,0.12424324848952312,0.9270502962276063,-0.010280265153384729,0.08253929079327463,-2.485916967237056,3.14
304,0.10556548398100928,0.08151928707363494,0.06707161924220034,5.943773359227181,2.2796492634004344,1.7105959391283445,5.829478394048115,1.0,0.12424324848952317,0.927050296227606,-0.010280265153384302,0.08253929079327457,-2.4859169672370562,3.14
305,0.10556548398100914,0.08151928707363494,0.06707161924220034,5.943773359227181,2.2796492634004344,1.710595939128344,5.829478394048115,1.0,0.12424324848952321,0.9270502962276058,-0.010280265153383875,0.08253929079327454,-2.4859169672370562,3.14
306,0.10556548398100946,0.08151928707363539,0.06707161924220034,5.943773359227181,2.279649263400434,1.710595939128345,5.829478394048115,1.0,0.12424324848952319,0.9270502962276054,-0.010280265153383487,0.08253929079327456,-2.4859169672370562,3.14
307,0.10556548398100912,0.08151928707363494,0.06707161924220034,5.943773359227181,2.2796492634004344,1.7105959391283445,5.829478394048115,1.0,0.1242432484895232,0.9270502962276052,-0.010280265153383133,0.08253929079327454,-2.4859169672370562,3.14
308,0.10556548398100926,0.08151928707363494,0.06707161924220034,5.943773359227181,2.2796492634004344,1.7105959391283452,5.829478394048115,1.0,0.12424324848952321,0.9270502962276048,-0.010280265153382828,0.08253929079327453,-2.4859169672370562,3.14
309,0.10556548398100893,0.08151928707363494,0.06707161924220365,5.943773359227181,2.2796492634004344,1.710595939128345,5.829478394048115,1.0,0.12424324848952326,0.9270502962276047,-0.010280265153382538,0.0825392907932745,-2.4859169672370567,3.14
310,0.10556548398100919,0.08151928707363494,0.06707161924220034,5.943773359227181,2.2796492634004344,1.7105959391283452,5.829478394048115,1.0,0.12424324848952327,0.9270502962276045,-0.010280265153382274,0.08253929079327446,-2.4859169672370567,3.14
311,0.1055654839810091,0.08151928707363494,0.06707161924220034,5.943773359227181,2.2796492634004344,1.710595939128345,5.829478394048115,1.0,0.12424324848952328,0.9270502962276045,-0.010280265153382057,0.08253929079327446,-2.485916967237057,3.14
312,0.10556548398100907,0.08151928707363539,0.06707161924220365,5.943773359227181,2.279649263400434,1.710595939128345,5.829478394048115,1.0,0.12424324848952333,0.9270502962276045,-0.010280265153381879,0.08253929079327439,-2.485916967237057,3.14
313,0.10556548398100858,0.08151928707363494,0.06707161924220365,5.943773359227181,2.2796492634004344,1.710595939128345,5.829478394048115,1.0,0.12424324848952335,0.9270502962276044,-0.010280265153381714,0.08253929079327436,-2.485916967237057,3.14
314,0.10556548398100861,0.08151928707363494,0.06707161924220365,5.943773359227181,2.2796492634004344,1.710595939128345,5.829478394048115,1.0,0.12424324848952346,0.9270502962276044,-0.01028026515338158,0.0825392907932742,-2.485916967237057,3.14
315,0.10556548398100858,0.08151928707363494,0.06707161924220365,5.943773359227181,2.2796492634004344,1.7105959391283452,5.829478394048115,1.0,0.12424324848952349,0.9270502962276044,-0.010280265153381409,0.08253929079327416,-2.485916967237057,3.14
316,0.10556548398100878,0.0815192870736345,0.06707161924220034,5.943773359227181,2.279649263400435,1.7105959391283445,5.829478394048115,1.0,0.12424324848952355,0.9270502962276045,-0.010280265153381306,0.08253929079327409,-2.4859169672370576,3.14
317,0.10556548398100858,0.08151928707363494,0.06707161924220365,5.943773359227181,2.2796492634004344,1.7105959391283447,5.829478394048115,1.0,0.12424324848952356,0.9270502962276044,-0.010280265153381214,0.08253929079327409,-2.4859169672370576,3.14
318,0.10556548398100889,0.08151928707363494,0.06707161924220034,5.943773359227181,2.2796492634004344,1.7105959391283445,5.829478394048115,1.0,0.12424324848952359,0.9270502962276044,-0.010280265153381088,0.08253929079327404,-2.4859169672370576,3.14
319,0.10556548398100908,0.08151928707363494,0.06707161924220034,5.943773359227181,2.2796492634004344,1.7105959391283447,5.829478394048115,1.0,0.12424324848952358,0.9270502962276043,-0.010280265153381008,0.08253929079327407,-2.4859169672370576,3.14
320,0.10556548398100893,0.08151928707363494,0.06707161924220034,5.943773359227181,2.2796492634004344,1.7105959391283445,5.829478394048115,1.0,0.12424324848952356,0.9270502962276043,-0.010280265153380944,0.08253929079327409,-2.4859169672370576,3.14
321,0.1055654839810086,0.08151928707363494,0.06707161924220034,5.943773359227181,2.2796492634004344,1.7105959391283445,5.829478394048115,1.0,0.12424324848952355,0.9270502962276042,-0.01028026515338089,0.0825392907932741,-2.4859169672370576,3.14
322,0.10556548398100891,0.08151928707363494,0.06707161924220034,5.943773359227181,2.2796492634004344,1.7105959391283445,5.829478394048115,1.0,0.12424324848952356,0.927050296227604,-0.010280265153380826,0.08253929079327409,-2.4859169672370576,3.14
323,0.10556548398100858,0.08151928707363494,0.06707161924220034,5.943773359227181,2.2796492634004344,1.7105959391283445,5.829478394048115,1.0,0.12424324848952356,0.927050296227604,-0.010280265153380756,0.08253929079327409,-2.4859169672370576,3.14
324,0.10556548398100854,0.08151928707363494,0.06707161924220034,5.943773359227181,2.2796492634004344,1.7105959391283445,5.829478394048115,1.0,0.12424324848952359,0.927050296227604,-0.010280265153380725,0.08253929079327404,-2.4859169672370576,3.14
325,0.10556548398100873,0.08151928707363494,0.06707161924220365,5.943773359227181,2.2796492634004344,1.7105959391283447,5.829478394048115,1.0,0.12424324848952362,0.927050296227604,-0.010280265153380675,0.08253929079327403,-2.4859169672370576,3.14
326,0.10556548398100855,0.08151928707363494,0.06707161924220034,5.943773359227181,2.2796492634004344,1.7105959391283447,5.829478394048115,1.0,0.12424324848952363,0.927050296227604,-0.01028026515338063,0.08253929079327404,-2.4859169672370576,3.14
327,0.10556548398100854,0.08151928707363494,0.06707161924220034,5.943773359227181,2.2796492634004344,1.7105959391283447,5.829478394048115,1.0,0.12424324848952364,0.927050296227604,-0.010280265153380598,0.08253929079327403,-2.4859169672370576,3.14
328,0.10556548398100854,0.08151928707363494,0.06707161924220034,5.943773359227181,2.2796492634004344,1.7105959391283447,5.829478394048115,1.0,0.12424324848952364,0.927050296227604,-0.010280265153380567,0.08253929079327402,-2.4859169672370576,3.14
329,0.10556548398100889,0.08151928707363494,0.06707161924220034,5.943773359227181,2.2796492634004344,1.7105959391283447,5.829478394048115,1.0,0.12424324848952364,0.9270502962276039,-0.010280265153380545,0.082539290793274,-2.4859169672370576,3.14
330,0.10556548398100855,0.08151928707363494,0.06707161924220034,5.943773359227181,2.2796492634004344,1.7105959391283447,5.829478394048115,1.0,0.12424324848952363,0.9270502962276039,-0.01028026515338051,0.08253929079327404,-2.4859169672370576,3.14
331,0.10556548398100854,0.08151928707363494,0.06707161924220034,5.943773359227181,2.2796492634004344,1.7105959391283447,5.829478394048115,1.0,0.12424324848952363,0.9270502962276039,-0.010280265153380506,0.08253929079327402,-2.4859169672370576,3.14
332,0.10556548398100854,0.08151928707363494,0.06707161924220034,5.943773359227181,2.2796492634004344,1.7105959391283447,5.829478394048115,1.0,0.12424324848952363,0.9270502962276039,-0.010280265153380506,0.082539290793274,-2.4859169672370576,3.14
333,0.10556548398100854,0.08151928707363494,0.06707161924220034,5.943773359227181,2.2796492634004344,1.7105959391283447,5.829478394048115,1.0,0.12424324848952363,0.9270502962276039,-0.010280265153380494,0.082539290793274,-2.4859169672370576,3.14
334,0.10556548398100889,0.08151928707363494,0.06707161924220034,5.943773359227181,2.2796492634004344,1.7105959391283447,5.829478394048115,1.0,0.12424324848952363,0.9270502962276039,-0.01028026515338046,0.08253929079327402,-2.4859169672370576,3.14
335,0.10556548398100854,0.08151928707363494,0.06707161924220034,5.943773359227181,2.2796492634004344,1.710595939128345,5.829478394048115,1.0,0.12424324848952359,0.9270502962276038,-0.010280265153380463,0.08253929079327404,-2.4859169672370576,3.14
336,0.10556548398100905,0.08151928707363494,0.06707161924220034,5.943773359227181,2.2796492634004344,1.7105959391283447,5.829478394048115,1.0,0.12424324848952363,0.9270502962276039,-0.010280265153380418,0.082539290793274,-2.4859169672370576,3.14
337,0.1055654839810089,0.08151928707363494,0.06707161924220034,5.943773359227181,2.2796492634004344,1.7105959391283447,5.829478394048115,1.0,0.1242432484895236,0.9270502962276039,-0.010280265153380434,0.08253929079327404,-2.4859169672370576,3.14
338,0.10556548398100891,0.08151928707363494,0.06707161924220034,5.943773359227181,2.2796492634004344,1.7105959391283447,5.829478394048115,1.0,0.12424324848952359,0.9270502962276039,-0.010280265153380434,0.08253929079327407,-2.4859169672370576,3.14
339,0.10556548398100911,0.08151928707363494,0.06707161924220034,5.943773359227181,2.2796492634004344,1.7105959391283447,5.829478394048115,1.0,0.12424324848952358,0.9270502962276039,-0.010280265153380408,0.08253929079327409,-2.4859169672370576,3.14
340,0.10556548398100896,0.08151928707363494,0.06707161924220034,5.943773359227181,2.2796492634004344,1.7105959391283447,5.829478394048115,1.0,0.12424324848952356,0.9270502962276039,-0.010280265153380434,0.0825392907932741,-2.4859169672370576,3.14
341,0.10556548398100896,0.08151928707363494,0.06707161924220034,5.943773359227181,2.2796492634004344,1.710595939128345,5.829478394048115,1.0,0.12424324848952353,0.9270502962276038,-0.010280265153380408,0.08253929079327414,-2.4859169672370576,3.14
342,0.10556548398100911,0.08151928707363494,0.06707161924220034,5.943773359227181,2.2796492634004344,1.7105959391283447,5.829478394048115,1.0,0.12424324848952358,0.9270502962276039,-0.01028026515338042,0.08253929079327409,-2.4859169672370576,3.14
343,0.10556548398100896,0.08151928707363494,0.06707161924220034,5.943773359227181,2.2796492634004344,1.7105959391283447,5.829478394048115,1.0,0.12424324848952356,0.9270502962276039,-0.010280265153380432,0.0825392907932741,-2.4859169672370576,3.14
344,0.10556548398100896,0.08151928707363494,0.06707161924220034,5.943773359227181,2.2796492634004344,1.7105959391283452,5.829478394048115,1.0,0.12424324848952353,0.9270502962276038,-0.010280265153380428,0.08253929079327414,-2.4859169672370576,3.14
345,0.10556548398100911,0.08151928707363494,0.06707161924220034,5.943773359227181,2.2796492634004344,1.7105959391283447,5.829478394048115,1.0,0.12424324848952356,0.9270502962276039,-0.01028026515338039,0.0825392907932741,-2.4859169672370576,3.14
346,0.10556548398100896,0.08151928707363494,0.06707161924220034,5.943773359227181,2.2796492634004344,1.7105959391283447,5.829478394048115,1.0,0.12424324848952355,0.9270502962276039,-0.010280265153380428,0.08253929079327413,-2.4859169672370576,3.14
347,0.10556548398100896,0.08151928707363494,0.06707161924220034,5.943773359227181,2.2796492634004344,1.710595939128345,5.829478394048115,1.0,0.12424324848952352,0.9270502962276038,-0.01028026515338041,0.08253929079327416,-2.4859169672370576,3.14
348,0.10556548398100912,0.08151928707363494,0.06707161924220034,5.943773359227181,2.2796492634004344,1.7105959391283447,5.829478394048115,1.0,0.12424324848952356,0.9270502962276039,-0.010280265153380421,0.08253929079327411,-2.4859169672370576,3.14
349,0.10556548398100893,0.08151928707363494,0.06707161924220034,5.943773359227181,2.2796492634004344,1.7105959391283447,5.829478394048115,1.0,0.12424324848952355,0.9270502962276039,-0.01028026515338044,0.08253929079327413,-2.4859169672370576,3.14
350,0.10556548398100893,0.08151928707363494,0.06707161924220034,5.943773359227181,2.2796492634004344,1.7105959391283447,5.829478394048115,1.0,0.12424324848952355,0.9270502962276039,-0.010280265153380437,0.08253929079327413,-2.4859169672370576,3.14
351,0.10556548398100893,0.08151928707363494,0.06707161924220034,5.943773359227181,2.2796492634004344,1.7105959391283447,5.829478394048115,1.0,0.12424324848952355,0.9270502962276039,-0.010280265153380434,0.08253929079327413,-2.4859169672370576,3.14
352,0.10556548398100896,0.08151928707363494,0.06707161924220034,5.943773359227181,2.2796492634004344,1.7105959391283447,5.829478394048115,1.0,0.12424324848952355,0.9270502962276039,-0.01028026515338043,0.08253929079327413,-2.4859169672370576,3.14
353,0.10556548398100896,0.08151928707363494,0.06707161924220034,5.943773359227181,2.2796492634004344,1.710595939128345,5.829478394048115,1.0,0.12424324848952352,0.9270502962276038,-0.010280265153380411,0.08253929079327416,-2.4859169672370576,3.14
354,0.10556548398100912,0.08151928707363494,0.06707161924220034,5.943773359227181,2.2796492634004344,1.7105959391283447,5.829478394048115,1.0,0.12424324848952356,0.9270502962276039,-0.010280265153380423,0.08253929079327411,-2.4859169672370576,3.14
355,0.10556548398100893,0.08151928707363494,0.06707161924220034,5.943773359227181,2.2796492634004344,1.7105959391283447,5.829478394048115,1.0,0.12424324848952355,0.9270502962276039,-0.010280265153380442,0.08253929079327413,-2.4859169672370576,3.14
356,0.10556548398100893,0.08151928707363494,0.06707161924220034,5.943773359227181,2.2796492634004344,1.7105959391283447,5.829478394048115,1.0,0.12424324848952355,0.9270502962276039,-0.010280265153380439,0.08253929079327413,-2.4859169672370576,3.14
357,0.10556548398100893,0.08151928707363494,0.06707161924220034,5.943773359227181,2.2796492634004344,1.7105959391283447,5.829478394048115,1.0,0.12424324848952355,0.9270502962276039,-0.010280265153380435,0.08253929079327413,-2.4859169672370576,3.14
358,0.10556548398100896,0.08151928707363494,0.06707161924220034,5.943773359227181,2.2796492634004344,1.7105959391283447,5.829478394048115,1.0,0.12424324848952355,0.9270502962276039,-0.010280265153380432,0.08253929079327413,-2.4859169672370576,3.14
359,0.10556548398100896,0.08151928707363494,0.06707161924220034,5.943773359227181,2.2796492634004344,1.710595939128345,5.829478394048115,1.0,0.12424324848952352,0.9270502962276038,-0.010280265153380413,0.08253929079327416,-2.4859169672370576,3.14
360,0.10556548398100912,0.08151928707363494,0.06707161924220034,5.943773359227181,2.2796492634004344,1.7105959391283447,5.829478394048115,1.0,0.12424324848952356,0.9270502962276039,-0.010280265153380425,0.08253929079327411,-2.4859169672370576,3.14
361,0.10556548398100893,0.08151928707363494,0.06707161924220034,5.943773359227181,2.2796492634004344,1.7105959391283447,5.829478394048115,1.0,0.12424324848952355,0.9270502962276039,-0.010280265153380444,0.08253929079327413,-2.4859169672370576,3.14
362,0.10556548398100893,0.08151928707363494,0.06707161924220034,5.943773359227181,2.2796492634004344,1.7105959391283447,5.829478394048115,1.0,0.12424324848952355,0.9270502962276039,-0.01028026515338044,0.08253929079327413,-2.4859169672370576,3.14
363,0.10556548398100893,0.08151928707363494,0.06707161924220034,5.943773359227181,2.2796492634004344,1.7105959391283447,5.829478394048115,1.0,0.12424324848952355,0.9270502962276039,-0.010280265153380437,0.08253929079327413,-2.4859169672370576,3.14
364,0.10556548398100893,0.08151928707363494,0.06707161924220034,5.943773359227181,2.2796492634004344,1.7105959391283447,5.829478394048115,1.0,0.12424324848952355,0.9270502962276039,-0.010280265153380434,0.08253929079327413,-2.4859169672370576,3.14
365,0.10556548398100896,0.08151928707363494,0.06707161924220034,5.943773359227181,2.2796492634004344,1.7105959391283447,5.829478394048115,1.0,0.12424324848952355,0.9270502962276039,-0.01028026515338043,0.08253929079327413,-2.4859169672370576,3.14
366,0.10556548398100896,0.08151928707363494,0.06707161924220034,5.943773359227181,2.2796492634004344,1.710595939128345,5.829478394048115,1.0,0.12424324848952352,0.9270502962276038,-0.010280265153380411,0.08253929079327416,-2.4859169672370576,3.14
367,0.10556548398100912,0.08151928707363494,0.06707161924220034,5.943773359227181,2.2796492634004344,1.7105959391283447,5.829478394048115,1.0,0.12424324848952356,0.9270502962276039,-0.010280265153380423,0.08253929079327411,-2.4859169672370576,3.14
368,0.10556548398100893,0.08151928707363494,0.06707161924220034,5.943773359227181,2.2796492634004344,1.7105959391283447,5.829478394048115,1.0,0.12424324848952355,0.9270502962276039,-0.010280265153380442,0.08253929079327413,-2.4859169672370576,3.14
369,0.10556548398100893,0.08151928707363494,0.06707161924220034,5.943773359227181,2.2796492634004344,1.7105959391283447,5.829478394048115,1.0,0.12424324848952355,0.9270502962276039,-0.010280265153380439,0.08253929079327413,-2.4859169672370576,3.14
370,0.10556548398100893,0.08151928707363494,0.06707161924220034,5.943773359227181,2.2796492634004344,1.7105959391283447,5.829478394048115,1.0,0.12424324848952355,0.9270502962276039,-0.010280265153380435,0.08253929079327413,-2.4859169672370576,3.14
371,0.10556548398100896,0.08151928707363494,0.06707161924220034,5.943773359227181,2.2796492634004344,1.7105959391283447,5.829478394048115,1.0,0.12424324848952355,0.9270502962276039,-0.010280265153380432,0.08253929079327413,-2.4859169672370576,3.14
372,0.10556548398100896,0.08151928707363494,0.06707161924220034,5.943773359227181,2.2796492634004344,1.710595939128345,5.829478394048115,1.0,0.12424324848952352,0.9270502962276038,-0.010280265153380413,0.08253929079327416,-2.4859169672370576,3.14
373,0.10556548398100912,0.08151928707363494,0.06707161924220034,5.943773359227181,2.2796492634004344,1.7105959391283447,5.829478394048115,1.0,0.12424324848952356,0.9270502962276039,-0.010280265153380425,0.08253929079327411,-2.4859169672370576,3.14
374,0.10556548398100893,0.08151928707363494,0.06707161924220034,5.943773359227181,2.2796492634004344,1.7105959391283447,5.829478394048115,1.0,0.12424324848952355,0.9270502962276039,-0.010280265153380444,0.08253929079327413,-2.4859169672370576,3.14
375,0.10556548398100893,0.08151928707363494,0.06707161924220034,5.943773359227181,2.2796492634004344,1.7105959391283447,5.829478394048115,1.0,0.12424324848952355,0.9270502962276039,-0.01028026515338044,0.08253929079327413,-2.4859169672370576,3.14
376,0.10556548398100893,0.08151928707363494,0.06707161924220034,5.943773359227181,2.2796492634004344,1.7105959391283447,5.829478394048115,1.0,0.12424324848952355,0.9270502962276039,-0.010280265153380437,0.08253929079327413,-2.4859169672370576,3.14
377,0.10556548398100893,0.08151928707363494,0.06707161924220034,5.943773359227181,2.2796492634004344,1.7105959391283447,5.829478394048115,1.0,0.12424324848952355,0.9270502962276039,-0.010280265153380434,0.08253929079327413,-2.4859169672370576,3.14
378,0.10556548398100896,0.08151928707363494,0.06707161924220034,5.943773359227181,2.2796492634004344,1.7105959391283447,5.829478394048115,1.0,0.12424324848952355,0.9270502962276039,-0.01028026515338043,0.08253929079327413,-2.4859169672370576,3.14
379,0.10556548398100896,0.08151928707363494,0.06707161924220034,5.943773359227181,2.2796492634004344,1.710595939128345,5.829478394048115,1.0,0.12424324848952352,0.9270502962276038,-0.010280265153380411,0.08253929079327416,-2.4859169672370576,3.14
380,0.10556548398100912,0.08151928707363494,0.06707161924220034,5.943773359227181,2.2796492634004344,1.7105959391283447,5.829478394048115,1.0,0.12424324848952356,0.9270502962276039,-0.010280265153380423,0.08253929079327411,-2.4859169672370576,3.14
381,0.10556548398100893,0.08151928707363494,0.06707161924220034,5.943773359227181,2.2796492634004344,1.7105959391283447,5.829478394048115,1.0,0.12424324848952355,0.9270502962276039,-0.010280265153380442,0.08253929079327413,-2.4859169672370576,3.14
382,0.10556548398100893,0.08151928707363494,0.06707161924220034,5.943773359227181,2.2796492634004344,1.7105959391283447,5.829478394048115,1.0,0.12424324848952355,0.9270502962276039,-0.010280265153380439,0.08253929079327413,-2.4859169672370576,3.14
383,0.10556548398100893,0.08151928707363494,0.06707161924220034,5.943773359227181,2.2796492634004344,1.7105959391283447,5.829478394048115,1.0,0.12424324848952355,0.9270502962276039,-0.010280265153380435,0.08253929079327413,-2.4859169672370576,3.14
384,0.10556548398100896,0.08151928707363494,0.06707161924220034,5.943773359227181,2.2796492634004344,1.7105959391283447,5.829478394048115,1.0,0.12424324848952355,0.9270502962276039,-0.010280265153380432,0.08253929079327413,-2.4859169672370576,3.14
385,0.10556548398100896,0.08151928707363494,0.06707161924220034,5.943773359227181,2.2796492634004344,1.710595939128345,5.829478394048115,1.0,0.12424324848952352,0.9270502962276038,-0.010280265153380413,0.08253929079327416,-2.4859169672370576,3.14
386,0.10556548398100912,0.08151928707363494,0.06707161924220034,5.943773359227181,2.2796492634004344,1.7105959391283447,5.829478394048115,1.0,0.12424324848952356,0.9270502962276039,-0.010280265153380425,0.08253929079327411,-2.4859169672370576,3.14
387,0.10556548398100893,0.08151928707363494,0.06707161924220034,5.943773359227181,2.2796492634004344,1.7105959391283447,5.829478394048115,1.0,0.12424324848952355,0.9270502962276039,-0.010280265153380444,0.08253929079327413,-2.4859169672370576,3.14
388,0.10556548398100893,0.08151928707363494,0.06707161924220034,5.943773359227181,2.2796492634004344,1.7105959391283447,5.829478394048115,1.0,0.12424324848952355,0.9270502962276039,-0.01028026515338044,0.08253929079327413,-2.4859169672370576,3.14
389,0.10556548398100893,0.08151928707363494,0.06707161924220034,5.943773359227181,2.2796492634004344,1.7105959391283447,5.829478394048115,1.0,0.12424324848952355,0.9270502962276039,-0.010280265153380437,0.08253929079327413,-2.4859169672370576,3.14
390,0.10556548398100893,0.08151928707363494,0.06707161924220034,5.943773359227181,2.2796492634004344,1.7105959391283447,5.829478394048115,1.0,0.12424324848952355,0.9270502962276039,-0.010280265153380434,0.08253929079327413,-2.4859169672370576,3.14
391,0.10556548398100896,0.08151928707363494,0.06707161924220034,5.943773359227181,2.2796492634004344,1.7105959391283447,5.829478394048115,1.0,0.12424324848952355,0.9270502962276039,-0.01028026515338043,0.08253929079327413,-2.4859169672370576,3.14
392,0.10556548398100896,0.08151928707363494,0.06707161924220034,5.943773359227181,2.2796492634004344,1.710595939128345,5.829478394048115,1.0,0.12424324848952352,0.9270502962276038,-0.010280265153380411,0.08253929079327416,-2.4859169672370576,3.14
393,0.10556548398100912,0.08151928707363494,0.06707161924220034,5.943773359227181,2.2796492634004344,1.7105959391283447,5.829478394048115,1.0,0.12424324848952356,0.9270502962276039,-0.010280265153380423,0.08253929079327411,-2.4859169672370576,3.14
394,0.10556548398100893,0.08151928707363494,0.06707161924220034,5.943773359227181,2.2796492634004344,1.7105959391283447,5.829478394048115,1.0,0.12424324848952355,0.9270502962276039,-0.010280265153380442,0.08253929079327413,-2.4859169672370576,3.14
395,0.10556548398100893,0.08151928707363494,0.06707161924220034,5.943773359227181,2.2796492634004344,1.7105959391283447,5.829478394048115,1.0,0.12424324848952355,0.9270502962276039,-0.010280265153380439,0.08253929079327413,-2.4859169672370576,3.14
396,0.10556548398100893,0.08151928707363494,0.06707161924220034,5.943773359227181,2.2796492634004344,1.7105959391283447,5.829478394048115,1.0,0.12424324848952355,0.9270502962276039,-0.010280265153380435,0.08253929079327413,-2.4859169672370576,3.14
397,0.10556548398100896,0.08151928707363494,0.06707161924220034,5.943773359227181,2.2796492634004344,1.7105959391283447,5.829478394048115,1.0,0.12424324848952355,0.9270502962276039,-0.010280265153380432,0.08253929079327413,-2.4859169672370576,3.14
398,0.10556548398100896,0.08151928707363494,0.06707161924220034,5.943773359227181,2.2796492634004344,1.710595939128345,5.829478394048115,1.0,0.12424324848952352,0.9270502962276038,-0.010280265153380413,0.08253929079327416,-2.4859169672370576,3.14
399,0.10556548398100912,0.08151928707363494,0.06707161924220034,5.943773359227181,2.2796492634004344,1.7105959391283447,5.829478394048115,1.0,0.12424324848952356,0.9270502962276039,-0.010280265153380425,0.08253929079327411,-2.4859169672370576,3.14
400,0.10556548398100893,0.08151928707363494,0.06707161924220034,5.943773359227181,2.2796492634004344,1.7105959391283447,5.829478394048115,1.0,0.12424324848952355,0.9270502962276039,-0.010280265153380444,0.08253929079327413,-2.4859169672370576,3.14
401,0.10556548398100893,0.08151928707363494,0.06707161924220034,5.943773359227181,2.2796492634004344,1.7105959391283447,5.829478394048115,1.0,0.12424324848952355,0.9270502962276039,-0.01028026515338044,0.08253929079327413,-2.4859169672370576,3.14
402,0.10556548398100893,0.08151928707363494,0.06707161924220034,5.943773359227181,2.2796492634004344,1.7105959391283447,5.829478394048115,1.0,0.12424324848952355,0.9270502962276039,-0.010280265153380437,0.08253929079327413,-2.4859169672370576,3.14
403,0.10556548398100893,0.08151928707363494,0.06707161924220034,5.943773359227181,2.2796492634004344,1.7105959391283447,5.829478394048115,1.0,0.12424324848952355,0.9270502962276039,-0.010280265153380434,0.08253929079327413,-2.4859169672370576,3.14
404,0.10556548398100896,0.08151928707363494,0.06707161924220034,5.943773359227181,2.2796492634004344,1.7105959391283447,5.829478394048115,1.0,0.12424324848952355,0.9270502962276039,-0.01028026515338043,0.08253929079327413,-2.4859169672370576,3.14
405,0.10556548398100896,0.08151928707363494,0.06707161924220034,5.943773359227181,2.2796492634004344,1.710595939128345,5.829478394048115,1.0,0.12424324848952352,0.9270502962276038,-0.010280265153380411,0.08253929079327416,-2.4859169672370576,3.14
