jkpark150901/flame_robotics_drt/experiment/inspection_ik/session_20260722_135839/fallback/inspection_ik_20260722_135913_rb20_1900es_normalized_fallback.csv
iteration,err_norm,position_error,orientation_error,tcp_x,tcp_y,tcp_z,q0_rt_joint_linear_track,q1_rt_joint_carriage,q2_rt_base,q3_rt_shoulder,q4_rt_elbow,q5_rt_wrist1,q6_rt_wrist2,q7_rt_wrist3
0,4.754500910919943,2.9315849028243055,2.9730211677403293,0.267,-3.2807478955731993e-13,2.541,0.0,0.0,0.0,0.0,0.0,0.0,0.0,0.0
1,4.194859744308853,2.243716991046756,2.957307852165933,0.35593777789621583,0.9422657810085078,2.3031408229737336,0.03873079622888061,0.05872148150593982,-0.06388747693050587,0.5202456545444648,0.007856922179830366,-0.10267848830726349,-0.5045318101848042,-0.10267848830726349
2,4.2560427521616875,2.5162954402749578,2.960667902724464,0.466076137521365,0.3605215652027339,2.378177067807113,0.22192253574608,1.0,0.07257013753626473,-0.17241784505385416,-0.32650415943345823,1.7908169073592233,0.5781473266405901,-2.08823079262507
3,2.8542177798624353,2.304680799340207,1.4284107027086401,0.9513381358478039,0.8609700830626564,0.6119454254583341,0.8123700741729014,1.0,-1.0032874945381862,0.841122653756108,-3.14,-0.2788327645188158,0.5087869718068339,1.9665613728621212
4,2.249703661595913,1.9969457232689465,0.9425878252791753,1.6776907928328364,0.8029190093780914,0.6390273711587351,1.5878409338349289,1.0,-0.8320057441425321,0.5324732611703805,-2.9873196287842925,-0.15819600834902317,0.22275018634945287,2.143102035115456
5,1.7982028642192835,1.6945243163533652,0.5833830272219689,2.3297957050544613,0.6546485559324908,1.1409511113538717,2.2281726418942727,1.0,-0.4440936425712381,0.7581138722168571,-2.3733379591128707,-0.07459989690302961,-0.8783932769489841,2.503360981076925
6,1.33537264181978,1.259940433693185,0.4409749694260924,2.44848446183407,1.0715855266021195,1.3206692787128451,2.1245975743526175,1.0,-0.4155282756189361,1.3226952043609375,-2.190416814484992,0.13620217248594108,-1.7230677931350509,2.4560869352079555
7,0.947621994004844,0.8924160403813577,0.31775526538672094,2.413113811149162,1.386262924829856,1.5115840256647648,1.9722385830098046,1.0,-0.3653213899566727,1.3718255427747867,-1.7902686627449815,0.19397655953959378,-2.2182704192285945,2.6911037330128775
8,0.6730866338778329,0.6354253237586899,0.22162176975918582,2.359854351144614,1.574169876193095,1.6806682734713467,1.9102003910656007,1.0,-0.26996281218706186,1.2453905076671683,-1.4262892808963745,0.2540454900430728,-2.463979250448966,2.933302329861323
9,0.4922923461667071,0.4665521493007866,0.15700901894979935,2.3224584631210674,1.6927220740880078,1.8001802528018696,1.9202096864417897,1.0,-0.16374301776768804,1.1170336127112883,-1.1383408102802743,0.30389228806925855,-2.6129127599586113,3.14
10,0.44486542472111157,0.3577560946568013,0.26430039921362936,2.2994807398610795,1.769143715377203,1.8809807129219425,1.9666991084696217,1.0,-0.062307212182405425,1.0076415753971666,-0.906348719295033,0.3379734436645997,-2.72018677296835,3.14
11,0.4670510556706054,0.2930616690354223,0.3633379730939543,2.2810527857116507,1.8135672974965287,1.9350220117175463,2.025478424158553,1.0,0.03224232057770006,0.9167173926292427,-0.7205075089060958,0.3506926075216275,-2.804482346524365,3.14
12,0.5056955927855357,0.2586461007524889,0.43405910084037297,2.266995669060145,1.8365277405752727,1.9708642306294168,2.086165374005545,1.0,0.11690100334454391,0.8418442481163245,-0.5697801914079914,0.3422767785648867,-2.8741745000256036,3.14
13,0.5333819620182053,0.24398436581813776,0.4736918223884524,2.256228508131465,1.8454409509085947,1.9944930335360376,2.1404494735072572,1.0,0.18813395768515112,0.7803063381825005,-0.4470204314056863,0.31585392688088615,-2.932436059969943,3.14
14,0.5415210724731252,0.2407862148480044,0.4843275297467476,2.2478118079074227,1.846135483589974,2.0100152301045795,2.1834699702036056,1.0,0.24389364350681333,0.7300387533756465,-0.34771773968675745,0.27551121319286787,-2.9801733358691065,3.14
15,0.5307825505290907,0.24286468032606812,0.4711856155699191,2.2413133913358796,1.8431657462997317,2.020198333705073,2.2143982739610113,1.0,0.28454889508950354,0.6892129201470968,-0.2677812849731998,0.22571424913153487,-3.0184940028148874,3.14
16,0.5059594883214276,0.24641832706502978,0.44111011952964274,2.2367314144403156,1.839373719181039,2.0269208974958444,2.235217502052553,1.0,0.31233107137233196,0.6557893089644614,-0.2027422948893275,0.17089180872462323,-3.0492969506314327,3.14
17,0.47273972347301335,0.2497606596084975,0.4006188165598025,2.2341365592118083,1.8359316726996437,2.0314855846420206,2.248546682811812,1.0,0.3299583359514526,0.6278794870577011,-0.14884563635440015,0.1148616690991335,-3.0743618502739953,3.14
18,0.43616351266212794,0.25247983604027846,0.3549602468073954,2.2334219024002477,1.8330223942357875,2.0347756638092727,2.256565007228612,1.0,0.339924097690917,0.604224255371628,-0.10383317970063421,0.06049713564486104,-3.0947863292810096,3.14
19,0.4002019653008489,0.254678223779479,0.3080853277376419,2.2342913754401814,1.8304881332963359,2.0373438357428655,2.2609966625461895,1.0,0.3444370204862463,0.5841744024213613,-0.06656387086877069,0.009710950172173001,-3.111190504228619,3.14
20,0.36765126106989193,0.25655635907018587,0.2627944595591104,2.236354748926321,1.8281617369209446,2.039498086544527,2.263234518744362,1.0,0.345404771853956,0.5673808138138575,-0.03627619160719754,-0.036411302371585595,-3.124070571308239,3.14
21,0.34012673815127725,0.25826058592338347,0.22086793954066797,2.239217354297762,1.8259596005708068,2.0413880256767674,2.264331361082074,1.0,0.344338819940045,0.5535366188238902,-0.012150522196548833,-0.07742082627032298,-3.13395885928238,3.14
22,0.3183167986474271,0.26000786553336463,0.1832421436675986,2.242566087785341,1.8237144219749881,2.0431714120982734,2.2649806184266184,1.0,0.3423050403567362,0.5422822763808416,0.006763804040959099,-0.11330808988233648,-3.14,3.14
23,0.30243280937483724,0.26201498814859636,0.15070989233345952,2.2461643400165827,1.8212445130904686,2.0449914350215703,2.265611426691609,1.0,0.33997711718624646,0.5333862056740036,0.021252617797267906,-0.1439996096427742,-3.14,3.14
24,0.29132311893910384,0.2634313884019412,0.12411070986729876,2.249691254182039,1.8194552611677253,2.046310663292984,2.266530535872004,1.0,0.33776747195817497,0.5268961580951123,0.031717138405847195,-0.16903951175674894,-3.14,3.14
25,0.2837190873644658,0.2644757002749327,0.10247315336242789,2.2529915198975106,1.8181206248010051,2.047294900213524,2.2676461809556026,1.0,0.3358423240844481,0.5220980065320632,0.03936351490423864,-0.18950140224626422,-3.14,3.14
26,0.27861061435267154,0.2652786211812137,0.08495447594614203,2.255978887399968,1.817098448429379,2.048047717628109,2.268844327692441,1.0,0.33423146990183883,0.5184922703498508,0.04503951445887705,-0.20623854148080045,-3.14,3.14
27,0.2752357942892444,0.26591629663649013,0.0708467831575932,2.258618640274858,1.8162993156318177,2.048634570326118,2.270033956079067,1.0,0.3329102723222509,0.5157395718086608,0.04932135846415312,-0.21993693390450533,-3.14,3.14
28,0.27304217882425386,0.26643355454662265,0.059564057297866284,2.260910217403675,1.8156655303946019,2.0490981884409964,2.271155361364977,1.0,0.33183709152676655,0.5136092889253764,0.052599171494037505,-0.23115221666001262,-3.14,3.14
29,0.27164069530519686,0.26685807470939626,0.05062251442072358,2.2628734074402055,1.815158229777174,2.049467709293569,2.272175456077751,1.0,0.330969023178049,0.5119422872043363,0.05514003762447929,-0.24033646154611324,-3.14,3.14
30,0.27076320177351404,0.26720830681610797,0.04361982002548673,2.26453857772929,1.814749914839301,2.049763913879607,2.2730802724181314,1.0,0.33026772627708834,0.5106263076314986,0.057130184258542716,-0.24785846542657222,-3.14,3.14
31,0.27022790786959716,0.26749763295093987,0.03821592088353113,2.265940277413663,1.8144202288831475,2.0500022122177564,2.2738682541225796,1.0,0.3297009577397994,0.5095802715695488,0.05870219133350753,-0.2540195725458296,-3.14,3.14
32,0.26991315231430385,0.26773646657763756,0.03411751076808141,2.267113323937225,1.8141535643081617,2.050194376479622,2.2745452100974113,1.0,0.3292423822429319,0.5087443216365576,0.05995240678648254,-0.25906625057540184,-3.14,3.14
33,0.26973839858190096,0.2679332908759603,0.031067767407991956,2.2680905884393088,1.8139376647272276,2.050349587140003,2.27512083835252,1.0,0.3288707918364132,0.508073423655571,0.060952181402500825,-0.26320020427068186,-3.14,3.14
34,0.2696508672192024,0.26809518183775705,0.028841816852580363,2.2689018849817053,1.8137627630182036,2.0504750994856615,2.275606472075783,1.0,0.32856921327261585,0.507533163851779,0.061755236725570005,-0.2665865666292052,-3.14,3.14
35,0.2696163218619343,0.2682280936229349,0.0272464276884678,2.2695735453344144,1.813621011916501,2.0505766943193624,2.2760136964744135,1.0,0.32832408692205856,0.5070969129250833,0.062402598151655886,-0.2693605614963045,-3.14,3.14
36,0.26961280792837045,0.26833703888043386,0.026121031951305444,2.270128398860636,1.8135060809319947,2.0506589999572777,2.276353554258837,1.0,0.32812457327204836,0.5067438588591024,0.06292597185336465,-0.27163293714137304,-3.14,3.14
37,0.26962644171088646,0.26842622328559484,0.02533746434696131,2.2705859758823994,1.8134128543715171,2.0507257325337034,2.2766361337636902,1.0,0.32796199041559515,0.5064576065954276,0.06335010749616485,-0.27349440480024423,-3.14,3.14
38,0.26964860106424055,0.268499158499689,0.02479739552876077,2.2709628205152925,1.8133371960995217,2.050779880910002,2.2768703968516313,1.0,0.3278293668535686,0.5062251582631256,0.06369448561678283,-0.2750192681700689,-3.14,3.14
39,0.26967406372058805,0.26855876221390756,0.024427943691534598,2.2712728437797534,1.81327576200134,2.050823851745562,2.2770641508484695,1.0,0.3277210892463312,0.5060361560876215,0.06397454544531155,-0.27626839330075187,-3.14,3.14
40,0.2696997811793462,0.26860744774552586,0.024176562671821687,2.27152767680082,1.8132258487119643,2.050859584608538,2.2772241020379806,1.0,0.3276326257997634,0.5058823112825938,0.06420259340022777,-0.27729163979418003,-3.14,3.14
41,0.26972407622737826,0.2686472036383558,0.024006154018533656,2.2717370022690124,1.8131852710207805,2.050888643871996,2.2773559509964842,1.0,0.32756030891195803,0.505756967579266,0.06438848531119624,-0.27812985156898445,-3.14,3.14
42,0.26974612134104153,0.26867966338494836,0.023890922777038578,2.271908853683034,1.8131522624284162,2.0509122922985936,2.277464505241188,1.0,0.3275011639173499,0.5056547640766906,0.06454014539657854,-0.278816487266738,-3.14,3.14
43,0.2697656024183673,0.26870616560166116,0.023813126552306534,2.2720498787012766,1.8131253945589596,2.0509315500424083,2.2775537946164928,1.0,0.3274527736303687,0.5055713725217088,0.06466396552488547,-0.2793789556789182,-3.14,3.14
44,0.26978250419103134,0.2687278052827073,0.02376065306000547,2.272165566840697,1.813103511956364,2.0509472419848285,2.2776271812355344,1.0,0.32741317074086224,0.5055032910978117,0.06476511537865479,-0.279839709639266,-3.14,3.14
45,0.2697969750911837,0.2687454769754687,0.02372527588731622,2.272260443860326,1.813085679413756,2.050960035722112,2.2776874598152426,1.0,0.32738075196077504,0.5054476815844015,0.06484778542764758,-0.2802171421046471,-3.14,3.14
46,0.2698092436695267,0.2687599108266752,0.023701427095339258,2.2723382361542184,1.8130711394838868,2.05097047205953,2.2777369467056316,1.0,0.3273542092411812,0.5054022401054583,0.06491537863413614,-0.280526320212771,-3.14,3.14
47,0.269819568197666,0.2687717024650206,0.023685346702557994,2.2724020088046473,1.813059278235067,2.050978989500337,2.2777775573673664,1.0,0.3273324744577161,0.5053650940916966,0.06497066263257906,-0.2807795866201447,-3.14,3.14
48,0.26982820741751345,0.26878133763928547,0.023674499366657456,2.272454280895328,1.8130495976667995,2.050985943923732,2.277810872862007,1.0,0.327314674779212,0.5053347198331237,0.06501589115873008,-0.2809870521188985,-3.14,3.14
49,0.2698354045889322,0.2687892124485593,0.023667177068501577,2.272497121433369,1.813041693492653,2.0509916244090953,2.2778381963280023,1.0,0.3273000965530608,0.5053098762953259,0.06505290136535748,-0.2811569991893596,-3.14,3.14
50,0.26984137974937755,0.26879564990234345,0.02366222972923774,2.2725322288855345,1.8130352372421306,2.0509962659729175,2.2778606005795936,1.0,0.3272881560113253,0.5052895518438034,0.06508319209962557,-0.28129621259032306,-3.14,3.14
51,0.2698463269151502,0.26880091344654905,0.02365888312348548,2.2725609969630227,1.8130299618347419,2.05100005983142,2.2778789679862514,1.0,0.32727837546147187,0.5052729212558151,0.06510798706064228,-0.2814102501776095,-3.14,3.14
52,0.26985041414253225,0.26880521799452056,0.023656616046756503,2.2725845689255633,1.8130256499443984,2.0510031616788176,2.2778940237312097,1.0,0.3272703639027477,0.5052593109609976,0.0651282858888832,-0.2815036647568263,-3.14,3.14
53,0.26985378514138786,0.26880873891446055,0.02365507756327406,2.272603882339058,1.8130221246062712,2.0510056983727183,2.2779063634487904,1.0,0.32726380122426596,0.5052481708848902,0.06514490558220302,-0.28158018582281286,-3.14,3.14
54,0.2698565616350844,0.26881161934767256,0.023654031301819967,2.2726197059198485,1.8130192416265831,2.0510077733395224,2.277916476125696,1.0,0.32725842530894983,0.5052390516054064,0.0651585141300311,-0.28164286843797665,-3.14,3.14
55,0.269858845982621,0.26881397616609903,0.023653317977416776,2.27263266983527,1.813016883442976,2.0510094709500186,2.2779247630353954,1.0,0.3272540214998142,0.5052315857946347,0.06516965786847402,-0.28169421519073035,-3.14,3.14
56,0.2698607237836389,0.26881590482205625,0.02365283018237597,2.272643290603437,1.8130149541530098,2.0510108600653614,2.277931553364848,1.0,0.3272504139899056,0.5052254731244021,0.0651787837559784,-0.2817362761012115,-3.14,3.14
57,0.2698622663154014,0.2688174832967303,0.023652495431231255,2.272651991542283,1.8130133754843607,2.0510119969138585,2.277937117093036,1.0,0.32724745878077804,0.5052204679766836,0.06518625753126847,-0.28177073046157475,-3.14,3.14
58,0.2698635327299257,0.2688187753157724,0.023652264756964834,2.272659119555142,1.813012083525028,2.051012927427225,2.2779416755924955,1.0,0.327245037921311,0.505216369428923,0.06519237852726191,-0.2817989538772979,-3.14,3.14
59,0.26986457198684877,0.2688198329689217,0.023652105039589384,2.272664958903753,1.8130110260676584,2.0510136891396673,2.2779454103484227,1.0,0.3272430547925121,0.5052130130870177,0.06519739176527913,-0.2818220731853929,-3.14,3.14
60,0.26986542452485507,0.26882069884495,0.023651993844326966,2.27266974250579,1.8130101604506756,2.051014312732961,2.2779484701242927,1.0,0.3272414302474223,0.5052102644207617,0.06520149783458665,-0.2818410114416184,-3.14,3.14
61,0.2698661236891374,0.26882140777231395,0.023651915947213328,2.272673661199487,1.8130094518018014,2.0510148232945165,2.277950976847247,1.0,0.32724009945043514,0.505208013322321,0.06520486096669,-0.2818565247724494,-3.14,3.14
62,0.26986669693927856,0.26882198823892456,0.023651860995310615,2.2726768713396166,1.813008871607854,2.0510152413424754,2.277953030439639,1.0,0.3272390092889257,0.5052061696611747,0.06520761563686003,-0.2818692325628708,-3.14,3.14
63,0.2698671668641933,0.2688224635506775,0.02365182193035095,2.272679501024319,1.8130083965493764,2.0510155836615547,2.277954712783878,1.0,0.32723811625333066,0.5052046596515525,0.06520987196330001,-0.2818796421850731,-3.14,3.14
64,0.26986755203035845,0.2688228527771618,0.023651793925718343,2.272681655198887,1.8130080075504669,2.051015863984944,2.277956090974995,1.0,0.32723738470075464,0.5052034228828214,0.06521172012413844,-0.281888169255228,-3.14,3.14
65,0.269867867687774,0.26882317152395024,0.023651773669190534,2.272683419838621,1.8130076890036038,2.0510160935509227,2.2779572199882034,1.0,0.32723678543263846,0.5052024098910958,0.06521323397172976,-0.2818951542270184,-3.14,3.14
66,0.26986812635558827,0.2688234325634796,0.023651758878379434,2.272684865376584,1.8130074281369186,2.0510162815574184,2.277958144866195,1.0,0.3272362945296348,0.5052015801729244,0.06521447399068132,-0.28190087598436897,-3.14,3.14
67,0.26986833830665835,0.26882364635057737,0.02365174797303015,2.2726860495124184,1.813007214497504,2.051016435533357,2.2779589025123377,1.0,0.32723589239715367,0.5052009005602213,0.06521548971914304,-0.28190556297603414,-3.14,3.14
68,0.2698685119676632,0.2688238214438513,0.023651739852986964,2.2726870195138034,1.8130070395293019,2.051016561642169,2.277959523160563,1.0,0.3272355629834713,0.5052003438904895,0.06521632173100195,-0.28190940233657125,-3.14,3.14
69,0.26986865424896195,0.268823964850223,0.023651733747559536,2.2726878141021456,1.8130068962281358,2.0510166649299046,2.2779600315800996,1.0,0.32723529313919747,0.5051998879185096,0.06521700325878149,-0.2819125473578417,-3.14,3.14
70,0.26986877081618155,0.2688240823066883,0.023651729113137624,2.2726884649975245,1.8130067788596995,2.0510167495281313,2.277960448062787,1.0,0.32723507209254077,0.5051995144255255,0.0652175615224861,-0.2819151236093319,-3.14,3.14
71,0.26986886631358953,0.2688241785107863,0.02365172556323459,2.272688998184449,1.8130066827289535,2.0510168188198925,2.277960789232144,1.0,0.3272348910194376,0.5051992084900027,0.06521801881775041,-0.2819172339516452,-3.14,3.14
72,0.26986894454767435,0.2688242573091559,0.023651722820819985,2.2726894349488194,1.8130066039915056,2.051016875575479,2.2779610687063263,1.0,0.3272347426913956,0.5051989578905947,0.06521839340694219,-0.28191896264332705,-3.14,3.14
73,0.26986900863791713,0.2688243218518243,0.023651720685552238,2.272689792727471,1.8130065394993025,2.051016922063528,2.2779612976413386,1.0,0.3272346211870028,0.5051987526173084,0.06521870024893854,-0.2819203787049879,-3.14,3.14
74,0.26986906114054793,0.2688243747184708,0.02365171901108562,2.2726900858041272,1.8130064866743718,2.051016960141945,2.2779614851760965,1.0,0.32723452165559225,0.5051985844712313,0.06521895159680466,-0.28192153867503755,-3.14,3.14
75,0.2698691041500921,0.26882441802177254,0.02365171768963483,2.272690325879539,1.813006443405495,2.051016991332316,2.2779616387970725,1.0,0.32723444012363556,0.505198446736758,0.06521915748730418,-0.28192248886705545,-3.14,3.14
76,0.269869139382669,0.2688244534920075,0.0236517166408585,2.272690522538546,1.8130064079636299,2.051017016880834,2.277961764637038,1.0,0.3272343733361411,0.5051983339131644,0.06521932614182793,-0.281923267218923,-3.14,3.14
77,0.269869168244283,0.2688244825463016,0.023651715804385572,2.272690683632691,1.8130063789326893,2.0510170378081662,2.277961867719812,1.0,0.3272343186267262,0.5051982414947841,0.06521946429477898,-0.2819239048075461,-3.14,3.14
78,0.26986919188682523,0.2688245063453363,0.0236517151343791,2.2726908155936476,1.8130063551528617,2.0510170549502873,2.277961952160765,1.0,0.3272342738111829,0.5051981657909729,0.06521957746254409,-0.2819244270896448,-3.14,3.14
79,0.26986921125397395,0.2688245258397737,0.023651714595780672,2.2726909236899853,1.8130063356742094,2.0510170689919116,2.2779620213310805,1.0,0.327234237100287,0.5051981037786573,0.065219670163806,-0.28192485491815017,-3.14,3.14
80,0.2698692271188091,0.26882454180827203,0.02365171416144678,2.272691012237495,1.8130063197186763,2.051017080493875,2.2779620779923184,1.0,0.3272342070283743,0.5051980529815658,0.06521974610000088,-0.2819252053747879,-3.14,3.14
81,0.2698692401146438,0.2688245548886154,0.023651713810261626,2.2726910847714903,1.8130063066489768,2.0510170899155513,2.2779621244066477,1.0,0.3272341823948295,0.5051980113713164,0.06521980830313187,-0.28192549245209203,-3.14,3.14
82,0.26986925076028356,0.26882456560320755,0.023651713525672455,2.272691144187947,1.8130062959431192,2.051017097633211,2.2779621624271513,1.0,0.3272341622161572,0.5051979772863961,0.0652198592568466,-0.28192572761207796,-3.14,3.14
83,0.2698692594807281,0.26882457437995083,0.023651713294656766,2.2726911928591185,1.8130062871735415,2.0510171039550613,2.2779621935718013,1.0,0.32723414568671866,0.505197949365802,0.0652199009956137,-0.2819259202438809,-3.14,3.14
84,0.2698692666241274,0.26882458156934336,0.023651713106802183,2.2726912327282487,1.8130062799900257,2.0510171091335576,2.2779622190840576,1.0,0.32723413214656866,0.5051979264946851,0.06521993518596107,-0.2819260780386315,-3.14,3.14
85,0.2698692724756748,0.26882458745848353,0.023651712953865194,2.2726912653871576,1.8130062741057043,2.051017113375493,2.2779622399825112,1.0,0.3272341210551084,0.5051979077598275,0.06521996319302106,-0.28192620729653617,-3.14,3.14
86,0.26986927726899157,0.268824592282539,0.02365171282921718,2.27269129213979,1.8130062692855993,2.0510171168502542,2.277962257101548,1.0,0.3272341119695027,0.5051978924131754,0.06521998613503928,-0.2819263131784226,-3.14,3.14
87,0.269869281195453,0.2688245962341424,0.023651712727543982,2.272691314054279,1.813006265337234,2.0510171196965925,2.27796227112466,1.0,0.32723410452700086,0.5051978798419644,0.06522000492802554,-0.2819263999117939,-3.14,3.14
88,0.2698692844118261,0.2688245994710852,0.023651712644526677,2.2726913320055866,1.8130062621029452,2.0510171220281626,2.2779622826117327,1.0,0.32723409843045353,0.5051978695442522,0.06522002032232857,-0.28192647095961837,-3.14,3.14
89,0.26986928704652624,0.26882460212261855,0.0236517125767289,2.2726913467104457,1.813006259453587,2.051017123938064,2.277962292021401,1.0,0.3272340934364498,0.5051978611088742,0.06522003293259687,-0.2819265291585939,-3.14,3.14
90,0.2698692892047469,0.26882460429461663,0.023651712521305785,2.272691358755965,1.8130062572833712,2.051017125502557,2.2779622997293556,1.0,0.3272340893455981,0.5051978541990271,0.06522004326231944,-0.2819265768324075,-3.14,3.14
91,0.26986929097265855,0.26882460607380637,0.023651712476003988,2.272691368623081,1.8130062555056419,2.05101712678411,2.2779623060433467,1.0,0.32723408599456616,0.5051978485388184,0.06522005172392993,-0.2819266158845125,-3.14,3.14
92,0.2698692924208472,0.2688246075312286,0.023651712438945708,2.272691376705751,1.8130062540494163,2.0510171278338944,2.277962311215468,1.0,0.3272340832495599,0.5051978439022513,0.06522005865527354,-0.2819266478741267,-3.14,3.14
93,0.2698692936071336,0.2688246087250751,0.0236517124086381,2.2726913833266895,1.8130062528565503,2.0510171286938252,2.277962315452225,1.0,0.3272340810009811,0.5051978401042011,0.06522006433309663,-0.2819266740784865,-3.14,3.14
94,0.2698692945788825,0.26882460970301486,0.023651712383832433,2.2726913887502467,1.8130062518794137,2.0510171293982373,2.277962318922774,1.0,0.3272340791590525,0.5051978369930225,0.06522006898409624,-0.28192669554384314,-3.14,3.14
95,0.2698692953748928,0.26882461050409423,0.023651712363514692,2.2726913931929644,1.8130062510789924,2.051017129975257,2.277962321765682,1.0,0.3272340776502322,0.5051978344444956,0.06522007279397153,-0.2819267131272352,-3.14,3.14
96,0.2698692960269465,0.26882461116029976,0.023651712346914988,2.2726913968322275,1.813006250423326,2.051017130447924,2.277962324094457,1.0,0.32723407641427854,0.5051978323568654,0.06522007591483843,-0.28192672753070785,-3.14,3.14
97,0.26986929656107717,0.26882461169783023,0.023651712333291587,2.272691399813337,1.8130062498862372,2.051017130835109,2.2779623260020783,1.0,0.32723407540184424,0.5051978306467796,0.06522007847130272,-0.2819267393293428,-3.14,3.14
98,0.26986929699861156,0.2688246121381494,0.023651712322156262,2.27269140225532,1.8130062494462797,2.0510171311522725,2.2779623275647105,1.0,0.3272340745725064,0.5051978292459597,0.0652200805654356,-0.2819267489942195,-3.14,3.14
99,0.2698692973570191,0.26882461249883755,0.02365171231303957,2.272691404255675,1.813006249085888,2.051017131412077,2.2779623288447444,1.0,0.3272340738931525,0.5051978280984754,0.06522008228084879,-0.28192675691122354,-3.14,3.14
100,0.269869297650609,0.2688246127942955,0.023651712305575334,2.2726914058942707,1.8130062487906728,2.051017131624896,2.277962329893287,1.0,0.32723407333665827,0.5051978271585115,0.06522008368603302,-0.28192676339645406,-3.14,3.14
101,0.26986929789110425,0.26882461303632077,0.023651712299463112,2.27269140723653,1.8130062485488465,2.0510171317992283,2.2779623307522026,1.0,0.3272340728808047,0.5051978263885382,0.06522008483709253,-0.2819267687088443,-3.14,3.14
102,0.2698692980881055,0.26882461323457546,0.0236517122944494,2.2726914083360445,1.8130062483507547,2.0510171319420314,2.277962331455785,1.0,0.3272340725073912,0.5051978257578132,0.06522008577998528,-0.2819267730604999,-3.14,3.14
103,0.2698692982494795,0.2688246133969765,0.02365171229034642,2.272691409236714,1.8130062481884872,2.0510171320590094,2.2779623320321263,1.0,0.3272340722015088,0.5051978252411535,0.06522008655235785,-0.28192677662516774,-3.14,3.14
104,0.26986929838167023,0.2688246135300077,0.023651712286985167,2.272691409974499,1.8130062480555653,2.0510171321548323,2.2779623325042375,1.0,0.3272340719509446,0.5051978248179307,0.06522008718504843,-0.2819267795451729,-3.14,3.14
105,0.2698692984899539,0.2688246136389802,0.02365171228422481,2.272691410578857,1.8130062479466824,2.0510171322333255,2.2779623328909686,1.0,0.32723407174569435,0.505197824471247,0.06522008770331827,-0.28192678193710136,-3.14,3.14
106,0.26986929857865466,0.2688246137282453,0.023651712281980843,2.2726914110739185,1.8130062478574906,2.051017132297624,2.27796233320776,1.0,0.3272340715775632,0.5051978241872601,0.06522008812786009,-0.28192678389645454,-3.14,3.14
107,0.26986929865131337,0.2688246138013661,0.023651712280121827,2.2726914114794505,1.81300624778443,2.0510171323502933,2.277962333467261,1.0,0.3272340714398381,0.5051978239546321,0.06522008847562441,-0.28192678550146283,-3.14,3.14
108,0.2698692987108331,0.2688246138612643,0.02365171227861959,2.2726914118116412,1.813006247724581,2.0510171323934383,2.277962333679831,1.0,0.3272340713270204,0.5051978237640741,0.06522008876049618,-0.28192678681620875,-3.14,3.14
109,0.2698692987595884,0.2688246139103299,0.023651712277380246,2.2726914120837556,1.8130062476755557,2.0510171324287803,2.2779623338539583,1.0,0.32723407123460563,0.5051978236079782,0.06522008899384954,-0.28192678789318565,-3.14,3.14
110,0.2698692987995259,0.26882461395052126,0.023651712276366237,2.2726914123066595,1.8130062476353974,2.05101713245773,2.2779623339965953,1.0,0.32723407115890357,0.505197823480112,0.06522008918500147,-0.28192678877539346,-3.14,3.14
111,0.26986929883224153,0.2688246139834451,0.02365171227554001,2.2726914124892517,1.8130062476025006,2.0510171324814452,2.277962334113437,1.0,0.32723407109689245,0.5051978233753697,0.06522008934158396,-0.28192678949805594,-3.14,3.14
112,0.2698692988590405,0.2688246140104144,0.023651712274864,2.272691412638823,1.8130062475755535,2.051017132500871,2.277962334209148,1.0,0.3272340710460957,0.5051978232895701,0.06522008946984884,-0.2819267900900264,-3.14,3.14
113,0.2698692988809935,0.2688246140325069,0.023651712274300664,2.2726914127613442,1.8130062475534792,2.051017132516784,2.2779623342875497,1.0,0.3272340710044856,0.505197823219287,0.06522008957491728,-0.2819267905749403,-3.14,3.14
114,0.26986929889897604,0.26882461405060376,0.023651712273840605,2.2726914128617075,1.8130062475353972,2.05101713252982,2.2779623343517725,1.0,0.32723407097040047,0.5051978231617145,0.06522008966098432,-0.28192679097215856,-3.14,3.14
115,0.2698692989137055,0.26882461406542696,0.023651712273465044,2.2726914129439204,1.8130062475205861,2.0510171325404976,2.277962334404381,1.0,0.3272340709424795,0.505197823114554,0.0652200897314863,-0.2819267912975406,-3.14,3.14
116,0.26986929892577194,0.26882461407757013,0.02365171227314582,2.2726914130112656,1.813006247508453,2.0510171325492443,2.2779623344474755,1.0,0.32723407091960804,0.5051978230759223,0.06522008978923821,-0.28192679156407807,-3.14,3.14
117,0.26986929893565614,0.2688246140875173,0.023651712272901707,2.272691413066432,1.813006247498514,2.051017132556409,2.277962334482776,1.0,0.32723407090087286,0.5051978230442772,0.06522008983654573,-0.2819267917824128,-3.14,3.14
118,0.2698692989437529,0.2688246140956652,0.02365171227269515,2.27269141311162,1.8130062474903728,2.051017132562278,2.277962334511692,1.0,0.3272340708855259,0.5051978230183549,0.06522008987529777,-0.28192679196126214,-3.14,3.14
119,0.26986929895038436,0.26882461410233915,0.023651712272535538,2.2726914131486367,1.8130062474837043,2.051017132567085,2.2779623345353794,1.0,0.3272340708729543,0.5051978229971209,0.06522008990704163,-0.2819267921077669,-3.14,3.14
120,0.2698692989558175,0.2688246141078069,0.023651712272394702,2.272691413178959,1.8130062474782411,2.0510171325710234,2.277962334554783,1.0,0.3272340708626563,0.5051978229797268,0.06522008993304466,-0.2819267922277766,-3.14,3.14
121,0.2698692989602681,0.26882461411228564,0.023651712272282036,2.2726914132037987,1.813006247473766,2.0510171325742497,2.2779623345706774,1.0,0.32723407085422085,0.5051978229654783,0.06522008995434513,-0.2819267923260829,-3.14,3.14
122,0.26986929896391343,0.2688246141159544,0.023651712272188145,2.2726914132241443,1.8130062474701003,2.051017132576892,2.277962334583697,1.0,0.3272340708473109,0.5051978229538066,0.0652200899717934,-0.2819267924066107,-3.14,3.14
123,0.2698692989669003,0.2688246141189604,0.023651712272103644,2.2726914132408114,1.8130062474670967,2.0510171325790574,2.277962334594362,1.0,0.32723407084165046,0.5051978229442456,0.06522008998608628,-0.2819267924725752,-3.14,3.14
124,0.2698692989693457,0.2688246141214211,0.02365171227204731,2.2726914132544644,1.813006247464638,2.0510171325808306,2.2779623346030986,1.0,0.32723407083701367,0.505197822936414,0.06522008999779422,-0.28192679252661007,-3.14,3.14
125,0.2698692989713497,0.26882461412343783,0.023651712271990977,2.2726914132656475,1.813006247462623,2.0510171325822824,2.277962334610255,1.0,0.32723407083321543,0.5051978229299988,0.06522009000738481,-0.28192679257087283,-3.14,3.14
126,0.2698692989729916,0.2688246141250901,0.02365171227195342,2.272691413274809,1.813006247460972,2.051017132583472,2.2779623346161175,1.0,0.3272340708301041,0.5051978229247436,0.06522009001524096,-0.2819267926071308,-3.14,3.14
127,0.269869298974336,0.26882461412644304,0.023651712271915863,2.2726914132823137,1.8130062474596202,2.0510171325844473,2.2779623346209195,1.0,0.3272340708275555,0.5051978229204385,0.06522009002167643,-0.2819267926368316,-3.14,3.14
128,0.26986929897543777,0.26882461412755193,0.023651712271897087,2.272691413288461,1.8130062474585122,2.0510171325852458,2.277962334624853,1.0,0.3272340708254679,0.5051978229169122,0.06522009002694801,-0.28192679266116116,-3.14,3.14
129,0.2698692989763398,0.2688246141284593,0.023651712271868918,2.2726914132934963,1.8130062474576056,2.0510171325859,2.2779623346280755,1.0,0.32723407082375766,0.5051978229140238,0.06522009003126618,-0.28192679268109067,-3.14,3.14
130,0.2698692989770784,0.26882461412920333,0.02365171227185953,2.2726914132976206,1.8130062474568622,2.051017132586435,2.277962334630715,1.0,0.32723407082235695,0.5051978229116575,0.06522009003480357,-0.28192679269741605,-3.14,3.14
131,0.2698692989776843,0.2688246141298127,0.023651712271831365,2.2726914133010006,1.8130062474562534,2.0510171325868742,2.2779623346328775,1.0,0.32723407082120937,0.5051978229097193,0.06522009003770109,-0.28192679271078896,-3.14,3.14
132,0.2698692989781798,0.26882461413031156,0.023651712271831365,2.2726914133037677,1.813006247455755,2.0510171325872335,2.277962334634648,1.0,0.3272340708202694,0.5051978229081318,0.06522009004007459,-0.2819267927217434,-3.14,3.14
133,0.26986929897858564,0.26882461413072,0.023651712271803196,2.2726914133060347,1.8130062474553468,2.051017132587528,2.277962334636099,1.0,0.32723407081949946,0.505197822906831,0.06522009004201894,-0.28192679273071686,-3.14,3.14
134,0.2698692989789189,0.26882461413105535,0.023651712271803196,2.2726914133078924,1.8130062474550117,2.051017132587769,2.2779623346372873,1.0,0.3272340708188687,0.5051978229057656,0.06522009004361166,-0.28192679273806737,-3.14,3.14
135,0.26986929897919126,0.26882461413132935,0.023651712271803196,2.2726914133094134,1.813006247454738,2.0510171325879667,2.2779623346382607,1.0,0.327234070818352,0.505197822904893,0.06522009004491627,-0.2819267927440886,-3.14,3.14
136,0.2698692989794141,0.2688246141315538,0.023651712271793808,2.272691413310659,1.8130062474545137,2.051017132588129,2.277962334639058,1.0,0.32723407081792866,0.5051978229041781,0.06522009004598497,-0.2819267927490209,-3.14,3.14
137,0.26986929897959755,0.2688246141317383,0.02365171227178442,2.27269141331168,1.8130062474543294,2.051017132588261,2.277962334639711,1.0,0.3272340708175819,0.5051978229035926,0.06522009004686034,-0.28192679275306115,-3.14,3.14
138,0.2698692989797473,0.26882461413188896,0.023651712271775028,2.272691413312517,1.8130062474541788,2.05101713258837,2.2779623346402467,1.0,0.3272340708172979,0.5051978229031129,0.06522009004757749,-0.2819267927563708,-3.14,3.14
139,0.2698692989798699,0.26882461413201203,0.023651712271775028,2.272691413313202,1.8130062474540558,2.0510171325884583,2.277962334640685,1.0,0.32723407081706524,0.5051978229027201,0.06522009004816486,-0.2819267927590818,-3.14,3.14
140,0.2698692989799708,0.26882461413211384,0.02365171227178442,2.272691413313762,1.8130062474539541,2.051017132588532,2.277962334641044,1.0,0.3272340708168748,0.505197822902398,0.06522009004864607,-0.28192679276130256,-3.14,3.14
141,0.26986929898005274,0.2688246141321965,0.02365171227178442,2.272691413314223,1.8130062474538715,2.0510171325885915,2.2779623346413382,1.0,0.3272340708167186,0.5051978229021344,0.06522009004904028,-0.2819267927631217,-3.14,3.14
142,0.2698692989801204,0.2688246141322645,0.023651712271775028,2.2726914133145995,1.8130062474538036,2.05101713258864,2.277962334641579,1.0,0.3272340708165908,0.5051978229019185,0.06522009004936313,-0.2819267927646119,-3.14,3.14
143,0.269869298980176,0.2688246141323203,0.023651712271775028,2.272691413314908,1.8130062474537478,2.0510171325886803,2.2779623346417766,1.0,0.3272340708164861,0.5051978229017413,0.06522009004962764,-0.2819267927658326,-3.14,3.14
144,0.2698692989802208,0.26882461413236564,0.02365171227176564,2.2726914133151603,1.8130062474537025,2.051017132588713,2.2779623346419378,1.0,0.3272340708164003,0.5051978229015963,0.06522009004984429,-0.2819267927668325,-3.14,3.14
145,0.2698692989802582,0.268824614132403,0.023651712271775028,2.272691413315367,1.8130062474536652,2.0510171325887403,2.2779623346420697,1.0,0.32723407081633,0.5051978229014776,0.06522009005002173,-0.28192679276765165,-3.14,3.14
146,0.26986929898028844,0.26882461413243364,0.02365171227176564,2.2726914133155356,1.8130062474536346,2.051017132588762,2.277962334642178,1.0,0.3272340708162725,0.5051978229013804,0.06522009005016717,-0.2819267927683226,-3.14,3.14
147,0.26986929898031337,0.26882461413245895,0.02365171227176564,2.2726914133156746,1.8130062474536093,2.05101713258878,2.2779623346422673,1.0,0.32723407081622535,0.5051978229013006,0.06522009005028631,-0.2819267927688723,-3.14,3.14
148,0.26986929898033446,0.2688246141324798,0.02365171227178442,2.272691413315789,1.8130062474535884,2.0510171325887954,2.2779623346423405,1.0,0.3272340708161868,0.5051978229012352,0.06522009005038389,-0.28192679276932253,-3.14,3.14
149,0.2698692989803507,0.2688246141324965,0.023651712271775028,2.2726914133158824,1.8130062474535718,2.0510171325888074,2.2779623346424005,1.0,0.3272340708161552,0.5051978229011818,0.06522009005046382,-0.28192679276969135,-3.14,3.14
150,0.2698692989803638,0.26882461413250963,0.02365171227176564,2.272691413315959,1.8130062474535587,2.051017132588817,2.2779623346424493,1.0,0.32723407081612915,0.5051978229011381,0.06522009005052921,-0.28192679276999344,-3.14,3.14
151,0.2698692989803757,0.2688246141325212,0.023651712271775028,2.272691413316021,1.813006247453547,2.051017132588825,2.2779623346424893,1.0,0.3272340708161079,0.5051978229011024,0.0652200900505828,-0.28192679277024085,-3.14,3.14
152,0.2698692989803842,0.26882461413252984,0.02365171227176564,2.2726914133160725,1.8130062474535384,2.051017132588832,2.277962334642522,1.0,0.3272340708160904,0.5051978229010731,0.06522009005062669,-0.2819267927704436,-3.14,3.14
153,0.26986929898039175,0.2688246141325374,0.02365171227176564,2.2726914133161147,1.813006247453531,2.051017132588837,2.277962334642549,1.0,0.3272340708160761,0.5051978229010491,0.06522009005066265,-0.2819267927706096,-3.14,3.14
154,0.2698692989803981,0.26882461413254427,0.023651712271775028,2.2726914133161484,1.813006247453524,2.0510171325888416,2.2779623346425706,1.0,0.3272340708160645,0.5051978229010292,0.0652200900506921,-0.2819267927707456,-3.14,3.14
155,0.26986929898040307,0.26882461413254916,0.023651712271775028,2.2726914133161764,1.8130062474535191,2.051017132588845,2.2779623346425883,1.0,0.32723407081605493,0.5051978229010131,0.06522009005071627,-0.281926792770857,-3.14,3.14
156,0.26986929898040735,0.2688246141325532,0.02365171227176564,2.2726914133161995,1.8130062474535151,2.051017132588848,2.277962334642603,1.0,0.327234070816047,0.505197822901,0.06522009005073606,-0.2819267927709483,-3.14,3.14
157,0.26986929898041107,0.2688246141325567,0.023651712271775028,2.2726914133162186,1.8130062474535116,2.051017132588851,2.2779623346426154,1.0,0.3272340708160408,0.505197822900989,0.0652200900507523,-0.2819267927710231,-3.14,3.14
158,0.26986929898041273,0.26882461413255876,0.02365171227176564,2.272691413316235,1.8130062474535096,2.0510171325888527,2.2779623346426257,1.0,0.3272340708160354,0.5051978229009803,0.06522009005076554,-0.2819267927710843,-3.14,3.14
159,0.2698692989804155,0.2688246141325616,0.02365171227176564,2.2726914133162475,1.8130062474535067,2.0510171325888544,2.2779623346426336,1.0,0.3272340708160311,0.5051978229009729,0.06522009005077638,-0.28192679277113447,-3.14,3.14
160,0.26986929898041767,0.2688246141325634,0.02365171227176564,2.272691413316257,1.813006247453505,2.0510171325888553,2.2779623346426403,1.0,0.3272340708160277,0.5051978229009669,0.06522009005078529,-0.2819267927711756,-3.14,3.14
161,0.2698692989804193,0.26882461413256536,0.02365171227176564,2.2726914133162666,1.813006247453503,2.051017132588857,2.277962334642646,1.0,0.3272340708160249,0.5051978229009617,0.06522009005079268,-0.2819267927712093,-3.14,3.14
162,0.2698692989804206,0.2688246141325665,0.02365171227176564,2.272691413316273,1.8130062474535018,2.051017132588858,2.27796233464265,1.0,0.32723407081602246,0.5051978229009579,0.06522009005079858,-0.2819267927712369,-3.14,3.14
163,0.26986929898042156,0.2688246141325674,0.02365171227176564,2.2726914133162786,1.813006247453501,2.051017132588858,2.2779623346426536,1.0,0.3272340708160204,0.5051978229009548,0.06522009005080348,-0.2819267927712594,-3.14,3.14
164,0.26986929898042233,0.2688246141325683,0.02365171227176564,2.2726914133162834,1.8130062474535,2.0510171325888598,2.2779623346426567,1.0,0.3272340708160189,0.5051978229009519,0.0652200900508075,-0.28192679277127797,-3.14,3.14
165,0.2698692989804233,0.268824614132569,0.02365171227176564,2.2726914133162865,1.8130062474534994,2.0510171325888593,2.277962334642659,1.0,0.3272340708160174,0.50519782290095,0.06522009005081073,-0.28192679277129307,-3.14,3.14
166,0.26986929898042405,0.26882461413256964,0.023651712271775028,2.27269141331629,1.8130062474534987,2.0510171325888598,2.277962334642661,1.0,0.3272340708160164,0.5051978229009481,0.06522009005081346,-0.2819267927713055,-3.14,3.14
167,0.26986929898042433,0.2688246141325703,0.02365171227176564,2.272691413316293,1.813006247453498,2.0510171325888606,2.277962334642663,1.0,0.3272340708160157,0.5051978229009465,0.06522009005081572,-0.2819267927713157,-3.14,3.14
168,0.2698692989804242,0.2688246141325703,0.023651712271775028,2.272691413316295,1.813006247453498,2.05101713258886,2.2779623346426643,1.0,0.3272340708160148,0.5051978229009454,0.06522009005081747,-0.281926792771324,-3.14,3.14
169,0.26986929898042494,0.26882461413257097,0.023651712271775028,2.2726914133162968,1.8130062474534974,2.0510171325888606,2.277962334642665,1.0,0.3272340708160143,0.5051978229009443,0.06522009005081891,-0.2819267927713308,-3.14,3.14
170,0.26986929898042455,0.2688246141325709,0.02365171227176564,2.272691413316298,1.8130062474534974,2.051017132588861,2.277962334642666,1.0,0.32723407081601386,0.5051978229009434,0.06522009005082016,-0.2819267927713364,-3.14,3.14
171,0.26986929898042517,0.26882461413257114,0.02365171227176564,2.272691413316299,1.8130062474534971,2.0510171325888615,2.2779623346426665,1.0,0.3272340708160134,0.5051978229009428,0.06522009005082116,-0.281926792771341,-3.14,3.14
172,0.26986929898042544,0.26882461413257114,0.023651712271775028,2.2726914133162994,1.8130062474534971,2.051017132588861,2.2779623346426674,1.0,0.3272340708160131,0.5051978229009425,0.065220090050822,-0.2819267927713447,-3.14,3.14
173,0.26986929898042533,0.26882461413257114,0.023651712271775028,2.272691413316301,1.8130062474534971,2.0510171325888615,2.2779623346426683,1.0,0.32723407081601286,0.505197822900942,0.06522009005082269,-0.28192679277134775,-3.14,3.14
174,0.2698692989804257,0.26882461413257164,0.02365171227176564,2.2726914133163016,1.8130062474534967,2.051017132588861,2.2779623346426687,1.0,0.3272340708160125,0.5051978229009417,0.06522009005082315,-0.28192679277135024,-3.14,3.14
175,0.26986929898042594,0.26882461413257186,0.02365171227176564,2.2726914133163025,1.8130062474534965,2.0510171325888615,2.277962334642669,1.0,0.3272340708160125,0.5051978229009412,0.06522009005082366,-0.28192679277135235,-3.14,3.14
176,0.26986929898042633,0.2688246141325721,0.02365171227175625,2.2726914133163025,1.8130062474534963,2.0510171325888615,2.277962334642669,1.0,0.32723407081601247,0.5051978229009408,0.06522009005082402,-0.28192679277135413,-3.14,3.14
177,0.2698692989804263,0.2688246141325723,0.02365171227176564,2.2726914133163025,1.813006247453496,2.0510171325888615,2.277962334642669,1.0,0.3272340708160123,0.5051978229009406,0.06522009005082431,-0.2819267927713555,-3.14,3.14
178,0.269869298980426,0.2688246141325721,0.02365171227176564,2.272691413316303,1.8130062474534963,2.0510171325888615,2.2779623346426696,1.0,0.3272340708160123,0.5051978229009404,0.06522009005082463,-0.2819267927713567,-3.14,3.14
179,0.26986929898042655,0.2688246141325725,0.02365171227175625,2.272691413316303,1.8130062474534958,2.051017132588862,2.2779623346426696,1.0,0.32723407081601225,0.5051978229009402,0.06522009005082484,-0.2819267927713576,-3.14,3.14
180,0.26986929898042616,0.2688246141325721,0.02365171227176564,2.2726914133163034,1.8130062474534963,2.0510171325888615,2.27796233464267,1.0,0.327234070816012,0.5051978229009403,0.065220090050825,-0.28192679277135835,-3.14,3.14
181,0.2698692989804263,0.2688246141325723,0.02365171227176564,2.272691413316304,1.813006247453496,2.0510171325888615,2.27796233464267,1.0,0.32723407081601197,0.5051978229009402,0.06522009005082509,-0.28192679277135896,-3.14,3.14
182,0.26986929898042616,0.2688246141325723,0.02365171227176564,2.272691413316304,1.813006247453496,2.0510171325888624,2.27796233464267,1.0,0.327234070816012,0.50519782290094,0.06522009005082521,-0.2819267927713595,-3.14,3.14
183,0.26986929898042605,0.26882461413257186,0.02365171227176564,2.272691413316304,1.8130062474534965,2.051017132588862,2.27796233464267,1.0,0.32723407081601175,0.5051978229009404,0.06522009005082528,-0.28192679277135985,-3.14,3.14
184,0.26986929898042605,0.26882461413257186,0.02365171227176564,2.272691413316304,1.8130062474534965,2.051017132588862,2.27796233464267,1.0,0.3272340708160117,0.5051978229009404,0.06522009005082532,-0.2819267927713602,-3.14,3.14
185,0.26986929898042605,0.26882461413257186,0.02365171227176564,2.272691413316304,1.8130062474534965,2.051017132588862,2.27796233464267,1.0,0.32723407081601164,0.5051978229009404,0.06522009005082534,-0.2819267927713604,-3.14,3.14
186,0.2698692989804261,0.26882461413257186,0.02365171227176564,2.272691413316304,1.8130062474534965,2.051017132588862,2.27796233464267,1.0,0.32723407081601164,0.5051978229009404,0.06522009005082537,-0.2819267927713606,-3.14,3.14
187,0.2698692989804256,0.26882461413257164,0.02365171227176564,2.272691413316304,1.8130062474534967,2.051017132588862,2.27796233464267,1.0,0.3272340708160116,0.5051978229009404,0.06522009005082541,-0.2819267927713608,-3.14,3.14
188,0.2698692989804254,0.26882461413257097,0.02365171227176564,2.272691413316304,1.8130062474534974,2.051017132588862,2.27796233464267,1.0,0.3272340708160114,0.5051978229009406,0.06522009005082538,-0.2819267927713609,-3.14,3.14
189,0.26986929898042555,0.2688246141325712,0.02365171227176564,2.272691413316304,1.8130062474534971,2.051017132588862,2.27796233464267,1.0,0.3272340708160114,0.5051978229009405,0.0652200900508254,-0.281926792771361,-3.14,3.14
190,0.2698692989804257,0.26882461413257164,0.02365171227176564,2.2726914133163043,1.8130062474534967,2.0510171325888624,2.2779623346426705,1.0,0.3272340708160115,0.5051978229009403,0.06522009005082548,-0.2819267927713611,-3.14,3.14
191,0.26986929898042533,0.26882461413257097,0.02365171227176564,2.272691413316304,1.8130062474534974,2.051017132588862,2.27796233464267,1.0,0.3272340708160114,0.5051978229009406,0.0652200900508254,-0.2819267927713612,-3.14,3.14
192,0.2698692989804254,0.2688246141325714,0.02365171227176564,2.272691413316304,1.813006247453497,2.051017132588862,2.27796233464267,1.0,0.32723407081601147,0.5051978229009405,0.06522009005082538,-0.28192679277136123,-3.14,3.14
193,0.2698692989804254,0.26882461413257097,0.02365171227176564,2.272691413316304,1.8130062474534974,2.051017132588862,2.27796233464267,1.0,0.3272340708160113,0.5051978229009407,0.06522009005082537,-0.28192679277136123,-3.14,3.14
194,0.26986929898042533,0.26882461413257097,0.02365171227176564,2.272691413316304,1.8130062474534974,2.051017132588862,2.27796233464267,1.0,0.32723407081601136,0.5051978229009406,0.0652200900508254,-0.2819267927713613,-3.14,3.14
195,0.2698692989804254,0.2688246141325714,0.02365171227176564,2.2726914133163043,1.813006247453497,2.051017132588862,2.2779623346426705,1.0,0.32723407081601147,0.5051978229009405,0.06522009005082544,-0.28192679277136135,-3.14,3.14
196,0.2698692989804254,0.2688246141325714,0.02365171227176564,2.2726914133163043,1.813006247453497,2.051017132588862,2.2779623346426705,1.0,0.32723407081601147,0.5051978229009405,0.06522009005082548,-0.28192679277136135,-3.14,3.14
197,0.26986929898042505,0.26882461413257097,0.02365171227176564,2.2726914133163043,1.8130062474534974,2.051017132588862,2.2779623346426705,1.0,0.3272340708160114,0.5051978229009406,0.06522009005082546,-0.2819267927713613,-3.14,3.14
198,0.26986929898042505,0.26882461413257097,0.02365171227176564,2.2726914133163043,1.8130062474534974,2.051017132588862,2.2779623346426705,1.0,0.32723407081601136,0.5051978229009407,0.06522009005082541,-0.28192679277136135,-3.14,3.14
199,0.2698692989804251,0.26882461413257097,0.02365171227176564,2.2726914133163043,1.8130062474534974,2.0510171325888615,2.2779623346426705,1.0,0.32723407081601136,0.5051978229009408,0.06522009005082541,-0.28192679277136135,-3.14,3.14
200,0.2698692989804253,0.26882461413257097,0.02365171227176564,2.2726914133163043,1.8130062474534974,2.051017132588862,2.2779623346426705,1.0,0.32723407081601136,0.5051978229009407,0.06522009005082544,-0.2819267927713614,-3.14,3.14
201,0.26986929898042505,0.26882461413257097,0.02365171227176564,2.2726914133163043,1.8130062474534974,2.051017132588862,2.2779623346426705,1.0,0.3272340708160114,0.5051978229009406,0.06522009005082544,-0.28192679277136146,-3.14,3.14
202,0.269869298980425,0.26882461413257097,0.02365171227176564,2.2726914133163043,1.8130062474534974,2.051017132588862,2.2779623346426705,1.0,0.3272340708160114,0.5051978229009406,0.06522009005082545,-0.28192679277136146,-3.14,3.14
203,0.26986929898042483,0.26882461413257075,0.02365171227176564,2.2726914133163043,1.8130062474534976,2.051017132588862,2.2779623346426705,1.0,0.32723407081601136,0.5051978229009407,0.06522009005082544,-0.28192679277136146,-3.14,3.14
204,0.2698692989804249,0.26882461413257075,0.02365171227176564,2.2726914133163043,1.8130062474534976,2.0510171325888615,2.2779623346426705,1.0,0.32723407081601136,0.5051978229009407,0.06522009005082546,-0.2819267927713615,-3.14,3.14
205,0.26986929898042544,0.2688246141325712,0.02365171227176564,2.2726914133163043,1.8130062474534971,2.051017132588862,2.2779623346426705,1.0,0.3272340708160114,0.5051978229009405,0.06522009005082546,-0.2819267927713615,-3.14,3.14
206,0.26986929898042544,0.2688246141325712,0.02365171227176564,2.2726914133163043,1.8130062474534971,2.051017132588862,2.2779623346426705,1.0,0.3272340708160114,0.5051978229009405,0.06522009005082548,-0.2819267927713615,-3.14,3.14
207,0.26986929898042544,0.2688246141325712,0.02365171227176564,2.2726914133163043,1.8130062474534971,2.051017132588862,2.2779623346426705,1.0,0.3272340708160114,0.5051978229009405,0.06522009005082546,-0.2819267927713615,-3.14,3.14
208,0.26986929898042544,0.2688246141325712,0.02365171227176564,2.2726914133163043,1.8130062474534971,2.051017132588862,2.2779623346426705,1.0,0.3272340708160114,0.5051978229009405,0.06522009005082548,-0.2819267927713615,-3.14,3.14
209,0.26986929898042544,0.2688246141325712,0.02365171227176564,2.2726914133163043,1.8130062474534971,2.051017132588862,2.2779623346426705,1.0,0.3272340708160114,0.5051978229009405,0.06522009005082546,-0.2819267927713615,-3.14,3.14
210,0.26986929898042544,0.2688246141325712,0.02365171227176564,2.2726914133163043,1.8130062474534971,2.051017132588862,2.2779623346426705,1.0,0.3272340708160114,0.5051978229009405,0.06522009005082548,-0.2819267927713615,-3.14,3.14
211,0.26986929898042544,0.2688246141325712,0.02365171227176564,2.2726914133163043,1.8130062474534971,2.051017132588862,2.2779623346426705,1.0,0.3272340708160114,0.5051978229009405,0.06522009005082546,-0.2819267927713615,-3.14,3.14
212,0.26986929898042544,0.2688246141325712,0.02365171227176564,2.2726914133163043,1.8130062474534971,2.051017132588862,2.2779623346426705,1.0,0.3272340708160114,0.5051978229009405,0.06522009005082548,-0.2819267927713615,-3.14,3.14
213,0.26986929898042544,0.2688246141325712,0.02365171227176564,2.2726914133163043,1.8130062474534971,2.051017132588862,2.2779623346426705,1.0,0.3272340708160114,0.5051978229009405,0.06522009005082546,-0.2819267927713615,-3.14,3.14
214,0.26986929898042544,0.2688246141325712,0.02365171227176564,2.2726914133163043,1.8130062474534971,2.051017132588862,2.2779623346426705,1.0,0.3272340708160114,0.5051978229009405,0.06522009005082548,-0.2819267927713615,-3.14,3.14
215,0.26986929898042544,0.2688246141325712,0.02365171227176564,2.2726914133163043,1.8130062474534971,2.051017132588862,2.2779623346426705,1.0,0.3272340708160114,0.5051978229009405,0.06522009005082546,-0.2819267927713615,-3.14,3.14
216,0.26986929898042544,0.2688246141325712,0.02365171227176564,2.2726914133163043,1.8130062474534971,2.051017132588862,2.2779623346426705,1.0,0.3272340708160114,0.5051978229009405,0.06522009005082548,-0.2819267927713615,-3.14,3.14
217,0.26986929898042544,0.2688246141325712,0.02365171227176564,2.2726914133163043,1.8130062474534971,2.051017132588862,2.2779623346426705,1.0,0.3272340708160114,0.5051978229009405,0.06522009005082546,-0.2819267927713615,-3.14,3.14
218,0.26986929898042544,0.2688246141325712,0.02365171227176564,2.2726914133163043,1.8130062474534971,2.051017132588862,2.2779623346426705,1.0,0.3272340708160114,0.5051978229009405,0.06522009005082548,-0.2819267927713615,-3.14,3.14
219,0.26986929898042544,0.2688246141325712,0.02365171227176564,2.2726914133163043,1.8130062474534971,2.051017132588862,2.2779623346426705,1.0,0.3272340708160114,0.5051978229009405,0.06522009005082546,-0.2819267927713615,-3.14,3.14
220,0.26986929898042544,0.2688246141325712,0.02365171227176564,2.2726914133163043,1.8130062474534971,2.051017132588862,2.2779623346426705,1.0,0.3272340708160114,0.5051978229009405,0.06522009005082548,-0.2819267927713615,-3.14,3.14
221,0.26986929898042544,0.2688246141325712,0.02365171227176564,2.2726914133163043,1.8130062474534971,2.051017132588862,2.2779623346426705,1.0,0.3272340708160114,0.5051978229009405,0.06522009005082546,-0.2819267927713615,-3.14,3.14
222,0.26986929898042544,0.2688246141325712,0.02365171227176564,2.2726914133163043,1.8130062474534971,2.051017132588862,2.2779623346426705,1.0,0.3272340708160114,0.5051978229009405,0.06522009005082548,-0.2819267927713615,-3.14,3.14
223,0.26986929898042544,0.2688246141325712,0.02365171227176564,2.2726914133163043,1.8130062474534971,2.051017132588862,2.2779623346426705,1.0,0.3272340708160114,0.5051978229009405,0.06522009005082546,-0.2819267927713615,-3.14,3.14
224,0.26986929898042544,0.2688246141325712,0.02365171227176564,2.2726914133163043,1.8130062474534971,2.051017132588862,2.2779623346426705,1.0,0.3272340708160114,0.5051978229009405,0.06522009005082548,-0.2819267927713615,-3.14,3.14
225,0.26986929898042544,0.2688246141325712,0.02365171227176564,2.2726914133163043,1.8130062474534971,2.051017132588862,2.2779623346426705,1.0,0.3272340708160114,0.5051978229009405,0.06522009005082546,-0.2819267927713615,-3.14,3.14
226,0.26986929898042544,0.2688246141325712,0.02365171227176564,2.2726914133163043,1.8130062474534971,2.051017132588862,2.2779623346426705,1.0,0.3272340708160114,0.5051978229009405,0.06522009005082548,-0.2819267927713615,-3.14,3.14
227,0.26986929898042544,0.2688246141325712,0.02365171227176564,2.2726914133163043,1.8130062474534971,2.051017132588862,2.2779623346426705,1.0,0.3272340708160114,0.5051978229009405,0.06522009005082546,-0.2819267927713615,-3.14,3.14
228,0.26986929898042544,0.2688246141325712,0.02365171227176564,2.2726914133163043,1.8130062474534971,2.051017132588862,2.2779623346426705,1.0,0.3272340708160114,0.5051978229009405,0.06522009005082548,-0.2819267927713615,-3.14,3.14
229,0.26986929898042544,0.2688246141325712,0.02365171227176564,2.2726914133163043,1.8130062474534971,2.051017132588862,2.2779623346426705,1.0,0.3272340708160114,0.5051978229009405,0.06522009005082546,-0.2819267927713615,-3.14,3.14
230,0.26986929898042544,0.2688246141325712,0.02365171227176564,2.2726914133163043,1.8130062474534971,2.051017132588862,2.2779623346426705,1.0,0.3272340708160114,0.5051978229009405,0.06522009005082548,-0.2819267927713615,-3.14,3.14
231,0.26986929898042544,0.2688246141325712,0.02365171227176564,2.2726914133163043,1.8130062474534971,2.051017132588862,2.2779623346426705,1.0,0.3272340708160114,0.5051978229009405,0.06522009005082546,-0.2819267927713615,-3.14,3.14
232,0.26986929898042544,0.2688246141325712,0.02365171227176564,2.2726914133163043,1.8130062474534971,2.051017132588862,2.2779623346426705,1.0,0.3272340708160114,0.5051978229009405,0.06522009005082548,-0.2819267927713615,-3.14,3.14
233,0.26986929898042544,0.2688246141325712,0.02365171227176564,2.2726914133163043,1.8130062474534971,2.051017132588862,2.2779623346426705,1.0,0.3272340708160114,0.5051978229009405,0.06522009005082546,-0.2819267927713615,-3.14,3.14
234,0.26986929898042544,0.2688246141325712,0.02365171227176564,2.2726914133163043,1.8130062474534971,2.051017132588862,2.2779623346426705,1.0,0.3272340708160114,0.5051978229009405,0.06522009005082548,-0.2819267927713615,-3.14,3.14
235,0.26986929898042544,0.2688246141325712,0.02365171227176564,2.2726914133163043,1.8130062474534971,2.051017132588862,2.2779623346426705,1.0,0.3272340708160114,0.5051978229009405,0.06522009005082546,-0.2819267927713615,-3.14,3.14
236,0.26986929898042544,0.2688246141325712,0.02365171227176564,2.2726914133163043,1.8130062474534971,2.051017132588862,2.2779623346426705,1.0,0.3272340708160114,0.5051978229009405,0.06522009005082548,-0.2819267927713615,-3.14,3.14
237,0.26986929898042544,0.2688246141325712,0.02365171227176564,2.2726914133163043,1.8130062474534971,2.051017132588862,2.2779623346426705,1.0,0.3272340708160114,0.5051978229009405,0.06522009005082546,-0.2819267927713615,-3.14,3.14
238,0.26986929898042544,0.2688246141325712,0.02365171227176564,2.2726914133163043,1.8130062474534971,2.051017132588862,2.2779623346426705,1.0,0.3272340708160114,0.5051978229009405,0.06522009005082548,-0.2819267927713615,-3.14,3.14
239,0.26986929898042544,0.2688246141325712,0.02365171227176564,2.2726914133163043,1.8130062474534971,2.051017132588862,2.2779623346426705,1.0,0.3272340708160114,0.5051978229009405,0.06522009005082546,-0.2819267927713615,-3.14,3.14
240,0.26986929898042544,0.2688246141325712,0.02365171227176564,2.2726914133163043,1.8130062474534971,2.051017132588862,2.2779623346426705,1.0,0.3272340708160114,0.5051978229009405,0.06522009005082548,-0.2819267927713615,-3.14,3.14
241,0.26986929898042544,0.2688246141325712,0.02365171227176564,2.2726914133163043,1.8130062474534971,2.051017132588862,2.2779623346426705,1.0,0.3272340708160114,0.5051978229009405,0.06522009005082546,-0.2819267927713615,-3.14,3.14
242,0.26986929898042544,0.2688246141325712,0.02365171227176564,2.2726914133163043,1.8130062474534971,2.051017132588862,2.2779623346426705,1.0,0.3272340708160114,0.5051978229009405,0.06522009005082548,-0.2819267927713615,-3.14,3.14
243,0.26986929898042544,0.2688246141325712,0.02365171227176564,2.2726914133163043,1.8130062474534971,2.051017132588862,2.2779623346426705,1.0,0.3272340708160114,0.5051978229009405,0.06522009005082546,-0.2819267927713615,-3.14,3.14
244,0.26986929898042544,0.2688246141325712,0.02365171227176564,2.2726914133163043,1.8130062474534971,2.051017132588862,2.2779623346426705,1.0,0.3272340708160114,0.5051978229009405,0.06522009005082548,-0.2819267927713615,-3.14,3.14
245,0.26986929898042544,0.2688246141325712,0.02365171227176564,2.2726914133163043,1.8130062474534971,2.051017132588862,2.2779623346426705,1.0,0.3272340708160114,0.5051978229009405,0.06522009005082546,-0.2819267927713615,-3.14,3.14
246,0.26986929898042544,0.2688246141325712,0.02365171227176564,2.2726914133163043,1.8130062474534971,2.051017132588862,2.2779623346426705,1.0,0.3272340708160114,0.5051978229009405,0.06522009005082548,-0.2819267927713615,-3.14,3.14
247,0.26986929898042544,0.2688246141325712,0.02365171227176564,2.2726914133163043,1.8130062474534971,2.051017132588862,2.2779623346426705,1.0,0.3272340708160114,0.5051978229009405,0.06522009005082546,-0.2819267927713615,-3.14,3.14
248,0.26986929898042544,0.2688246141325712,0.02365171227176564,2.2726914133163043,1.8130062474534971,2.051017132588862,2.2779623346426705,1.0,0.3272340708160114,0.5051978229009405,0.06522009005082548,-0.2819267927713615,-3.14,3.14
249,0.26986929898042544,0.2688246141325712,0.02365171227176564,2.2726914133163043,1.8130062474534971,2.051017132588862,2.2779623346426705,1.0,0.3272340708160114,0.5051978229009405,0.06522009005082546,-0.2819267927713615,-3.14,3.14
250,0.26986929898042544,0.2688246141325712,0.02365171227176564,2.2726914133163043,1.8130062474534971,2.051017132588862,2.2779623346426705,1.0,0.3272340708160114,0.5051978229009405,0.06522009005082548,-0.2819267927713615,-3.14,3.14
251,0.26986929898042544,0.2688246141325712,0.02365171227176564,2.2726914133163043,1.8130062474534971,2.051017132588862,2.2779623346426705,1.0,0.3272340708160114,0.5051978229009405,0.06522009005082546,-0.2819267927713615,-3.14,3.14
252,0.26986929898042544,0.2688246141325712,0.02365171227176564,2.2726914133163043,1.8130062474534971,2.051017132588862,2.2779623346426705,1.0,0.3272340708160114,0.5051978229009405,0.06522009005082548,-0.2819267927713615,-3.14,3.14
253,0.26986929898042544,0.2688246141325712,0.02365171227176564,2.2726914133163043,1.8130062474534971,2.051017132588862,2.2779623346426705,1.0,0.3272340708160114,0.5051978229009405,0.06522009005082546,-0.2819267927713615,-3.14,3.14
254,0.26986929898042544,0.2688246141325712,0.02365171227176564,2.2726914133163043,1.8130062474534971,2.051017132588862,2.2779623346426705,1.0,0.3272340708160114,0.5051978229009405,0.06522009005082548,-0.2819267927713615,-3.14,3.14
255,0.26986929898042544,0.2688246141325712,0.02365171227176564,2.2726914133163043,1.8130062474534971,2.051017132588862,2.2779623346426705,1.0,0.3272340708160114,0.5051978229009405,0.06522009005082546,-0.2819267927713615,-3.14,3.14
256,0.26986929898042544,0.2688246141325712,0.02365171227176564,2.2726914133163043,1.8130062474534971,2.051017132588862,2.2779623346426705,1.0,0.3272340708160114,0.5051978229009405,0.06522009005082548,-0.2819267927713615,-3.14,3.14
257,0.26986929898042544,0.2688246141325712,0.02365171227176564,2.2726914133163043,1.8130062474534971,2.051017132588862,2.2779623346426705,1.0,0.3272340708160114,0.5051978229009405,0.06522009005082546,-0.2819267927713615,-3.14,3.14
258,0.26986929898042544,0.2688246141325712,0.02365171227176564,2.2726914133163043,1.8130062474534971,2.051017132588862,2.2779623346426705,1.0,0.3272340708160114,0.5051978229009405,0.06522009005082548,-0.2819267927713615,-3.14,3.14
259,0.26986929898042544,0.2688246141325712,0.02365171227176564,2.2726914133163043,1.8130062474534971,2.051017132588862,2.2779623346426705,1.0,0.3272340708160114,0.5051978229009405,0.06522009005082546,-0.2819267927713615,-3.14,3.14
260,0.26986929898042544,0.2688246141325712,0.02365171227176564,2.2726914133163043,1.8130062474534971,2.051017132588862,2.2779623346426705,1.0,0.3272340708160114,0.5051978229009405,0.06522009005082548,-0.2819267927713615,-3.14,3.14
261,0.26986929898042544,0.2688246141325712,0.02365171227176564,2.2726914133163043,1.8130062474534971,2.051017132588862,2.2779623346426705,1.0,0.3272340708160114,0.5051978229009405,0.06522009005082546,-0.2819267927713615,-3.14,3.14
262,0.26986929898042544,0.2688246141325712,0.02365171227176564,2.2726914133163043,1.8130062474534971,2.051017132588862,2.2779623346426705,1.0,0.3272340708160114,0.5051978229009405,0.06522009005082548,-0.2819267927713615,-3.14,3.14
263,0.26986929898042544,0.2688246141325712,0.02365171227176564,2.2726914133163043,1.8130062474534971,2.051017132588862,2.2779623346426705,1.0,0.3272340708160114,0.5051978229009405,0.06522009005082546,-0.2819267927713615,-3.14,3.14
264,0.26986929898042544,0.2688246141325712,0.02365171227176564,2.2726914133163043,1.8130062474534971,2.051017132588862,2.2779623346426705,1.0,0.3272340708160114,0.5051978229009405,0.06522009005082548,-0.2819267927713615,-3.14,3.14
265,0.26986929898042544,0.2688246141325712,0.02365171227176564,2.2726914133163043,1.8130062474534971,2.051017132588862,2.2779623346426705,1.0,0.3272340708160114,0.5051978229009405,0.06522009005082546,-0.2819267927713615,-3.14,3.14
266,0.26986929898042544,0.2688246141325712,0.02365171227176564,2.2726914133163043,1.8130062474534971,2.051017132588862,2.2779623346426705,1.0,0.3272340708160114,0.5051978229009405,0.06522009005082548,-0.2819267927713615,-3.14,3.14
267,0.26986929898042544,0.2688246141325712,0.02365171227176564,2.2726914133163043,1.8130062474534971,2.051017132588862,2.2779623346426705,1.0,0.3272340708160114,0.5051978229009405,0.06522009005082546,-0.2819267927713615,-3.14,3.14
268,0.26986929898042544,0.2688246141325712,0.02365171227176564,2.2726914133163043,1.8130062474534971,2.051017132588862,2.2779623346426705,1.0,0.3272340708160114,0.5051978229009405,0.06522009005082548,-0.2819267927713615,-3.14,3.14
269,0.26986929898042544,0.2688246141325712,0.02365171227176564,2.2726914133163043,1.8130062474534971,2.051017132588862,2.2779623346426705,1.0,0.3272340708160114,0.5051978229009405,0.06522009005082546,-0.2819267927713615,-3.14,3.14
270,0.26986929898042544,0.2688246141325712,0.02365171227176564,2.2726914133163043,1.8130062474534971,2.051017132588862,2.2779623346426705,1.0,0.3272340708160114,0.5051978229009405,0.06522009005082548,-0.2819267927713615,-3.14,3.14
271,0.26986929898042544,0.2688246141325712,0.02365171227176564,2.2726914133163043,1.8130062474534971,2.051017132588862,2.2779623346426705,1.0,0.3272340708160114,0.5051978229009405,0.06522009005082546,-0.2819267927713615,-3.14,3.14
272,0.26986929898042544,0.2688246141325712,0.02365171227176564,2.2726914133163043,1.8130062474534971,2.051017132588862,2.2779623346426705,1.0,0.3272340708160114,0.5051978229009405,0.06522009005082548,-0.2819267927713615,-3.14,3.14
273,0.26986929898042544,0.2688246141325712,0.02365171227176564,2.2726914133163043,1.8130062474534971,2.051017132588862,2.2779623346426705,1.0,0.3272340708160114,0.5051978229009405,0.06522009005082546,-0.2819267927713615,-3.14,3.14
274,0.26986929898042544,0.2688246141325712,0.02365171227176564,2.2726914133163043,1.8130062474534971,2.051017132588862,2.2779623346426705,1.0,0.3272340708160114,0.5051978229009405,0.06522009005082548,-0.2819267927713615,-3.14,3.14
275,0.26986929898042544,0.2688246141325712,0.02365171227176564,2.2726914133163043,1.8130062474534971,2.051017132588862,2.2779623346426705,1.0,0.3272340708160114,0.5051978229009405,0.06522009005082546,-0.2819267927713615,-3.14,3.14
276,0.26986929898042544,0.2688246141325712,0.02365171227176564,2.2726914133163043,1.8130062474534971,2.051017132588862,2.2779623346426705,1.0,0.3272340708160114,0.5051978229009405,0.06522009005082548,-0.2819267927713615,-3.14,3.14
277,0.26986929898042544,0.2688246141325712,0.02365171227176564,2.2726914133163043,1.8130062474534971,2.051017132588862,2.2779623346426705,1.0,0.3272340708160114,0.5051978229009405,0.06522009005082546,-0.2819267927713615,-3.14,3.14
278,0.26986929898042544,0.2688246141325712,0.02365171227176564,2.2726914133163043,1.8130062474534971,2.051017132588862,2.2779623346426705,1.0,0.3272340708160114,0.5051978229009405,0.06522009005082548,-0.2819267927713615,-3.14,3.14
279,0.26986929898042544,0.2688246141325712,0.02365171227176564,2.2726914133163043,1.8130062474534971,2.051017132588862,2.2779623346426705,1.0,0.3272340708160114,0.5051978229009405,0.06522009005082546,-0.2819267927713615,-3.14,3.14
280,0.26986929898042544,0.2688246141325712,0.02365171227176564,2.2726914133163043,1.8130062474534971,2.051017132588862,2.2779623346426705,1.0,0.3272340708160114,0.5051978229009405,0.06522009005082548,-0.2819267927713615,-3.14,3.14
281,0.26986929898042544,0.2688246141325712,0.02365171227176564,2.2726914133163043,1.8130062474534971,2.051017132588862,2.2779623346426705,1.0,0.3272340708160114,0.5051978229009405,0.06522009005082546,-0.2819267927713615,-3.14,3.14
282,0.26986929898042544,0.2688246141325712,0.02365171227176564,2.2726914133163043,1.8130062474534971,2.051017132588862,2.2779623346426705,1.0,0.3272340708160114,0.5051978229009405,0.06522009005082548,-0.2819267927713615,-3.14,3.14
283,0.26986929898042544,0.2688246141325712,0.02365171227176564,2.2726914133163043,1.8130062474534971,2.051017132588862,2.2779623346426705,1.0,0.3272340708160114,0.5051978229009405,0.06522009005082546,-0.2819267927713615,-3.14,3.14
284,0.26986929898042544,0.2688246141325712,0.02365171227176564,2.2726914133163043,1.8130062474534971,2.051017132588862,2.2779623346426705,1.0,0.3272340708160114,0.5051978229009405,0.06522009005082548,-0.2819267927713615,-3.14,3.14
285,0.26986929898042544,0.2688246141325712,0.02365171227176564,2.2726914133163043,1.8130062474534971,2.051017132588862,2.2779623346426705,1.0,0.3272340708160114,0.5051978229009405,0.06522009005082546,-0.2819267927713615,-3.14,3.14
286,0.26986929898042544,0.2688246141325712,0.02365171227176564,2.2726914133163043,1.8130062474534971,2.051017132588862,2.2779623346426705,1.0,0.3272340708160114,0.5051978229009405,0.06522009005082548,-0.2819267927713615,-3.14,3.14
287,0.26986929898042544,0.2688246141325712,0.02365171227176564,2.2726914133163043,1.8130062474534971,2.051017132588862,2.2779623346426705,1.0,0.3272340708160114,0.5051978229009405,0.06522009005082546,-0.2819267927713615,-3.14,3.14
288,0.26986929898042544,0.2688246141325712,0.02365171227176564,2.2726914133163043,1.8130062474534971,2.051017132588862,2.2779623346426705,1.0,0.3272340708160114,0.5051978229009405,0.06522009005082548,-0.2819267927713615,-3.14,3.14
289,0.26986929898042544,0.2688246141325712,0.02365171227176564,2.2726914133163043,1.8130062474534971,2.051017132588862,2.2779623346426705,1.0,0.3272340708160114,0.5051978229009405,0.06522009005082546,-0.2819267927713615,-3.14,3.14
290,0.26986929898042544,0.2688246141325712,0.02365171227176564,2.2726914133163043,1.8130062474534971,2.051017132588862,2.2779623346426705,1.0,0.3272340708160114,0.5051978229009405,0.06522009005082548,-0.2819267927713615,-3.14,3.14
291,0.26986929898042544,0.2688246141325712,0.02365171227176564,2.2726914133163043,1.8130062474534971,2.051017132588862,2.2779623346426705,1.0,0.3272340708160114,0.5051978229009405,0.06522009005082546,-0.2819267927713615,-3.14,3.14
292,0.26986929898042544,0.2688246141325712,0.02365171227176564,2.2726914133163043,1.8130062474534971,2.051017132588862,2.2779623346426705,1.0,0.3272340708160114,0.5051978229009405,0.06522009005082548,-0.2819267927713615,-3.14,3.14
293,0.26986929898042544,0.2688246141325712,0.02365171227176564,2.2726914133163043,1.8130062474534971,2.051017132588862,2.2779623346426705,1.0,0.3272340708160114,0.5051978229009405,0.06522009005082546,-0.2819267927713615,-3.14,3.14
294,0.26986929898042544,0.2688246141325712,0.02365171227176564,2.2726914133163043,1.8130062474534971,2.051017132588862,2.2779623346426705,1.0,0.3272340708160114,0.5051978229009405,0.06522009005082548,-0.2819267927713615,-3.14,3.14
295,0.26986929898042544,0.2688246141325712,0.02365171227176564,2.2726914133163043,1.8130062474534971,2.051017132588862,2.2779623346426705,1.0,0.3272340708160114,0.5051978229009405,0.06522009005082546,-0.2819267927713615,-3.14,3.14
296,0.26986929898042544,0.2688246141325712,0.02365171227176564,2.2726914133163043,1.8130062474534971,2.051017132588862,2.2779623346426705,1.0,0.3272340708160114,0.5051978229009405,0.06522009005082548,-0.2819267927713615,-3.14,3.14
297,0.26986929898042544,0.2688246141325712,0.02365171227176564,2.2726914133163043,1.8130062474534971,2.051017132588862,2.2779623346426705,1.0,0.3272340708160114,0.5051978229009405,0.06522009005082546,-0.2819267927713615,-3.14,3.14
298,0.26986929898042544,0.2688246141325712,0.02365171227176564,2.2726914133163043,1.8130062474534971,2.051017132588862,2.2779623346426705,1.0,0.3272340708160114,0.5051978229009405,0.06522009005082548,-0.2819267927713615,-3.14,3.14
299,0.26986929898042544,0.2688246141325712,0.02365171227176564,2.2726914133163043,1.8130062474534971,2.051017132588862,2.2779623346426705,1.0,0.3272340708160114,0.5051978229009405,0.06522009005082546,-0.2819267927713615,-3.14,3.14
300,0.26986929898042544,0.2688246141325712,0.02365171227176564,2.2726914133163043,1.8130062474534971,2.051017132588862,2.2779623346426705,1.0,0.3272340708160114,0.5051978229009405,0.06522009005082548,-0.2819267927713615,-3.14,3.14
301,0.26986929898042544,0.2688246141325712,0.02365171227176564,2.2726914133163043,1.8130062474534971,2.051017132588862,2.2779623346426705,1.0,0.3272340708160114,0.5051978229009405,0.06522009005082546,-0.2819267927713615,-3.14,3.14
302,0.26986929898042544,0.2688246141325712,0.02365171227176564,2.2726914133163043,1.8130062474534971,2.051017132588862,2.2779623346426705,1.0,0.3272340708160114,0.5051978229009405,0.06522009005082548,-0.2819267927713615,-3.14,3.14
303,0.26986929898042544,0.2688246141325712,0.02365171227176564,2.2726914133163043,1.8130062474534971,2.051017132588862,2.2779623346426705,1.0,0.3272340708160114,0.5051978229009405,0.06522009005082546,-0.2819267927713615,-3.14,3.14
304,0.26986929898042544,0.2688246141325712,0.02365171227176564,2.2726914133163043,1.8130062474534971,2.051017132588862,2.2779623346426705,1.0,0.3272340708160114,0.5051978229009405,0.06522009005082548,-0.2819267927713615,-3.14,3.14
305,0.26986929898042544,0.2688246141325712,0.02365171227176564,2.2726914133163043,1.8130062474534971,2.051017132588862,2.2779623346426705,1.0,0.3272340708160114,0.5051978229009405,0.06522009005082546,-0.2819267927713615,-3.14,3.14
306,0.26986929898042544,0.2688246141325712,0.02365171227176564,2.2726914133163043,1.8130062474534971,2.051017132588862,2.2779623346426705,1.0,0.3272340708160114,0.5051978229009405,0.06522009005082548,-0.2819267927713615,-3.14,3.14
307,0.26986929898042544,0.2688246141325712,0.02365171227176564,2.2726914133163043,1.8130062474534971,2.051017132588862,2.2779623346426705,1.0,0.3272340708160114,0.5051978229009405,0.06522009005082546,-0.2819267927713615,-3.14,3.14
308,0.26986929898042544,0.2688246141325712,0.02365171227176564,2.2726914133163043,1.8130062474534971,2.051017132588862,2.2779623346426705,1.0,0.3272340708160114,0.5051978229009405,0.06522009005082548,-0.2819267927713615,-3.14,3.14
309,0.26986929898042544,0.2688246141325712,0.02365171227176564,2.2726914133163043,1.8130062474534971,2.051017132588862,2.2779623346426705,1.0,0.3272340708160114,0.5051978229009405,0.06522009005082546,-0.2819267927713615,-3.14,3.14
310,0.26986929898042544,0.2688246141325712,0.02365171227176564,2.2726914133163043,1.8130062474534971,2.051017132588862,2.2779623346426705,1.0,0.3272340708160114,0.5051978229009405,0.06522009005082548,-0.2819267927713615,-3.14,3.14
311,0.26986929898042544,0.2688246141325712,0.02365171227176564,2.2726914133163043,1.8130062474534971,2.051017132588862,2.2779623346426705,1.0,0.3272340708160114,0.5051978229009405,0.06522009005082546,-0.2819267927713615,-3.14,3.14
312,0.26986929898042544,0.2688246141325712,0.02365171227176564,2.2726914133163043,1.8130062474534971,2.051017132588862,2.2779623346426705,1.0,0.3272340708160114,0.5051978229009405,0.06522009005082548,-0.2819267927713615,-3.14,3.14
313,0.26986929898042544,0.2688246141325712,0.02365171227176564,2.2726914133163043,1.8130062474534971,2.051017132588862,2.2779623346426705,1.0,0.3272340708160114,0.5051978229009405,0.06522009005082546,-0.2819267927713615,-3.14,3.14
314,0.26986929898042544,0.2688246141325712,0.02365171227176564,2.2726914133163043,1.8130062474534971,2.051017132588862,2.2779623346426705,1.0,0.3272340708160114,0.5051978229009405,0.06522009005082548,-0.2819267927713615,-3.14,3.14
315,0.26986929898042544,0.2688246141325712,0.02365171227176564,2.2726914133163043,1.8130062474534971,2.051017132588862,2.2779623346426705,1.0,0.3272340708160114,0.5051978229009405,0.06522009005082546,-0.2819267927713615,-3.14,3.14
316,0.26986929898042544,0.2688246141325712,0.02365171227176564,2.2726914133163043,1.8130062474534971,2.051017132588862,2.2779623346426705,1.0,0.3272340708160114,0.5051978229009405,0.06522009005082548,-0.2819267927713615,-3.14,3.14
317,0.26986929898042544,0.2688246141325712,0.02365171227176564,2.2726914133163043,1.8130062474534971,2.051017132588862,2.2779623346426705,1.0,0.3272340708160114,0.5051978229009405,0.06522009005082546,-0.2819267927713615,-3.14,3.14
318,0.26986929898042544,0.2688246141325712,0.02365171227176564,2.2726914133163043,1.8130062474534971,2.051017132588862,2.2779623346426705,1.0,0.3272340708160114,0.5051978229009405,0.06522009005082548,-0.2819267927713615,-3.14,3.14
319,0.26986929898042544,0.2688246141325712,0.02365171227176564,2.2726914133163043,1.8130062474534971,2.051017132588862,2.2779623346426705,1.0,0.3272340708160114,0.5051978229009405,0.06522009005082546,-0.2819267927713615,-3.14,3.14
320,0.26986929898042544,0.2688246141325712,0.02365171227176564,2.2726914133163043,1.8130062474534971,2.051017132588862,2.2779623346426705,1.0,0.3272340708160114,0.5051978229009405,0.06522009005082548,-0.2819267927713615,-3.14,3.14
321,0.26986929898042544,0.2688246141325712,0.02365171227176564,2.2726914133163043,1.8130062474534971,2.051017132588862,2.2779623346426705,1.0,0.3272340708160114,0.5051978229009405,0.06522009005082546,-0.2819267927713615,-3.14,3.14
322,0.26986929898042544,0.2688246141325712,0.02365171227176564,2.2726914133163043,1.8130062474534971,2.051017132588862,2.2779623346426705,1.0,0.3272340708160114,0.5051978229009405,0.06522009005082548,-0.2819267927713615,-3.14,3.14
323,0.26986929898042544,0.2688246141325712,0.02365171227176564,2.2726914133163043,1.8130062474534971,2.051017132588862,2.2779623346426705,1.0,0.3272340708160114,0.5051978229009405,0.06522009005082546,-0.2819267927713615,-3.14,3.14
324,0.26986929898042544,0.2688246141325712,0.02365171227176564,2.2726914133163043,1.8130062474534971,2.051017132588862,2.2779623346426705,1.0,0.3272340708160114,0.5051978229009405,0.06522009005082548,-0.2819267927713615,-3.14,3.14
325,0.26986929898042544,0.2688246141325712,0.02365171227176564,2.2726914133163043,1.8130062474534971,2.051017132588862,2.2779623346426705,1.0,0.3272340708160114,0.5051978229009405,0.06522009005082546,-0.2819267927713615,-3.14,3.14
326,0.26986929898042544,0.2688246141325712,0.02365171227176564,2.2726914133163043,1.8130062474534971,2.051017132588862,2.2779623346426705,1.0,0.3272340708160114,0.5051978229009405,0.06522009005082548,-0.2819267927713615,-3.14,3.14
327,0.26986929898042544,0.2688246141325712,0.02365171227176564,2.2726914133163043,1.8130062474534971,2.051017132588862,2.2779623346426705,1.0,0.3272340708160114,0.5051978229009405,0.06522009005082546,-0.2819267927713615,-3.14,3.14
328,0.26986929898042544,0.2688246141325712,0.02365171227176564,2.2726914133163043,1.8130062474534971,2.051017132588862,2.2779623346426705,1.0,0.3272340708160114,0.5051978229009405,0.06522009005082548,-0.2819267927713615,-3.14,3.14
329,0.26986929898042544,0.2688246141325712,0.02365171227176564,2.2726914133163043,1.8130062474534971,2.051017132588862,2.2779623346426705,1.0,0.3272340708160114,0.5051978229009405,0.06522009005082546,-0.2819267927713615,-3.14,3.14
330,0.26986929898042544,0.2688246141325712,0.02365171227176564,2.2726914133163043,1.8130062474534971,2.051017132588862,2.2779623346426705,1.0,0.3272340708160114,0.5051978229009405,0.06522009005082548,-0.2819267927713615,-3.14,3.14
331,0.26986929898042544,0.2688246141325712,0.02365171227176564,2.2726914133163043,1.8130062474534971,2.051017132588862,2.2779623346426705,1.0,0.3272340708160114,0.5051978229009405,0.06522009005082546,-0.2819267927713615,-3.14,3.14
332,0.26986929898042544,0.2688246141325712,0.02365171227176564,2.2726914133163043,1.8130062474534971,2.051017132588862,2.2779623346426705,1.0,0.3272340708160114,0.5051978229009405,0.06522009005082548,-0.2819267927713615,-3.14,3.14
333,0.26986929898042544,0.2688246141325712,0.02365171227176564,2.2726914133163043,1.8130062474534971,2.051017132588862,2.2779623346426705,1.0,0.3272340708160114,0.5051978229009405,0.06522009005082546,-0.2819267927713615,-3.14,3.14
334,0.26986929898042544,0.2688246141325712,0.02365171227176564,2.2726914133163043,1.8130062474534971,2.051017132588862,2.2779623346426705,1.0,0.3272340708160114,0.5051978229009405,0.06522009005082548,-0.2819267927713615,-3.14,3.14
335,0.26986929898042544,0.2688246141325712,0.02365171227176564,2.2726914133163043,1.8130062474534971,2.051017132588862,2.2779623346426705,1.0,0.3272340708160114,0.5051978229009405,0.06522009005082546,-0.2819267927713615,-3.14,3.14
336,0.26986929898042544,0.2688246141325712,0.02365171227176564,2.2726914133163043,1.8130062474534971,2.051017132588862,2.2779623346426705,1.0,0.3272340708160114,0.5051978229009405,0.06522009005082548,-0.2819267927713615,-3.14,3.14
337,0.26986929898042544,0.2688246141325712,0.02365171227176564,2.2726914133163043,1.8130062474534971,2.051017132588862,2.2779623346426705,1.0,0.3272340708160114,0.5051978229009405,0.06522009005082546,-0.2819267927713615,-3.14,3.14
338,0.26986929898042544,0.2688246141325712,0.02365171227176564,2.2726914133163043,1.8130062474534971,2.051017132588862,2.2779623346426705,1.0,0.3272340708160114,0.5051978229009405,0.06522009005082548,-0.2819267927713615,-3.14,3.14
339,0.26986929898042544,0.2688246141325712,0.02365171227176564,2.2726914133163043,1.8130062474534971,2.051017132588862,2.2779623346426705,1.0,0.3272340708160114,0.5051978229009405,0.06522009005082546,-0.2819267927713615,-3.14,3.14
340,0.26986929898042544,0.2688246141325712,0.02365171227176564,2.2726914133163043,1.8130062474534971,2.051017132588862,2.2779623346426705,1.0,0.3272340708160114,0.5051978229009405,0.06522009005082548,-0.2819267927713615,-3.14,3.14
341,0.26986929898042544,0.2688246141325712,0.02365171227176564,2.2726914133163043,1.8130062474534971,2.051017132588862,2.2779623346426705,1.0,0.3272340708160114,0.5051978229009405,0.06522009005082546,-0.2819267927713615,-3.14,3.14
342,0.26986929898042544,0.2688246141325712,0.02365171227176564,2.2726914133163043,1.8130062474534971,2.051017132588862,2.2779623346426705,1.0,0.3272340708160114,0.5051978229009405,0.06522009005082548,-0.2819267927713615,-3.14,3.14
343,0.26986929898042544,0.2688246141325712,0.02365171227176564,2.2726914133163043,1.8130062474534971,2.051017132588862,2.2779623346426705,1.0,0.3272340708160114,0.5051978229009405,0.06522009005082546,-0.2819267927713615,-3.14,3.14
344,0.26986929898042544,0.2688246141325712,0.02365171227176564,2.2726914133163043,1.8130062474534971,2.051017132588862,2.2779623346426705,1.0,0.3272340708160114,0.5051978229009405,0.06522009005082548,-0.2819267927713615,-3.14,3.14
345,0.26986929898042544,0.2688246141325712,0.02365171227176564,2.2726914133163043,1.8130062474534971,2.051017132588862,2.2779623346426705,1.0,0.3272340708160114,0.5051978229009405,0.06522009005082546,-0.2819267927713615,-3.14,3.14
346,0.26986929898042544,0.2688246141325712,0.02365171227176564,2.2726914133163043,1.8130062474534971,2.051017132588862,2.2779623346426705,1.0,0.3272340708160114,0.5051978229009405,0.06522009005082548,-0.2819267927713615,-3.14,3.14
347,0.26986929898042544,0.2688246141325712,0.02365171227176564,2.2726914133163043,1.8130062474534971,2.051017132588862,2.2779623346426705,1.0,0.3272340708160114,0.5051978229009405,0.06522009005082546,-0.2819267927713615,-3.14,3.14
348,0.26986929898042544,0.2688246141325712,0.02365171227176564,2.2726914133163043,1.8130062474534971,2.051017132588862,2.2779623346426705,1.0,0.3272340708160114,0.5051978229009405,0.06522009005082548,-0.2819267927713615,-3.14,3.14
349,0.26986929898042544,0.2688246141325712,0.02365171227176564,2.2726914133163043,1.8130062474534971,2.051017132588862,2.2779623346426705,1.0,0.3272340708160114,0.5051978229009405,0.06522009005082546,-0.2819267927713615,-3.14,3.14
350,0.26986929898042544,0.2688246141325712,0.02365171227176564,2.2726914133163043,1.8130062474534971,2.051017132588862,2.2779623346426705,1.0,0.3272340708160114,0.5051978229009405,0.06522009005082548,-0.2819267927713615,-3.14,3.14
351,0.26986929898042544,0.2688246141325712,0.02365171227176564,2.2726914133163043,1.8130062474534971,2.051017132588862,2.2779623346426705,1.0,0.3272340708160114,0.5051978229009405,0.06522009005082546,-0.2819267927713615,-3.14,3.14
352,0.26986929898042544,0.2688246141325712,0.02365171227176564,2.2726914133163043,1.8130062474534971,2.051017132588862,2.2779623346426705,1.0,0.3272340708160114,0.5051978229009405,0.06522009005082548,-0.2819267927713615,-3.14,3.14
353,0.26986929898042544,0.2688246141325712,0.02365171227176564,2.2726914133163043,1.8130062474534971,2.051017132588862,2.2779623346426705,1.0,0.3272340708160114,0.5051978229009405,0.06522009005082546,-0.2819267927713615,-3.14,3.14
354,0.26986929898042544,0.2688246141325712,0.02365171227176564,2.2726914133163043,1.8130062474534971,2.051017132588862,2.2779623346426705,1.0,0.3272340708160114,0.5051978229009405,0.06522009005082548,-0.2819267927713615,-3.14,3.14
355,0.26986929898042544,0.2688246141325712,0.02365171227176564,2.2726914133163043,1.8130062474534971,2.051017132588862,2.2779623346426705,1.0,0.3272340708160114,0.5051978229009405,0.06522009005082546,-0.2819267927713615,-3.14,3.14
356,0.26986929898042544,0.2688246141325712,0.02365171227176564,2.2726914133163043,1.8130062474534971,2.051017132588862,2.2779623346426705,1.0,0.3272340708160114,0.5051978229009405,0.06522009005082548,-0.2819267927713615,-3.14,3.14
357,0.26986929898042544,0.2688246141325712,0.02365171227176564,2.2726914133163043,1.8130062474534971,2.051017132588862,2.2779623346426705,1.0,0.3272340708160114,0.5051978229009405,0.06522009005082546,-0.2819267927713615,-3.14,3.14
358,0.26986929898042544,0.2688246141325712,0.02365171227176564,2.2726914133163043,1.8130062474534971,2.051017132588862,2.2779623346426705,1.0,0.3272340708160114,0.5051978229009405,0.06522009005082548,-0.2819267927713615,-3.14,3.14
359,0.26986929898042544,0.2688246141325712,0.02365171227176564,2.2726914133163043,1.8130062474534971,2.051017132588862,2.2779623346426705,1.0,0.3272340708160114,0.5051978229009405,0.06522009005082546,-0.2819267927713615,-3.14,3.14
360,0.26986929898042544,0.2688246141325712,0.02365171227176564,2.2726914133163043,1.8130062474534971,2.051017132588862,2.2779623346426705,1.0,0.3272340708160114,0.5051978229009405,0.06522009005082548,-0.2819267927713615,-3.14,3.14
361,0.26986929898042544,0.2688246141325712,0.02365171227176564,2.2726914133163043,1.8130062474534971,2.051017132588862,2.2779623346426705,1.0,0.3272340708160114,0.5051978229009405,0.06522009005082546,-0.2819267927713615,-3.14,3.14
362,0.26986929898042544,0.2688246141325712,0.02365171227176564,2.2726914133163043,1.8130062474534971,2.051017132588862,2.2779623346426705,1.0,0.3272340708160114,0.5051978229009405,0.06522009005082548,-0.2819267927713615,-3.14,3.14
363,0.26986929898042544,0.2688246141325712,0.02365171227176564,2.2726914133163043,1.8130062474534971,2.051017132588862,2.2779623346426705,1.0,0.3272340708160114,0.5051978229009405,0.06522009005082546,-0.2819267927713615,-3.14,3.14
364,0.26986929898042544,0.2688246141325712,0.02365171227176564,2.2726914133163043,1.8130062474534971,2.051017132588862,2.2779623346426705,1.0,0.3272340708160114,0.5051978229009405,0.06522009005082548,-0.2819267927713615,-3.14,3.14
365,0.26986929898042544,0.2688246141325712,0.02365171227176564,2.2726914133163043,1.8130062474534971,2.051017132588862,2.2779623346426705,1.0,0.3272340708160114,0.5051978229009405,0.06522009005082546,-0.2819267927713615,-3.14,3.14
366,0.26986929898042544,0.2688246141325712,0.02365171227176564,2.2726914133163043,1.8130062474534971,2.051017132588862,2.2779623346426705,1.0,0.3272340708160114,0.5051978229009405,0.06522009005082548,-0.2819267927713615,-3.14,3.14
367,0.26986929898042544,0.2688246141325712,0.02365171227176564,2.2726914133163043,1.8130062474534971,2.051017132588862,2.2779623346426705,1.0,0.3272340708160114,0.5051978229009405,0.06522009005082546,-0.2819267927713615,-3.14,3.14
368,0.26986929898042544,0.2688246141325712,0.02365171227176564,2.2726914133163043,1.8130062474534971,2.051017132588862,2.2779623346426705,1.0,0.3272340708160114,0.5051978229009405,0.06522009005082548,-0.2819267927713615,-3.14,3.14
369,0.26986929898042544,0.2688246141325712,0.02365171227176564,2.2726914133163043,1.8130062474534971,2.051017132588862,2.2779623346426705,1.0,0.3272340708160114,0.5051978229009405,0.06522009005082546,-0.2819267927713615,-3.14,3.14
370,0.26986929898042544,0.2688246141325712,0.02365171227176564,2.2726914133163043,1.8130062474534971,2.051017132588862,2.2779623346426705,1.0,0.3272340708160114,0.5051978229009405,0.06522009005082548,-0.2819267927713615,-3.14,3.14
371,0.26986929898042544,0.2688246141325712,0.02365171227176564,2.2726914133163043,1.8130062474534971,2.051017132588862,2.2779623346426705,1.0,0.3272340708160114,0.5051978229009405,0.06522009005082546,-0.2819267927713615,-3.14,3.14
372,0.26986929898042544,0.2688246141325712,0.02365171227176564,2.2726914133163043,1.8130062474534971,2.051017132588862,2.2779623346426705,1.0,0.3272340708160114,0.5051978229009405,0.06522009005082548,-0.2819267927713615,-3.14,3.14
373,0.26986929898042544,0.2688246141325712,0.02365171227176564,2.2726914133163043,1.8130062474534971,2.051017132588862,2.2779623346426705,1.0,0.3272340708160114,0.5051978229009405,0.06522009005082546,-0.2819267927713615,-3.14,3.14
374,0.26986929898042544,0.2688246141325712,0.02365171227176564,2.2726914133163043,1.8130062474534971,2.051017132588862,2.2779623346426705,1.0,0.3272340708160114,0.5051978229009405,0.06522009005082548,-0.2819267927713615,-3.14,3.14
375,0.26986929898042544,0.2688246141325712,0.02365171227176564,2.2726914133163043,1.8130062474534971,2.051017132588862,2.2779623346426705,1.0,0.3272340708160114,0.5051978229009405,0.06522009005082546,-0.2819267927713615,-3.14,3.14
376,0.26986929898042544,0.2688246141325712,0.02365171227176564,2.2726914133163043,1.8130062474534971,2.051017132588862,2.2779623346426705,1.0,0.3272340708160114,0.5051978229009405,0.06522009005082548,-0.2819267927713615,-3.14,3.14
377,0.26986929898042544,0.2688246141325712,0.02365171227176564,2.2726914133163043,1.8130062474534971,2.051017132588862,2.2779623346426705,1.0,0.3272340708160114,0.5051978229009405,0.06522009005082546,-0.2819267927713615,-3.14,3.14
378,0.26986929898042544,0.2688246141325712,0.02365171227176564,2.2726914133163043,1.8130062474534971,2.051017132588862,2.2779623346426705,1.0,0.3272340708160114,0.5051978229009405,0.06522009005082548,-0.2819267927713615,-3.14,3.14
379,0.26986929898042544,0.2688246141325712,0.02365171227176564,2.2726914133163043,1.8130062474534971,2.051017132588862,2.2779623346426705,1.0,0.3272340708160114,0.5051978229009405,0.06522009005082546,-0.2819267927713615,-3.14,3.14
380,0.26986929898042544,0.2688246141325712,0.02365171227176564,2.2726914133163043,1.8130062474534971,2.051017132588862,2.2779623346426705,1.0,0.3272340708160114,0.5051978229009405,0.06522009005082548,-0.2819267927713615,-3.14,3.14
381,0.26986929898042544,0.2688246141325712,0.02365171227176564,2.2726914133163043,1.8130062474534971,2.051017132588862,2.2779623346426705,1.0,0.3272340708160114,0.5051978229009405,0.06522009005082546,-0.2819267927713615,-3.14,3.14
382,0.26986929898042544,0.2688246141325712,0.02365171227176564,2.2726914133163043,1.8130062474534971,2.051017132588862,2.2779623346426705,1.0,0.3272340708160114,0.5051978229009405,0.06522009005082548,-0.2819267927713615,-3.14,3.14
383,0.26986929898042544,0.2688246141325712,0.02365171227176564,2.2726914133163043,1.8130062474534971,2.051017132588862,2.2779623346426705,1.0,0.3272340708160114,0.5051978229009405,0.06522009005082546,-0.2819267927713615,-3.14,3.14
384,0.26986929898042544,0.2688246141325712,0.02365171227176564,2.2726914133163043,1.8130062474534971,2.051017132588862,2.2779623346426705,1.0,0.3272340708160114,0.5051978229009405,0.06522009005082548,-0.2819267927713615,-3.14,3.14
385,0.26986929898042544,0.2688246141325712,0.02365171227176564,2.2726914133163043,1.8130062474534971,2.051017132588862,2.2779623346426705,1.0,0.3272340708160114,0.5051978229009405,0.06522009005082546,-0.2819267927713615,-3.14,3.14
386,0.26986929898042544,0.2688246141325712,0.02365171227176564,2.2726914133163043,1.8130062474534971,2.051017132588862,2.2779623346426705,1.0,0.3272340708160114,0.5051978229009405,0.06522009005082548,-0.2819267927713615,-3.14,3.14
387,0.26986929898042544,0.2688246141325712,0.02365171227176564,2.2726914133163043,1.8130062474534971,2.051017132588862,2.2779623346426705,1.0,0.3272340708160114,0.5051978229009405,0.06522009005082546,-0.2819267927713615,-3.14,3.14
388,0.26986929898042544,0.2688246141325712,0.02365171227176564,2.2726914133163043,1.8130062474534971,2.051017132588862,2.2779623346426705,1.0,0.3272340708160114,0.5051978229009405,0.06522009005082548,-0.2819267927713615,-3.14,3.14
389,0.26986929898042544,0.2688246141325712,0.02365171227176564,2.2726914133163043,1.8130062474534971,2.051017132588862,2.2779623346426705,1.0,0.3272340708160114,0.5051978229009405,0.06522009005082546,-0.2819267927713615,-3.14,3.14
390,0.26986929898042544,0.2688246141325712,0.02365171227176564,2.2726914133163043,1.8130062474534971,2.051017132588862,2.2779623346426705,1.0,0.3272340708160114,0.5051978229009405,0.06522009005082548,-0.2819267927713615,-3.14,3.14
391,0.26986929898042544,0.2688246141325712,0.02365171227176564,2.2726914133163043,1.8130062474534971,2.051017132588862,2.2779623346426705,1.0,0.3272340708160114,0.5051978229009405,0.06522009005082546,-0.2819267927713615,-3.14,3.14
392,0.26986929898042544,0.2688246141325712,0.02365171227176564,2.2726914133163043,1.8130062474534971,2.051017132588862,2.2779623346426705,1.0,0.3272340708160114,0.5051978229009405,0.06522009005082548,-0.2819267927713615,-3.14,3.14
393,0.26986929898042544,0.2688246141325712,0.02365171227176564,2.2726914133163043,1.8130062474534971,2.051017132588862,2.2779623346426705,1.0,0.3272340708160114,0.5051978229009405,0.06522009005082546,-0.2819267927713615,-3.14,3.14
394,0.26986929898042544,0.2688246141325712,0.02365171227176564,2.2726914133163043,1.8130062474534971,2.051017132588862,2.2779623346426705,1.0,0.3272340708160114,0.5051978229009405,0.06522009005082548,-0.2819267927713615,-3.14,3.14
395,0.26986929898042544,0.2688246141325712,0.02365171227176564,2.2726914133163043,1.8130062474534971,2.051017132588862,2.2779623346426705,1.0,0.3272340708160114,0.5051978229009405,0.06522009005082546,-0.2819267927713615,-3.14,3.14
396,0.26986929898042544,0.2688246141325712,0.02365171227176564,2.2726914133163043,1.8130062474534971,2.051017132588862,2.2779623346426705,1.0,0.3272340708160114,0.5051978229009405,0.06522009005082548,-0.2819267927713615,-3.14,3.14
397,0.26986929898042544,0.2688246141325712,0.02365171227176564,2.2726914133163043,1.8130062474534971,2.051017132588862,2.2779623346426705,1.0,0.3272340708160114,0.5051978229009405,0.06522009005082546,-0.2819267927713615,-3.14,3.14
398,0.26986929898042544,0.2688246141325712,0.02365171227176564,2.2726914133163043,1.8130062474534971,2.051017132588862,2.2779623346426705,1.0,0.3272340708160114,0.5051978229009405,0.06522009005082548,-0.2819267927713615,-3.14,3.14
399,0.26986929898042544,0.2688246141325712,0.02365171227176564,2.2726914133163043,1.8130062474534971,2.051017132588862,2.2779623346426705,1.0,0.3272340708160114,0.5051978229009405,0.06522009005082546,-0.2819267927713615,-3.14,3.14
400,0.26986929898042544,0.2688246141325712,0.02365171227176564,2.2726914133163043,1.8130062474534971,2.051017132588862,2.2779623346426705,1.0,0.3272340708160114,0.5051978229009405,0.06522009005082548,-0.2819267927713615,-3.14,3.14
401,0.26986929898042544,0.2688246141325712,0.02365171227176564,2.2726914133163043,1.8130062474534971,2.051017132588862,2.2779623346426705,1.0,0.3272340708160114,0.5051978229009405,0.06522009005082546,-0.2819267927713615,-3.14,3.14
402,0.26986929898042544,0.2688246141325712,0.02365171227176564,2.2726914133163043,1.8130062474534971,2.051017132588862,2.2779623346426705,1.0,0.3272340708160114,0.5051978229009405,0.06522009005082548,-0.2819267927713615,-3.14,3.14
403,0.26986929898042544,0.2688246141325712,0.02365171227176564,2.2726914133163043,1.8130062474534971,2.051017132588862,2.2779623346426705,1.0,0.3272340708160114,0.5051978229009405,0.06522009005082546,-0.2819267927713615,-3.14,3.14
404,0.26986929898042544,0.2688246141325712,0.02365171227176564,2.2726914133163043,1.8130062474534971,2.051017132588862,2.2779623346426705,1.0,0.3272340708160114,0.5051978229009405,0.06522009005082548,-0.2819267927713615,-3.14,3.14
405,0.26986929898042544,0.2688246141325712,0.02365171227176564,2.2726914133163043,1.8130062474534971,2.051017132588862,2.2779623346426705,1.0,0.3272340708160114,0.5051978229009405,0.06522009005082546,-0.2819267927713615,-3.14,3.14
406,0.26986929898042544,0.2688246141325712,0.02365171227176564,2.2726914133163043,1.8130062474534971,2.051017132588862,2.2779623346426705,1.0,0.3272340708160114,0.5051978229009405,0.06522009005082548,-0.2819267927713615,-3.14,3.14
407,0.26986929898042544,0.2688246141325712,0.02365171227176564,2.2726914133163043,1.8130062474534971,2.051017132588862,2.2779623346426705,1.0,0.3272340708160114,0.5051978229009405,0.06522009005082546,-0.2819267927713615,-3.14,3.14
408,0.26986929898042544,0.2688246141325712,0.02365171227176564,2.2726914133163043,1.8130062474534971,2.051017132588862,2.2779623346426705,1.0,0.3272340708160114,0.5051978229009405,0.06522009005082548,-0.2819267927713615,-3.14,3.14
409,0.26986929898042544,0.2688246141325712,0.02365171227176564,2.2726914133163043,1.8130062474534971,2.051017132588862,2.2779623346426705,1.0,0.3272340708160114,0.5051978229009405,0.06522009005082546,-0.2819267927713615,-3.14,3.14
410,0.26986929898042544,0.2688246141325712,0.02365171227176564,2.2726914133163043,1.8130062474534971,2.051017132588862,2.2779623346426705,1.0,0.3272340708160114,0.5051978229009405,0.06522009005082548,-0.2819267927713615,-3.14,3.14
411,0.26986929898042544,0.2688246141325712,0.02365171227176564,2.2726914133163043,1.8130062474534971,2.051017132588862,2.2779623346426705,1.0,0.3272340708160114,0.5051978229009405,0.06522009005082546,-0.2819267927713615,-3.14,3.14
412,0.26986929898042544,0.2688246141325712,0.02365171227176564,2.2726914133163043,1.8130062474534971,2.051017132588862,2.2779623346426705,1.0,0.3272340708160114,0.5051978229009405,0.06522009005082548,-0.2819267927713615,-3.14,3.14
413,0.26986929898042544,0.2688246141325712,0.02365171227176564,2.2726914133163043,1.8130062474534971,2.051017132588862,2.2779623346426705,1.0,0.3272340708160114,0.5051978229009405,0.06522009005082546,-0.2819267927713615,-3.14,3.14
414,0.26986929898042544,0.2688246141325712,0.02365171227176564,2.2726914133163043,1.8130062474534971,2.051017132588862,2.2779623346426705,1.0,0.3272340708160114,0.5051978229009405,0.06522009005082548,-0.2819267927713615,-3.14,3.14
415,0.26986929898042544,0.2688246141325712,0.02365171227176564,2.2726914133163043,1.8130062474534971,2.051017132588862,2.2779623346426705,1.0,0.3272340708160114,0.5051978229009405,0.06522009005082546,-0.2819267927713615,-3.14,3.14
416,0.26986929898042544,0.2688246141325712,0.02365171227176564,2.2726914133163043,1.8130062474534971,2.051017132588862,2.2779623346426705,1.0,0.3272340708160114,0.5051978229009405,0.06522009005082548,-0.2819267927713615,-3.14,3.14
417,0.26986929898042544,0.2688246141325712,0.02365171227176564,2.2726914133163043,1.8130062474534971,2.051017132588862,2.2779623346426705,1.0,0.3272340708160114,0.5051978229009405,0.06522009005082546,-0.2819267927713615,-3.14,3.14
418,0.26986929898042544,0.2688246141325712,0.02365171227176564,2.2726914133163043,1.8130062474534971,2.051017132588862,2.2779623346426705,1.0,0.3272340708160114,0.5051978229009405,0.06522009005082548,-0.2819267927713615,-3.14,3.14
419,0.26986929898042544,0.2688246141325712,0.02365171227176564,2.2726914133163043,1.8130062474534971,2.051017132588862,2.2779623346426705,1.0,0.3272340708160114,0.5051978229009405,0.06522009005082546,-0.2819267927713615,-3.14,3.14
420,0.26986929898042544,0.2688246141325712,0.02365171227176564,2.2726914133163043,1.8130062474534971,2.051017132588862,2.2779623346426705,1.0,0.3272340708160114,0.5051978229009405,0.06522009005082548,-0.2819267927713615,-3.14,3.14
421,0.26986929898042544,0.2688246141325712,0.02365171227176564,2.2726914133163043,1.8130062474534971,2.051017132588862,2.2779623346426705,1.0,0.3272340708160114,0.5051978229009405,0.06522009005082546,-0.2819267927713615,-3.14,3.14
422,0.26986929898042544,0.2688246141325712,0.02365171227176564,2.2726914133163043,1.8130062474534971,2.051017132588862,2.2779623346426705,1.0,0.3272340708160114,0.5051978229009405,0.06522009005082548,-0.2819267927713615,-3.14,3.14
423,0.26986929898042544,0.2688246141325712,0.02365171227176564,2.2726914133163043,1.8130062474534971,2.051017132588862,2.2779623346426705,1.0,0.3272340708160114,0.5051978229009405,0.06522009005082546,-0.2819267927713615,-3.14,3.14
424,0.26986929898042544,0.2688246141325712,0.02365171227176564,2.2726914133163043,1.8130062474534971,2.051017132588862,2.2779623346426705,1.0,0.3272340708160114,0.5051978229009405,0.06522009005082548,-0.2819267927713615,-3.14,3.14
425,0.26986929898042544,0.2688246141325712,0.02365171227176564,2.2726914133163043,1.8130062474534971,2.051017132588862,2.2779623346426705,1.0,0.3272340708160114,0.5051978229009405,0.06522009005082546,-0.2819267927713615,-3.14,3.14
426,0.26986929898042544,0.2688246141325712,0.02365171227176564,2.2726914133163043,1.8130062474534971,2.051017132588862,2.2779623346426705,1.0,0.3272340708160114,0.5051978229009405,0.06522009005082548,-0.2819267927713615,-3.14,3.14
427,0.26986929898042544,0.2688246141325712,0.02365171227176564,2.2726914133163043,1.8130062474534971,2.051017132588862,2.2779623346426705,1.0,0.3272340708160114,0.5051978229009405,0.06522009005082546,-0.2819267927713615,-3.14,3.14
428,0.26986929898042544,0.2688246141325712,0.02365171227176564,2.2726914133163043,1.8130062474534971,2.051017132588862,2.2779623346426705,1.0,0.3272340708160114,0.5051978229009405,0.06522009005082548,-0.2819267927713615,-3.14,3.14
429,0.26986929898042544,0.2688246141325712,0.02365171227176564,2.2726914133163043,1.8130062474534971,2.051017132588862,2.2779623346426705,1.0,0.3272340708160114,0.5051978229009405,0.06522009005082546,-0.2819267927713615,-3.14,3.14
430,0.26986929898042544,0.2688246141325712,0.02365171227176564,2.2726914133163043,1.8130062474534971,2.051017132588862,2.2779623346426705,1.0,0.3272340708160114,0.5051978229009405,0.06522009005082548,-0.2819267927713615,-3.14,3.14
