jkpark150901/flame_robotics_drt/experiment/inspection_ik/session_20260722_135839/fallback/inspection_ik_20260722_135922_rb20_1900es_normalized_fallback.csv
iteration,err_norm,position_error,orientation_error,tcp_x,tcp_y,tcp_z,q0_rt_joint_linear_track,q1_rt_joint_carriage,q2_rt_base,q3_rt_shoulder,q4_rt_elbow,q5_rt_wrist1,q6_rt_wrist2,q7_rt_wrist3
0,4.0910744819658955,3.897252410965842,1.0986166235147832,6.1330672779280775,2.0818432515715766,1.2571578605627065,5.803654004349697,0.7574226164767627,-0.061044094577460795,0.6466931355577691,1.1532354083217609,-0.19736228316203436,-2.3222768900101207,3.059323149249832
1,2.6390001651305712,2.5322060511762254,0.7144253714600857,4.742539381789631,2.3115354591662567,1.1559525679900782,4.960249456861565,0.8638712148647191,0.30954006769137815,0.9526036733172536,0.710938203084001,-0.3092011035203929,-2.4938402371429658,2.686470653585355
2,1.7320847825686967,1.665553237712798,0.4662773161277471,3.8878459011492983,2.4108141762076363,1.3085445371364792,4.21474608612096,0.9842024527253439,0.3769805630443912,1.0384389885830292,0.3492533100835829,-0.3923958820884335,-2.4489596958159328,2.656185356857894
3,1.1310443279095208,1.0885470840446485,0.3043547139911326,3.3272956170346415,2.362628680023314,1.4423948775356197,3.6759733258562215,1.0,0.40474342592120877,1.0274676151147129,0.19033156927547204,-0.424875492909999,-2.4356029276530955,2.6846196352151614
4,0.7393807430601255,0.7121376743778471,0.1980103414106524,2.9600173972194384,2.311482008181155,1.5324862089277493,3.2977853307313407,1.0,0.4119377993730406,1.000381019764032,0.115552507075021,-0.4270225066765031,-2.441648208091687,2.7250163670200926
5,0.48795262876276174,0.4706819743323008,0.12838743008141615,2.720096471902099,2.2783072607776154,1.5916173717974058,3.0327466241227823,1.0,0.4061598616548511,0.9748928218174807,0.0784116070222925,-0.41006395227893405,-2.453735951928208,2.7667861304434367
6,0.32964527369688895,0.31899843085098106,0.08299125259088093,2.563705926568358,2.258813299198153,1.6308122146843282,2.845598616835266,1.0,0.39281347992920973,0.9542559634106741,0.05975194477208534,-0.3824060561115673,-2.46617293833606,2.8066635963432716
7,0.2331629759707017,0.22693366557044303,0.05348440710448933,2.4618992926164736,2.248553385430684,1.657049061632703,2.7114171846766943,1.0,0.37539423413808926,0.9385317978381456,0.050454341913581904,-0.3494050163009304,-2.4770361325407366,2.843927631420903
8,0.17715397538266486,0.17378580521355427,0.034353691631429255,2.395675113067573,2.2441606131498544,1.6747130482355979,2.6133060377833552,1.0,0.3562284438690043,0.9270230344999788,0.04580328941245987,-0.3144910147057625,-2.4858306282821214,2.878440280377819
9,0.1462660087627198,0.14460308416010234,0.02197797366467258,2.352612030166346,2.243336587643415,1.6866303576867798,2.5399111141169146,1.0,0.3367703278266527,0.9189094999847758,0.04328980606681788,-0.27975463116274285,-2.492610967549267,2.9102336223699865
10,0.12953290653955257,0.1287742887641495,0.013989760400989192,2.324612034258725,2.2445848205462013,1.6946686519547765,2.4835998844507614,1.0,0.31785533856655956,0.913428356687858,0.041602816747072814,-0.24637676274559878,-2.4976312613000937,2.9394136063251235
11,0.11998646275105067,0.11965955727018449,0.008846022646723382,2.3064044403090262,2.2469563712548166,1.700082479246174,2.4392275797161873,1.0,0.299913854583612,0.9099294471108874,0.04009624011438116,-0.21495047396421452,-2.5011959493793547,2.966130727713223
12,0.11385432502764094,0.11371915591624432,0.005543309440636609,2.2945619821058565,2.249861485068937,1.7037213620047065,2.4033143072140337,1.0,0.28312924640528997,0.907886674257884,0.03848728159315096,-0.18570877887536916,-2.5035957642174314,2.990562673635596
13,0.10934342523206421,0.10928955528242455,0.0034301728300762013,2.2868571132962816,2.252941761522586,1.7061619951524012,2.373496074012796,1.0,0.26754347630508374,0.9068897650451889,0.03668358331583051,-0.15867642438865082,-2.5050833577066554,3.0128997124037795
14,0.10566884304420303,0.10564826570774515,0.002084299745787206,2.281842281604087,2.2559862983365044,1.7077956162312133,2.3481576672570417,1.0,0.2531228510911535,0.9066274867515492,0.03468597233679255,-0.1337659361581777,-2.5058677369388875,3.033332952546423
15,0.10250122339830538,0.10249380908806066,0.0012323016662322548,2.278576788359285,2.2588773598452394,1.7088870731998231,2.326186926609908,1.0,0.2397969597841627,0.9068686301263588,0.032535493895072445,-0.11083576927953749,-2.5061170314857355,3.0520460740961584
16,0.09970209872139969,0.09969965695836082,0.0006974876008250448,2.2764492351641374,2.2615553352171722,1.7096151619673203,2.3068103366510133,1.0,0.22748080677373878,0.9074441812672945,0.030285818563958258,-0.08972407578080005,-2.5059642970474254,3.0692103025779924
17,0.09720822859092314,0.09720753909082372,0.00036598402367825654,2.2750621690040074,2.263996213468069,1.71010024208925,2.28948310293005,1.0,0.21608686487121487,0.9082321724620881,0.02798978193412232,-0.07026740304440535,-2.505513831173852,3.084981919746831
18,0.09498410770796333,0.09498396397691053,0.00016517821527876523,2.2741571525093884,2.2661971786224955,1.7104231164247816,2.2738156642607503,1.0,0.20553125700447664,0.9091455534168623,0.02569354772763563,-0.05231036990736061,-2.5048469322278084,3.099501534181965
19,0.09300369582035055,0.09300367997662463,5.4267353182372055e-05,2.273566093036559,2.268167474220841,1.7106378979441046,2.2595245169056506,1.0,0.1957365999310773,0.910122848041634,0.02343472174408174,-0.03571009512576019,-2.5040267535122394,3.112894459280669
20,0.09124406272561017,0.09124405049237276,4.72322010267243e-05,2.2731796249018954,2.269922681853668,1.7107807462447502,2.2463992333748215,1.0,0.18663300097633612,0.9111211401117801,0.021242395202765,-0.02033767176821851,-2.503102231507235,3.1252717187955006
21,0.08968359811052325,0.08968356554520504,7.640183843137027e-05,2.272926566254492,2.2714812026195554,1.7108757776916617,2.234280261822487,1.0,0.17815807238427517,0.9121108980133849,0.019138034420846314,-0.006078052327551719,-2.5021111954488706,3.1367313551717184
22,0.08860648404362337,0.08830174080572742,0.007342391425970345,2.2727605687772696,2.2728621504303783,1.710939049801327,2.2230439060933245,1.0,0.1702564579580192,0.9130722004308005,0.017136656509542207,0.007170859080267511,-2.501082800246778,3.14
23,0.08870402923836694,0.08714423299768073,0.016561481934002302,2.272651019003265,2.27401928717715,1.7109624972457518,2.213277810731172,1.0,0.16336675010753118,0.9140106250605876,0.015238279456794368,0.018683773090236912,-2.50005109277583,3.14
24,0.08956118520844553,0.08619629217221529,0.02431860780751311,2.2725783539962046,2.2749670889244356,1.710955041469627,2.2050369746631304,1.0,0.1575406228963953,0.9149250481834568,0.013431579517182437,0.028386059052664,-2.499039764637897,3.14
25,0.09081898196676205,0.08541758461059744,0.03085298889243762,2.2725301018923916,2.2757457695702485,1.7109311018275004,2.1980714810419784,1.0,0.1526081844781899,0.9158065695990607,0.011713026526788132,0.036572101963172024,-2.4980623225367187,3.14
26,0.09224571868277451,0.08477601967148533,0.03636311087737956,2.272498096086655,2.2763873686566805,1.7108995290018625,2.1921753456416555,1.0,0.14842787252421474,0.9166493127818752,0.010081439348315794,0.04348637448226659,-2.4971274927334624,3.14
27,0.09369930239324671,0.0842459541572028,0.041014009843006315,2.2724769411374557,2.2769175037406066,1.710865593779558,2.1871779558667375,1.0,0.14488146861371462,0.9174496206836923,0.008536558954099074,0.049332365623331396,-2.496240631580746,3.14
28,0.09509737442061396,0.08380682476209651,0.044943203356249864,2.2724630467571694,2.2773567227040625,1.7108322997194132,2.182937417830805,1.0,0.14187004098897488,0.918205470159646,0.007078228090483471,0.054279807533015936,-2.495404686568831,3.14
29,0.09639595814775308,0.08344208922167065,0.048265495718685145,2.272454010846801,2.277721557412249,1.7108012390021505,2.179335320283559,1.0,0.13931063781358438,0.9189160449172652,0.005705954243741436,0.05847054552701854,-2.494620870118353,3.14
30,0.0975750327061118,0.08313839881057537,0.05107688908883517,2.272448220217036,2.2780253493644147,1.7107731440451055,2.1762725673546544,1.0,0.1371335844828655,0.9195814213724146,0.004418710430978604,0.06202332405336068,-2.4938891435763577,3.14
31,0.09862909402825705,0.08288494826830915,0.05345778147186716,2.272444589125966,2.2782788989298566,1.7107482388236337,2.173666029706889,1.0,0.13528026703891913,0.9202023346106164,0.0032148794012672784,0.0650377032711475,-2.4932085717134425,3.14
32,0.09956110149470292,0.08267296352553982,0.05547559207828974,2.2724423863280365,2.27849097707151,1.7107264596434766,2.171445831013731,1.0,0.13370130769419505,0.9207800015287225,0.002092280408461893,0.06759727544210543,-2.49257758621756,3.14
33,0.10037865388185277,0.08249529713671828,0.057186924005016786,2.2724411197167447,2.2786687294655983,1.7107075916245373,2.1695531337414313,1.0,0.1323550578206434,0.9213159853449455,0.0010482397993426438,0.06977231491416834,-2.4919941835590187,3.14
34,0.1010916096693292,0.08234610815038534,0.058639351066466686,2.2724404588748404,2.278817996255295,1.710691351291096,2.1679383216181742,1.0,0.13120634908735687,0.9218120905952114,7.968115918849817e-05,0.07162196793797208,-2.491456074482612,3.14
35,0.1017106345529469,0.08222060827142565,0.059872897903754024,2.2724401828167946,2.2789435655843184,1.7106774350732477,2.166559500252908,1.0,0.13022545545489458,0.9222702810746602,-0.0008167797607498195,0.07319606710031219,-2.490960797209746,3.14
36,0.10224634029548613,0.08211486011710335,0.060921268797168485,2.272440144605061,2.279049375106856,1.7106655465217797,2.1653812550012366,1.0,0.12938722814605613,0.9226926154201364,-0.0016447439490003856,0.07453663837369262,-2.4905058030366702,3.14
37,0.10270879818143329,0.0820256164489941,0.06181286988903199,2.2724402473380207,2.2791386725838882,1.7106554104449334,2.164373618289582,1.0,0.12867037309071583,0.9230811965221724,-0.002407946527518085,0.07567915558570007,-2.490088520717411,3.14
38,0.10310728758697416,0.08195019167720145,0.06257166106455699,2.272440427836832,2.279214144258374,1.7106467791832065,2.163511208503651,1.0,0.12805684614986065,0.923438131955441,-0.003110184782119164,0.07665358668256042,-2.4897064044215775,3.14
39,0.10345019001215337,0.08188635882605672,0.06321786701059744,2.2724406455616633,2.279278017808464,1.7106394343024618,2.1627725101153974,1.0,0.12753134602085145,0.9237655032957648,-0.0037552574313839023,0.07748526787288086,-2.489356968915907,3.14
40,0.10374497105384989,0.08183226663235332,0.06376857158581763,2.2724408750873066,2.2793321451973063,1.7106331857418902,2.162139270583805,1.0,0.1270808883871843,0.9240653426624352,-0.004346914816481006,0.07819563511527959,-2.4890378147844996,3.14
41,0.10399821354327224,0.08178637260490935,0.06423821529936741,2.272441101004199,2.27937806958218,1.7106278696603352,2.161595994155592,1.0,0.12669444781065692,0.9243396151601077,-0.00488881918278313,0.07880283709519637,-2.488746645881035,3.14
42,0.10421567849013265,0.08174738877720444,0.06463901218674645,2.2724413144725255,2.279417079544706,1.710623345723272,2.1611295163242423,1.0,0.12636265623059453,0.9245902061417858,-0.005384513973530534,0.07932224954413204,-2.4884812807348955,3.14
43,0.10440237916651726,0.08171423758818376,0.0649812995204712,2.2724415109023965,2.2794502532022616,1.7106194942591837,2.1607286456057215,1.0,0.12607754885458755,0.9248189124031287,-0.005837400968787829,0.07976690727510038,-2.488239659270604,3.14
44,0.10456265929224295,0.08168601587382746,0.06527383146792601,2.2724416884001832,2.2794784942146027,1.7106162135205865,2.1603838616228908,1.0,0.12583234979068067,0.925027436567194,-0.006250724115214658,0.08014786747550018,-2.48801984591792,3.14
45,0.1047002699212833,0.08166196537841061,0.06552402590582393,2.2724418467350356,2.2795025612744224,1.7106134171675327,2.160087060381701,1.0,0.12562129105358721,0.925217384039536,-0.006627558961565794,0.08047451548376208,-2.487820029968373,3.14
46,0.10481844196780678,0.08164144852661387,0.06573817203819018,2.2724419866576406,2.279523092339106,1.7106110320219212,2.1598313391639716,1.0,0.12543945963281192,0.9253902620137658,-0.006970806714042092,0.08075482237770497,-2.4876385238586467,3.14
47,0.10491995280024916,0.08162392845699308,0.06592160517912174,2.2724421094566094,2.279540624602138,1.7106089961011957,2.1596108147250956,1.0,0.1252826681820672,0.9255474800920037,-0.0072831920372327125,0.08099556214062566,-2.487473759921606,3.14
48,0.10500718626624006,0.08160895252021597,0.06607885400013534,2.272442216674402,2.279555611000098,1.7106072569185664,2.1594204695253043,1.0,0.12514734561140706,0.9256903521563228,-0.007567263839644638,0.08120249488237209,-2.4873242860340516,3.14
49,0.10508218608279629,0.08159613860464733,0.06621376466442568,2.272442309929705,2.2795684338922584,1.7106057700264143,2.1592560215829746,1.0,0.12503044446340553,0.9258200991884673,-0.007825398391297696,0.0813805215264366,-2.487188760500649,3.14
50,0.10514670286177562,0.0815851637771717,0.06632960554284752,2.272442390810263,2.279579416424668,1.7106044977755441,2.1591138142515973,1.0,0.12492936245436263,0.925937852787438,-0.008059804221036354,0.08153381448993838,-2.4870659464413523,3.14
51,0.10520223522387365,0.08157575482614919,0.06642915560244901,2.2724424608118445,2.2795888319917013,1.710603408262589,2.1589907228151897,1.0,0.12484187597856734,0.9260446591792129,-0.00827252833138243,0.08166592814858428,-2.4869547058915367,3.14
52,0.10525006554062413,0.08156768037188364,0.06651477905618657,2.2724425213069703,2.2795969121296458,1.7106024744394448,2.158884075291574,1.0,0.12476608372239296,0.9261414835509246,-0.008465463348415867,0.08177989226690001,-2.4868539937772223,3.14
53,0.10529129086952267,0.08156074427256692,0.06658848844373427,2.272442573532474,2.2796038531143585,1.710601673361072,2.1587915852462896,1.0,0.12470035882710671,0.926229214574106,-0.008640355293524244,0.08187829106373586,-2.486762851890052,3.14
54,0.10532684963635817,0.08155478010365187,0.06665199796437603,2.2724426185886113,2.279609821485054,1.7106009855508117,2.1587112947659906,1.0,0.12464330828427933,0.9263086690088779,-0.008798811723524903,0.08196333015678292,-2.4866804029563307,3.14
55,0.10535754458687326,0.0815496465288101,0.06670676859117855,2.272442657444946,2.2796149586761016,1.7106003944651027,2.1586415260303813,1.0,0.12459373845344017,0.9263805963038703,-0.008942310036474305,0.0820368932732438,-2.486605844870067,3.14
56,0.10538406248706582,0.08154522341306808,0.06675404625191893,2.272442690949901,2.279619384906278,1.7105998860420961,2.158580840165453,1.0,0.12455062576460532,0.9264456831258001,-0.009072205783366849,0.08210059031513488,-2.4865384451404733,3.14
57,0.10540699100413663,0.0815414085549433,0.06679489415777934,2.272442719841998,2.2796232024486893,1.7105994483209526,2.1585280022656677,1.0,0.12451309181387347,0.9265045577685211,-0.009189740861824896,0.08215579811725837,-2.4864775355888336,3.14
58,0.10542683315242939,0.0815381149358045,0.06683022018992947,2.2724427447615443,2.279626498383185,1.7105990711206438,2.1584819516451894,1.0,0.1244803821828871,0.9265577944044633,-0.009296051497704535,0.0822036950256685,-2.4864225073173722,3.14
59,0.10544401964288887,0.08153526840209747,0.06686080011040291,2.2724427662620355,2.2796293469156486,1.7105987457688425,2.158441776523507,1.0,0.12445184841628974,0.9266059171521038,-0.009392175945111877,0.08224529024785149,-2.486372805963051,3.14
60,0.10545891943200748,0.08153280571037155,0.06688729724314643,2.2724427848208544,2.279631811334274,1.7105984648729489,2.1584066924732808,1.0,0.124426932678466,0.9266494039418252,-0.009479061855418981,0.0822814487773402,-2.4863279272417094,3.14
61,0.10547184872750419,0.08153067287679056,0.06691027916987756,2.27244280084905,2.2796339456611663,1.7105982221266087,2.158376024061542,1.0,0.12440515468440325,0.9266886901695192,-0.009557573282150697,0.08231291257052635,-2.486287412782134,3.14
62,0.10548307867332204,0.08152882378249109,0.06693023190022732,2.2724428147001308,2.2796357960479314,1.7105980121460995,2.158349189202618,1.0,0.12438610056162104,0.9267241721328795,-0.009628497301690036,0.08234031854821378,-2.4862508462452624,3.14
63,0.10549284190582359,0.0815272189941626,0.06694757190394142,2.2724428266778656,2.2796374019559082,1.7105978303318934,2.1583256858148023,1.0,0.12436941335258352,0.926756210249706,-0.009692550240135872,0.08236421390579697,-2.486217849720435,3.14
64,0.1055013381461309,0.08152582476584358,0.06696265633263543,2.2724428370431333,2.2796387971550622,1.7105976727514483,2.158305080435077,1.0,0.12435478491135486,0.926785132060939,-0.009750383504793216,0.08238506914120683,-2.4861880803882603,3.14
65,0.10550873897007365,0.08152461219346019,0.06697579170780844,2.272442846019913,2.279640010570036,1.7105975360398964,2.1582869984988107,1.0,0.12434194898575801,0.9268112350237218,-0.009802589025066678,0.08240328914671334,-2.4861612274380245,3.14
66,0.105515191876861,0.0815235564982125,0.06698724130887286,2.272442853800479,2.2796410669972653,1.7105974173158576,2.158271116035895,1.0,0.1243306753080142,0.9268347891016842,-0.009849704312293173,0.0824192226574662,-2.486137009226512,3.14
67,0.10552082375997429,0.0815226364187262,0.06699723145896075,2.272442860549894,2.2796419877132545,1.7105973141100115,2.1582571525724625,1.0,0.12432076454368342,0.926856039161013,-0.009892217151564629,0.08243317030472515,-2.4861151706645193,3.14
68,0.10552574386868524,0.08152183369511591,0.06700595687577353,2.272442866409883,2.2796427909908785,1.7105972243044718,2.1582448650592125,1.0,0.12431204397144752,0.9268752071817744,-0.009930569941091899,0.08244539148378208,-2.486095480817087,3.14
69,0.10553004633557407,0.08152113263074089,0.06701358522895004,2.272442871502168,2.279643492537937,1.7105971460812837,2.158234042674398,1.0,0.12430436378552055,0.9268924942945296,-0.009965163696343815,0.08245611021450255,-2.486077730703514,3.14
70,0.10553381233431591,0.08152051971970142,0.06702026102376468,2.2724428759313344,2.279644105869924,1.710597077878649,2.158224502372396,1.0,0.12429759392877075,0.9269080826525555,-0.009996361737224636,0.0824655201453015,-2.48606173128345,3.14
71,0.10553711192248165,0.08151998333000181,0.06702610891267666,2.2724428797872753,2.2796446426270895,1.7105970183537025,2.158216085068177,1.0,0.12429162137845232,0.9269221371500467,-0.010024493077062975,0.08247378882843669,-2.4860473116157715,3.14
72,0.10554000561595933,0.08151951343385391,0.06703123652060852,2.272442883147301,2.279645112844329,1.7105969663508245,2.158208652364443,1.0,0.12428634781815298,0.9269348069965639,-0.010049855532291766,0.08248106137510368,-2.4860343171774257,3.14
73,0.10554254573470387,0.08151910137796632,0.06703573685685794,2.2724428860779406,2.2796455251810586,1.7105969208746632,2.1582020837421196,1.0,0.12428168763949668,0.9269462271577573,-0.01007271857149594,0.08248746358239019,-2.486022608330043,3.14
74,0.10554477755356353,0.08151873968773152,0.0670396903753994,2.2724428886364794,2.2796458871171685,1.7105968810671468,2.1581962741467273,1.0,0.12427756622555916,0.9269565196720511,-0.01009332592205943,0.08249310461025229,-2.486012058922718,3.14
75,0.10554674028695028,0.08151842190019885,0.06704316673596424,2.272442890872274,2.2796462051201694,1.7105968461878789,2.1581911319132034,1.0,0.12427391847510658,0.9269657948525842,-0.010111897952031811,0.08249807927489258,-2.486002555020048,3.14
76,0.10554846793181602,0.08151814242149234,0.0670462263103395,2.272442892827884,2.2796464847878766,1.7105968155974178,2.158186576980241,1.0,0.12427068753283141,0.926974152383244,-0.010128633844095283,0.08250247001494786,-2.485993993745171,3.14
77,0.1055499899897458,0.08151789640500184,0.06704892147169213,2.272442894540035,2.279646730970307,1.710596788742994,2.1581825393524725,1.0,0.1242678236959151,0.926981682317156,-0.010143713577691562,0.08250634857843553,-2.4859862822282217,3.14
78,0.10555133208589411,0.08151767964724116,0.06705129769883694,2.272442896040441,2.2796469478738954,1.710596765146316,2.158178957774951,1.0,0.12426528347162241,0.9269884659855028,-0.010157299734496257,0.08250977747123789,-2.485979336651287,3.14
79,0.1055525164998583,0.08151748849874332,0.06705339452281724,2.2724428973565143,2.279647139150663,1.7105967443931378,2.158175778589624,1.0,0.12426302876435462,0.9269945768240455,-0.010169539141528764,0.0825128112018213,-2.4859730813815704,3.14
80,0.10555356262131678,0.0815173197877556,0.06705524633884874,2.2724428985119656,2.279647307974578,1.7105967261243413,2.1581729547479265,1.0,0.12426102617374853,0.9270000811242355,-0.010180564365284325,0.08251549735172951,-2.4859674481851037,3.14
81,0.10555448734138824,0.08151717075484317,0.06705688310331534,2.2724428995273214,2.2796474571069973,1.7105967100282922,2.1581704449574035,1.0,0.12425924638810205,0.9270050387153209,-0.010190495069377123,0.08251787749700532,-2.485962375513915,3.14
82,0.10555530538902572,0.0815170389967987,0.06705833093263511,2.2724429004203714,2.2796475889527987,1.7105966958343044,2.1581682129434805,1.0,0.12425766365969276,0.9270095035833871,-0.010199439247312576,0.08251998800197977,-2.4859578078601277,3.14
83,0.1055560296203835,0.08151692241848338,0.06705961261811469,2.2724429012065426,2.2796477056085735,1.710596683307021,2.15816622681025,1.0,0.12425625535050723,0.9270135244328334,-0.010207494341159366,0.08252186070370472,-2.4859536951709953,3.14
84,0.1055566712679356,0.08151681919145191,0.06706074806902367,2.2724429018992267,2.2796478089040315,1.7105966722416068,2.158164458486462,1.0,0.12425500153855663,0.9270171451953527,-0.01021474825608507,0.0825235235026215,-2.485949992319347,3.14
85,0.10555724015511328,0.08151672771836152,0.06706175469426341,2.2724429025100625,2.279647900437617,1.71059666245961,2.158162883244898,1.0,0.12425388467636966,0.9270204054910932,-0.010221280279948204,0.08252500087277366,-2.485946658624405,3.14
86,0.10555774488139782,0.08151664660234328,0.06706264773124172,2.272442903049169,2.27964798160716,1.7105966538054134,2.1581614792850066,1.0,0.12425288929446003,0.9270233410462918,-0.010227161916410361,0.0825263143029289,-2.4859436574183413,3.14
87,0.10555819298206531,0.08151657462060735,0.06706344052976843,2.2724429035253584,2.2796480536362895,1.7105966461431756,2.158160227370114,1.0,0.12425200174359169,0.9270259840713273,-0.010232457639349261,0.08252748267832624,-2.485940955654352,3.14
88,0.10555859106617442,0.0815165107016752,0.06706414479712046,2.2724429039463065,2.2796481175972167,1.7105966393542025,2.1581591105117646,1.0,0.1242512099705461,0.9270283636028005,-0.010237225575710508,0.08252852261135216,-2.4859385235523868,3.14
89,0.10555894493588126,0.08151645390573284,0.06706477080990067,2.2724429043187104,2.279648174430397,1.7105966333346803,2.1581581136948,1.0,0.1242505033228435,0.9270305058129507,-0.010241518123336887,0.08252944872825449,-2.485936334279021,3.14
90,0.10555925968968759,0.0815164034076516,0.06706532759732413,2.2724429046484165,2.279648224961521,1.7105966279937235,2.158157223637676,1.0,0.12424987237851044,0.9270324342894257,-0.01024538250975751,0.0825302739179806,-2.485934363658252,3.14
91,0.10555953981187541,0.08151635848229603,0.06706582309996212,2.272442904940534,2.2796482699162155,1.7105966232516858,2.1581564285832986,1.0,0.12424930879753475,0.927034170288167,-0.010248861297403555,0.08253100954835439,-2.485932589910315,3.14
92,0.10555978925005044,0.08151631849181065,0.06706626430730435,2.2724429051995307,2.2796483099327682,1.710596619038706,2.1581557181163102,1.0,0.12424880519211672,0.9270357329619198,-0.010251992840238477,0.08253166565406377,-2.485930993415853,3.14
93,0.10556001148243821,0.08151628287459699,0.06706665737717607,2.2724429054293194,2.2796483455731567,1.7105966152934444,2.1581550830033276,1.0,0.12424835501322615,0.9270371395666617,-0.010254811696351316,0.0825322511002976,-2.485929556503035,3.14
94,0.10556020957633973,0.08151625113575144,0.06706700773938894,2.2724429056333286,2.2796483773326175,1.7105966119619993,2.1581545150531074,1.0,0.12424795245131949,0.9270384056480327,-0.010257349000654548,0.08253277372532646,-2.4859282632554267,3.14
95,0.1055603862389671,0.08151622283876007,0.06706732018588009,2.272442905814566,2.279648405647958,1.7105966089969544,2.158154006994038,1.0,0.12424759234936518,0.9270395452096643,-0.01025963280145679,0.08253324046486002,-2.4859270993386304,3.14
96,0.105560543861683,0.08151619759828142,0.06706759894918549,2.2724429059756734,2.279648430904777,1.710596606356567,2.158153552366707,1.0,0.1242472701265778,0.9270405708651266,-0.010261688364337768,0.08253365746061858,-2.4859260518438853,3.14
97,0.10556068455854699,0.08151617507385985,0.06706784777073152,2.2724429061189717,2.2796484534437584,1.7105966040040539,2.1581531454296004,1.0,0.12424698171147916,0.9270414939750632,-0.01026353844643918,0.08253403015521552,-2.4859251091469985,3.14
98,0.10556081019993616,0.08151615496445776,0.06706806996043803,2.272442906246502,2.27964847356614,1.7105966019069756,2.158152781076248,1.0,0.12424672348309082,0.927042324770928,-0.010265203543999873,0.08253436337515804,-2.4859242607811205,3.14
99,0.10556092244187872,0.0815161370036735,0.06706826844871133,2.2724429063600615,2.2796484915385005,1.7105966000366966,2.158152454762363,1.0,0.12424649221922204,0.9270430724666161,-0.010266702115700185,0.08253466140352586,-2.4859234973220277,3.14
100,0.10556102275170895,0.08151612095558654,0.06706844583187889,2.2724429064612326,2.279648507596917,1.710596598367923,2.158152162441712,1.0,0.12424628505095667,0.9270437453591518,-0.010268050784143156,0.0825349280436716,-2.485922810284696,3.14
101,0.10556111243048621,0.08151610661110613,0.06706860441191824,2.272442906551414,2.279648521950618,1.71059659687829,2.1581519005096115,1.0,0.12424609942255918,0.927044350919495,-0.010269264517580345,0.08253516667510709,-2.485922192030066,3.14
102,0.10556119263263268,0.08151609378479376,0.06706874623125617,2.272442906631836,2.2796485347851654,1.710596595548011,2.158151665753113,1.0,0.12424593305612523,0.9270448958744205,-0.010270356793793565,0.08253538030257863,-2.4859216356810063,3.14
103,0.10556126438314298,0.08151608231207132,0.06706887310322535,2.2724429067035903,2.279648546265245,1.7105965943595636,2.1581514553070367,1.0,0.12424578392038724,0.9270453862803393,-0.010271339747862119,0.08253557159920295,-2.4859211350465786,3.14
104,0.10556132859267521,0.08151607204677626,0.067068986638815,2.272442906767637,2.2796485565371154,1.7105965932974239,2.1581512666151417,1.0,0.1242456502031648,0.9270458275898437,-0.010272224305381165,0.08253574294441628,-2.4859206845537876,3.14
105,0.10556138607080705,0.08151606285902176,0.06706908827012022,2.2724429068248293,2.279648565730749,1.7105965923478235,2.1581510973958027,1.0,0.12424553028701404,0.927046224711689,-0.010273020302548326,0.08253589645739072,-2.485920279186089,3.14
106,0.10556143753768116,0.08151605463330915,0.06706917927098716,2.272442906875921,2.2796485739617194,1.7105965914985466,2.1581509456116432,1.0,0.12424542272768738,0.9270465820648492,-0.010273736594398336,0.08253603402648516,-2.4859199144279827,3.14
107,0.1055614836342537,0.08151604726687758,0.0670692607751328,2.2724429069215786,2.279648581332855,1.7105965907387457,2.158150809442657,1.0,0.12424532623506487,0.9270469036272305,-0.010274381152345944,0.08253615733522345,-2.4859195862151022,3.14
108,0.1055615249313079,0.0815160406682426,0.06706933379212025,2.272442906962399,2.2796485879357,1.7105965900587832,2.1581506872623892,1.0,0.12424523965626075,0.927047192979562,-0.010274961152082316,0.08253626788522954,-2.485919290889256,3.14
109,0.10556156193740865,0.08151603475591712,0.06706939922143855,2.2724429069989034,2.2796485938517943,1.7105965894500892,2.1581505776168215,1.0,0.12424516196064728,0.9270474533449409,-0.010275483052771364,0.0825363670164901,-2.485919025157926,3.14
110,0.10556159510590916,0.08151602945728242,0.06706945786487888,2.2724429070315595,2.279648599153804,1.7105965889050427,2.158150479205637,1.0,0.12424509222656745,0.9270476876244574,-0.01027595266840062,0.08253645592527402,-2.4859187860577987,3.14
111,0.10556162484114344,0.08151602470758965,0.06706951043753558,2.272442907060784,2.2796486039065194,1.7105965884168601,2.1581503908655906,1.0,0.12424502962953969,0.9270478984292861,-0.01027637523205792,0.08253653567998888,-2.4859185709219136,3.14
112,0.10556165150388495,0.08151602044907667,0.06706955757743191,2.272442907086944,2.2796486081677405,1.7105965879794962,2.15815031155573,1.0,0.12424497343177938,0.9270480881095907,-0.01027675545383038,0.08253660723522423,-2.485918377350084,3.14
113,0.1055616754161874,0.08151601663019627,0.06706959985410525,2.272442907110367,2.279648611989048,1.7105965875875702,2.1581502403442623,1.0,0.1242449229728844,0.9270482587805564,-0.010277097572954213,0.08253667144419756,-2.485918203182258,3.14
114,0.10556169686565736,0.08151601320492256,0.06706963777615513,2.272442907131346,2.2796486154164968,1.7105965872362812,2.1581501763968713,1.0,0.12424487766155143,0.927048412345838,-0.0102774054047837,0.08253672906979184,-2.4859180464745356,3.14
115,0.10556171610924117,0.08151601013214604,0.06706967179796276,2.2724429071501393,2.2796486184912235,1.710596586921349,2.1581501189663195,1.0,0.12424483696820304,0.9270485505186723,-0.010277682383089945,0.08253678079435212,-2.4859179054775717,3.14
116,0.10556173337658192,0.08151600737513223,0.06706970232560219,2.272442907166981,2.279648621249986,1.710596586638954,2.1581500673831897,1.0,0.12424480041842324,0.9270486748408914,-0.010277931598152296,0.08253682722838508,-2.4859177786171327,3.14
117,0.1055617488729923,0.08151600490104405,0.067069729722135,2.272442907182075,2.2796486237256426,1.710596586385686,2.158150021047636,1.0,0.12424476758710913,0.9270487867000423,-0.010278155831058526,0.08253686891828961,-2.485917664476594,3.14
118,0.10556176278209908,0.08151600268051896,0.06706975431224563,2.2724429071956065,2.2796486259475746,1.7105965861585002,2.158149979422031,1.0,0.12424473809325783,0.9270488873448008,-0.010278357584588648,0.08253690635323127,-2.4859175617811777,3.14
119,0.10556177526818457,0.08151600068729087,0.06706977638643274,2.272442907207739,2.279648627942065,1.7105965859546761,2.158149942024408,1.0,0.12424471159531764,0.9270489778988504,-0.010278539111023008,0.08253693997125812,-2.48591746938377,3.14
120,0.10556178647827151,0.08151599889785892,0.0670697962046473,2.272442907218621,2.2796486297326295,1.710596585771782,2.158149908422612,1.0,0.12424468778704027,0.9270490593733762,-0.01027870243717729,0.08253697016474507,-2.485917386252149,3.14
121,0.1055617965439723,0.08151599729118411,0.06706981399961229,2.2724429072283807,2.279648631340321,1.7105965856076428,2.158149878229074,1.0,0.12424466639377876,0.9270491326783128,-0.010278849386942006,0.08253699728524307,-2.485917311457491,3.14
122,0.1055618055831415,0.08151599584843398,0.06706982997969879,2.2724429072371364,2.2796486327839833,1.7105965854603151,2.15814985109615,1.0,0.1242446471691814,0.9270491986324702,-0.010278981601573483,0.08253702164780069,-2.4859172441640225,3.14
123,0.10556181370133909,0.08151599455274039,0.06706984433155003,2.272442907244994,2.279648634080496,1.7105965853280596,2.158149826711954,1.0,0.12424462989223856,0.9270492579726493,-0.01027910055795959,0.08253704353481675,-2.4859171836197067,3.14
124,0.1055618209931362,0.08151599338899304,0.06706985722238402,2.272442907252045,2.2796486352449787,1.7105965852093181,2.1581498047966337,1.0,0.12424461436464344,0.9270493113618465,-0.010279207585062428,0.08253706319947711,-2.4859171291478632,3.14
125,0.10556182754327992,0.08151599234365187,0.06706986880202466,2.2724429072583736,2.2796486362909802,1.7105965851026974,2.1581497850990434,1.0,0.12424460040843224,0.9270493593966391,-0.010279303878718844,0.08253708086882207,-2.485917080139622,3.14
126,0.10556183342773465,0.08151599140458496,0.06706987920478685,2.2724429072640553,2.27964863723064,1.7105965850069498,2.1581497673937653,1.0,0.12424458786387449,0.9270494026138327,-0.010279390514962742,0.08253709674648398,-2.485917036047134,3.14
127,0.10556183871459901,0.08151599056091327,0.06706988855107689,2.2724429072691548,2.2796486380748444,1.710596584920957,2.158149751478446,1.0,0.12424457658758488,0.9270494414964449,-0.010279468462016043,0.08253711101513378,-2.4859169963774588,3.14
128,0.1055618434649395,0.08151598980288462,0.0670698969488402,2.2724429072737347,2.2796486388333514,1.7105965848437168,2.1581497371714153,1.0,0.12424456645083423,0.9270494764790898,-0.010279538591081303,0.08253712383866561,-2.485916960687068,3.14
129,0.10556184773352334,0.08151598912175242,0.06706990449492323,2.272442907277848,2.2796486395149134,1.7105965847743325,2.15814972430955,1.0,0.12424455733803728,0.9270495079528248,-0.010279601686055498,0.0825371353641503,-2.4859169285768927,3.14
130,0.10556185156947817,0.08151598850967152,0.06706991127617325,2.2724429072815413,2.2796486401273803,1.7105965847119997,2.1581497127463645,1.0,0.1242445491453987,0.9270495362695134,-0.010279658452272128,0.08253714572358195,-2.48591689968787,3.14
131,0.10556185501688098,0.081515987959604,0.06706991737051524,2.272442907284859,2.2796486406777947,1.7105965846559965,2.1581497023502996,1.0,0.12424454177970028,0.9270495617457495,-0.010279709524369683,0.08253715503544024,-2.485916873696936,3.14
132,0.10556185811528204,0.0815159874652358,0.06706992284787956,2.2724429072878385,2.2796486411724746,1.7105965846056763,2.15814969300319,1.0,0.12424453515721462,0.9270495846663914,-0.010279755473372156,0.08253716340608827,-2.485916850313418,3.14
133,0.10556186090017766,0.08151598702090042,0.06706992777101367,2.272442907290517,2.27964864161709,1.710596584560459,2.1581496845988895,1.0,0.12424452920273152,0.9270496052877402,-0.010279796813061797,0.08253717093102371,-2.4859168292757876,3.14
134,0.10556186340342742,0.08151598662151133,0.06706993219624084,2.272442907292921,2.279648642016731,1.710596584519824,2.1581496770420405,1.0,0.12424452384868553,0.9270496238404016,-0.010279834005713485,0.0825371776959987,-2.485916810348741,3.14
135,0.10556186565363176,0.08151598626250176,0.06706993617412611,2.2724429072950825,2.2796486423759665,1.7105965844833055,2.158149670246971,1.0,0.12424451903437356,0.9270496405318602,-0.010279867467255815,0.08253718377802342,-2.4859167933205697,3.14
136,0.10556186767646952,0.08151598593977492,0.06706993975007262,2.2724429072970245,2.2796486426988967,1.7105965844504836,2.158149664136703,1.0,0.12424451470525373,0.9270496555487976,-0.01027989757191512,0.08253718924626377,-2.4859167780007967,3.14
137,0.10556186949499763,0.08151598564964765,0.0670699429648319,2.2724429072987697,2.2796486429892067,1.7105965844209825,2.1581496586420656,1.0,0.12424451081231612,0.9270496690591755,-0.010279924656394487,0.0825371941628473,-2.485916764218047,3.14
138,0.10556187112992313,0.081515985388818,0.06706994585501734,2.2724429073003383,2.2796486432502006,1.710596584394465,2.1581496537008995,1.0,0.12424450731151866,0.9270496812141131,-0.010279949023634367,0.08253719858358413,-2.4859167518181327,3.14
139,0.10556187259984236,0.08151598515431556,0.06706994845350514,2.2724429073017474,2.2796486434848506,1.7105965843706283,2.158149649257342,1.0,0.1242445041632809,0.9270496921495754,-0.010279970946196789,0.08253720255861409,-2.48591674066233,3.14
140,0.10556187392145937,0.08151598494347616,0.06706995078982192,2.2724429073030143,2.2796486436958228,1.7105965843491997,2.1581496452611857,1.0,0.12424450133202962,0.9270497019878917,-0.010279990669310367,0.08253720613298635,-2.4859167306258305,3.14
141,0.10556187510977967,0.08151598475390455,0.0670699528905025,2.272442907304153,2.2796486438855137,1.710596584329935,2.1581496416673036,1.0,0.12424449878579145,0.9270497108391225,-0.010280008413610205,0.0825372093471795,-2.485916721596342,3.14
142,0.10556187617828355,0.08151598458344915,0.06706995477936828,2.272442907305177,2.2796486440560764,1.7105965843126159,2.1581496384351335,1.0,0.12424449649582679,0.9270497188022901,-0.010280024377603504,0.08253721223756805,-2.485916713472836,3.14
143,0.10556187713908222,0.08151598443017717,0.06706995647783201,2.2724429073060968,2.279648644209445,1.7105965842970448,2.1581496355282126,1.0,0.12424449443630162,0.9270497259664854,-0.010280038739888173,0.08253721483684032,-2.48591670616442,3.14
144,0.10556187800305866,0.08151598429235332,0.06706995800513635,2.2724429073069246,2.2796486443473554,1.7105965842830444,2.1581496329137635,1.0,0.12424449258399228,0.9270497324118628,-0.010280051661148887,0.08253721717437465,-2.4859166995893176,3.14
145,0.10556187877999106,0.08151598416841538,0.06706995937856587,2.272442907307668,2.2796486444713713,1.7105965842704551,2.1581496305623187,1.0,0.12424449091802112,0.9270497382105374,-0.01028006328595311,0.08253721927657545,-2.4859166936739556,3.14
146,0.10556187947866826,0.0815159840569627,0.06706996061365914,2.272442907308337,2.279648644582894,1.7105965842591362,2.1581496284473864,1.0,0.1242444894196182,0.9270497434273898,-0.010280073744367593,0.0825372211671762,-2.4859166883521415,3.14
147,0.1055618801069872,0.08151598395673397,0.06706996172437767,2.2724429073089376,2.279648644683186,1.7105965842489579,2.158149626545149,1.0,0.12424448807190834,0.9270497481207932,-0.01028008315341204,0.08253722286751031,-2.4859166835643234,3.14
148,0.10556188067204625,0.08151598386659703,0.06706996272326166,2.2724429073094785,2.2796486447733795,1.7105965842398054,2.1581496248341914,1.0,0.12424448685971884,0.9270497523432648,-0.010280091618367957,0.0825372243967552,-2.485916679256923,3.14
149,0.10556188118022705,0.08151598378553467,0.06706996362159559,2.2724429073099652,2.279648644854493,1.7105965842315753,2.1581496232952584,1.0,0.12424448576940758,0.9270497561420535,-0.010280099233955479,0.0825372257721506,-2.4859166753817385,3.14
150,0.1055618816372632,0.08151598371263132,0.06706996442952097,2.2724429073104013,2.279648644927442,1.710596584224174,2.1581496219110363,1.0,0.12424448478870792,0.9270497595596687,-0.010280106085392853,0.08253722700919537,-2.4859166718954024,3.14
151,0.10556188204830931,0.08151598364706325,0.0670699651561522,2.272442907310795,2.2796486449930513,1.7105965842175175,2.1581496206659576,1.0,0.12424448390658961,0.9270497626343547,-0.01028011224934926,0.08253722812182407,-2.485916668758899,3.14
152,0.10556188241800057,0.08151598358809285,0.06706996580967932,2.272442907311148,2.2796486450520588,1.7105965842115312,2.1581496195460224,1.0,0.12424448311313428,0.9270497654005191,-0.010280117794802498,0.08253722912256453,-2.485916665937127,3.14
153,0.10556188275050434,0.08151598353505488,0.06706996639745746,2.272442907311465,2.27964864510513,1.7105965842061477,2.158149618538642,1.0,0.12424448239942272,0.9270497678891179,-0.01028012278381008,0.0825372300226811,-2.4859166633985055,3.14
154,0.10556188304956554,0.08151598348735194,0.06706996692611954,2.272442907311751,2.279648645152863,1.7105965842013067,2.1581496176324957,1.0,0.12424448175743404,0.9270497701280009,-0.010280127272203813,0.08253723083230223,-2.4859166611146235,3.14
155,0.10556188331855126,0.08151598344444613,0.06706996740161587,2.272442907312009,2.279648645195796,1.710596584196952,2.1581496168174024,1.0,0.12424448117995522,0.9270497721422246,-0.01028013131021404,0.08253723156053507,-2.485916659059921,3.14
156,0.10556188356048933,0.08151598340585463,0.06706996782930383,2.27244290731224,2.2796486452344116,1.710596584193035,2.158149616084206,1.0,0.12424448066049949,0.927049773954331,-0.01028013494303153,0.0825372322155689,-2.4859166572114004,3.14
157,0.105561883778104,0.08151598337114423,0.06706996821398742,2.2724429073124477,2.279648645269144,1.7105965841895125,2.1581496154246733,1.0,0.12424448019323307,0.9270497755846003,-0.010280138211313109,0.08253723280476773,-2.485916655548374,3.14
158,0.10556188397384149,0.08151598333992262,0.06706996856000354,2.2724429073126347,2.279648645300385,1.7105965841863449,2.158149614831398,1.0,0.12424447977290919,0.9270497770512783,-0.010280141151636411,0.08253723333475396,-2.485916654052228,3.14
159,0.10556188414990367,0.0815159833118392,0.06706996887123515,2.272442907312803,2.279648645328486,1.710596584183495,2.1581496142977206,1.0,0.12424447939480923,0.9270497783707804,-0.010280143796909114,0.08253723381148273,-2.4859166527062175,3.14
160,0.1055618843082699,0.08151598328657884,0.06706996915118424,2.272442907312954,2.2796486453537623,1.7105965841809323,2.15814961381765,1.0,0.12424447905468923,0.9270497795578739,-0.01028014617673723,0.08253723424030969,-2.485916651495277,3.14
161,0.1055618844507209,0.08151598326385709,0.0670699694030016,2.2724429073130903,2.2796486453764984,1.7105965841786266,2.1581496133857994,1.0,0.12424447874873217,0.9270497806258459,-0.010280148317756184,0.08253723462605127,-2.4859166504058523,3.14
162,0.10556188457885637,0.0815159832434183,0.0670699696295133,2.2724429073132115,2.27964864539695,1.7105965841765527,2.158149612997323,1.0,0.12424447847350484,0.9270497815866489,-0.010280150243928894,0.08253723497303926,-2.4859166494257505,3.14
163,0.10556188469411826,0.08151598322503478,0.06706996983326052,2.2724429073133217,2.279648645415345,1.710596584174688,2.1581496126478625,1.0,0.12424447822591944,0.9270497824510369,-0.010280151976813945,0.0825372352851694,-2.485916648544001,3.14
164,0.10556188479779827,0.08151598320849751,0.06706997001654588,2.2724429073134216,2.2796486454318927,1.7105965841730104,2.1581496123334976,1.0,0.12424447800319856,0.9270497832286848,-0.01028015353580672,0.08253723556594546,-2.4859166477507357,3.14
165,0.10556188489106098,0.081515983193621,0.06706997018140697,2.2724429073135104,2.2796486454467786,1.710596584171501,2.158149612050702,1.0,0.12424447780284417,0.9270497839282965,-0.01028015493835645,0.08253723581851857,-2.485916647037074,3.14
166,0.10556188497495549,0.08151598318023967,0.06706997032970904,2.2724429073135903,2.2796486454601683,1.7105965841701436,2.158149611796305,1.0,0.12424447762260936,0.9270497845577026,-0.010280156200161547,0.08253723604572295,-2.4859166463950286,3.14
167,0.10556188505042233,0.08151598316820265,0.06706997046311532,2.2724429073136623,2.279648645472213,1.710596584168923,2.158149611567453,1.0,0.1242444774604729,0.9270497851239479,-0.010280157335345225,0.08253723625010805,-2.4859166458174125,3.14
168,0.10556188511830876,0.081515983157375,0.06706997058312,2.272442907313727,2.2796486454830474,1.7105965841678241,2.158149611361581,1.0,0.12424447731461691,0.9270497856333708,-0.010280158356613594,0.0825372364339666,-2.4859166452977606,3.14
169,0.10556188517937623,0.08151598314763425,0.06706997069107154,2.2724429073137857,2.2796486454927942,1.7105965841668362,2.1581496111763796,1.0,0.12424447718340605,0.9270497860916729,-0.010280159275397613,0.08253723659936105,-2.4859166448302563,3.14
170,0.10556188523431097,0.081515983138873,0.06706997078818253,2.2724429073138377,2.279648645501561,1.7105965841659476,2.1581496110097733,1.0,0.12424447706536947,0.9270497865039842,-0.010280160101981383,0.08253723674814625,-2.4859166444096665,3.14
171,0.10556188528372805,0.08151598313099048,0.06706997087553969,2.272442907313885,2.2796486455094485,1.710596584165148,2.158149610859895,1.0,0.12424447695918396,0.9270497868749198,-0.010280160845617147,0.08253723688199088,-2.4859166440312834,3.14
172,0.10556188532818216,0.08151598312390017,0.06706997095412037,2.272442907313928,2.2796486455165432,1.7105965841644288,2.158149610725064,1.0,0.1242444768636594,0.9270497872086317,-0.010280161514628499,0.08253723700239571,-2.4859166436908717,3.14
173,0.10556188536817204,0.08151598311752173,0.0670699710248125,2.2724429073139656,2.2796486455229257,1.7105965841637818,2.1581496106037696,1.0,0.12424447677772517,0.9270497875088552,-0.010280162116504019,0.08253723711071062,-2.4859166433846207,3.14
174,0.10556188540414588,0.08151598311178325,0.06706997108840462,2.272442907314001,2.2796486455286677,1.7105965841632003,2.1581496104946525,1.0,0.12424447670041815,0.9270497877789509,-0.010280162657980605,0.08253723720815008,-2.485916643109103,3.14
175,0.10556188543650874,0.0815159831066222,0.06706997114561897,2.2724429073140313,2.279648645533832,1.7105965841626762,2.1581496103964897,1.0,0.12424447663087221,0.927049788021942,-0.010280163145119281,0.0825372372958061,-2.4859166428612336,3.14
176,0.10556188546562119,0.08151598310197859,0.06706997119707511,2.272442907314059,2.2796486455384786,1.710596584162206,2.158149610308181,1.0,0.12424447656830778,0.9270497882405485,-0.010280163583372873,0.08253723737466163,-2.485916642638238,3.14
177,0.10556188549181031,0.08151598309780145,0.0670699712433727,2.2724429073140837,2.2796486455426583,1.7105965841617823,2.1581496102287376,1.0,0.12424447651202408,0.9270497884372176,-0.010280163977646938,0.08253723744560017,-2.4859166424376213,3.14
178,0.10556188551537028,0.08151598309404416,0.06706997128501868,2.272442907314107,2.279648645546418,1.710596584161401,2.1581496101572695,1.0,0.12424447646139039,0.9270497886141505,-0.010280164332354888,0.08253723750941688,-2.485916642257137,3.14
179,0.10556188553656438,0.0815159830906632,0.06706997132248681,2.2724429073141263,2.279648645549801,1.7105965841610582,2.158149610092975,1.0,0.12424447641583954,0.927049788773328,-0.010280164651467173,0.08253723756682678,-2.485916642094764,3.14
180,0.10556188555563119,0.08151598308762222,0.06706997135619454,2.2724429073141446,2.279648645552844,1.7105965841607496,2.1581496100351347,1.0,0.12424447637486111,0.9270497889165317,-0.010280164938555911,0.08253723761847336,-2.485916641948686,3.14
181,0.10556188557278331,0.08151598308488613,0.06706997138651294,2.2724429073141614,2.2796486455555818,1.7105965841604722,2.1581496099831003,1.0,0.12424447633799604,0.9270497890453645,-0.010280165196834754,0.08253723766493529,-2.4859166418172673,3.14
182,0.10556188558821426,0.08151598308242519,0.0670699714137899,2.2724429073141756,2.2796486455580443,1.7105965841602224,2.158149609936289,1.0,0.12424447630483151,0.9270497891612687,-0.010280165429194618,0.08253723770673294,-2.485916641699037,3.14
183,0.10556188560209506,0.08151598308021103,0.0670699714383269,2.2724429073141885,2.27964864556026,1.710596584159998,2.1581496098941764,1.0,0.12424447627499584,0.9270497892655415,-0.010280165638236579,0.08253723774433491,-2.4859166415926714,3.14
184,0.10556188561458271,0.08151598307821921,0.06706997146040224,2.2724429073142005,2.279648645562253,1.710596584159796,2.158149609856291,1.0,0.12424447624815496,0.9270497893593502,-0.010280165826300662,0.08253723777816231,-2.4859166414969796,3.14
185,0.10556188562581735,0.08151598307642755,0.06706997148026442,2.2724429073142116,2.2796486455640457,1.7105965841596142,2.1581496098222086,1.0,0.12424447622400825,0.927049789443745,-0.010280165995491971,0.08253723780859407,-2.4859166414108906,3.14
186,0.10556188563592368,0.08151598307481563,0.0670699714981288,2.2724429073142214,2.2796486455656586,1.7105965841594506,2.158149609791547,1.0,0.12424447620228515,0.9270497895196707,-0.01028016614770455,0.08253723783597114,-2.4859166413334415,3.14
187,0.10556188564501533,0.08151598307336526,0.06706997151420407,2.2724429073142294,2.27964864556711,1.7105965841593034,2.1581496097639628,1.0,0.12424447618274245,0.9270497895879769,-0.010280166284642105,0.08253723786060019,-2.4859166412637643,3.14
188,0.10556188565319483,0.08151598307206046,0.06706997152865923,2.272442907314238,2.2796486455684155,1.7105965841591715,2.1581496097391475,1.0,0.12424447616516125,0.9270497896494283,-0.010280166407837603,0.08253723788275705,-2.4859166412010794,3.14
189,0.10556188566055327,0.08151598307088702,0.06706997154166656,2.2724429073142445,2.2796486455695897,1.7105965841590527,2.1581496097168227,1.0,0.12424447614934468,0.9270497897047129,-0.010280166518670072,0.08253723790268994,-2.4859166411446854,3.14
190,0.10556188566717302,0.08151598306983163,0.0670699715533652,2.272442907314252,2.2796486455706457,1.7105965841589452,2.1581496096967387,1.0,0.1242444761351156,0.9270497897544496,-0.010280166618380215,0.08253723792062209,-2.485916641093951,3.14
191,0.10556188567312778,0.08151598306888098,0.067069971563891,2.272442907314257,2.279648645571597,1.7105965841588489,2.15814960967867,1.0,0.12424447612231475,0.927049789799195,-0.010280166708083977,0.08253723793675427,-2.4859166410483073,3.14
192,0.1055618856784857,0.08151598306802754,0.06706997157336654,2.2724429073142614,2.279648645572451,1.7105965841587623,2.158149609662415,1.0,0.12424447611079864,0.92704978983945,-0.010280166788785758,0.08253723795126726,-2.485916641007244,3.14
193,0.10556188568330531,0.08151598306725842,0.06706997158188457,2.2724429073142662,2.2796486455732206,1.7105965841586848,2.158149609647792,1.0,0.12424447610043828,0.9270497898756653,-0.010280166861388815,0.08253723796432372,-2.485916640970302,3.14
194,0.10556188568764091,0.08151598306656652,0.06706997158954783,2.2724429073142707,2.279648645573913,1.7105965841586142,2.1581496096346364,1.0,0.12424447609111783,0.9270497899082464,-0.010280166926705952,0.08253723797606957,-2.4859166409370674,3.14
195,0.10556188569154154,0.08151598306594474,0.06706997159644244,2.2724429073142742,2.279648645574535,1.710596584158551,2.158149609622801,1.0,0.1242444760827328,0.9270497899375577,-0.010280166985468226,0.08253723798663656,-2.485916640907168,3.14
196,0.1055618856950508,0.08151598306538466,0.06706997160265124,2.2724429073142782,2.2796486455750955,1.7105965841584947,2.1581496096121535,1.0,0.1242444760751893,0.9270497899639276,-0.010280167038333489,0.08253723799614297,-2.4859166408802684,3.14
197,0.10556188569820803,0.08151598306488181,0.06706997160822392,2.2724429073142804,2.2796486455755987,1.7105965841584436,2.1581496096025745,1.0,0.12424447606840296,0.9270497899876512,-0.01028016708589363,0.08253723800469517,-2.4859166408560687,3.14
198,0.10556188570104802,0.08151598306442824,0.06706997161325325,2.272442907314283,2.2796486455760525,1.7105965841583977,2.158149609593957,1.0,0.12424447606229767,0.927049790008994,-0.010280167128680935,0.0825372380123891,-2.4859166408342976,3.14
199,0.10556188570360328,0.08151598306402082,0.06706997161776572,2.272442907314286,2.27964864557646,1.7105965841583561,2.1581496095862045,1.0,0.12424447605680511,0.9270497900281951,-0.010280167167174394,0.08253723801931087,-2.485916640814711,3.14
200,0.10556188570590191,0.08151598306365423,0.06706997162183093,2.272442907314288,2.279648645576827,1.7105965841583193,2.15814960957923,1.0,0.1242444760518638,0.9270497900454692,-0.010280167201804875,0.08253723802553792,-2.4859166407970905,3.14
201,0.10556188570796944,0.08151598306332404,0.0670699716254853,2.27244290731429,2.2796486455771574,1.710596584158285,2.1581496095729555,1.0,0.12424447604741842,0.92704979006101,-0.010280167232960056,0.08253723803113999,-2.4859166407812383,3.14
202,0.10556188570982988,0.08151598306302757,0.06706997162877192,2.272442907314292,2.279648645577454,1.710596584158255,2.1581496095673107,1.0,0.1242444760434192,0.9270497900749909,-0.010280167260988678,0.08253723803617977,-2.485916640766977,3.14
203,0.10556188571150367,0.08151598306276084,0.06706997163173053,2.272442907314293,2.279648645577721,1.7105965841582285,2.158149609562232,1.0,0.12424447603982136,0.9270497900875688,-0.010280167286204562,0.08253723804071375,-2.485916640754146,3.14
204,0.1055618857130096,0.08151598306252074,0.06706997163439098,2.2724429073142947,2.279648645577961,1.7105965841582043,2.1581496095576633,1.0,0.12424447603658453,0.9270497900988846,-0.010280167308889901,0.08253723804479275,-2.4859166407426034,3.14
205,0.10556188571436417,0.0815159830623046,0.06706997163678968,2.272442907314296,2.2796486455781775,1.7105965841581816,2.1581496095535533,1.0,0.12424447603367261,0.9270497901090649,-0.010280167329298628,0.08253723804846232,-2.485916640732219,3.14
206,0.10556188571558243,0.08151598306210978,0.0670699716389399,2.2724429073142964,2.2796486455783724,1.7105965841581625,2.1581496095498554,1.0,0.12424447603105288,0.9270497901182233,-0.010280167347659316,0.08253723805176366,-2.4859166407228765,3.14
207,0.1055618857166786,0.08151598306193492,0.06706997164087808,2.272442907314298,2.2796486455785474,1.7105965841581443,2.158149609546529,1.0,0.12424447602869607,0.9270497901264629,-0.010280167364177509,0.08253723805473366,-2.4859166407144717,3.14
208,0.10556188571766506,0.0815159830617778,0.06706997164262408,2.2724429073142995,2.2796486455787046,1.7105965841581288,2.1581496095435364,1.0,0.12424447602657579,0.9270497901338753,-0.010280167379038007,0.08253723805740558,-2.48591664070691,3.14
209,0.10556188571855221,0.08151598306163622,0.06706997164418789,2.2724429073143,2.2796486455788463,1.7105965841581143,2.158149609540844,1.0,0.12424447602466834,0.9270497901405441,-0.010280167392407261,0.08253723805980928,-2.4859166407001076,3.14
210,0.10556188571935093,0.0815159830615093,0.06706997164560259,2.272442907314301,2.2796486455789733,1.7105965841581012,2.158149609538422,1.0,0.12424447602295227,0.9270497901465435,-0.010280167404434774,0.08253723806197184,-2.4859166406939877,3.14
211,0.10556188572006905,0.08151598306139479,0.06706997164687152,2.2724429073143013,2.279648645579088,1.71059658415809,2.1581496095362427,1.0,0.12424447602140844,0.927049790151941,-0.010280167415255293,0.08253723806391737,-2.485916640688482,3.14
212,0.1055618857207143,0.08151598306129094,0.06706997164801454,2.2724429073143018,2.279648645579192,1.7105965841580795,2.1581496095342825,1.0,0.12424447602001953,0.9270497901567968,-0.010280167424989958,0.08253723806566761,-2.485916640683529,3.14
213,0.10556188572129639,0.08151598306119907,0.06706997164904162,2.272442907314303,2.2796486455792837,1.71059658415807,2.158149609532519,1.0,0.12424447601877003,0.9270497901611652,-0.010280167433747687,0.08253723806724218,-2.485916640679073,3.14
214,0.10556188572181932,0.08151598306111564,0.06706997164996929,2.272442907314303,2.279648645579367,1.7105965841580617,2.1581496095309323,1.0,0.12424447601764593,0.9270497901650953,-0.010280167441626515,0.08253723806865876,-2.485916640675064,3.14
215,0.10556188572228918,0.0815159830610402,0.06706997165079757,2.2724429073143035,2.2796486455794427,1.710596584158054,2.158149609529505,1.0,0.12424447601663464,0.9270497901686309,-0.010280167448714673,0.08253723806993316,-2.4859166406714577,3.14
216,0.10556188572271269,0.08151598306097319,0.06706997165154634,2.272442907314304,2.2796486455795097,1.710596584158047,2.1581496095282207,1.0,0.12424447601572484,0.9270497901718117,-0.010280167455091489,0.08253723807107963,-2.4859166406682127,3.14
217,0.1055618857230933,0.08151598306091237,0.0670699716522189,2.272442907314305,2.2796486455795706,1.7105965841580413,2.1581496095270656,1.0,0.12424447601490625,0.9270497901746731,-0.010280167460828412,0.08253723807211116,-2.4859166406652937,3.14
218,0.10556188572343608,0.08151598306085779,0.0670699716528252,2.2724429073143044,2.279648645579625,1.7105965841580353,2.158149609526026,1.0,0.12424447601416995,0.9270497901772476,-0.010280167465989537,0.08253723807303902,-2.4859166406626674,3.14
219,0.10556188572374457,0.08151598306080897,0.06706997165336856,2.272442907314305,2.279648645579674,1.7105965841580306,2.1581496095250907,1.0,0.12424447601350747,0.9270497901795637,-0.010280167470632772,0.08253723807387388,-2.485916640660305,3.14
220,0.10556188572402167,0.08151598306076414,0.06706997165385889,2.2724429073143053,2.279648645579719,1.7105965841580262,2.158149609524249,1.0,0.12424447601291147,0.9270497901816473,-0.01028016747481002,0.08253723807462492,-2.4859166406581794,3.14
221,0.10556188572427123,0.08151598306072465,0.06706997165429954,2.2724429073143053,2.2796486455797584,1.7105965841580217,2.1581496095234924,1.0,0.12424447601237533,0.9270497901835221,-0.010280167478568036,0.08253723807530058,-2.485916640656267,3.14
222,0.10556188572449503,0.08151598306068825,0.06706997165469712,2.2724429073143053,2.279648645579795,1.7105965841580182,2.1581496095228117,1.0,0.12424447601189288,0.9270497901852085,-0.01028016748194898,0.08253723807590851,-2.4859166406545468,3.14
223,0.10556188572469748,0.08151598306065629,0.06706997165505162,2.272442907314306,2.279648645579827,1.710596584158015,2.1581496095221993,1.0,0.12424447601145894,0.9270497901867257,-0.010280167484990633,0.08253723807645535,-2.485916640652999,3.14
224,0.10556188572487903,0.08151598306062745,0.0670699716553763,2.2724429073143058,2.2796486455798557,1.7105965841580124,2.158149609521648,1.0,0.12424447601106853,0.9270497901880906,-0.010280167487727029,0.08253723807694735,-2.485916640651607,3.14
225,0.10556188572504203,0.08151598306060126,0.06706997165566454,2.2724429073143066,2.279648645579882,1.7105965841580097,2.1581496095211525,1.0,0.12424447601071727,0.9270497901893185,-0.010280167490188808,0.08253723807739,-2.485916640650354,3.14
226,0.10556188572518907,0.08151598306057774,0.06706997165591966,2.2724429073143058,2.2796486455799054,1.710596584158007,2.1581496095207062,1.0,0.12424447601040135,0.9270497901904233,-0.010280167492403566,0.0825372380777881,-2.4859166406492275,3.14
227,0.10556188572532148,0.08151598306055732,0.0670699716561582,2.272442907314306,2.279648645579926,1.7105965841580046,2.158149609520305,1.0,0.12424447601011702,0.9270497901914172,-0.010280167494396038,0.08253723807814642,-2.4859166406482136,3.14
228,0.10556188572544077,0.08151598306053824,0.06706997165637024,2.2724429073143066,2.279648645579945,1.710596584158003,2.158149609519944,1.0,0.12424447600986124,0.9270497901923112,-0.010280167496188522,0.08253723807846874,-2.4859166406473014,3.14
229,0.10556188572554787,0.08151598306052137,0.06706997165655577,2.272442907314307,2.279648645579962,1.7105965841580018,2.1581496095196195,1.0,0.12424447600963114,0.9270497901931155,-0.010280167497801179,0.08253723807875868,-2.4859166406464808,3.14
230,0.10556188572564372,0.0815159830605054,0.06706997165672475,2.2724429073143066,2.279648645579978,1.7105965841579998,2.1581496095193273,1.0,0.12424447600942419,0.9270497901938394,-0.010280167499251992,0.0825372380790195,-2.4859166406457427,3.14
231,0.10556188572573032,0.08151598306049164,0.06706997165688046,2.272442907314307,2.2796486455799916,1.7105965841579982,2.158149609519065,1.0,0.12424447600923798,0.9270497901944905,-0.010280167500557201,0.08253723807925413,-2.485916640645079,3.14
232,0.10556188572580809,0.0815159830604792,0.06706997165701961,2.2724429073143075,2.279648645580004,1.7105965841579973,2.1581496095188286,1.0,0.12424447600907045,0.9270497901950762,-0.01028016750173141,0.08253723807946522,-2.485916640644481,3.14
233,0.10556188572587838,0.08151598306046812,0.06706997165714551,2.2724429073143075,2.279648645580015,1.710596584157996,2.158149609518616,1.0,0.12424447600891976,0.9270497901956032,-0.010280167502787856,0.0825372380796551,-2.4859166406439437,3.14
234,0.10556188572594113,0.08151598306045792,0.06706997165725154,2.2724429073143075,2.2796486455800253,1.7105965841579949,2.1581496095184245,1.0,0.1242444760087842,0.9270497901960773,-0.010280167503738264,0.08253723807982592,-2.48591664064346,3.14
235,0.10556188572599834,0.08151598306044948,0.06706997165735093,2.2724429073143075,2.2796486455800338,1.7105965841579944,2.158149609518252,1.0,0.12424447600866223,0.9270497901965036,-0.010280167504593221,0.08253723807997963,-2.485916640643025,3.14
236,0.10556188572604897,0.0815159830604406,0.0670699716574437,2.2724429073143075,2.2796486455800427,1.710596584157993,2.1581496095180976,1.0,0.1242444760085525,0.9270497901968875,-0.01028016750536246,0.08253723808011793,-2.4859166406426336,3.14
237,0.10556188572609498,0.0815159830604335,0.06706997165752321,2.2724429073143075,2.2796486455800498,1.7105965841579924,2.158149609517958,1.0,0.12424447600845383,0.9270497901972327,-0.01028016750605446,0.08253723808024227,-2.4859166406422815,3.14
238,0.10556188572613619,0.08151598306042684,0.06706997165759941,2.2724429073143084,2.2796486455800564,1.7105965841579918,2.158149609517833,1.0,0.124244476008365,0.9270497901975432,-0.010280167506677096,0.08253723808035421,-2.485916640641965,3.14
239,0.10556188572617325,0.08151598306042107,0.06706997165765904,2.272442907314307,2.279648645580062,1.7105965841579913,2.1581496095177197,1.0,0.12424447600828514,0.9270497901978224,-0.010280167507237172,0.08253723808045481,-2.4859166406416797,3.14
240,0.10556188572620678,0.08151598306041576,0.067069971657722,2.272442907314308,2.2796486455800675,1.7105965841579909,2.1581496095176185,1.0,0.12424447600821324,0.9270497901980738,-0.01028016750774105,0.08253723808054543,-2.4859166406414235,3.14
241,0.10556188572623718,0.08151598306041132,0.06706997165777501,2.272442907314308,2.279648645580072,1.7105965841579902,2.1581496095175274,1.0,0.12424447600814859,0.9270497901982999,-0.010280167508194342,0.08253723808062692,-2.485916640641193,3.14
242,0.10556188572626424,0.08151598306040687,0.0670699716578247,2.2724429073143075,2.2796486455800764,1.7105965841579898,2.1581496095174453,1.0,0.12424447600809042,0.9270497901985033,-0.010280167508602096,0.0825372380807002,-2.4859166406409856,3.14
243,0.10556188572628811,0.08151598306040243,0.06706997165786446,2.272442907314308,2.279648645580081,1.7105965841579893,2.158149609517371,1.0,0.12424447600803808,0.9270497901986864,-0.010280167508968933,0.08253723808076618,-2.4859166406407986,3.14
244,0.10556188572631055,0.08151598306039977,0.06706997165790422,2.272442907314307,2.2796486455800835,1.710596584157989,2.1581496095173045,1.0,0.12424447600799102,0.927049790198851,-0.010280167509299009,0.08253723808082547,-2.485916640640631,3.14
245,0.10556188572633016,0.08151598306039577,0.06706997165793735,2.272442907314308,2.2796486455800875,1.7105965841579887,2.158149609517245,1.0,0.1242444760079486,0.9270497901989992,-0.010280167509595952,0.08253723808087893,-2.48591664064048,3.14
246,0.10556188572634775,0.08151598306039357,0.06706997165797049,2.272442907314308,2.2796486455800897,1.710596584157988,2.158149609517191,1.0,0.1242444760079105,0.9270497901991326,-0.01028016750986312,0.08253723808092693,-2.485916640640344,3.14
247,0.10556188572636324,0.08151598306039046,0.06706997165799698,2.2724429073143066,2.279648645580093,1.710596584157988,2.158149609517142,1.0,0.12424447600787623,0.9270497901992524,-0.010280167510103449,0.0825372380809701,-2.4859166406402213,3.14
248,0.10556188572637758,0.08151598306038824,0.06706997165802019,2.2724429073143075,2.279648645580095,1.710596584157988,2.1581496095170984,1.0,0.12424447600784536,0.9270497901993602,-0.010280167510319665,0.08253723808100903,-2.485916640640111,3.14
249,0.10556188572639047,0.08151598306038602,0.06706997165804668,2.272442907314307,2.2796486455800973,1.7105965841579875,2.1581496095170594,1.0,0.12424447600781763,0.9270497901994573,-0.010280167510514193,0.08253723808104395,-2.485916640640012,3.14
250,0.10556188572640256,0.08151598306038424,0.06706997165806988,2.2724429073143075,2.279648645580099,1.7105965841579873,2.1581496095170243,1.0,0.12424447600779266,0.9270497901995446,-0.010280167510689203,0.08253723808107542,-2.4859166406399233,3.14
251,0.10556188572641215,0.08151598306038202,0.06706997165808314,2.272442907314308,2.2796486455801013,1.710596584157987,2.1581496095169928,1.0,0.12424447600777015,0.9270497901996232,-0.010280167510846646,0.08253723808110376,-2.4859166406398434,3.14
252,0.10556188572642221,0.08151598306038113,0.06706997165810301,2.272442907314307,2.279648645580102,1.7105965841579869,2.1581496095169643,1.0,0.12424447600774999,0.9270497901996938,-0.01028016751098831,0.08253723808112919,-2.4859166406397715,3.14
253,0.10556188572643077,0.0815159830603798,0.06706997165811958,2.272442907314308,2.2796486455801035,1.7105965841579869,2.158149609516939,1.0,0.12424447600773174,0.9270497901997572,-0.010280167511115677,0.0825372380811522,-2.4859166406397066,3.14
254,0.10556188572643874,0.08151598306037892,0.06706997165813283,2.2724429073143084,2.2796486455801044,1.7105965841579867,2.158149609516916,1.0,0.12424447600771542,0.9270497901998144,-0.01028016751123029,0.08253723808117278,-2.485916640639648,3.14
255,0.10556188572644512,0.08151598306037758,0.06706997165814277,2.2724429073143084,2.2796486455801057,1.7105965841579869,2.158149609516895,1.0,0.1242444760077007,0.9270497901998658,-0.010280167511333418,0.08253723808119133,-2.4859166406395956,3.14
256,0.10556188572645146,0.0815159830603767,0.0670699716581527,2.2724429073143075,2.2796486455801066,1.7105965841579867,2.158149609516876,1.0,0.12424447600768755,0.9270497901999121,-0.01028016751142616,0.0825372380812079,-2.4859166406395485,3.14
257,0.10556188572645683,0.08151598306037582,0.06706997165816596,2.2724429073143075,2.2796486455801075,1.7105965841579867,2.158149609516859,1.0,0.12424447600767562,0.9270497901999536,-0.010280167511509628,0.08253723808122294,-2.485916640639506,3.14
258,0.10556188572646215,0.08151598306037536,0.06706997165817258,2.272442907314307,2.279648645580108,1.7105965841579869,2.158149609516844,1.0,0.12424447600766489,0.927049790199991,-0.010280167511584667,0.08253723808123649,-2.4859166406394677,3.14
259,0.10556188572646646,0.08151598306037447,0.06706997165817921,2.2724429073143075,2.279648645580109,1.7105965841579867,2.1581496095168307,1.0,0.12424447600765519,0.9270497902000248,-0.01028016751165222,0.0825372380812487,-2.4859166406394335,3.14
260,0.10556188572647038,0.08151598306037358,0.06706997165818583,2.272442907314308,2.2796486455801097,1.7105965841579867,2.1581496095168182,1.0,0.12424447600764654,0.9270497902000551,-0.010280167511713007,0.08253723808125961,-2.4859166406394024,3.14
261,0.1055618857264736,0.0815159830603727,0.06706997165819246,2.272442907314308,2.2796486455801106,1.7105965841579862,2.158149609516807,1.0,0.12424447600763878,0.9270497902000824,-0.010280167511767677,0.08253723808126937,-2.4859166406393745,3.14
262,0.10556188572647725,0.0815159830603727,0.0670699716582024,2.2724429073143075,2.2796486455801106,1.7105965841579864,2.1581496095167974,1.0,0.12424447600763178,0.9270497902001069,-0.010280167511816901,0.08253723808127816,-2.4859166406393496,3.14
263,0.10556188572648027,0.08151598306037226,0.06706997165820572,2.2724429073143075,2.279648645580111,1.7105965841579864,2.1581496095167885,1.0,0.12424447600762545,0.927049790200129,-0.010280167511861147,0.08253723808128613,-2.485916640639327,3.14
264,0.10556188572648305,0.0815159830603718,0.06706997165820902,2.272442907314308,2.2796486455801115,1.710596584157986,2.1581496095167805,1.0,0.12424447600761974,0.927049790200149,-0.010280167511900962,0.08253723808129332,-2.4859166406393065,3.14
265,0.10556188572648546,0.08151598306037137,0.06706997165821234,2.2724429073143075,2.279648645580112,1.710596584157986,2.1581496095167734,1.0,0.12424447600761461,0.9270497902001669,-0.010280167511936819,0.0825372380812998,-2.4859166406392883,3.14
266,0.10556188572648748,0.08151598306037093,0.06706997165821565,2.272442907314308,2.2796486455801124,1.7105965841579862,2.158149609516767,1.0,0.12424447600760995,0.9270497902001829,-0.010280167511969108,0.08253723808130567,-2.485916640639272,3.14
267,0.10556188572648952,0.08151598306037093,0.06706997165821897,2.2724429073143084,2.2796486455801124,1.710596584157986,2.1581496095167614,1.0,0.12424447600760583,0.9270497902001974,-0.010280167511998093,0.08253723808131085,-2.485916640639257,3.14
268,0.10556188572649078,0.08151598306037004,0.06706997165822559,2.2724429073143084,2.2796486455801133,1.710596584157986,2.158149609516756,1.0,0.12424447600760213,0.9270497902002104,-0.010280167512024185,0.0825372380813155,-2.485916640639244,3.14
269,0.10556188572649237,0.08151598306037004,0.06706997165822891,2.2724429073143075,2.2796486455801133,1.7105965841579858,2.158149609516751,1.0,0.12424447600759883,0.927049790200222,-0.010280167512047696,0.08253723808131963,-2.485916640639232,3.14
270,0.10556188572649398,0.08151598306037004,0.06706997165823222,2.2724429073143075,2.2796486455801133,1.7105965841579862,2.1581496095167467,1.0,0.1242444760075958,0.9270497902002325,-0.010280167512068845,0.0825372380813234,-2.4859166406392212,3.14
271,0.10556188572649558,0.08151598306037004,0.06706997165823222,2.2724429073143084,2.2796486455801133,1.7105965841579864,2.158149609516743,1.0,0.12424447600759307,0.9270497902002419,-0.010280167512087796,0.08253723808132687,-2.4859166406392115,3.14
272,0.10556188572649627,0.0815159830603696,0.06706997165823222,2.2724429073143084,2.2796486455801137,1.7105965841579858,2.1581496095167396,1.0,0.12424447600759068,0.9270497902002506,-0.01028016751210489,0.08253723808132987,-2.485916640639203,3.14
273,0.10556188572649769,0.0815159830603696,0.06706997165823553,2.2724429073143075,2.2796486455801137,1.710596584157986,2.158149609516736,1.0,0.12424447600758852,0.9270497902002581,-0.010280167512120244,0.08253723808133258,-2.485916640639195,3.14
274,0.10556188572649866,0.0815159830603696,0.06706997165823553,2.272442907314307,2.2796486455801137,1.710596584157986,2.158149609516733,1.0,0.12424447600758658,0.9270497902002651,-0.010280167512134088,0.08253723808133508,-2.485916640639188,3.14
275,0.1055618857264992,0.08151598306036915,0.06706997165824216,2.2724429073143075,2.279648645580114,1.710596584157986,2.1581496095167307,1.0,0.12424447600758474,0.9270497902002713,-0.010280167512146485,0.08253723808133738,-2.4859166406391817,3.14
276,0.10556188572649995,0.08151598306036915,0.06706997165823884,2.272442907314308,2.279648645580114,1.7105965841579858,2.1581496095167285,1.0,0.12424447600758314,0.927049790200277,-0.010280167512157688,0.08253723808133942,-2.485916640639176,3.14
277,0.10556188572650038,0.08151598306036871,0.06706997165824216,2.272442907314307,2.2796486455801146,1.710596584157986,2.1581496095167263,1.0,0.12424447600758172,0.927049790200282,-0.010280167512167803,0.08253723808134117,-2.485916640639171,3.14
278,0.10556188572650112,0.08151598306036871,0.06706997165824216,2.272442907314308,2.2796486455801146,1.7105965841579855,2.158149609516725,1.0,0.12424447600758041,0.9270497902002867,-0.010280167512176867,0.08253723808134286,-2.4859166406391666,3.14
279,0.10556188572650205,0.08151598306036871,0.06706997165824548,2.2724429073143084,2.2796486455801146,1.7105965841579858,2.158149609516723,1.0,0.12424447600757926,0.9270497902002907,-0.010280167512185023,0.08253723808134432,-2.4859166406391626,3.14
280,0.10556188572650238,0.08151598306036871,0.06706997165824216,2.2724429073143075,2.2796486455801146,1.7105965841579858,2.1581496095167214,1.0,0.12424447600757822,0.9270497902002943,-0.01028016751219228,0.08253723808134564,-2.4859166406391586,3.14
281,0.10556188572650317,0.08151598306036871,0.06706997165824548,2.2724429073143075,2.2796486455801146,1.7105965841579858,2.15814960951672,1.0,0.12424447600757725,0.9270497902002977,-0.010280167512198887,0.08253723808134689,-2.4859166406391555,3.14
282,0.10556188572650313,0.08151598306036827,0.06706997165824548,2.2724429073143075,2.279648645580115,1.7105965841579858,2.1581496095167187,1.0,0.12424447600757636,0.9270497902003005,-0.01028016751220482,0.08253723808134801,-2.4859166406391524,3.14
283,0.1055618857265033,0.08151598306036827,0.06706997165824548,2.2724429073143075,2.279648645580115,1.7105965841579858,2.158149609516718,1.0,0.12424447600757561,0.9270497902003032,-0.01028016751221015,0.08253723808134897,-2.4859166406391497,3.14
284,0.10556188572650349,0.08151598306036827,0.06706997165824878,2.2724429073143075,2.279648645580115,1.7105965841579858,2.158149609516717,1.0,0.12424447600757495,0.9270497902003055,-0.010280167512214932,0.0825372380813498,-2.485916640639147,3.14
285,0.10556188572650417,0.08151598306036827,0.06706997165824878,2.2724429073143075,2.279648645580115,1.7105965841579858,2.158149609516716,1.0,0.12424447600757436,0.9270497902003078,-0.010280167512219263,0.08253723808135051,-2.485916640639145,3.14
286,0.10556188572650411,0.08151598306036827,0.06706997165824878,2.2724429073143075,2.279648645580115,1.7105965841579855,2.158149609516715,1.0,0.12424447600757382,0.9270497902003098,-0.01028016751222314,0.08253723808135119,-2.485916640639143,3.14
287,0.10556188572650436,0.08151598306036827,0.06706997165824878,2.2724429073143075,2.279648645580115,1.710596584157986,2.1581496095167148,1.0,0.12424447600757332,0.9270497902003115,-0.010280167512226683,0.08253723808135184,-2.4859166406391413,3.14
288,0.10556188572650489,0.08151598306036827,0.06706997165824878,2.272442907314308,2.279648645580115,1.7105965841579855,2.1581496095167143,1.0,0.12424447600757288,0.9270497902003132,-0.010280167512229843,0.08253723808135238,-2.48591664063914,3.14
289,0.10556188572650449,0.08151598306036782,0.0670699716582521,2.272442907314308,2.2796486455801155,1.7105965841579853,2.158149609516714,1.0,0.12424447600757248,0.9270497902003146,-0.010280167512232619,0.08253723808135291,-2.4859166406391386,3.14
290,0.10556188572650499,0.08151598306036782,0.06706997165824878,2.272442907314307,2.2796486455801155,1.7105965841579855,2.158149609516713,1.0,0.12424447600757217,0.9270497902003157,-0.010280167512235108,0.0825372380813533,-2.4859166406391373,3.14
291,0.10556188572650517,0.08151598306036827,0.0670699716582521,2.2724429073143075,2.279648645580115,1.7105965841579855,2.1581496095167125,1.0,0.12424447600757182,0.9270497902003167,-0.010280167512237346,0.08253723808135376,-2.485916640639136,3.14
292,0.10556188572650552,0.08151598306036827,0.06706997165824878,2.2724429073143075,2.279648645580115,1.7105965841579858,2.158149609516712,1.0,0.12424447600757152,0.9270497902003179,-0.01028016751223937,0.08253723808135414,-2.4859166406391346,3.14
293,0.10556188572650516,0.08151598306036782,0.06706997165824878,2.272442907314307,2.2796486455801155,1.7105965841579855,2.1581496095167116,1.0,0.12424447600757123,0.9270497902003189,-0.010280167512241273,0.08253723808135449,-2.4859166406391338,3.14
294,0.10556188572650593,0.08151598306036827,0.06706997165824878,2.272442907314308,2.279648645580115,1.7105965841579855,2.1581496095167116,1.0,0.12424447600757098,0.9270497902003196,-0.010280167512242932,0.08253723808135477,-2.485916640639133,3.14
295,0.1055618857265063,0.08151598306036827,0.0670699716582521,2.2724429073143075,2.279648645580115,1.7105965841579858,2.158149609516711,1.0,0.12424447600757073,0.9270497902003204,-0.010280167512244491,0.08253723808135509,-2.4859166406391324,3.14
296,0.10556188572650549,0.08151598306036782,0.0670699716582521,2.272442907314308,2.2796486455801155,1.7105965841579858,2.158149609516711,1.0,0.12424447600757048,0.9270497902003211,-0.010280167512245834,0.08253723808135544,-2.4859166406391315,3.14
297,0.10556188572650575,0.08151598306036782,0.0670699716582521,2.272442907314308,2.2796486455801155,1.7105965841579858,2.158149609516711,1.0,0.12424447600757033,0.9270497902003216,-0.010280167512247028,0.08253723808135562,-2.485916640639131,3.14
298,0.10556188572650571,0.08151598306036782,0.06706997165824878,2.2724429073143084,2.2796486455801155,1.7105965841579858,2.158149609516711,1.0,0.12424447600757021,0.9270497902003222,-0.010280167512248145,0.08253723808135574,-2.4859166406391306,3.14
299,0.1055618857265059,0.08151598306036782,0.06706997165824878,2.2724429073143084,2.2796486455801155,1.7105965841579855,2.1581496095167108,1.0,0.12424447600757013,0.9270497902003227,-0.01028016751224909,0.08253723808135584,-2.48591664063913,3.14
300,0.10556188572650671,0.08151598306036827,0.0670699716582521,2.272442907314308,2.279648645580115,1.7105965841579858,2.1581496095167103,1.0,0.12424447600757002,0.9270497902003231,-0.010280167512249918,0.08253723808135598,-2.4859166406391298,3.14
301,0.10556188572650572,0.08151598306036782,0.0670699716582521,2.2724429073143075,2.2796486455801155,1.7105965841579855,2.15814960951671,1.0,0.12424447600756988,0.9270497902003235,-0.010280167512250719,0.08253723808135617,-2.4859166406391293,3.14
302,0.10556188572650609,0.08151598306036782,0.0670699716582521,2.2724429073143075,2.2796486455801155,1.7105965841579853,2.15814960951671,1.0,0.12424447600756984,0.9270497902003239,-0.010280167512251397,0.08253723808135621,-2.485916640639129,3.14
303,0.1055618857265068,0.08151598306036827,0.0670699716582521,2.272442907314307,2.279648645580115,1.7105965841579858,2.1581496095167094,1.0,0.12424447600756976,0.9270497902003241,-0.010280167512252018,0.08253723808135631,-2.4859166406391284,3.14
304,0.10556188572650586,0.08151598306036782,0.0670699716582521,2.2724429073143075,2.2796486455801155,1.7105965841579858,2.1581496095167094,1.0,0.1242444760075696,0.9270497902003244,-0.010280167512252632,0.08253723808135652,-2.485916640639128,3.14
305,0.10556188572650639,0.08151598306036782,0.0670699716582521,2.2724429073143075,2.2796486455801155,1.7105965841579858,2.1581496095167094,1.0,0.12424447600756958,0.9270497902003247,-0.010280167512253219,0.08253723808135653,-2.4859166406391275,3.14
306,0.10556188572650604,0.08151598306036738,0.0670699716582521,2.272442907314307,2.279648645580116,1.7105965841579853,2.158149609516709,1.0,0.12424447600756952,0.9270497902003251,-0.01028016751225375,0.08253723808135663,-2.4859166406391275,3.14
307,0.10556188572650563,0.08151598306036738,0.06706997165824878,2.272442907314307,2.279648645580116,1.7105965841579855,2.158149609516709,1.0,0.12424447600756944,0.9270497902003253,-0.010280167512254185,0.08253723808135674,-2.485916640639127,3.14
308,0.1055618857265067,0.08151598306036827,0.0670699716582521,2.2724429073143075,2.279648645580115,1.7105965841579858,2.1581496095167094,1.0,0.12424447600756935,0.9270497902003254,-0.01028016751225459,0.08253723808135684,-2.4859166406391267,3.14
309,0.1055618857265064,0.08151598306036782,0.0670699716582521,2.272442907314308,2.2796486455801155,1.7105965841579855,2.1581496095167094,1.0,0.12424447600756924,0.9270497902003256,-0.01028016751225494,0.08253723808135698,-2.4859166406391267,3.14
310,0.1055618857265068,0.08151598306036827,0.06706997165825541,2.272442907314308,2.279648645580115,1.7105965841579855,2.158149609516709,1.0,0.12424447600756922,0.9270497902003257,-0.010280167512255248,0.08253723808135698,-2.4859166406391267,3.14
311,0.10556188572650639,0.08151598306036782,0.0670699716582521,2.272442907314308,2.2796486455801155,1.7105965841579855,2.158149609516709,1.0,0.12424447600756915,0.9270497902003259,-0.010280167512255507,0.08253723808135706,-2.4859166406391267,3.14
312,0.10556188572650675,0.08151598306036827,0.0670699716582521,2.272442907314308,2.279648645580115,1.710596584157986,2.158149609516709,1.0,0.1242444760075691,0.927049790200326,-0.01028016751225574,0.08253723808135714,-2.4859166406391267,3.14
313,0.10556188572650697,0.08151598306036827,0.0670699716582521,2.272442907314308,2.279648645580115,1.710596584157985,2.158149609516709,1.0,0.12424447600756909,0.9270497902003263,-0.010280167512255911,0.0825372380813572,-2.4859166406391267,3.14
314,0.1055618857265069,0.08151598306036827,0.06706997165825541,2.272442907314308,2.279648645580115,1.7105965841579853,2.158149609516709,1.0,0.12424447600756901,0.9270497902003263,-0.010280167512256105,0.08253723808135732,-2.485916640639126,3.14
315,0.1055618857265068,0.08151598306036827,0.06706997165825541,2.2724429073143075,2.279648645580115,1.7105965841579855,2.1581496095167085,1.0,0.12424447600756898,0.9270497902003263,-0.0102801675122563,0.08253723808135735,-2.485916640639126,3.14
316,0.10556188572650663,0.08151598306036827,0.06706997165825541,2.2724429073143075,2.279648645580115,1.7105965841579855,2.1581496095167085,1.0,0.12424447600756895,0.9270497902003263,-0.01028016751225646,0.08253723808135738,-2.485916640639126,3.14
317,0.10556188572650663,0.08151598306036827,0.0670699716582521,2.2724429073143075,2.279648645580115,1.7105965841579855,2.1581496095167085,1.0,0.12424447600756895,0.9270497902003264,-0.010280167512256605,0.08253723808135738,-2.485916640639126,3.14
318,0.10556188572650647,0.08151598306036782,0.06706997165825541,2.2724429073143075,2.2796486455801155,1.7105965841579855,2.1581496095167085,1.0,0.12424447600756895,0.9270497902003265,-0.010280167512256739,0.08253723808135739,-2.485916640639126,3.14
319,0.10556188572650697,0.08151598306036782,0.06706997165825541,2.2724429073143075,2.2796486455801155,1.7105965841579855,2.1581496095167085,1.0,0.12424447600756894,0.9270497902003265,-0.010280167512256808,0.08253723808135739,-2.485916640639126,3.14
320,0.10556188572650678,0.08151598306036782,0.06706997165825541,2.2724429073143075,2.2796486455801155,1.7105965841579855,2.1581496095167085,1.0,0.12424447600756888,0.9270497902003265,-0.010280167512256869,0.08253723808135745,-2.485916640639126,3.14
321,0.10556188572650645,0.08151598306036782,0.06706997165825541,2.272442907314308,2.2796486455801155,1.7105965841579855,2.158149609516709,1.0,0.12424447600756883,0.9270497902003265,-0.010280167512256884,0.08253723808135754,-2.4859166406391258,3.14
322,0.1055618857265068,0.08151598306036782,0.06706997165825541,2.272442907314308,2.2796486455801155,1.7105965841579858,2.158149609516709,1.0,0.1242444760075688,0.9270497902003265,-0.010280167512257006,0.08253723808135757,-2.4859166406391258,3.14
323,0.10556188572650697,0.08151598306036827,0.06706997165825541,2.272442907314308,2.279648645580115,1.710596584157986,2.158149609516709,1.0,0.12424447600756877,0.9270497902003265,-0.010280167512257108,0.08253723808135761,-2.4859166406391258,3.14
324,0.1055618857265071,0.08151598306036827,0.06706997165825541,2.272442907314308,2.279648645580115,1.7105965841579858,2.158149609516709,1.0,0.12424447600756876,0.9270497902003266,-0.010280167512257153,0.08253723808135764,-2.4859166406391258,3.14
325,0.1055618857265066,0.08151598306036782,0.06706997165825541,2.272442907314308,2.2796486455801155,1.7105965841579855,2.158149609516709,1.0,0.12424447600756876,0.9270497902003267,-0.010280167512257195,0.08253723808135764,-2.4859166406391258,3.14
326,0.10556188572650697,0.08151598306036827,0.06706997165825541,2.272442907314308,2.279648645580115,1.7105965841579858,2.158149609516709,1.0,0.12424447600756879,0.9270497902003267,-0.010280167512257249,0.0825372380813576,-2.4859166406391258,3.14
327,0.105561885726507,0.08151598306036827,0.06706997165825541,2.272442907314308,2.279648645580115,1.7105965841579858,2.158149609516709,1.0,0.12424447600756876,0.9270497902003267,-0.010280167512257283,0.08253723808135766,-2.4859166406391258,3.14
328,0.10556188572650711,0.08151598306036827,0.06706997165825541,2.272442907314308,2.279648645580115,1.7105965841579855,2.158149609516709,1.0,0.12424447600756874,0.9270497902003269,-0.01028016751225731,0.08253723808135767,-2.4859166406391258,3.14
329,0.10556188572650711,0.08151598306036827,0.06706997165825541,2.272442907314308,2.279648645580115,1.7105965841579855,2.158149609516709,1.0,0.12424447600756873,0.9270497902003269,-0.01028016751225734,0.08253723808135767,-2.4859166406391258,3.14
330,0.10556188572650711,0.08151598306036827,0.06706997165825541,2.272442907314308,2.279648645580115,1.7105965841579855,2.158149609516709,1.0,0.12424447600756873,0.9270497902003269,-0.010280167512257372,0.08253723808135767,-2.4859166406391258,3.14
331,0.10556188572650695,0.08151598306036827,0.06706997165825873,2.272442907314308,2.279648645580115,1.7105965841579855,2.158149609516709,1.0,0.12424447600756873,0.9270497902003269,-0.010280167512257398,0.08253723808135767,-2.4859166406391258,3.14
332,0.10556188572650695,0.08151598306036827,0.06706997165825873,2.272442907314308,2.279648645580115,1.7105965841579855,2.158149609516709,1.0,0.12424447600756873,0.9270497902003269,-0.010280167512257429,0.08253723808135767,-2.4859166406391258,3.14
333,0.10556188572650695,0.08151598306036827,0.06706997165825873,2.272442907314308,2.279648645580115,1.7105965841579855,2.158149609516709,1.0,0.12424447600756872,0.9270497902003269,-0.010280167512257455,0.08253723808135767,-2.4859166406391258,3.14
334,0.10556188572650695,0.08151598306036827,0.06706997165825873,2.272442907314308,2.279648645580115,1.7105965841579855,2.158149609516709,1.0,0.12424447600756872,0.9270497902003269,-0.010280167512257474,0.08253723808135768,-2.4859166406391258,3.14
335,0.10556188572650695,0.08151598306036827,0.06706997165825873,2.272442907314308,2.279648645580115,1.7105965841579855,2.158149609516709,1.0,0.12424447600756872,0.9270497902003269,-0.01028016751225747,0.08253723808135768,-2.4859166406391258,3.14
336,0.10556188572650695,0.08151598306036827,0.06706997165825873,2.272442907314308,2.279648645580115,1.7105965841579855,2.158149609516709,1.0,0.12424447600756872,0.9270497902003269,-0.010280167512257467,0.08253723808135768,-2.4859166406391258,3.14
337,0.10556188572650695,0.08151598306036827,0.06706997165825541,2.272442907314308,2.279648645580115,1.7105965841579855,2.158149609516709,1.0,0.12424447600756872,0.9270497902003269,-0.010280167512257502,0.08253723808135768,-2.4859166406391258,3.14
338,0.10556188572650711,0.08151598306036827,0.06706997165825541,2.272442907314308,2.279648645580115,1.7105965841579855,2.158149609516709,1.0,0.12424447600756872,0.9270497902003269,-0.010280167512257514,0.08253723808135768,-2.4859166406391258,3.14
339,0.10556188572650706,0.08151598306036827,0.06706997165825541,2.2724429073143084,2.279648645580115,1.7105965841579855,2.158149609516709,1.0,0.1242444760075687,0.9270497902003269,-0.01028016751225754,0.0825372380813577,-2.4859166406391258,3.14
340,0.10556188572650711,0.08151598306036827,0.06706997165825541,2.272442907314308,2.279648645580115,1.7105965841579855,2.158149609516709,1.0,0.12424447600756873,0.9270497902003269,-0.010280167512257556,0.08253723808135767,-2.4859166406391258,3.14
341,0.10556188572650711,0.08151598306036827,0.06706997165825541,2.272442907314308,2.279648645580115,1.7105965841579855,2.158149609516709,1.0,0.12424447600756872,0.9270497902003269,-0.010280167512257556,0.0825372380813577,-2.4859166406391258,3.14
342,0.10556188572650707,0.08151598306036827,0.06706997165825541,2.2724429073143084,2.279648645580115,1.7105965841579855,2.158149609516709,1.0,0.1242444760075687,0.9270497902003269,-0.010280167512257552,0.08253723808135772,-2.4859166406391258,3.14
343,0.10556188572650718,0.08151598306036827,0.06706997165825541,2.272442907314308,2.279648645580115,1.7105965841579855,2.158149609516709,1.0,0.12424447600756873,0.9270497902003269,-0.010280167512257564,0.08253723808135768,-2.4859166406391258,3.14
344,0.10556188572650708,0.08151598306036827,0.06706997165825541,2.2724429073143084,2.279648645580115,1.7105965841579855,2.158149609516709,1.0,0.12424447600756869,0.9270497902003269,-0.01028016751225756,0.08253723808135774,-2.4859166406391258,3.14
345,0.10556188572650714,0.08151598306036827,0.06706997165825541,2.272442907314308,2.279648645580115,1.7105965841579855,2.158149609516709,1.0,0.12424447600756873,0.9270497902003269,-0.01028016751225756,0.08253723808135771,-2.4859166406391258,3.14
346,0.10556188572650714,0.08151598306036827,0.06706997165825541,2.272442907314308,2.279648645580115,1.7105965841579855,2.158149609516709,1.0,0.12424447600756872,0.9270497902003269,-0.010280167512257554,0.08253723808135772,-2.4859166406391258,3.14
347,0.10556188572650714,0.08151598306036827,0.06706997165825541,2.272442907314308,2.279648645580115,1.7105965841579855,2.158149609516709,1.0,0.12424447600756872,0.9270497902003269,-0.01028016751225755,0.08253723808135771,-2.4859166406391258,3.14
348,0.10556188572650707,0.08151598306036827,0.06706997165825541,2.2724429073143084,2.279648645580115,1.7105965841579855,2.158149609516709,1.0,0.1242444760075687,0.9270497902003269,-0.010280167512257524,0.08253723808135772,-2.4859166406391258,3.14
349,0.10556188572650718,0.08151598306036827,0.06706997165825541,2.272442907314308,2.279648645580115,1.7105965841579855,2.158149609516709,1.0,0.12424447600756873,0.9270497902003269,-0.010280167512257547,0.08253723808135768,-2.4859166406391258,3.14
350,0.10556188572650708,0.08151598306036827,0.06706997165825541,2.2724429073143084,2.279648645580115,1.7105965841579855,2.158149609516709,1.0,0.12424447600756869,0.9270497902003269,-0.010280167512257543,0.08253723808135774,-2.4859166406391258,3.14
351,0.10556188572650711,0.08151598306036827,0.06706997165825541,2.272442907314308,2.279648645580115,1.7105965841579855,2.158149609516709,1.0,0.12424447600756872,0.9270497902003269,-0.010280167512257575,0.08253723808135768,-2.4859166406391258,3.14
352,0.10556188572650707,0.08151598306036827,0.06706997165825541,2.2724429073143084,2.279648645580115,1.7105965841579855,2.158149609516709,1.0,0.1242444760075687,0.9270497902003269,-0.010280167512257575,0.08253723808135771,-2.4859166406391258,3.14
353,0.10556188572650718,0.08151598306036827,0.06706997165825541,2.272442907314308,2.279648645580115,1.7105965841579855,2.158149609516709,1.0,0.12424447600756873,0.9270497902003269,-0.010280167512257575,0.08253723808135768,-2.4859166406391258,3.14
354,0.10556188572650708,0.08151598306036827,0.06706997165825541,2.2724429073143084,2.279648645580115,1.7105965841579855,2.158149609516709,1.0,0.12424447600756869,0.9270497902003269,-0.010280167512257559,0.08253723808135774,-2.4859166406391258,3.14
355,0.10556188572650714,0.08151598306036827,0.06706997165825541,2.272442907314308,2.279648645580115,1.7105965841579855,2.158149609516709,1.0,0.12424447600756873,0.9270497902003269,-0.010280167512257559,0.08253723808135771,-2.4859166406391258,3.14
356,0.10556188572650714,0.08151598306036827,0.06706997165825541,2.272442907314308,2.279648645580115,1.7105965841579855,2.158149609516709,1.0,0.12424447600756872,0.9270497902003269,-0.010280167512257552,0.08253723808135772,-2.4859166406391258,3.14
357,0.10556188572650714,0.08151598306036827,0.06706997165825541,2.272442907314308,2.279648645580115,1.7105965841579855,2.158149609516709,1.0,0.12424447600756872,0.9270497902003269,-0.010280167512257549,0.08253723808135771,-2.4859166406391258,3.14
358,0.10556188572650707,0.08151598306036827,0.06706997165825541,2.2724429073143084,2.279648645580115,1.7105965841579855,2.158149609516709,1.0,0.1242444760075687,0.9270497902003269,-0.010280167512257523,0.08253723808135772,-2.4859166406391258,3.14
359,0.10556188572650718,0.08151598306036827,0.06706997165825541,2.272442907314308,2.279648645580115,1.7105965841579855,2.158149609516709,1.0,0.12424447600756873,0.9270497902003269,-0.010280167512257545,0.08253723808135768,-2.4859166406391258,3.14
360,0.10556188572650707,0.08151598306036827,0.06706997165825541,2.2724429073143084,2.279648645580115,1.7105965841579855,2.158149609516709,1.0,0.12424447600756869,0.9270497902003269,-0.010280167512257545,0.08253723808135772,-2.4859166406391258,3.14
361,0.10556188572650711,0.08151598306036827,0.06706997165825541,2.272442907314308,2.279648645580115,1.7105965841579855,2.158149609516709,1.0,0.12424447600756872,0.9270497902003269,-0.010280167512257568,0.08253723808135768,-2.4859166406391258,3.14
362,0.10556188572650707,0.08151598306036827,0.06706997165825541,2.2724429073143084,2.279648645580115,1.7105965841579855,2.158149609516709,1.0,0.1242444760075687,0.9270497902003269,-0.010280167512257549,0.08253723808135771,-2.4859166406391258,3.14
363,0.10556188572650711,0.08151598306036827,0.06706997165825541,2.272442907314308,2.279648645580115,1.7105965841579855,2.158149609516709,1.0,0.12424447600756873,0.9270497902003269,-0.010280167512257549,0.08253723808135767,-2.4859166406391258,3.14
364,0.10556188572650711,0.08151598306036827,0.06706997165825541,2.272442907314308,2.279648645580115,1.7105965841579855,2.158149609516709,1.0,0.12424447600756872,0.9270497902003269,-0.010280167512257549,0.0825372380813577,-2.4859166406391258,3.14
365,0.10556188572650707,0.08151598306036827,0.06706997165825541,2.2724429073143084,2.279648645580115,1.7105965841579855,2.158149609516709,1.0,0.1242444760075687,0.9270497902003269,-0.010280167512257545,0.08253723808135772,-2.4859166406391258,3.14
366,0.10556188572650718,0.08151598306036827,0.06706997165825541,2.272442907314308,2.279648645580115,1.7105965841579855,2.158149609516709,1.0,0.12424447600756873,0.9270497902003269,-0.010280167512257568,0.08253723808135768,-2.4859166406391258,3.14
367,0.10556188572650708,0.08151598306036827,0.06706997165825541,2.2724429073143084,2.279648645580115,1.7105965841579855,2.158149609516709,1.0,0.12424447600756869,0.9270497902003269,-0.010280167512257564,0.08253723808135774,-2.4859166406391258,3.14
368,0.10556188572650714,0.08151598306036827,0.06706997165825541,2.272442907314308,2.279648645580115,1.7105965841579855,2.158149609516709,1.0,0.12424447600756873,0.9270497902003269,-0.010280167512257564,0.08253723808135771,-2.4859166406391258,3.14
369,0.10556188572650714,0.08151598306036827,0.06706997165825541,2.272442907314308,2.279648645580115,1.7105965841579855,2.158149609516709,1.0,0.12424447600756872,0.9270497902003269,-0.010280167512257557,0.08253723808135772,-2.4859166406391258,3.14
370,0.10556188572650714,0.08151598306036827,0.06706997165825541,2.272442907314308,2.279648645580115,1.7105965841579855,2.158149609516709,1.0,0.12424447600756872,0.9270497902003269,-0.010280167512257554,0.08253723808135771,-2.4859166406391258,3.14
371,0.10556188572650707,0.08151598306036827,0.06706997165825541,2.2724429073143084,2.279648645580115,1.7105965841579855,2.158149609516709,1.0,0.1242444760075687,0.9270497902003269,-0.010280167512257528,0.08253723808135772,-2.4859166406391258,3.14
372,0.10556188572650718,0.08151598306036827,0.06706997165825541,2.272442907314308,2.279648645580115,1.7105965841579855,2.158149609516709,1.0,0.12424447600756873,0.9270497902003269,-0.01028016751225755,0.08253723808135768,-2.4859166406391258,3.14
373,0.10556188572650708,0.08151598306036827,0.06706997165825541,2.2724429073143084,2.279648645580115,1.7105965841579855,2.158149609516709,1.0,0.12424447600756869,0.9270497902003269,-0.010280167512257547,0.08253723808135774,-2.4859166406391258,3.14
374,0.10556188572650714,0.08151598306036827,0.06706997165825541,2.272442907314308,2.279648645580115,1.7105965841579855,2.158149609516709,1.0,0.12424447600756873,0.9270497902003269,-0.010280167512257547,0.08253723808135771,-2.4859166406391258,3.14
375,0.10556188572650714,0.08151598306036827,0.06706997165825541,2.272442907314308,2.279648645580115,1.7105965841579855,2.158149609516709,1.0,0.12424447600756872,0.9270497902003269,-0.01028016751225754,0.08253723808135772,-2.4859166406391258,3.14
376,0.10556188572650714,0.08151598306036827,0.06706997165825541,2.272442907314308,2.279648645580115,1.7105965841579853,2.158149609516709,1.0,0.12424447600756872,0.927049790200327,-0.010280167512257559,0.08253723808135771,-2.4859166406391258,3.14
377,0.10556188572650689,0.08151598306036827,0.06706997165825873,2.2724429073143084,2.279648645580115,1.7105965841579855,2.158149609516709,1.0,0.1242444760075687,0.9270497902003269,-0.010280167512257578,0.08253723808135774,-2.4859166406391258,3.14
378,0.10556188572650718,0.08151598306036827,0.06706997165825541,2.272442907314308,2.279648645580115,1.7105965841579855,2.158149609516709,1.0,0.12424447600756874,0.9270497902003269,-0.010280167512257566,0.08253723808135768,-2.4859166406391258,3.14
379,0.10556188572650708,0.08151598306036827,0.06706997165825541,2.2724429073143084,2.279648645580115,1.7105965841579855,2.158149609516709,1.0,0.1242444760075687,0.9270497902003269,-0.010280167512257563,0.08253723808135774,-2.4859166406391258,3.14
380,0.10556188572650711,0.08151598306036827,0.06706997165825541,2.272442907314308,2.279648645580115,1.7105965841579855,2.158149609516709,1.0,0.12424447600756873,0.9270497902003269,-0.010280167512257563,0.0825372380813577,-2.4859166406391258,3.14
381,0.10556188572650714,0.08151598306036827,0.06706997165825541,2.272442907314308,2.279648645580115,1.7105965841579855,2.158149609516709,1.0,0.12424447600756872,0.9270497902003269,-0.010280167512257563,0.08253723808135772,-2.4859166406391258,3.14
382,0.10556188572650714,0.08151598306036827,0.06706997165825541,2.272442907314308,2.279648645580115,1.7105965841579855,2.158149609516709,1.0,0.12424447600756872,0.9270497902003269,-0.010280167512257559,0.08253723808135771,-2.4859166406391258,3.14
383,0.10556188572650707,0.08151598306036827,0.06706997165825541,2.2724429073143084,2.279648645580115,1.7105965841579855,2.158149609516709,1.0,0.1242444760075687,0.9270497902003269,-0.010280167512257533,0.08253723808135772,-2.4859166406391258,3.14
384,0.10556188572650718,0.08151598306036827,0.06706997165825541,2.272442907314308,2.279648645580115,1.7105965841579855,2.158149609516709,1.0,0.12424447600756873,0.9270497902003269,-0.010280167512257556,0.08253723808135768,-2.4859166406391258,3.14
385,0.10556188572650708,0.08151598306036827,0.06706997165825541,2.2724429073143084,2.279648645580115,1.7105965841579855,2.158149609516709,1.0,0.12424447600756869,0.9270497902003269,-0.010280167512257552,0.08253723808135774,-2.4859166406391258,3.14
386,0.10556188572650714,0.08151598306036827,0.06706997165825541,2.272442907314308,2.279648645580115,1.7105965841579855,2.158149609516709,1.0,0.12424447600756873,0.9270497902003269,-0.010280167512257552,0.08253723808135771,-2.4859166406391258,3.14
387,0.10556188572650714,0.08151598306036827,0.06706997165825541,2.272442907314308,2.279648645580115,1.7105965841579855,2.158149609516709,1.0,0.12424447600756872,0.9270497902003269,-0.010280167512257545,0.08253723808135772,-2.4859166406391258,3.14
388,0.10556188572650714,0.08151598306036827,0.06706997165825541,2.272442907314308,2.279648645580115,1.7105965841579853,2.158149609516709,1.0,0.12424447600756872,0.927049790200327,-0.010280167512257564,0.08253723808135771,-2.4859166406391258,3.14
389,0.10556188572650689,0.08151598306036827,0.06706997165825873,2.2724429073143084,2.279648645580115,1.7105965841579855,2.158149609516709,1.0,0.1242444760075687,0.9270497902003269,-0.010280167512257583,0.08253723808135774,-2.4859166406391258,3.14
390,0.10556188572650718,0.08151598306036827,0.06706997165825541,2.272442907314308,2.279648645580115,1.7105965841579855,2.158149609516709,1.0,0.12424447600756874,0.9270497902003269,-0.010280167512257571,0.08253723808135768,-2.4859166406391258,3.14
391,0.10556188572650708,0.08151598306036827,0.06706997165825541,2.2724429073143084,2.279648645580115,1.7105965841579855,2.158149609516709,1.0,0.1242444760075687,0.9270497902003269,-0.010280167512257568,0.08253723808135774,-2.4859166406391258,3.14
392,0.10556188572650711,0.08151598306036827,0.06706997165825541,2.272442907314308,2.279648645580115,1.7105965841579855,2.158149609516709,1.0,0.12424447600756873,0.9270497902003269,-0.010280167512257568,0.0825372380813577,-2.4859166406391258,3.14
393,0.10556188572650714,0.08151598306036827,0.06706997165825541,2.272442907314308,2.279648645580115,1.7105965841579855,2.158149609516709,1.0,0.12424447600756872,0.9270497902003269,-0.010280167512257568,0.08253723808135772,-2.4859166406391258,3.14
394,0.10556188572650714,0.08151598306036827,0.06706997165825541,2.272442907314308,2.279648645580115,1.7105965841579855,2.158149609516709,1.0,0.12424447600756872,0.9270497902003269,-0.010280167512257564,0.08253723808135771,-2.4859166406391258,3.14
395,0.10556188572650707,0.08151598306036827,0.06706997165825541,2.2724429073143084,2.279648645580115,1.7105965841579855,2.158149609516709,1.0,0.1242444760075687,0.9270497902003269,-0.010280167512257538,0.08253723808135772,-2.4859166406391258,3.14
396,0.10556188572650718,0.08151598306036827,0.06706997165825541,2.272442907314308,2.279648645580115,1.7105965841579855,2.158149609516709,1.0,0.12424447600756873,0.9270497902003269,-0.01028016751225756,0.08253723808135768,-2.4859166406391258,3.14
397,0.10556188572650708,0.08151598306036827,0.06706997165825541,2.2724429073143084,2.279648645580115,1.7105965841579855,2.158149609516709,1.0,0.12424447600756869,0.9270497902003269,-0.010280167512257557,0.08253723808135774,-2.4859166406391258,3.14
398,0.10556188572650714,0.08151598306036827,0.06706997165825541,2.272442907314308,2.279648645580115,1.7105965841579855,2.158149609516709,1.0,0.12424447600756873,0.9270497902003269,-0.010280167512257557,0.08253723808135771,-2.4859166406391258,3.14
399,0.10556188572650714,0.08151598306036827,0.06706997165825541,2.272442907314308,2.279648645580115,1.7105965841579855,2.158149609516709,1.0,0.12424447600756872,0.9270497902003269,-0.01028016751225755,0.08253723808135772,-2.4859166406391258,3.14
400,0.10556188572650714,0.08151598306036827,0.06706997165825541,2.272442907314308,2.279648645580115,1.7105965841579855,2.158149609516709,1.0,0.12424447600756872,0.9270497902003269,-0.010280167512257547,0.08253723808135771,-2.4859166406391258,3.14
401,0.10556188572650707,0.08151598306036827,0.06706997165825541,2.2724429073143084,2.279648645580115,1.7105965841579855,2.158149609516709,1.0,0.1242444760075687,0.9270497902003269,-0.010280167512257521,0.08253723808135772,-2.4859166406391258,3.14
402,0.10556188572650718,0.08151598306036827,0.06706997165825541,2.272442907314308,2.279648645580115,1.7105965841579855,2.158149609516709,1.0,0.12424447600756873,0.9270497902003269,-0.010280167512257543,0.08253723808135768,-2.4859166406391258,3.14
