jkpark150901/flame_robotics_drt/experiment/inspection_ik/session_20260722_135839/fallback/inspection_ik_20260722_140809_rb20_1900es_normalized_fallback.csv
iteration,err_norm,position_error,orientation_error,tcp_x,tcp_y,tcp_z,q0_rt_joint_linear_track,q1_rt_joint_carriage,q2_rt_base,q3_rt_shoulder,q4_rt_elbow,q5_rt_wrist1,q6_rt_wrist2,q7_rt_wrist3
0,8.007795011238196,5.206698588209318,2.9730211677403284,0.267,-3.2807478955731993e-13,2.541,0.0,0.0,0.0,0.0,0.0,0.0,0.0,0.0
1,7.367090104354448,4.6128851367875425,2.978493990338238,0.480771725540786,1.2322455561470154,2.112979832355566,0.1596852725886408,0.08001367931186341,-0.05451044991457977,0.7060377653308855,0.007858723129673159,-0.10736694237501052,-0.6903203190715392,-0.10736694237501052
2,4.481626249015941,3.03655769284161,2.927443274947149,2.8806648681154696,0.004966894108565212,1.4570749048975218,1.4421684769039804,1.0,0.9282106187427358,-0.9840739111833984,-0.2635828127235765,1.2593904587810807,1.3749611360425367,-2.2524250957954064
3,3.533352823415233,2.4479949148374747,2.3139108030878637,3.102419685721597,0.5627908987139427,2.225227233675428,2.099340531510821,0.9647987232818576,1.1193240381462168,-0.26893460558550697,-0.48885452349856034,1.309133364572913,0.6737915219255143,-3.14
4,4.108401966571615,1.8122083444278811,3.046292198560154,3.5572006294177028,1.0471996545701474,2.3533413808824686,3.644996618776661,0.8706818404664092,1.2028414787352555,0.6254782889653314,-0.7824765643144083,2.9386531908863587,0.22399037621329126,-3.14
5,3.2550975301937872,1.6324536576306057,2.745088597740911,3.4080564186823765,2.0090621131961908,1.7708402862265118,2.356974980717537,1.0,2.3902147333204686,-1.292681279824269,0.866784977008455,3.14,0.4729446910758225,-3.14
6,2.3780176803270177,1.2525931037981364,1.963699278665644,3.835944874566669,1.6589793481572754,2.013134674687645,2.9902683213084322,0.8388214315332108,2.4106361765556836,-0.9164415619761668,0.6744743253621704,3.14,1.52812209761982,-3.14
7,1.7607793093673805,0.9815232602761333,1.43019311694589,4.2009206125079865,1.5460021726265671,2.1736354014850146,3.5730319989996158,0.8845795048302589,2.4824687272163146,-0.45182384612151166,0.09642432174705029,3.14,2.0153395593480634,-3.14
8,1.3375084420105092,0.8058049389472767,1.0429721799867997,4.606140290433686,1.412541345838924,2.2391266581544707,4.32864517857055,1.0,2.8560698159974818,-0.10483981891079808,-0.2208889721118607,2.8303171405860157,2.4575184951732276,-3.14
9,1.2863762966440861,0.7681644026366226,1.008070697771114,4.792575374995899,1.3633828341009644,2.209995002598716,4.57113829818996,1.0,2.914444476968771,-0.40492821438996474,0.4052107735554306,2.616249212746484,3.0486215648907473,-3.14
10,0.9383434683962925,0.6120530942099882,0.7005556370566247,4.952355016948006,1.492970024215892,2.2076879510229106,4.745882331290212,1.0,3.0068743586324502,-0.3147639786790359,0.04826300371813669,2.736603874031074,3.000506040029044,-3.14
11,0.7886421574858655,0.5736294606402914,0.5338476654462312,5.0297521041723305,1.5239827057655833,2.185480040737661,4.887216406165576,1.0,3.14,-0.22031185560619365,-0.20715797884380882,2.701567572884234,2.983805815836847,-3.14
12,0.7804129012718165,0.5123529508992427,0.5822547657855629,5.160842504243342,1.6035092128336645,2.1634377380813152,5.023266837833741,1.0,3.14,-0.3256804286208902,-0.10405633319918818,2.611838677610666,3.0865417233720622,-3.14
13,0.7372276853889099,0.48274377325296264,0.5518276835542535,5.236987123975336,1.6621096906546233,2.1382313149611973,5.100770496273766,1.0,3.14,-0.3601849705679981,-0.11684572210539475,2.6278410933740255,3.1077427491446032,-3.14
14,0.6972738692853814,0.4580165687642611,0.5212022742387213,5.2843811840420685,1.7168873431584033,2.113398561174527,5.148931093612231,1.0,3.14,-0.4027264163437355,-0.10603689722704945,2.653842016416835,3.120114462289514,-3.14
15,0.6633541225401693,0.4406989323014459,0.4918379170552277,5.311429759463008,1.7587878632036609,2.0927886062512355,5.176250125254582,1.0,3.14,-0.4365598207336187,-0.09513596534844532,2.6823443077328233,3.1247377253356534,-3.14
16,0.6363217705562454,0.42918132476087234,0.4662295950972242,5.326674168347752,1.7884872908831215,2.077271875733264,5.191571745196099,1.0,3.14,-0.46124879690727005,-0.0861084110972312,2.708635256163564,3.126067989653787,-3.14
17,0.6150923544941586,0.42153188723412094,0.44465591538481897,5.33512098835349,1.8086751287643772,2.0662864164160424,5.200033223316217,1.0,3.14,-0.47853683037733274,-0.07901089134996947,2.7314885146634165,3.126159213849594,-3.14
18,0.5984424480137689,0.4163891175034736,0.42675294455717927,5.339643837698442,1.8219673338387443,2.058864907086503,5.20455758713956,1.0,3.14,-0.4903195688771178,-0.07353175548464681,2.750842821095471,3.125895151703971,-3.14
19,0.5853688667284533,0.41290086499825956,0.41201039655297567,5.341903866501782,1.8304411553581224,2.054064748260859,5.206822137475488,1.0,3.14,-0.4981696550987143,-0.06932750367103707,2.7670173311523905,3.12563019826623,-3.14
20,0.5750918760924932,0.41053581079235135,0.39992291188661844,5.34286963846755,1.8356298918524003,2.051109504369009,5.207798859208149,1.0,3.14,-0.5032801912281348,-0.06610199848137127,2.7804346678560603,3.125482912916232,-3.14
21,0.5670050347120709,0.4089488577037429,0.39003614278036225,5.34310904707292,1.838625774620359,2.049409140214509,5.2080547072045755,1.0,3.14,-0.506518470449439,-0.06361919837127915,2.791517562291785,3.125470654717458,-3.14
22,0.5606330157960892,0.4079049391655068,0.3819583831951383,5.342955567542172,1.8401899293159274,2.0485362069704434,5.207921136523798,1.0,3.14,-0.5084989689301986,-0.06169759991469483,2.8006505637482815,3.125571672025647,-3.14
23,0.5556020823855328,0.4072384504036408,0.3753597721287174,5.342604370833618,1.8408438504803675,2.0481910693472547,5.207591400892456,1.0,3.14,-0.5096491270990301,-0.060200277669637904,2.8081681477052753,3.125753325782063,-3.14
24,0.551618892717539,0.4068309767709803,0.3699667174643023,5.342168572040136,1.84093929725794,2.0481690642110544,5.20717714552168,1.0,3.14,-0.5102618380597969,-0.0590249559660237,2.814354046929073,3.1259842250176777,-3.14
25,0.5484541892381775,0.4065978748365296,0.3655546352832753,5.341712457338157,1.8407096398479872,2.0483336262062735,5.206741659740733,1.0,3.14,-0.5105350469301325,-0.05809552466953808,2.819445301934647,3.1262387029103156,-3.14
26,0.5459296198178224,0.4064792521127763,0.36194045043321843,5.341271252384898,1.8403067444275623,2.048595791033856,5.206319566136316,1.0,3.14,-0.5106006807716159,-0.05735529658706819,2.8236380405224457,3.1264977357816974,-3.14
27,0.5439069232842662,0.40643340071480316,0.3589755742208535,5.3408629491676844,1.83982706799527,2.048899197368249,5.205928547727248,1.0,3.14,-0.5105453374076464,-0.0567618705244914,2.8270935591871953,3.1267483320033462,-3.14
28,0.5422791094693066,0.4064318406424563,0.35653968754482374,5.340495412168215,1.8393298957542819,2.0492094102650165,5.20557636456181,1.0,3.14,-0.5104248494978009,-0.05628331848424987,2.829944035554591,3.1269823874205547,-3.14
29,0.5409633750617202,0.4064555606960176,0.3545354343748017,5.340170660668599,1.838849947629156,2.0495064732974364,5.20526506500675,1.0,3.14,-0.5102744083718095,-0.05589539960604617,2.832297589156743,3.1271954791459518,-3.14
30,0.5398955094947646,0.40649220147503456,0.3528840040407851,5.3398874519164155,1.8384059989476187,2.0497797978103147,5.204993516345575,1.0,3.14,-0.5101155252052968,-0.055579540908871974,2.8342426111365224,3.127385799940212,-3.14
31,0.5390255441056347,0.4065339835735386,0.3515215162558774,5.33964283606887,1.8380067095060486,2.0500247072520916,5.204758922654685,1.0,3.14,-0.5099607698584355,-0.055321377609839004,2.8358513869975117,3.127553299067226,-3.14
32,0.538314408840009,0.40657621508533154,0.3503960970748304,5.339433085555354,1.837654516662807,2.0502401343305783,5.204557729111286,1.0,3.14,-0.5098169653503901,-0.055109696325874494,2.8371830843027257,3.127699030161075,-3.14
33,0.5377313851461792,0.4066162384752975,0.3494655310106235,5.339254242077141,1.8373481988271425,2.050427110259957,5.204386152802554,1.0,3.14,-0.5096873193974315,-0.05493566640376369,2.8382861939896156,3.1278246789623614,-3.14
34,0.5372521755195089,0.40665270233257433,0.34869538347451784,5.339102429221263,1.8370845348353326,2.0505877916122563,5.204240485455705,1.0,3.14,-0.5095728308081375,-0.05479227693800919,2.8392005141927377,3.1279322354906,-3.14
35,0.5368574434763058,0.40668506771318835,0.34805750175484323,5.338974021409093,1.8368593550187082,2.0507248477179374,5.2041172568503695,1.0,3.14,-0.5094732054042698,-0.05467392088847133,2.839958757669779,3.128023776239631,-3.14
36,0.5365317086155867,0.40671328023755565,0.34752881794601187,5.338865725220216,1.8366681877533944,2.0508410868562996,5.204013313509672,1.0,3.14,-0.5093874430837045,-0.0545760848727827,2.8405878529974684,3.1281013268616586,-3.14
37,0.5362625079280895,0.40673755699302394,0.3470903915134303,5.338774607942219,1.83650664061941,2.05093923837475,5.203925846486764,1.0,3.14,-0.5093142064466265,-0.054495115374971995,2.8411099982975587,3.1281667817209273,-3.14
38,0.5360397561032146,0.40675825147218747,0.34672664162794015,5.3386980951229095,1.8363706102642623,2.0510218349139695,5.203852389301756,1.0,3.14,-0.5092520458521509,-0.054428040666052925,2.841543515685582,3.128221862306701,-3.14
39,0.5358552545446085,0.4067757705867134,0.34642472978274924,5.338633950752899,1.836256383974462,2.0510911575203146,5.2037907991656125,1.0,3.14,-0.5091995312772406,-0.05437243372500775,2.8419035454478814,3.128268101257943,-3.14
40,0.5357023117821427,0.4067905257799332,0.34617406161506525,5.338580248578389,1.8361606746732186,2.051149219111446,5.203739229664938,1.0,3.14,-0.5091553245967684,-0.054326305644444906,2.8422026112645837,3.128306842543866,-3.14
41,0.5355754477123739,0.40680290600829877,0.3459658835412149,5.338535339789884,1.8360806166146806,2.051197770334266,5.20369609994394,1.0,3.14,-0.5091182145255102,-0.054288021948141134,2.842451081516139,3.128339251234224,-3.14
42,0.5354701613200938,0.4068132644103743,0.34579295506739355,5.338497820255634,1.8360137393244085,2.0512383175974134,5.203660063423261,1.0,3.14,-0.5090871287885597,-0.05425623631916437,2.842657546658896,3.128366328424488,-3.14
43,0.5353827468374892,0.40682191328168843,0.34564928173638404,5.338466499140312,1.8359579308574194,2.0512721468717316,5.203629977821266,1.0,3.14,-0.5090611329471137,-0.05422983770283692,2.8428291286284892,3.1283889284113617,-3.14
44,0.5353101471733752,0.40682912387761044,0.3455298968565003,5.3384403699019884,1.8359113971730108,2.0513003493544675,5.203604877431801,1.0,3.14,-0.5090394218905642,-0.054207907792421565,2.8429717350366936,3.12840777628723,-3.14
45,0.5352498362723933,0.4068351288414065,0.3454306826338963,5.338418584125309,1.8358726216428218,2.051323846715632,5.203583948100106,1.0,3.14,-0.5090213077542768,-0.054189686654411116,2.8430902684003505,3.1284234848577057,-3.14
46,0.5351997241281395,0.40684012589537477,0.34534822325484255,5.338400428316616,1.8358403269230146,2.051343414681031,5.203566505020783,1.0,3.14,-0.5090062065526891,-0.05417454479268906,2.843188798640476,3.1284365702788697,-3.14
47,0.5351580796861565,0.40684428197907674,0.34527968396676395,5.338385303587833,1.8358134402975186,2.051359704354802,5.203551973290917,1.0,3.14,-0.5089936248689777,-0.05416196034755763,2.843270705503053,3.1284474661316146,-3.14
48,0.5351234679863859,0.4068477373672291,0.34522271138393207,5.338372708043166,1.8357910629099272,2.051373261079045,5.203539871043267,1.0,3.14,-0.5089831473393488,-0.054151500418978954,2.8433387962908565,3.1284565358526253,-3.14
49,0.5350946987208195,0.4068506095180554,0.34517535117035086,5.338362221625925,1.8357724428944984,2.0513845408588494,5.203529794929588,1.0,3.14,-0.5089744252935785,-0.05414280572275471,2.843395403287886,3.1284640835630895,-3.14
50,0.5350707840004132,0.40685299653620427,0.345135979985839,5.338353493161295,1.8357569521900317,2.051393924507276,5.2035214077031275,1.0,3.14,-0.5089671666845316,-0.05413557795435964,2.8434424644500425,3.128470363404241,-3.14
51,0.5350509035925752,0.4068549802131346,0.3451032491649511,5.338346229331279,1.8357440667071288,2.051401729725925,5.203514427649263,1.0,3.14,-0.5089611273054274,-0.054129569362174876,2.8434815902852364,3.128475587522113,-3.14
52,0.5350343762471818,0.40685662865220806,0.34507603806536674,5.3383401853311465,1.8357333494755026,2.0514082213580793,5.2035086196254134,1.0,3.14,-0.5089561032198994,-0.05412457413017673,2.843514119320274,3.1284799328552877,-3.14
53,0.5350206360044074,0.4068579985089327,0.3450534153978538,5.338335156976937,1.8357244363951277,2.051413620049649,5.203503787490337,1.0,3.14,-0.5089519242936547,-0.054120421247017214,2.843541164125136,3.1284835468776646,-3.14
54,0.5350092125919852,0.40685913688693043,0.34503460715332657,5.338330974056592,1.8357170242349932,2.051418109538629,5.203499767724779,1.0,3.14,-0.5089484487030838,-0.054116968599116314,2.8435636495176917,3.1284865524390275,-3.14
55,0.534999715188406,0.406860082933062,0.34501896998868775,5.33832749474127,1.8357108605546657,2.0514218427731366,5.203496424068133,1.0,3.14,-0.5089455582959946,-0.05411409807372016,2.8435823442878885,3.128489051833194,-3.14
56,0.5349918189625344,0.4068608691737842,0.3450059691337154,5.338324600896508,1.835705735259814,2.0514249470352315,5.203493643017765,1.0,3.14,-0.508943154686795,-0.054111711496645475,2.8435978875477153,3.128491130209116,-3.14
57,0.5349852539073142,0.4068615226313032,0.3449951600451438,5.338322194154338,1.8357014735392307,2.0514275282249255,5.203491330058109,1.0,3.14,-0.5089411559791984,-0.05410972726073796,2.8436108106220703,3.1284928584258376,-3.14
58,0.5349797955716963,0.40686206575386336,0.34498617316847446,5.338320192627106,1.8356979299653748,2.051429674437429,5.203489406505321,1.0,3.14,-0.5089394940216091,-0.05410807752649117,2.843621555238251,3.1284942954385486,-3.14
59,0.5349752573649181,0.40686251718994565,0.3449787012784645,5.338318528161037,1.83569498357197,2.0514314589472473,5.203487806869854,1.0,3.14,-0.508938112112472,-0.05410670589700628,2.8436304886419768,3.1284954902904847,-3.14
60,0.5349714841643631,0.40686289243196844,0.3449724889601639,5.338317144042973,1.8356925337501924,2.0514329426955586,5.203486476653935,1.0,3.14,-0.5089369630843006,-0.05410556548644834,2.8436379161606347,3.128496483774302,-3.14
61,0.5349683470048558,0.4068632043510982,0.3449673238674372,5.338315993086863,1.8356904968294818,2.0514341763623243,5.203485370513607,1.0,3.14,-0.5089360077054896,-0.054104617315097824,2.8436440916457557,3.1284973098167934,-3.14
62,0.534965738665633,0.40686346364145537,0.34496302945780183,5.338315036038143,1.8356888032301604,2.0514352020916617,5.203484450725955,1.0,3.14,-0.5089352133482252,-0.05410382897557982,2.843649226153308,3.1284979966323783,-3.14
63,0.5349635700027031,0.4068636791889508,0.34495945895378743,5.338314240243832,1.835687395093129,2.0514360549279873,5.2034836859115,1.0,3.14,-0.5089345528788498,-0.05410317352432509,2.8436534951595607,3.128498567683564,-3.14
64,0.5349617669003784,0.4068638583775501,0.3449564903233974,5.3383135785446045,1.8356862243072734,2.0514367640111058,5.203483049969759,1.0,3.14,-0.5089340037339453,-0.054102628560146034,2.843657044559823,3.128499042480409,-3.14
65,0.5349602677372337,0.4068640073435494,0.34495402210746784,5.33831302835207,1.8356852508682295,2.0514373535704786,5.2034825211927,1.0,3.14,-0.5089335471513257,-0.054102175458294204,2.8436599956555217,3.128499437245799,-3.14
66,0.5349590212795504,0.4068641311867151,0.3449519699508998,5.338312570880557,1.8356844415130702,2.0514378437522938,5.203482081526604,1.0,3.14,-0.5089331675301341,-0.054101798733727,2.843662449300326,3.128499765468942,-3.14
67,0.534957984930064,0.4068642341456158,0.3449502637189267,5.338312190507658,1.835683768584676,2.0514382513073737,5.203481715957633,1.0,3.14,-0.5089328518984761,-0.05410148551176872,2.843664489347192,3.128500038365802,-3.14
68,0.534957123272013,0.40686431974323756,0.3449488450996925,5.338311874242083,1.835683209087253,2.051438590163277,5.20348141200047,1.0,3.14,-0.5089325894705902,-0.05410122508803632,2.8436661855142455,3.1285002652620544,-3.14
69,0.5349564068586884,0.406864390907925,0.34494766561108364,5.3383116112808695,1.8356827439008758,2.051438871900059,5.203481159272833,1.0,3.14,-0.5089323712785362,-0.05410100856257166,2.843667595767507,3.128500453911586,-3.14
70,0.5349558112070611,0.4068644500738515,0.34494668494363084,5.3383113926410015,1.8356823571283218,2.051439106145894,5.2034809491414675,1.0,3.14,-0.5089321898658925,-0.054100828535658375,2.843668768301931,3.1285006107613573,-3.14
71,0.5349553159610595,0.4068644992644793,0.34494586958278745,5.338311210852965,1.8356820355519412,2.0514393009060443,5.203480774427663,1.0,3.14,-0.5089320390330359,-0.054100678854923166,2.8436697431884923,3.128500741171657,-3.14
72,0.5349549041959125,0.4068645401619182,0.3449451916634883,5.338311059705865,1.8356817681820325,2.0514394628363966,5.203480629162298,1.0,3.14,-0.5089319136253312,-0.054100554405071534,2.843670553743612,3.1285008495992477,-3.14
73,0.5349545618397502,0.40686457416453736,0.34494462801780157,5.338310934035408,1.8356815458813271,2.0514395974709045,5.2034805083821025,1.0,3.14,-0.5089318093570062,-0.054100450933068936,2.8436712276677447,3.128500939749652,-3.14
74,0.5349542771927033,0.40686460243485667,0.34494415938313766,5.338310829547595,1.8356813610527547,2.051439709410698,5.203480407960211,1.0,3.14,-0.5089317226647058,-0.054100364902792915,2.843671787992032,3.128501014703778,-3.14
75,0.5349540405270828,0.40686462593934775,0.3449437697439295,5.338310742672099,1.8356812073798334,2.05143980248132,5.203480324465254,1.0,3.14,-0.5089316505857256,-0.0541002933741865,2.843672253865386,3.1285010770232,-3.14
76,0.5349538437549256,0.40686464548149937,0.3449434457842866,5.338310670440312,1.83568107961081,2.05143987986346,5.20348025504416,1.0,3.14,-0.5089315906567664,-0.05410023390278145,2.843672641208892,3.1285011288376996,-3.14
77,0.5349536801516204,0.40686466172932434,0.34494317643291916,5.338310610383971,1.835680973379191,2.0514399442016558,5.20348019732472,1.0,3.14,-0.508931540829754,-0.05410018445616066,2.843672963259908,3.128501171918051,-3.14
78,0.534953544126071,0.40686467523819253,0.3449429524847763,5.338310560450817,1.835680885054522,2.051439997694665,5.203480149334545,1.0,3.14,-0.5089314994018497,-0.05410014334449973,2.843673231024443,3.1285012077365346,-3.14
79,0.5349534310296439,0.40686468646984175,0.34494276628645865,5.338310518934504,1.8356808116183148,2.05144004217061,5.203480109433689,1.0,3.14,-0.5089314649572537,-0.054100109162818856,2.8436734536532833,3.128501237517254,-3.14
80,0.5349533369972993,0.40686469580816065,0.3449426114746665,5.33831048441629,1.8356807505608914,2.051440079149457,5.203480076258622,1.0,3.14,-0.5089314363188208,-0.054100080742968085,2.8436736387547166,3.128501262277971,-3.14
81,0.5349532588155099,0.40686470357232424,0.3449424827587268,5.338310455716577,1.8356806997956197,2.051440109894958,5.2034800486756465,1.0,3.14,-0.5089314125078322,-0.05410005711370601,2.8436737926545432,3.1285012828648866,-3.14
82,0.5349531938124247,0.4068647100276896,0.3449423757397913,5.338310431854586,1.835680657587602,2.0514401354578378,5.20348002574215,1.0,3.14,-0.5089313927105484,-0.054100037467507876,2.843673920612257,3.1285012999815605,-3.14
83,0.5349531397665823,0.40686471539488805,0.3449422867605045,5.338310412014864,1.8356806224943825,2.051440156711708,5.2034800066744085,1.0,3.14,-0.5089313762503974,-0.05410002113296953,2.843674027000786,3.1285013142129565,-3.14
84,0.5349530948309734,0.40686471985734957,0.3449422127800122,5.338310395519404,1.8356805933166553,2.051440174382915,5.2034799908208,1.0,3.14,-0.5089313625648552,-0.05410000755186138,2.843674115455938,3.128501326045432,-3.14
85,0.5349530574699343,0.40686472356758635,0.34494215127004213,5.338310381804487,1.8356805690572737,2.0514401890753744,5.2034799776395415,1.0,3.14,-0.5089313511862179,-0.05409999626005201,2.8436741890006507,3.1285013358833638,-3.14
86,0.5349530264066571,0.4068647266524002,0.3449421001285024,5.338310370401415,1.835680548887177,2.0514402012911965,5.203479966680172,1.0,3.14,-0.5089313417256223,-0.05409998687164593,2.8436742501483008,3.128501344062962,-3.14
87,0.5349530005795621,0.40686472921721967,0.34494205760763647,5.338310360920498,1.835680532117053,2.051440211447858,5.203479957568162,1.0,3.14,-0.5089313338597529,-0.054099979065796215,2.8436743009885985,3.1285013508637647,-3.14
88,0.534952979106009,0.40686473134969486,0.3449420222543007,5.338310353037724,1.8356805181737863,2.051440219892462,5.203479949992114,1.0,3.14,-0.5089313273197943,-0.05409997257573929,2.843674343259002,3.128501356518189,-3.14
89,0.5349529612521463,0.40686473312270915,0.34494199286030014,5.33831034648371,1.8356805065808672,2.0514402269136,5.203479943693121,1.0,3.14,-0.5089313218822447,-0.05409996717967882,2.8436743784040956,3.1285013612194743,-3.14
90,0.5349529464078209,0.40686473459685485,0.3449419684211003,5.3383103410344726,1.835680496942109,2.0514402327512196,5.203479938455915,1.0,3.14,-0.508931317361276,-0.05409996269320521,2.8436744076249565,3.1285013651282867,-3.14
91,0.5349529340657292,0.4068647358225085,0.34494194810149476,5.338310336503782,1.8356804889281082,2.05144023760482,5.203479934101518,1.0,3.14,-0.5089313136023846,-0.05409995896299393,2.8436744319202027,3.12850136837821,-3.14
92,0.5349529238040811,0.4068647368415599,0.34494193120706484,5.338310332736808,1.8356804822649881,2.051440241640274,5.203479930481119,1.0,3.14,-0.508931310477111,-0.054099955861565616,2.8436744521201205,3.12850137108031,-3.14
93,0.53495291527219,0.40686473768883535,0.34494191716044326,5.3383103296048136,1.8356804767250363,2.051440244995491,5.203479927470992,1.0,3.14,-0.5089313078786492,-0.054099953282929686,2.8436744689150393,3.1285013733269302,-3.14
94,0.534952908178477,0.4068647383932888,0.34494190548159165,5.338310327000763,1.8356804721189275,2.051440247785136,5.203479924968266,1.0,3.14,-0.5089313057181972,-0.054099951138961364,2.843674482878922,3.1285013751948485,-3.14
95,0.5349529022805136,0.40686473897899506,0.3449418957713852,5.338310324835663,1.8356804682892471,2.0514402501045437,5.203479922887412,1.0,3.14,-0.508931303921922,-0.05409994935639112,2.843674494488983,3.128501376747901,-3.14
96,0.5349528973767423,0.40686473946597307,0.3449418876979811,5.338310323035524,1.8356804651051164,2.051440252032981,5.203479921157317,1.0,3.14,-0.5089313024284355,-0.05409994787430003,2.843674504141994,3.128501378039163,-3.14
97,0.5349528932995746,0.40686473987086214,0.34494188098546913,5.338310321538825,1.8356804624577194,2.051440253636351,5.2034799197188555,1.0,3.14,-0.5089313011866988,-0.054099946642037586,2.843674512167845,3.128501379112764,-3.14
98,0.5349528899096758,0.406864740207503,0.3449418754044526,5.338310320294418,1.8356804602565806,2.051440254969449,5.203479918522868,1.0,3.14,-0.5089313001542756,-0.054099945617491436,2.8436745188408183,3.128501380005393,-3.14
99,0.5349528870911954,0.40686474048739707,0.3449418707641999,5.338310319259774,1.8356804584264765,2.0514402560778335,5.203479917528482,1.0,3.14,-0.5089312992958829,-0.05409994476564786,2.843674524388962,3.128501380747556,-3.14
100,0.5349528847478099,0.4068647407201097,0.34494186690613204,5.338310318399534,1.8356804569048653,2.0514402569993826,5.203479916701714,1.0,3.14,-0.5089312985821854,-0.05409994405739521,2.843674529001883,3.128501381364616,-3.14
101,0.5349528827994396,0.4068647409135963,0.34494186369839874,5.338310317684301,1.835680455639743,2.0514402577655915,5.203479916014311,1.0,3.14,-0.508931297988792,-0.05409994346852936,2.8436745328372264,3.1285013818776615,-3.14
102,0.5349528811794944,0.406864741074467,0.3449418610313765,5.338310317089631,1.835680454587877,2.051440258402644,5.20347991544278,1.0,3.14,-0.5089312974954244,-0.05409994297892557,2.8436745360260653,3.128501382304225,-3.14
103,0.5349528798326144,0.4068647412082187,0.3449418588139219,5.338310316595199,1.835680453713319,2.051440258932311,5.2034799149675885,1.0,3.14,-0.5089312970852211,-0.054099942571851974,2.8436745386773774,3.1285013826588854,-3.14
104,0.5349528787127756,0.4068647413194289,0.3449418569702532,5.338310316184116,1.8356804529861803,2.051440259372696,5.203479914572499,1.0,3.14,-0.5089312967441635,-0.05409994223339681,2.843674540881771,3.1285013829537625,-3.14
105,0.5349528777816994,0.4068647414118906,0.34494185543736106,5.338310315842325,1.835680452381612,2.051440259738847,5.203479914244007,1.0,3.14,-0.5089312964605964,-0.0540999419519931,2.843674542714581,3.1285013831989334,-3.14
106,0.5349528770075707,0.406864741488766,0.3449418541628623,5.338310315558147,1.8356804518789527,2.0514402600432766,5.203479913970887,1.0,3.14,-0.508931296224829,-0.05409994171802435,2.8436745442384432,3.1285013834027766,-3.14
107,0.5349528763639337,0.40686474155268354,0.34494185310319875,5.338310315321872,1.8356804514610239,2.051440260296392,5.203479913743807,1.0,3.14,-0.5089312960288034,-0.054099941523494545,2.8436745455054355,3.1285013835722597,-3.14
108,0.5349528758287903,0.4068647416058267,0.34494185222215745,5.338310315125424,1.8356804511135434,2.0514402605068396,5.203479913555003,1.0,3.14,-0.5089312958658211,-0.05409994136175564,2.8436745465588573,3.1285013837131737,-3.14
109,0.5349528753838538,0.40686474165001213,0.3449418514896286,5.338310314962092,1.8356804508246363,2.0514402606818134,5.203479913398025,1.0,3.14,-0.5089312957303118,-0.054099941227280256,2.843674547434709,3.1285013838303346,-3.14
110,0.5349528750139179,0.4068647416867494,0.3449418508805782,5.338310314826291,1.8356804505844284,2.051440260827293,5.2034799132675085,1.0,3.14,-0.5089312956176445,-0.05409994111547272,2.843674548162923,3.1285013839277465,-3.14
111,0.5349528747063411,0.4068647417172945,0.3449418503741935,5.338310314713382,1.8356804503847113,2.05144026094825,5.203479913158993,1.0,3.14,-0.5089312955239691,-0.05409994102251196,2.8436745487683854,3.1285013840087377,-3.14
112,0.5349528744506098,0.4068647417426897,0.3449418499531668,5.338310314619505,1.8356804502186592,2.0514402610488176,5.203479913068768,1.0,3.14,-0.5089312954460841,-0.05409994094522119,2.843674549271788,3.1285013840760767,-3.14
113,0.534952874237986,0.406864741763804,0.3449418496031101,5.338310314541451,1.8356804500805983,2.051440261132433,5.203479912993752,1.0,3.14,-0.5089312953813279,-0.054099940880958985,2.8436745496903346,3.128501384132065,-3.14
114,0.534952874061204,0.40686474178135923,0.3449418493120609,5.338310314476556,1.8356804499658101,2.0514402612019533,5.203479912931382,1.0,3.14,-0.5089312953274875,-0.054099940827529155,2.843674550038329,3.1285013841786147,-3.14
115,0.5349528739142196,0.40686474179595555,0.34494184907007347,5.338310314422599,1.8356804498703703,2.0514402612597555,5.203479912879525,1.0,3.14,-0.5089312952827224,-0.05409994078310559,2.8436745503276635,3.1285013842173184,-3.14
116,0.5349528737920131,0.40686474180809185,0.3449418488688758,5.338310314377738,1.8356804497910184,2.051440261307814,5.203479912836409,1.0,3.14,-0.508931295245503,-0.054099940746170486,2.843674550568226,3.128501384249498,-3.14
117,0.5349528736904061,0.40686474181818255,0.34494184870159345,5.338310314340439,1.835680449725042,2.051440261347772,5.203479912800561,1.0,3.14,-0.5089312952145575,-0.054099940715461314,2.8436745507682386,3.1285013842762535,-3.14
118,0.5349528736059261,0.40686474182657134,0.3449418485625087,5.338310314309426,1.8356804496701877,2.0514402613809946,5.203479912770756,1.0,3.14,-0.5089312951888285,-0.05409994068992851,2.8436745509345362,3.1285013842984988,-3.14
119,0.5349528735356867,0.4068647418335471,0.34494184844686876,5.3383103142836426,1.8356804496245795,2.0514402614086165,5.2034799127459745,1.0,3.14,-0.5089312951674366,-0.054099940668699664,2.8436745510728016,3.128501384316994,-3.14
120,0.5349528734772869,0.4068647418393455,0.3449418483507218,5.338310314262204,1.83568044958666,2.0514402614315816,5.203479912725371,1.0,3.14,-0.5089312951496509,-0.054099940651049276,2.8436745511877604,3.1285013843323717,-3.14
121,0.534952873428732,0.4068647418441677,0.34494184827078184,5.33831031424438,1.835680449555132,2.051440261450676,5.20347991270824,1.0,3.14,-0.5089312951348629,-0.05409994063637415,2.8436745512833412,3.128501384345157,-3.14
122,0.5349528733883618,0.4068647418481775,0.3449418482043172,5.3383103142295605,1.8356804495289178,2.0514402614665523,5.2034799126939975,1.0,3.14,-0.5089312951225676,-0.054099940624172685,2.84367455136281,3.1285013843557876,-3.14
123,0.5349528733547958,0.4068647418515099,0.34494184814905593,5.338310314217238,1.8356804495071233,2.0514402614797524,5.203479912682155,1.0,3.14,-0.5089312951123449,-0.054099940614027925,2.8436745514288835,3.1285013843646263,-3.14
124,0.5349528733268885,0.4068647418542817,0.34494184810311,5.338310314206994,1.8356804494890022,2.0514402614907277,5.203479912672309,1.0,3.14,-0.5089312951038453,-0.05409994060559332,2.843674551483819,3.128501384371975,-3.14
125,0.5349528733036857,0.40686474185658666,0.34494184806490813,5.338310314198477,1.8356804494739358,2.0514402614998524,5.203479912664123,1.0,3.14,-0.5089312950967786,-0.05409994059858046,2.8436745515294946,3.128501384378085,-3.14
126,0.534952873284393,0.40686474185850147,0.3449418480331461,5.338310314191394,1.8356804494614092,2.051440261507439,5.203479912657316,1.0,3.14,-0.5089312950909033,-0.054099940592749717,2.843674551567471,3.1285013843831644,-3.14
127,0.5349528732683518,0.40686474186009386,0.3449418480067385,5.338310314185505,1.8356804494509942,2.051440261513746,5.203479912651656,1.0,3.14,-0.5089312950860182,-0.054099940587901865,2.8436745515990456,3.128501384387388,-3.14
128,0.5349528732550157,0.4068647418614184,0.3449418479847824,5.338310314180609,1.8356804494423344,2.051440261518991,5.2034799126469515,1.0,3.14,-0.5089312950819562,-0.05409994058387121,2.843674551625298,3.1285013843909,-3.14
129,0.534952873243928,0.40686474186252053,0.3449418479665272,5.33831031417654,1.835680449435134,2.051440261523352,5.20347991264304,1.0,3.14,-0.5089312950785789,-0.054099940580519985,2.843674551647125,3.12850138439382,-3.14
130,0.5349528732347095,0.4068647418634371,0.34494184795134913,5.338310314173157,1.8356804494291477,2.0514402615269773,5.2034799126397875,1.0,3.14,-0.508931295075771,-0.05409994057773361,2.8436745516652726,3.1285013843962477,-3.14
131,0.5349528732270451,0.40686474186419774,0.34494184793872945,5.338310314170342,1.8356804494241703,2.051440261529992,5.203479912637083,1.0,3.14,-0.5089312950734365,-0.05409994057541689,2.8436745516803614,3.128501384398266,-3.14
132,0.534952873220671,0.40686474186482985,0.3449418479282373,5.338310314168002,1.8356804494200323,2.0514402615324987,5.203479912634834,1.0,3.14,-0.5089312950714956,-0.05409994057349066,2.843674551692907,3.1285013843999443,-3.14
133,0.5349528732153717,0.40686474186535593,0.3449418479195129,5.338310314166057,1.835680449416592,2.0514402615345815,5.2034799126329645,1.0,3.14,-0.5089312950698821,-0.05409994057188925,2.8436745517033377,3.128501384401339,-3.14
134,0.5349528732109663,0.4068647418657932,0.3449418479122594,5.338310314164439,1.8356804494137315,2.0514402615363143,5.20347991263141,1.0,3.14,-0.5089312950685403,-0.054099940570557725,2.84367455171201,3.128501384402499,-3.14
135,0.5349528732073033,0.4068647418661577,0.3449418479062293,5.338310314163095,1.835680449411353,2.0514402615377545,5.203479912630118,1.0,3.14,-0.5089312950674246,-0.05409994056945066,2.8436745517192206,3.1285013844034637,-3.14
136,0.5349528732042581,0.4068647418664601,0.3449418479012144,5.338310314161977,1.8356804494093752,2.0514402615389526,5.203479912629043,1.0,3.14,-0.5089312950664969,-0.0540999405685302,2.8436745517252153,3.1285013844042657,-3.14
137,0.5349528732017251,0.406864741866711,0.34494184789704657,5.338310314161047,1.8356804494077315,2.0514402615399483,5.20347991262815,1.0,3.14,-0.508931295065726,-0.05409994056776497,2.8436745517302,3.1285013844049323,-3.14
138,0.5349528731996208,0.4068647418669209,0.3449418478935807,5.3383103141602755,1.8356804494063643,2.0514402615407756,5.203479912627407,1.0,3.14,-0.5089312950650848,-0.05409994056712873,2.843674551734344,3.1285013844054865,-3.14
139,0.5349528731978709,0.40686474186709454,0.3449418478906986,5.338310314159632,1.8356804494052275,2.051440261541464,5.20347991262679,1.0,3.14,-0.5089312950645517,-0.05409994056659961,2.8436745517377897,3.1285013844059475,-3.14
140,0.5349528731964139,0.40686474186723876,0.3449418478883031,5.338310314159098,1.8356804494042824,2.0514402615420364,5.2034799126262765,1.0,3.14,-0.5089312950641084,-0.05409994056615973,2.8436745517406545,3.128501384406331,-3.14
141,0.5349528731952052,0.4068647418673599,0.3449418478863108,5.3383103141586545,1.8356804494034964,2.051440261542513,5.20347991262585,1.0,3.14,-0.5089312950637396,-0.05409994056579406,2.8436745517430366,3.12850138440665,-3.14
142,0.5349528731941985,0.4068647418674587,0.3449418478846534,5.338310314158284,1.8356804494028436,2.051440261542908,5.203479912625495,1.0,3.14,-0.5089312950634333,-0.05409994056548985,2.8436745517450173,3.1285013844069147,-3.14
143,0.5349528731933628,0.4068647418675427,0.34494184788327636,5.338310314157978,1.8356804494022998,2.051440261543238,5.2034799126252,1.0,3.14,-0.5089312950631782,-0.054099940565237065,2.843674551746664,3.1285013844071354,-3.14
144,0.534952873192666,0.4068647418676117,0.34494184788213184,5.338310314157723,1.8356804494018488,2.051440261543511,5.203479912624954,1.0,3.14,-0.5089312950629669,-0.05409994056502681,2.843674551748033,3.128501384407318,-3.14
145,0.5349528731920874,0.4068647418676684,0.34494184788117965,5.33831031415751,1.8356804494014733,2.051440261543738,5.20347991262475,1.0,3.14,-0.5089312950627907,-0.054099940564852116,2.8436745517491713,3.1285013844074703,-3.14
146,0.5349528731916067,0.4068647418677155,0.34494184788038773,5.338310314157332,1.8356804494011607,2.0514402615439273,5.20347991262458,1.0,3.14,-0.5089312950626442,-0.05409994056470685,2.8436745517501176,3.128501384407597,-3.14
147,0.5349528731912079,0.4068647418677566,0.34494184787972976,5.338310314157187,1.8356804494009014,2.0514402615440845,5.20347991262444,1.0,3.14,-0.5089312950625223,-0.054099940564586085,2.8436745517509046,3.128501384407702,-3.14
148,0.5349528731908753,0.4068647418677891,0.34494184787918275,5.338310314157065,1.8356804494006858,2.0514402615442155,5.2034799126243225,1.0,3.14,-0.5089312950624212,-0.05409994056448561,2.8436745517515587,3.1285013844077896,-3.14
149,0.5349528731906004,0.4068647418678167,0.34494184787872767,5.338310314156963,1.8356804494005063,2.051440261544324,5.203479912624225,1.0,3.14,-0.5089312950623371,-0.054099940564402135,2.8436745517521027,3.1285013844078624,-3.14
150,0.5349528731903691,0.4068647418678386,0.3449418478783495,5.338310314156878,1.8356804494003574,2.051440261544414,5.203479912624143,1.0,3.14,-0.5089312950622673,-0.05409994056433254,2.843674551752555,3.128501384407923,-3.14
151,0.5349528731901784,0.4068647418678584,0.3449418478780349,5.338310314156809,1.835680449400233,2.051440261544489,5.203479912624076,1.0,3.14,-0.508931295062209,-0.05409994056427491,2.843674551752931,3.128501384407973,-3.14
152,0.5349528731900195,0.4068647418678733,0.3449418478777729,5.338310314156749,1.8356804494001298,2.051440261544552,5.20347991262402,1.0,3.14,-0.5089312950621604,-0.0540999405642269,2.8436745517532436,3.128501384408015,-3.14
153,0.5349528731898866,0.40686474186788674,0.34494184787755555,5.338310314156701,1.8356804494000443,2.0514402615446037,5.2034799126239735,1.0,3.14,-0.5089312950621204,-0.05409994056418703,2.843674551753504,3.12850138440805,-3.14
154,0.5349528731897776,0.40686474186789884,0.344941847877375,5.338310314156662,1.8356804493999725,2.0514402615446468,5.203479912623935,1.0,3.14,-0.5089312950620869,-0.05409994056415379,2.84367455175372,3.1285013844080787,-3.14
155,0.5349528731896865,0.40686474186790744,0.3449418478772246,5.338310314156629,1.8356804493999137,2.0514402615446823,5.203479912623903,1.0,3.14,-0.5089312950620591,-0.05409994056412617,2.8436745517539,3.1285013844081027,-3.14
156,0.5349528731896112,0.4068647418679154,0.3449418478770998,5.338310314156601,1.8356804493998642,2.051440261544713,5.203479912623877,1.0,3.14,-0.508931295062036,-0.05409994056410313,2.843674551754049,3.1285013844081226,-3.14
157,0.5349528731895478,0.406864741867921,0.34494184787699605,5.338310314156577,1.8356804493998233,2.0514402615447374,5.203479912623854,1.0,3.14,-0.5089312950620168,-0.05409994056408408,2.8436745517541735,3.128501384408139,-3.14
158,0.5349528731894952,0.4068647418679266,0.3449418478769094,5.338310314156558,1.8356804493997894,2.0514402615447582,5.203479912623835,1.0,3.14,-0.5089312950620009,-0.05409994056406823,2.8436745517542765,3.128501384408153,-3.14
159,0.5349528731894507,0.40686474186792954,0.3449418478768378,5.338310314156541,1.835680449399761,2.051440261544775,5.203479912623819,1.0,3.14,-0.5089312950619876,-0.05409994056405513,2.8436745517543622,3.1285013844081644,-3.14
160,0.5349528731894135,0.4068647418679332,0.3449418478767774,5.338310314156527,1.8356804493997374,2.05144026154479,5.2034799126238065,1.0,3.14,-0.5089312950619765,-0.054099940564044185,2.8436745517544337,3.128501384408174,-3.14
161,0.5349528731893853,0.40686474186793703,0.34494184787672816,5.338310314156518,1.835680449399718,2.0514402615448013,5.203479912623797,1.0,3.14,-0.5089312950619674,-0.054099940564035214,2.8436745517544932,3.1285013844081817,-3.14
162,0.5349528731893594,0.4068647418679395,0.3449418478766868,5.338310314156509,1.8356804493997023,2.0514402615448106,5.203479912623788,1.0,3.14,-0.5089312950619602,-0.05409994056402751,2.8436745517545425,3.128501384408188,-3.14
163,0.5349528731893386,0.40686474186794114,0.3449418478766533,5.338310314156501,1.835680449399689,2.051440261544819,5.203479912623781,1.0,3.14,-0.5089312950619538,-0.054099940564021225,2.8436745517545834,3.1285013844081937,-3.14
164,0.534952873189322,0.4068647418679432,0.3449418478766244,5.3383103141564945,1.8356804493996774,2.051440261544826,5.2034799126237745,1.0,3.14,-0.5089312950619485,-0.05409994056401598,2.8436745517546176,3.1285013844081986,-3.14
165,0.5349528731893067,0.4068647418679445,0.3449418478766001,5.338310314156489,1.8356804493996681,2.0514402615448315,5.203479912623769,1.0,3.14,-0.5089312950619442,-0.05409994056401154,2.843674551754646,3.128501384408202,-3.14
166,0.534952873189295,0.40686474186794597,0.34494184787658105,5.338310314156485,1.83568044939966,2.051440261544837,5.203479912623765,1.0,3.14,-0.5089312950619402,-0.05409994056400791,2.8436745517546695,3.1285013844082057,-3.14
167,0.534952873189285,0.40686474186794647,0.3449418478765646,5.33831031415648,1.8356804493996532,2.0514402615448404,5.203479912623761,1.0,3.14,-0.5089312950619372,-0.054099940564004925,2.843674551754689,3.1285013844082084,-3.14
168,0.5349528731892761,0.40686474186794724,0.34494184787655086,5.338310314156478,1.8356804493996484,2.0514402615448435,5.2034799126237585,1.0,3.14,-0.5089312950619349,-0.054099940564002455,2.8436745517547055,3.12850138440821,-3.14
169,0.5349528731892701,0.4068647418679481,0.34494184787654036,5.338310314156475,1.8356804493996435,2.051440261544846,5.203479912623756,1.0,3.14,-0.5089312950619326,-0.05409994056400035,2.843674551754719,3.1285013844082123,-3.14
170,0.5349528731892634,0.40686474186794797,0.3449418478765299,5.338310314156472,1.8356804493996401,2.051440261544849,5.203479912623754,1.0,3.14,-0.5089312950619309,-0.05409994056399861,2.8436745517547304,3.1285013844082137,-3.14
171,0.5349528731892602,0.40686474186794996,0.3449418478765226,5.338310314156472,1.8356804493996368,2.05144026154485,5.203479912623753,1.0,3.14,-0.5089312950619295,-0.05409994056399723,2.8436745517547397,3.128501384408215,-3.14
172,0.5349528731892559,0.40686474186795,0.34494184787651605,5.3383103141564705,1.8356804493996344,2.0514402615448515,5.203479912623751,1.0,3.14,-0.5089312950619282,-0.0540999405639959,2.8436745517547473,3.1285013844082163,-3.14
173,0.5349528731892529,0.40686474186795024,0.3449418478765108,5.338310314156469,1.8356804493996317,2.0514402615448537,5.2034799126237505,1.0,3.14,-0.508931295061927,-0.05409994056399484,2.843674551754754,3.1285013844082172,-3.14
174,0.5349528731892499,0.4068647418679511,0.34494184787650556,5.338310314156469,1.8356804493996304,2.051440261544854,5.20347991262375,1.0,3.14,-0.5089312950619264,-0.05409994056399407,2.8436745517547592,3.1285013844082177,-3.14
175,0.5349528731892481,0.4068647418679514,0.3449418478765016,5.338310314156468,1.8356804493996286,2.0514402615448555,5.203479912623749,1.0,3.14,-0.5089312950619256,-0.054099940563993386,2.8436745517547637,3.1285013844082186,-3.14
176,0.5349528731892451,0.40686474186795124,0.344941847876499,5.338310314156467,1.8356804493996277,2.0514402615448564,5.203479912623748,1.0,3.14,-0.5089312950619251,-0.05409994056399278,2.8436745517547677,3.128501384408219,-3.14
177,0.534952873189244,0.4068647418679511,0.34494184787649634,5.338310314156466,1.8356804493996268,2.051440261544857,5.203479912623747,1.0,3.14,-0.5089312950619247,-0.054099940563992366,2.843674551754771,3.1285013844082195,-3.14
178,0.5349528731892421,0.4068647418679509,0.34494184787649373,5.338310314156465,1.835680449399626,2.0514402615448573,5.203479912623746,1.0,3.14,-0.5089312950619244,-0.054099940563991894,2.8436745517547735,3.12850138440822,-3.14
179,0.5349528731892406,0.4068647418679507,0.3449418478764924,5.338310314156464,1.835680449399625,2.0514402615448573,5.203479912623745,1.0,3.14,-0.508931295061924,-0.05409994056399159,2.8436745517547757,3.12850138440822,-3.14
180,0.534952873189239,0.4068647418679504,0.3449418478764911,5.338310314156463,1.8356804493996244,2.0514402615448577,5.203479912623745,1.0,3.14,-0.5089312950619236,-0.05409994056399138,2.8436745517547775,3.1285013844082203,-3.14
181,0.5349528731892401,0.4068647418679515,0.3449418478764898,5.338310314156464,1.8356804493996237,2.051440261544858,5.203479912623746,1.0,3.14,-0.5089312950619231,-0.05409994056399118,2.843674551754779,3.128501384408221,-3.14
182,0.5349528731892383,0.40686474186795096,0.3449418478764878,5.338310314156463,1.8356804493996235,2.0514402615448586,5.203479912623745,1.0,3.14,-0.508931295061923,-0.0540999405639909,2.84367455175478,3.128501384408221,-3.14
183,0.5349528731892383,0.40686474186795135,0.3449418478764878,5.338310314156463,1.8356804493996228,2.051440261544859,5.203479912623745,1.0,3.14,-0.5089312950619228,-0.05409994056399079,2.843674551754781,3.128501384408221,-3.14
184,0.5349528731892389,0.4068647418679521,0.3449418478764872,5.338310314156464,1.8356804493996228,2.051440261544859,5.203479912623745,1.0,3.14,-0.5089312950619226,-0.054099940563990694,2.843674551754782,3.128501384408221,-3.14
185,0.5349528731892383,0.40686474186795163,0.3449418478764865,5.338310314156463,1.8356804493996224,2.051440261544859,5.203479912623744,1.0,3.14,-0.5089312950619225,-0.05409994056399056,2.8436745517547823,3.1285013844082212,-3.14
186,0.5349528731892372,0.40686474186795174,0.34494184787648585,5.338310314156463,1.8356804493996222,2.051440261544859,5.203479912623744,1.0,3.14,-0.5089312950619225,-0.054099940563990416,2.8436745517547832,3.1285013844082212,-3.14
187,0.5349528731892377,0.406864741867952,0.3449418478764852,5.338310314156463,1.8356804493996217,2.051440261544859,5.203479912623744,1.0,3.14,-0.5089312950619223,-0.05409994056399041,2.8436745517547837,3.1285013844082212,-3.14
188,0.5349528731892375,0.406864741867952,0.3449418478764845,5.338310314156463,1.8356804493996217,2.051440261544859,5.203479912623744,1.0,3.14,-0.5089312950619223,-0.054099940563990284,2.843674551754784,3.1285013844082212,-3.14
189,0.5349528731892375,0.4068647418679523,0.3449418478764852,5.338310314156463,1.8356804493996213,2.0514402615448595,5.203479912623744,1.0,3.14,-0.5089312950619219,-0.054099940563990236,2.8436745517547846,3.1285013844082217,-3.14
190,0.5349528731892372,0.4068647418679524,0.3449418478764845,5.338310314156463,1.835680449399621,2.0514402615448604,5.203479912623744,1.0,3.14,-0.5089312950619218,-0.054099940563990125,2.843674551754785,3.1285013844082217,-3.14
191,0.5349528731892375,0.4068647418679524,0.3449418478764852,5.338310314156463,1.835680449399621,2.05144026154486,5.203479912623744,1.0,3.14,-0.5089312950619219,-0.05409994056399013,2.843674551754785,3.1285013844082217,-3.14
192,0.5349528731892372,0.4068647418679525,0.3449418478764852,5.338310314156463,1.8356804493996208,2.0514402615448604,5.203479912623744,1.0,3.14,-0.5089312950619218,-0.05409994056399005,2.843674551754785,3.1285013844082217,-3.14
193,0.5349528731892372,0.4068647418679524,0.3449418478764845,5.338310314156463,1.835680449399621,2.0514402615448604,5.203479912623744,1.0,3.14,-0.5089312950619218,-0.054099940563990104,2.843674551754785,3.1285013844082217,-3.14
194,0.5349528731892372,0.4068647418679524,0.3449418478764852,5.338310314156463,1.835680449399621,2.0514402615448604,5.203479912623744,1.0,3.14,-0.5089312950619219,-0.05409994056399012,2.843674551754785,3.1285013844082217,-3.14
195,0.5349528731892369,0.4068647418679523,0.34494184787648385,5.338310314156463,1.8356804493996213,2.05144026154486,5.203479912623744,1.0,3.14,-0.508931295061922,-0.05409994056399011,2.8436745517547855,3.1285013844082217,-3.14
196,0.534952873189237,0.4068647418679523,0.34494184787648385,5.338310314156463,1.8356804493996213,2.0514402615448595,5.203479912623744,1.0,3.14,-0.5089312950619223,-0.054099940563990034,2.8436745517547855,3.1285013844082217,-3.14
197,0.5349528731892371,0.4068647418679523,0.34494184787648385,5.338310314156463,1.8356804493996213,2.0514402615448595,5.203479912623744,1.0,3.14,-0.5089312950619223,-0.054099940563989965,2.8436745517547855,3.1285013844082217,-3.14
198,0.5349528731892371,0.4068647418679524,0.34494184787648385,5.338310314156463,1.835680449399621,2.05144026154486,5.203479912623744,1.0,3.14,-0.508931295061922,-0.05409994056398994,2.8436745517547855,3.1285013844082217,-3.14
199,0.534952873189238,0.4068647418679528,0.34494184787648385,5.338310314156463,1.8356804493996204,2.0514402615448604,5.203479912623744,1.0,3.14,-0.5089312950619217,-0.05409994056398993,2.8436745517547855,3.128501384408222,-3.14
200,0.5349528731892366,0.40686474186795196,0.34494184787648385,5.3383103141564625,1.8356804493996206,2.0514402615448604,5.203479912623743,1.0,3.14,-0.5089312950619219,-0.05409994056398989,2.843674551754786,3.1285013844082217,-3.14
201,0.5349528731892358,0.40686474186795174,0.34494184787648385,5.3383103141564625,1.835680449399621,2.05144026154486,5.203479912623743,1.0,3.14,-0.508931295061922,-0.05409994056398996,2.843674551754786,3.1285013844082217,-3.14
202,0.5349528731892359,0.40686474186795185,0.34494184787648385,5.3383103141564625,1.8356804493996208,2.05144026154486,5.203479912623743,1.0,3.14,-0.5089312950619219,-0.054099940563989986,2.843674551754786,3.1285013844082217,-3.14
203,0.534952873189237,0.40686474186795263,0.34494184787648385,5.338310314156463,1.8356804493996206,2.0514402615448604,5.203479912623744,1.0,3.14,-0.5089312950619218,-0.054099940563989986,2.843674551754786,3.1285013844082217,-3.14
204,0.534952873189237,0.4068647418679526,0.34494184787648385,5.338310314156463,1.8356804493996208,2.05144026154486,5.203479912623744,1.0,3.14,-0.5089312950619219,-0.05409994056398996,2.843674551754786,3.1285013844082217,-3.14
205,0.5349528731892371,0.40686474186795263,0.34494184787648385,5.338310314156463,1.8356804493996206,2.0514402615448604,5.203479912623744,1.0,3.14,-0.5089312950619217,-0.05409994056398991,2.843674551754786,3.1285013844082217,-3.14
206,0.5349528731892369,0.40686474186795263,0.34494184787648385,5.338310314156463,1.8356804493996206,2.0514402615448604,5.203479912623744,1.0,3.14,-0.5089312950619218,-0.054099940563989944,2.843674551754786,3.1285013844082217,-3.14
207,0.5349528731892363,0.4068647418679524,0.34494184787648385,5.338310314156463,1.835680449399621,2.05144026154486,5.203479912623744,1.0,3.14,-0.508931295061922,-0.054099940563989965,2.843674551754786,3.1285013844082217,-3.14
208,0.534952873189237,0.4068647418679526,0.34494184787648385,5.338310314156463,1.8356804493996208,2.05144026154486,5.203479912623744,1.0,3.14,-0.5089312950619219,-0.05409994056398997,2.843674551754786,3.1285013844082217,-3.14
209,0.534952873189237,0.40686474186795263,0.34494184787648385,5.338310314156463,1.8356804493996206,2.0514402615448604,5.203479912623744,1.0,3.14,-0.5089312950619217,-0.05409994056398992,2.843674551754786,3.1285013844082217,-3.14
210,0.5349528731892362,0.4068647418679524,0.34494184787648324,5.338310314156463,1.835680449399621,2.05144026154486,5.203479912623744,1.0,3.14,-0.5089312950619219,-0.054099940563989986,2.843674551754786,3.1285013844082212,-3.14
211,0.5349528731892369,0.40686474186795263,0.34494184787648385,5.338310314156463,1.8356804493996206,2.0514402615448604,5.203479912623744,1.0,3.14,-0.5089312950619217,-0.05409994056399007,2.843674551754786,3.1285013844082217,-3.14
212,0.534952873189237,0.40686474186795263,0.34494184787648385,5.338310314156463,1.8356804493996206,2.0514402615448604,5.203479912623744,1.0,3.14,-0.5089312950619217,-0.054099940563989986,2.843674551754786,3.1285013844082217,-3.14
213,0.5349528731892362,0.4068647418679524,0.34494184787648324,5.338310314156463,1.835680449399621,2.05144026154486,5.203479912623744,1.0,3.14,-0.508931295061922,-0.054099940563989986,2.843674551754786,3.1285013844082212,-3.14
214,0.5349528731892368,0.4068647418679524,0.34494184787648385,5.338310314156463,1.835680449399621,2.05144026154486,5.203479912623744,1.0,3.14,-0.5089312950619219,-0.05409994056399005,2.843674551754786,3.1285013844082212,-3.14
215,0.5349528731892368,0.4068647418679524,0.34494184787648385,5.338310314156463,1.835680449399621,2.05144026154486,5.203479912623744,1.0,3.14,-0.5089312950619219,-0.054099940563990034,2.843674551754786,3.1285013844082212,-3.14
216,0.5349528731892368,0.4068647418679524,0.34494184787648385,5.338310314156463,1.835680449399621,2.05144026154486,5.203479912623744,1.0,3.14,-0.5089312950619219,-0.05409994056399003,2.843674551754786,3.1285013844082212,-3.14
217,0.5349528731892362,0.4068647418679524,0.34494184787648324,5.338310314156463,1.835680449399621,2.05144026154486,5.203479912623744,1.0,3.14,-0.5089312950619219,-0.054099940563990014,2.843674551754786,3.1285013844082212,-3.14
218,0.5349528731892369,0.40686474186795263,0.34494184787648385,5.338310314156463,1.8356804493996206,2.0514402615448604,5.203479912623744,1.0,3.14,-0.5089312950619217,-0.05409994056399007,2.843674551754786,3.1285013844082217,-3.14
219,0.534952873189237,0.40686474186795263,0.34494184787648385,5.338310314156463,1.8356804493996206,2.0514402615448604,5.203479912623744,1.0,3.14,-0.5089312950619217,-0.054099940563989986,2.843674551754786,3.1285013844082217,-3.14
220,0.5349528731892362,0.4068647418679524,0.34494184787648324,5.338310314156463,1.835680449399621,2.05144026154486,5.203479912623744,1.0,3.14,-0.508931295061922,-0.054099940563989986,2.843674551754786,3.1285013844082212,-3.14
221,0.5349528731892368,0.4068647418679524,0.34494184787648385,5.338310314156463,1.835680449399621,2.05144026154486,5.203479912623744,1.0,3.14,-0.5089312950619219,-0.05409994056399005,2.843674551754786,3.1285013844082212,-3.14
222,0.5349528731892368,0.4068647418679524,0.34494184787648385,5.338310314156463,1.835680449399621,2.05144026154486,5.203479912623744,1.0,3.14,-0.5089312950619219,-0.054099940563990034,2.843674551754786,3.1285013844082212,-3.14
223,0.5349528731892368,0.4068647418679524,0.34494184787648385,5.338310314156463,1.835680449399621,2.05144026154486,5.203479912623744,1.0,3.14,-0.5089312950619219,-0.05409994056399003,2.843674551754786,3.1285013844082212,-3.14
224,0.5349528731892362,0.4068647418679524,0.34494184787648324,5.338310314156463,1.835680449399621,2.05144026154486,5.203479912623744,1.0,3.14,-0.5089312950619219,-0.054099940563990014,2.843674551754786,3.1285013844082212,-3.14
225,0.5349528731892369,0.40686474186795263,0.34494184787648385,5.338310314156463,1.8356804493996206,2.0514402615448604,5.203479912623744,1.0,3.14,-0.5089312950619217,-0.05409994056399007,2.843674551754786,3.1285013844082217,-3.14
226,0.534952873189237,0.40686474186795263,0.34494184787648385,5.338310314156463,1.8356804493996206,2.0514402615448604,5.203479912623744,1.0,3.14,-0.5089312950619217,-0.054099940563989986,2.843674551754786,3.1285013844082217,-3.14
227,0.5349528731892362,0.4068647418679524,0.34494184787648324,5.338310314156463,1.835680449399621,2.05144026154486,5.203479912623744,1.0,3.14,-0.508931295061922,-0.054099940563989986,2.843674551754786,3.1285013844082212,-3.14
228,0.5349528731892368,0.4068647418679524,0.34494184787648385,5.338310314156463,1.835680449399621,2.05144026154486,5.203479912623744,1.0,3.14,-0.5089312950619219,-0.05409994056399005,2.843674551754786,3.1285013844082212,-3.14
229,0.5349528731892368,0.4068647418679524,0.34494184787648385,5.338310314156463,1.835680449399621,2.05144026154486,5.203479912623744,1.0,3.14,-0.5089312950619219,-0.054099940563990034,2.843674551754786,3.1285013844082212,-3.14
230,0.5349528731892368,0.4068647418679524,0.34494184787648385,5.338310314156463,1.835680449399621,2.05144026154486,5.203479912623744,1.0,3.14,-0.5089312950619219,-0.05409994056399003,2.843674551754786,3.1285013844082212,-3.14
231,0.5349528731892362,0.4068647418679524,0.34494184787648324,5.338310314156463,1.835680449399621,2.05144026154486,5.203479912623744,1.0,3.14,-0.5089312950619219,-0.054099940563990014,2.843674551754786,3.1285013844082212,-3.14
232,0.5349528731892369,0.40686474186795263,0.34494184787648385,5.338310314156463,1.8356804493996206,2.0514402615448604,5.203479912623744,1.0,3.14,-0.5089312950619217,-0.05409994056399007,2.843674551754786,3.1285013844082217,-3.14
233,0.534952873189237,0.40686474186795263,0.34494184787648385,5.338310314156463,1.8356804493996206,2.0514402615448604,5.203479912623744,1.0,3.14,-0.5089312950619217,-0.054099940563989986,2.843674551754786,3.1285013844082217,-3.14
234,0.5349528731892362,0.4068647418679524,0.34494184787648324,5.338310314156463,1.835680449399621,2.05144026154486,5.203479912623744,1.0,3.14,-0.508931295061922,-0.054099940563989986,2.843674551754786,3.1285013844082212,-3.14
235,0.5349528731892368,0.4068647418679524,0.34494184787648385,5.338310314156463,1.835680449399621,2.05144026154486,5.203479912623744,1.0,3.14,-0.5089312950619219,-0.05409994056399005,2.843674551754786,3.1285013844082212,-3.14
236,0.5349528731892368,0.4068647418679524,0.34494184787648385,5.338310314156463,1.835680449399621,2.05144026154486,5.203479912623744,1.0,3.14,-0.5089312950619219,-0.054099940563990034,2.843674551754786,3.1285013844082212,-3.14
237,0.5349528731892368,0.4068647418679524,0.34494184787648385,5.338310314156463,1.835680449399621,2.05144026154486,5.203479912623744,1.0,3.14,-0.5089312950619219,-0.05409994056399003,2.843674551754786,3.1285013844082212,-3.14
238,0.5349528731892362,0.4068647418679524,0.34494184787648324,5.338310314156463,1.835680449399621,2.05144026154486,5.203479912623744,1.0,3.14,-0.5089312950619219,-0.054099940563990014,2.843674551754786,3.1285013844082212,-3.14
239,0.5349528731892369,0.40686474186795263,0.34494184787648385,5.338310314156463,1.8356804493996206,2.0514402615448604,5.203479912623744,1.0,3.14,-0.5089312950619217,-0.05409994056399007,2.843674551754786,3.1285013844082217,-3.14
240,0.534952873189237,0.40686474186795263,0.34494184787648385,5.338310314156463,1.8356804493996206,2.0514402615448604,5.203479912623744,1.0,3.14,-0.5089312950619217,-0.054099940563989986,2.843674551754786,3.1285013844082217,-3.14
241,0.5349528731892362,0.4068647418679524,0.34494184787648324,5.338310314156463,1.835680449399621,2.05144026154486,5.203479912623744,1.0,3.14,-0.508931295061922,-0.054099940563989986,2.843674551754786,3.1285013844082212,-3.14
242,0.5349528731892368,0.4068647418679524,0.34494184787648385,5.338310314156463,1.835680449399621,2.05144026154486,5.203479912623744,1.0,3.14,-0.5089312950619219,-0.05409994056399005,2.843674551754786,3.1285013844082212,-3.14
243,0.5349528731892368,0.4068647418679524,0.34494184787648385,5.338310314156463,1.835680449399621,2.05144026154486,5.203479912623744,1.0,3.14,-0.5089312950619219,-0.054099940563990034,2.843674551754786,3.1285013844082212,-3.14
244,0.5349528731892368,0.4068647418679524,0.34494184787648385,5.338310314156463,1.835680449399621,2.05144026154486,5.203479912623744,1.0,3.14,-0.5089312950619219,-0.05409994056399003,2.843674551754786,3.1285013844082212,-3.14
245,0.5349528731892362,0.4068647418679524,0.34494184787648324,5.338310314156463,1.835680449399621,2.05144026154486,5.203479912623744,1.0,3.14,-0.5089312950619219,-0.054099940563990014,2.843674551754786,3.1285013844082212,-3.14
246,0.5349528731892369,0.40686474186795263,0.34494184787648385,5.338310314156463,1.8356804493996206,2.0514402615448604,5.203479912623744,1.0,3.14,-0.5089312950619217,-0.05409994056399007,2.843674551754786,3.1285013844082217,-3.14
247,0.534952873189237,0.40686474186795263,0.34494184787648385,5.338310314156463,1.8356804493996206,2.0514402615448604,5.203479912623744,1.0,3.14,-0.5089312950619217,-0.054099940563989986,2.843674551754786,3.1285013844082217,-3.14
248,0.5349528731892362,0.4068647418679524,0.34494184787648324,5.338310314156463,1.835680449399621,2.05144026154486,5.203479912623744,1.0,3.14,-0.508931295061922,-0.054099940563989986,2.843674551754786,3.1285013844082212,-3.14
249,0.5349528731892368,0.4068647418679524,0.34494184787648385,5.338310314156463,1.835680449399621,2.05144026154486,5.203479912623744,1.0,3.14,-0.5089312950619219,-0.05409994056399005,2.843674551754786,3.1285013844082212,-3.14
250,0.5349528731892368,0.4068647418679524,0.34494184787648385,5.338310314156463,1.835680449399621,2.05144026154486,5.203479912623744,1.0,3.14,-0.5089312950619219,-0.054099940563990034,2.843674551754786,3.1285013844082212,-3.14
251,0.5349528731892368,0.4068647418679524,0.34494184787648385,5.338310314156463,1.835680449399621,2.05144026154486,5.203479912623744,1.0,3.14,-0.5089312950619219,-0.05409994056399003,2.843674551754786,3.1285013844082212,-3.14
252,0.5349528731892362,0.4068647418679524,0.34494184787648324,5.338310314156463,1.835680449399621,2.05144026154486,5.203479912623744,1.0,3.14,-0.5089312950619219,-0.054099940563990014,2.843674551754786,3.1285013844082212,-3.14
253,0.5349528731892369,0.40686474186795263,0.34494184787648385,5.338310314156463,1.8356804493996206,2.0514402615448604,5.203479912623744,1.0,3.14,-0.5089312950619217,-0.05409994056399007,2.843674551754786,3.1285013844082217,-3.14
254,0.534952873189237,0.40686474186795263,0.34494184787648385,5.338310314156463,1.8356804493996206,2.0514402615448604,5.203479912623744,1.0,3.14,-0.5089312950619217,-0.054099940563989986,2.843674551754786,3.1285013844082217,-3.14
255,0.5349528731892362,0.4068647418679524,0.34494184787648324,5.338310314156463,1.835680449399621,2.05144026154486,5.203479912623744,1.0,3.14,-0.508931295061922,-0.054099940563989986,2.843674551754786,3.1285013844082212,-3.14
256,0.5349528731892368,0.4068647418679524,0.34494184787648385,5.338310314156463,1.835680449399621,2.05144026154486,5.203479912623744,1.0,3.14,-0.5089312950619219,-0.05409994056399005,2.843674551754786,3.1285013844082212,-3.14
257,0.5349528731892368,0.4068647418679524,0.34494184787648385,5.338310314156463,1.835680449399621,2.05144026154486,5.203479912623744,1.0,3.14,-0.5089312950619219,-0.054099940563990034,2.843674551754786,3.1285013844082212,-3.14
258,0.5349528731892368,0.4068647418679524,0.34494184787648385,5.338310314156463,1.835680449399621,2.05144026154486,5.203479912623744,1.0,3.14,-0.5089312950619219,-0.05409994056399003,2.843674551754786,3.1285013844082212,-3.14
259,0.5349528731892362,0.4068647418679524,0.34494184787648324,5.338310314156463,1.835680449399621,2.05144026154486,5.203479912623744,1.0,3.14,-0.5089312950619219,-0.054099940563990014,2.843674551754786,3.1285013844082212,-3.14
260,0.5349528731892369,0.40686474186795263,0.34494184787648385,5.338310314156463,1.8356804493996206,2.0514402615448604,5.203479912623744,1.0,3.14,-0.5089312950619217,-0.05409994056399007,2.843674551754786,3.1285013844082217,-3.14
261,0.534952873189237,0.40686474186795263,0.34494184787648385,5.338310314156463,1.8356804493996206,2.0514402615448604,5.203479912623744,1.0,3.14,-0.5089312950619217,-0.054099940563989986,2.843674551754786,3.1285013844082217,-3.14
262,0.5349528731892362,0.4068647418679524,0.34494184787648324,5.338310314156463,1.835680449399621,2.05144026154486,5.203479912623744,1.0,3.14,-0.508931295061922,-0.054099940563989986,2.843674551754786,3.1285013844082212,-3.14
263,0.5349528731892368,0.4068647418679524,0.34494184787648385,5.338310314156463,1.835680449399621,2.05144026154486,5.203479912623744,1.0,3.14,-0.5089312950619219,-0.05409994056399005,2.843674551754786,3.1285013844082212,-3.14
264,0.5349528731892368,0.4068647418679524,0.34494184787648385,5.338310314156463,1.835680449399621,2.05144026154486,5.203479912623744,1.0,3.14,-0.5089312950619219,-0.054099940563990034,2.843674551754786,3.1285013844082212,-3.14
265,0.5349528731892368,0.4068647418679524,0.34494184787648385,5.338310314156463,1.835680449399621,2.05144026154486,5.203479912623744,1.0,3.14,-0.5089312950619219,-0.05409994056399003,2.843674551754786,3.1285013844082212,-3.14
266,0.5349528731892362,0.4068647418679524,0.34494184787648324,5.338310314156463,1.835680449399621,2.05144026154486,5.203479912623744,1.0,3.14,-0.5089312950619219,-0.054099940563990014,2.843674551754786,3.1285013844082212,-3.14
267,0.5349528731892369,0.40686474186795263,0.34494184787648385,5.338310314156463,1.8356804493996206,2.0514402615448604,5.203479912623744,1.0,3.14,-0.5089312950619217,-0.05409994056399007,2.843674551754786,3.1285013844082217,-3.14
268,0.534952873189237,0.40686474186795263,0.34494184787648385,5.338310314156463,1.8356804493996206,2.0514402615448604,5.203479912623744,1.0,3.14,-0.5089312950619217,-0.054099940563989986,2.843674551754786,3.1285013844082217,-3.14
269,0.5349528731892362,0.4068647418679524,0.34494184787648324,5.338310314156463,1.835680449399621,2.05144026154486,5.203479912623744,1.0,3.14,-0.508931295061922,-0.054099940563989986,2.843674551754786,3.1285013844082212,-3.14
270,0.5349528731892368,0.4068647418679524,0.34494184787648385,5.338310314156463,1.835680449399621,2.05144026154486,5.203479912623744,1.0,3.14,-0.5089312950619219,-0.05409994056399005,2.843674551754786,3.1285013844082212,-3.14
271,0.5349528731892368,0.4068647418679524,0.34494184787648385,5.338310314156463,1.835680449399621,2.05144026154486,5.203479912623744,1.0,3.14,-0.5089312950619219,-0.054099940563990034,2.843674551754786,3.1285013844082212,-3.14
272,0.5349528731892368,0.4068647418679524,0.34494184787648385,5.338310314156463,1.835680449399621,2.05144026154486,5.203479912623744,1.0,3.14,-0.5089312950619219,-0.05409994056399003,2.843674551754786,3.1285013844082212,-3.14
273,0.5349528731892362,0.4068647418679524,0.34494184787648324,5.338310314156463,1.835680449399621,2.05144026154486,5.203479912623744,1.0,3.14,-0.5089312950619219,-0.054099940563990014,2.843674551754786,3.1285013844082212,-3.14
274,0.5349528731892369,0.40686474186795263,0.34494184787648385,5.338310314156463,1.8356804493996206,2.0514402615448604,5.203479912623744,1.0,3.14,-0.5089312950619217,-0.05409994056399007,2.843674551754786,3.1285013844082217,-3.14
275,0.534952873189237,0.40686474186795263,0.34494184787648385,5.338310314156463,1.8356804493996206,2.0514402615448604,5.203479912623744,1.0,3.14,-0.5089312950619217,-0.054099940563989986,2.843674551754786,3.1285013844082217,-3.14
276,0.5349528731892362,0.4068647418679524,0.34494184787648324,5.338310314156463,1.835680449399621,2.05144026154486,5.203479912623744,1.0,3.14,-0.508931295061922,-0.054099940563989986,2.843674551754786,3.1285013844082212,-3.14
277,0.5349528731892368,0.4068647418679524,0.34494184787648385,5.338310314156463,1.835680449399621,2.05144026154486,5.203479912623744,1.0,3.14,-0.5089312950619219,-0.05409994056399005,2.843674551754786,3.1285013844082212,-3.14
278,0.5349528731892368,0.4068647418679524,0.34494184787648385,5.338310314156463,1.835680449399621,2.05144026154486,5.203479912623744,1.0,3.14,-0.5089312950619219,-0.054099940563990034,2.843674551754786,3.1285013844082212,-3.14
279,0.5349528731892368,0.4068647418679524,0.34494184787648385,5.338310314156463,1.835680449399621,2.05144026154486,5.203479912623744,1.0,3.14,-0.5089312950619219,-0.05409994056399003,2.843674551754786,3.1285013844082212,-3.14
280,0.5349528731892362,0.4068647418679524,0.34494184787648324,5.338310314156463,1.835680449399621,2.05144026154486,5.203479912623744,1.0,3.14,-0.5089312950619219,-0.054099940563990014,2.843674551754786,3.1285013844082212,-3.14
281,0.5349528731892369,0.40686474186795263,0.34494184787648385,5.338310314156463,1.8356804493996206,2.0514402615448604,5.203479912623744,1.0,3.14,-0.5089312950619217,-0.05409994056399007,2.843674551754786,3.1285013844082217,-3.14
282,0.534952873189237,0.40686474186795263,0.34494184787648385,5.338310314156463,1.8356804493996206,2.0514402615448604,5.203479912623744,1.0,3.14,-0.5089312950619217,-0.054099940563989986,2.843674551754786,3.1285013844082217,-3.14
283,0.5349528731892362,0.4068647418679524,0.34494184787648324,5.338310314156463,1.835680449399621,2.05144026154486,5.203479912623744,1.0,3.14,-0.508931295061922,-0.054099940563989986,2.843674551754786,3.1285013844082212,-3.14
284,0.5349528731892368,0.4068647418679524,0.34494184787648385,5.338310314156463,1.835680449399621,2.05144026154486,5.203479912623744,1.0,3.14,-0.5089312950619219,-0.05409994056399005,2.843674551754786,3.1285013844082212,-3.14
285,0.5349528731892368,0.4068647418679524,0.34494184787648385,5.338310314156463,1.835680449399621,2.05144026154486,5.203479912623744,1.0,3.14,-0.5089312950619219,-0.054099940563990034,2.843674551754786,3.1285013844082212,-3.14
286,0.5349528731892368,0.4068647418679524,0.34494184787648385,5.338310314156463,1.835680449399621,2.05144026154486,5.203479912623744,1.0,3.14,-0.5089312950619219,-0.05409994056399003,2.843674551754786,3.1285013844082212,-3.14
287,0.5349528731892362,0.4068647418679524,0.34494184787648324,5.338310314156463,1.835680449399621,2.05144026154486,5.203479912623744,1.0,3.14,-0.5089312950619219,-0.054099940563990014,2.843674551754786,3.1285013844082212,-3.14
288,0.5349528731892369,0.40686474186795263,0.34494184787648385,5.338310314156463,1.8356804493996206,2.0514402615448604,5.203479912623744,1.0,3.14,-0.5089312950619217,-0.05409994056399007,2.843674551754786,3.1285013844082217,-3.14
289,0.534952873189237,0.40686474186795263,0.34494184787648385,5.338310314156463,1.8356804493996206,2.0514402615448604,5.203479912623744,1.0,3.14,-0.5089312950619217,-0.054099940563989986,2.843674551754786,3.1285013844082217,-3.14
290,0.5349528731892362,0.4068647418679524,0.34494184787648324,5.338310314156463,1.835680449399621,2.05144026154486,5.203479912623744,1.0,3.14,-0.508931295061922,-0.054099940563989986,2.843674551754786,3.1285013844082212,-3.14
291,0.5349528731892368,0.4068647418679524,0.34494184787648385,5.338310314156463,1.835680449399621,2.05144026154486,5.203479912623744,1.0,3.14,-0.5089312950619219,-0.05409994056399005,2.843674551754786,3.1285013844082212,-3.14
292,0.5349528731892368,0.4068647418679524,0.34494184787648385,5.338310314156463,1.835680449399621,2.05144026154486,5.203479912623744,1.0,3.14,-0.5089312950619219,-0.054099940563990034,2.843674551754786,3.1285013844082212,-3.14
293,0.5349528731892368,0.4068647418679524,0.34494184787648385,5.338310314156463,1.835680449399621,2.05144026154486,5.203479912623744,1.0,3.14,-0.5089312950619219,-0.05409994056399003,2.843674551754786,3.1285013844082212,-3.14
294,0.5349528731892362,0.4068647418679524,0.34494184787648324,5.338310314156463,1.835680449399621,2.05144026154486,5.203479912623744,1.0,3.14,-0.5089312950619219,-0.054099940563990014,2.843674551754786,3.1285013844082212,-3.14
295,0.5349528731892369,0.40686474186795263,0.34494184787648385,5.338310314156463,1.8356804493996206,2.0514402615448604,5.203479912623744,1.0,3.14,-0.5089312950619217,-0.05409994056399007,2.843674551754786,3.1285013844082217,-3.14
296,0.534952873189237,0.40686474186795263,0.34494184787648385,5.338310314156463,1.8356804493996206,2.0514402615448604,5.203479912623744,1.0,3.14,-0.5089312950619217,-0.054099940563989986,2.843674551754786,3.1285013844082217,-3.14
297,0.5349528731892362,0.4068647418679524,0.34494184787648324,5.338310314156463,1.835680449399621,2.05144026154486,5.203479912623744,1.0,3.14,-0.508931295061922,-0.054099940563989986,2.843674551754786,3.1285013844082212,-3.14
298,0.5349528731892368,0.4068647418679524,0.34494184787648385,5.338310314156463,1.835680449399621,2.05144026154486,5.203479912623744,1.0,3.14,-0.5089312950619219,-0.05409994056399005,2.843674551754786,3.1285013844082212,-3.14
299,0.5349528731892368,0.4068647418679524,0.34494184787648385,5.338310314156463,1.835680449399621,2.05144026154486,5.203479912623744,1.0,3.14,-0.5089312950619219,-0.054099940563990034,2.843674551754786,3.1285013844082212,-3.14
300,0.5349528731892368,0.4068647418679524,0.34494184787648385,5.338310314156463,1.835680449399621,2.05144026154486,5.203479912623744,1.0,3.14,-0.5089312950619219,-0.05409994056399003,2.843674551754786,3.1285013844082212,-3.14
301,0.5349528731892362,0.4068647418679524,0.34494184787648324,5.338310314156463,1.835680449399621,2.05144026154486,5.203479912623744,1.0,3.14,-0.5089312950619219,-0.054099940563990014,2.843674551754786,3.1285013844082212,-3.14
302,0.5349528731892369,0.40686474186795263,0.34494184787648385,5.338310314156463,1.8356804493996206,2.0514402615448604,5.203479912623744,1.0,3.14,-0.5089312950619217,-0.05409994056399007,2.843674551754786,3.1285013844082217,-3.14
303,0.534952873189237,0.40686474186795263,0.34494184787648385,5.338310314156463,1.8356804493996206,2.0514402615448604,5.203479912623744,1.0,3.14,-0.5089312950619217,-0.054099940563989986,2.843674551754786,3.1285013844082217,-3.14
304,0.5349528731892362,0.4068647418679524,0.34494184787648324,5.338310314156463,1.835680449399621,2.05144026154486,5.203479912623744,1.0,3.14,-0.508931295061922,-0.054099940563989986,2.843674551754786,3.1285013844082212,-3.14
305,0.5349528731892368,0.4068647418679524,0.34494184787648385,5.338310314156463,1.835680449399621,2.05144026154486,5.203479912623744,1.0,3.14,-0.5089312950619219,-0.05409994056399005,2.843674551754786,3.1285013844082212,-3.14
306,0.5349528731892368,0.4068647418679524,0.34494184787648385,5.338310314156463,1.835680449399621,2.05144026154486,5.203479912623744,1.0,3.14,-0.5089312950619219,-0.054099940563990034,2.843674551754786,3.1285013844082212,-3.14
307,0.5349528731892368,0.4068647418679524,0.34494184787648385,5.338310314156463,1.835680449399621,2.05144026154486,5.203479912623744,1.0,3.14,-0.5089312950619219,-0.05409994056399003,2.843674551754786,3.1285013844082212,-3.14
308,0.5349528731892362,0.4068647418679524,0.34494184787648324,5.338310314156463,1.835680449399621,2.05144026154486,5.203479912623744,1.0,3.14,-0.5089312950619219,-0.054099940563990014,2.843674551754786,3.1285013844082212,-3.14
309,0.5349528731892369,0.40686474186795263,0.34494184787648385,5.338310314156463,1.8356804493996206,2.0514402615448604,5.203479912623744,1.0,3.14,-0.5089312950619217,-0.05409994056399007,2.843674551754786,3.1285013844082217,-3.14
310,0.534952873189237,0.40686474186795263,0.34494184787648385,5.338310314156463,1.8356804493996206,2.0514402615448604,5.203479912623744,1.0,3.14,-0.5089312950619217,-0.054099940563989986,2.843674551754786,3.1285013844082217,-3.14
311,0.5349528731892362,0.4068647418679524,0.34494184787648324,5.338310314156463,1.835680449399621,2.05144026154486,5.203479912623744,1.0,3.14,-0.508931295061922,-0.054099940563989986,2.843674551754786,3.1285013844082212,-3.14
312,0.5349528731892368,0.4068647418679524,0.34494184787648385,5.338310314156463,1.835680449399621,2.05144026154486,5.203479912623744,1.0,3.14,-0.5089312950619219,-0.05409994056399005,2.843674551754786,3.1285013844082212,-3.14
313,0.5349528731892368,0.4068647418679524,0.34494184787648385,5.338310314156463,1.835680449399621,2.05144026154486,5.203479912623744,1.0,3.14,-0.5089312950619219,-0.054099940563990034,2.843674551754786,3.1285013844082212,-3.14
314,0.5349528731892368,0.4068647418679524,0.34494184787648385,5.338310314156463,1.835680449399621,2.05144026154486,5.203479912623744,1.0,3.14,-0.5089312950619219,-0.05409994056399003,2.843674551754786,3.1285013844082212,-3.14
315,0.5349528731892362,0.4068647418679524,0.34494184787648324,5.338310314156463,1.835680449399621,2.05144026154486,5.203479912623744,1.0,3.14,-0.5089312950619219,-0.054099940563990014,2.843674551754786,3.1285013844082212,-3.14
316,0.5349528731892369,0.40686474186795263,0.34494184787648385,5.338310314156463,1.8356804493996206,2.0514402615448604,5.203479912623744,1.0,3.14,-0.5089312950619217,-0.05409994056399007,2.843674551754786,3.1285013844082217,-3.14
317,0.534952873189237,0.40686474186795263,0.34494184787648385,5.338310314156463,1.8356804493996206,2.0514402615448604,5.203479912623744,1.0,3.14,-0.5089312950619217,-0.054099940563989986,2.843674551754786,3.1285013844082217,-3.14
318,0.5349528731892362,0.4068647418679524,0.34494184787648324,5.338310314156463,1.835680449399621,2.05144026154486,5.203479912623744,1.0,3.14,-0.508931295061922,-0.054099940563989986,2.843674551754786,3.1285013844082212,-3.14
319,0.5349528731892368,0.4068647418679524,0.34494184787648385,5.338310314156463,1.835680449399621,2.05144026154486,5.203479912623744,1.0,3.14,-0.5089312950619219,-0.05409994056399005,2.843674551754786,3.1285013844082212,-3.14
320,0.5349528731892368,0.4068647418679524,0.34494184787648385,5.338310314156463,1.835680449399621,2.05144026154486,5.203479912623744,1.0,3.14,-0.5089312950619219,-0.054099940563990034,2.843674551754786,3.1285013844082212,-3.14
321,0.5349528731892368,0.4068647418679524,0.34494184787648385,5.338310314156463,1.835680449399621,2.05144026154486,5.203479912623744,1.0,3.14,-0.5089312950619219,-0.05409994056399003,2.843674551754786,3.1285013844082212,-3.14
322,0.5349528731892362,0.4068647418679524,0.34494184787648324,5.338310314156463,1.835680449399621,2.05144026154486,5.203479912623744,1.0,3.14,-0.5089312950619219,-0.054099940563990014,2.843674551754786,3.1285013844082212,-3.14
323,0.5349528731892369,0.40686474186795263,0.34494184787648385,5.338310314156463,1.8356804493996206,2.0514402615448604,5.203479912623744,1.0,3.14,-0.5089312950619217,-0.05409994056399007,2.843674551754786,3.1285013844082217,-3.14
324,0.534952873189237,0.40686474186795263,0.34494184787648385,5.338310314156463,1.8356804493996206,2.0514402615448604,5.203479912623744,1.0,3.14,-0.5089312950619217,-0.054099940563989986,2.843674551754786,3.1285013844082217,-3.14
325,0.5349528731892362,0.4068647418679524,0.34494184787648324,5.338310314156463,1.835680449399621,2.05144026154486,5.203479912623744,1.0,3.14,-0.508931295061922,-0.054099940563989986,2.843674551754786,3.1285013844082212,-3.14
326,0.5349528731892368,0.4068647418679524,0.34494184787648385,5.338310314156463,1.835680449399621,2.05144026154486,5.203479912623744,1.0,3.14,-0.5089312950619219,-0.05409994056399005,2.843674551754786,3.1285013844082212,-3.14
327,0.5349528731892368,0.4068647418679524,0.34494184787648385,5.338310314156463,1.835680449399621,2.05144026154486,5.203479912623744,1.0,3.14,-0.5089312950619219,-0.054099940563990034,2.843674551754786,3.1285013844082212,-3.14
328,0.5349528731892368,0.4068647418679524,0.34494184787648385,5.338310314156463,1.835680449399621,2.05144026154486,5.203479912623744,1.0,3.14,-0.5089312950619219,-0.05409994056399003,2.843674551754786,3.1285013844082212,-3.14
329,0.5349528731892362,0.4068647418679524,0.34494184787648324,5.338310314156463,1.835680449399621,2.05144026154486,5.203479912623744,1.0,3.14,-0.5089312950619219,-0.054099940563990014,2.843674551754786,3.1285013844082212,-3.14
330,0.5349528731892369,0.40686474186795263,0.34494184787648385,5.338310314156463,1.8356804493996206,2.0514402615448604,5.203479912623744,1.0,3.14,-0.5089312950619217,-0.05409994056399007,2.843674551754786,3.1285013844082217,-3.14
331,0.534952873189237,0.40686474186795263,0.34494184787648385,5.338310314156463,1.8356804493996206,2.0514402615448604,5.203479912623744,1.0,3.14,-0.5089312950619217,-0.054099940563989986,2.843674551754786,3.1285013844082217,-3.14
332,0.5349528731892362,0.4068647418679524,0.34494184787648324,5.338310314156463,1.835680449399621,2.05144026154486,5.203479912623744,1.0,3.14,-0.508931295061922,-0.054099940563989986,2.843674551754786,3.1285013844082212,-3.14
333,0.5349528731892368,0.4068647418679524,0.34494184787648385,5.338310314156463,1.835680449399621,2.05144026154486,5.203479912623744,1.0,3.14,-0.5089312950619219,-0.05409994056399005,2.843674551754786,3.1285013844082212,-3.14
334,0.5349528731892368,0.4068647418679524,0.34494184787648385,5.338310314156463,1.835680449399621,2.05144026154486,5.203479912623744,1.0,3.14,-0.5089312950619219,-0.054099940563990034,2.843674551754786,3.1285013844082212,-3.14
335,0.5349528731892368,0.4068647418679524,0.34494184787648385,5.338310314156463,1.835680449399621,2.05144026154486,5.203479912623744,1.0,3.14,-0.5089312950619219,-0.05409994056399003,2.843674551754786,3.1285013844082212,-3.14
336,0.5349528731892362,0.4068647418679524,0.34494184787648324,5.338310314156463,1.835680449399621,2.05144026154486,5.203479912623744,1.0,3.14,-0.5089312950619219,-0.054099940563990014,2.843674551754786,3.1285013844082212,-3.14
337,0.5349528731892369,0.40686474186795263,0.34494184787648385,5.338310314156463,1.8356804493996206,2.0514402615448604,5.203479912623744,1.0,3.14,-0.5089312950619217,-0.05409994056399007,2.843674551754786,3.1285013844082217,-3.14
338,0.534952873189237,0.40686474186795263,0.34494184787648385,5.338310314156463,1.8356804493996206,2.0514402615448604,5.203479912623744,1.0,3.14,-0.5089312950619217,-0.054099940563989986,2.843674551754786,3.1285013844082217,-3.14
339,0.5349528731892362,0.4068647418679524,0.34494184787648324,5.338310314156463,1.835680449399621,2.05144026154486,5.203479912623744,1.0,3.14,-0.508931295061922,-0.054099940563989986,2.843674551754786,3.1285013844082212,-3.14
340,0.5349528731892368,0.4068647418679524,0.34494184787648385,5.338310314156463,1.835680449399621,2.05144026154486,5.203479912623744,1.0,3.14,-0.5089312950619219,-0.05409994056399005,2.843674551754786,3.1285013844082212,-3.14
341,0.5349528731892368,0.4068647418679524,0.34494184787648385,5.338310314156463,1.835680449399621,2.05144026154486,5.203479912623744,1.0,3.14,-0.5089312950619219,-0.054099940563990034,2.843674551754786,3.1285013844082212,-3.14
342,0.5349528731892368,0.4068647418679524,0.34494184787648385,5.338310314156463,1.835680449399621,2.05144026154486,5.203479912623744,1.0,3.14,-0.5089312950619219,-0.05409994056399003,2.843674551754786,3.1285013844082212,-3.14
343,0.5349528731892362,0.4068647418679524,0.34494184787648324,5.338310314156463,1.835680449399621,2.05144026154486,5.203479912623744,1.0,3.14,-0.5089312950619219,-0.054099940563990014,2.843674551754786,3.1285013844082212,-3.14
344,0.5349528731892369,0.40686474186795263,0.34494184787648385,5.338310314156463,1.8356804493996206,2.0514402615448604,5.203479912623744,1.0,3.14,-0.5089312950619217,-0.05409994056399007,2.843674551754786,3.1285013844082217,-3.14
345,0.534952873189237,0.40686474186795263,0.34494184787648385,5.338310314156463,1.8356804493996206,2.0514402615448604,5.203479912623744,1.0,3.14,-0.5089312950619217,-0.054099940563989986,2.843674551754786,3.1285013844082217,-3.14
346,0.5349528731892362,0.4068647418679524,0.34494184787648324,5.338310314156463,1.835680449399621,2.05144026154486,5.203479912623744,1.0,3.14,-0.508931295061922,-0.054099940563989986,2.843674551754786,3.1285013844082212,-3.14
347,0.5349528731892368,0.4068647418679524,0.34494184787648385,5.338310314156463,1.835680449399621,2.05144026154486,5.203479912623744,1.0,3.14,-0.5089312950619219,-0.05409994056399005,2.843674551754786,3.1285013844082212,-3.14
348,0.5349528731892368,0.4068647418679524,0.34494184787648385,5.338310314156463,1.835680449399621,2.05144026154486,5.203479912623744,1.0,3.14,-0.5089312950619219,-0.054099940563990034,2.843674551754786,3.1285013844082212,-3.14
349,0.5349528731892368,0.4068647418679524,0.34494184787648385,5.338310314156463,1.835680449399621,2.05144026154486,5.203479912623744,1.0,3.14,-0.5089312950619219,-0.05409994056399003,2.843674551754786,3.1285013844082212,-3.14
350,0.5349528731892362,0.4068647418679524,0.34494184787648324,5.338310314156463,1.835680449399621,2.05144026154486,5.203479912623744,1.0,3.14,-0.5089312950619219,-0.054099940563990014,2.843674551754786,3.1285013844082212,-3.14
351,0.5349528731892369,0.40686474186795263,0.34494184787648385,5.338310314156463,1.8356804493996206,2.0514402615448604,5.203479912623744,1.0,3.14,-0.5089312950619217,-0.05409994056399007,2.843674551754786,3.1285013844082217,-3.14
352,0.534952873189237,0.40686474186795263,0.34494184787648385,5.338310314156463,1.8356804493996206,2.0514402615448604,5.203479912623744,1.0,3.14,-0.5089312950619217,-0.054099940563989986,2.843674551754786,3.1285013844082217,-3.14
353,0.5349528731892362,0.4068647418679524,0.34494184787648324,5.338310314156463,1.835680449399621,2.05144026154486,5.203479912623744,1.0,3.14,-0.508931295061922,-0.054099940563989986,2.843674551754786,3.1285013844082212,-3.14
354,0.5349528731892368,0.4068647418679524,0.34494184787648385,5.338310314156463,1.835680449399621,2.05144026154486,5.203479912623744,1.0,3.14,-0.5089312950619219,-0.05409994056399005,2.843674551754786,3.1285013844082212,-3.14
355,0.5349528731892368,0.4068647418679524,0.34494184787648385,5.338310314156463,1.835680449399621,2.05144026154486,5.203479912623744,1.0,3.14,-0.5089312950619219,-0.054099940563990034,2.843674551754786,3.1285013844082212,-3.14
356,0.5349528731892368,0.4068647418679524,0.34494184787648385,5.338310314156463,1.835680449399621,2.05144026154486,5.203479912623744,1.0,3.14,-0.5089312950619219,-0.05409994056399003,2.843674551754786,3.1285013844082212,-3.14
357,0.5349528731892362,0.4068647418679524,0.34494184787648324,5.338310314156463,1.835680449399621,2.05144026154486,5.203479912623744,1.0,3.14,-0.5089312950619219,-0.054099940563990014,2.843674551754786,3.1285013844082212,-3.14
358,0.5349528731892369,0.40686474186795263,0.34494184787648385,5.338310314156463,1.8356804493996206,2.0514402615448604,5.203479912623744,1.0,3.14,-0.5089312950619217,-0.05409994056399007,2.843674551754786,3.1285013844082217,-3.14
359,0.534952873189237,0.40686474186795263,0.34494184787648385,5.338310314156463,1.8356804493996206,2.0514402615448604,5.203479912623744,1.0,3.14,-0.5089312950619217,-0.054099940563989986,2.843674551754786,3.1285013844082217,-3.14
360,0.5349528731892362,0.4068647418679524,0.34494184787648324,5.338310314156463,1.835680449399621,2.05144026154486,5.203479912623744,1.0,3.14,-0.508931295061922,-0.054099940563989986,2.843674551754786,3.1285013844082212,-3.14
361,0.5349528731892368,0.4068647418679524,0.34494184787648385,5.338310314156463,1.835680449399621,2.05144026154486,5.203479912623744,1.0,3.14,-0.5089312950619219,-0.05409994056399005,2.843674551754786,3.1285013844082212,-3.14
362,0.5349528731892368,0.4068647418679524,0.34494184787648385,5.338310314156463,1.835680449399621,2.05144026154486,5.203479912623744,1.0,3.14,-0.5089312950619219,-0.054099940563990034,2.843674551754786,3.1285013844082212,-3.14
363,0.5349528731892368,0.4068647418679524,0.34494184787648385,5.338310314156463,1.835680449399621,2.05144026154486,5.203479912623744,1.0,3.14,-0.5089312950619219,-0.05409994056399003,2.843674551754786,3.1285013844082212,-3.14
364,0.5349528731892362,0.4068647418679524,0.34494184787648324,5.338310314156463,1.835680449399621,2.05144026154486,5.203479912623744,1.0,3.14,-0.5089312950619219,-0.054099940563990014,2.843674551754786,3.1285013844082212,-3.14
365,0.5349528731892369,0.40686474186795263,0.34494184787648385,5.338310314156463,1.8356804493996206,2.0514402615448604,5.203479912623744,1.0,3.14,-0.5089312950619217,-0.05409994056399007,2.843674551754786,3.1285013844082217,-3.14
366,0.534952873189237,0.40686474186795263,0.34494184787648385,5.338310314156463,1.8356804493996206,2.0514402615448604,5.203479912623744,1.0,3.14,-0.5089312950619217,-0.054099940563989986,2.843674551754786,3.1285013844082217,-3.14
367,0.5349528731892362,0.4068647418679524,0.34494184787648324,5.338310314156463,1.835680449399621,2.05144026154486,5.203479912623744,1.0,3.14,-0.508931295061922,-0.054099940563989986,2.843674551754786,3.1285013844082212,-3.14
368,0.5349528731892368,0.4068647418679524,0.34494184787648385,5.338310314156463,1.835680449399621,2.05144026154486,5.203479912623744,1.0,3.14,-0.5089312950619219,-0.05409994056399005,2.843674551754786,3.1285013844082212,-3.14
369,0.5349528731892368,0.4068647418679524,0.34494184787648385,5.338310314156463,1.835680449399621,2.05144026154486,5.203479912623744,1.0,3.14,-0.5089312950619219,-0.054099940563990034,2.843674551754786,3.1285013844082212,-3.14
370,0.5349528731892368,0.4068647418679524,0.34494184787648385,5.338310314156463,1.835680449399621,2.05144026154486,5.203479912623744,1.0,3.14,-0.5089312950619219,-0.05409994056399003,2.843674551754786,3.1285013844082212,-3.14
371,0.5349528731892362,0.4068647418679524,0.34494184787648324,5.338310314156463,1.835680449399621,2.05144026154486,5.203479912623744,1.0,3.14,-0.5089312950619219,-0.054099940563990014,2.843674551754786,3.1285013844082212,-3.14
372,0.5349528731892369,0.40686474186795263,0.34494184787648385,5.338310314156463,1.8356804493996206,2.0514402615448604,5.203479912623744,1.0,3.14,-0.5089312950619217,-0.05409994056399007,2.843674551754786,3.1285013844082217,-3.14
373,0.534952873189237,0.40686474186795263,0.34494184787648385,5.338310314156463,1.8356804493996206,2.0514402615448604,5.203479912623744,1.0,3.14,-0.5089312950619217,-0.054099940563989986,2.843674551754786,3.1285013844082217,-3.14
374,0.5349528731892362,0.4068647418679524,0.34494184787648324,5.338310314156463,1.835680449399621,2.05144026154486,5.203479912623744,1.0,3.14,-0.508931295061922,-0.054099940563989986,2.843674551754786,3.1285013844082212,-3.14
375,0.5349528731892368,0.4068647418679524,0.34494184787648385,5.338310314156463,1.835680449399621,2.05144026154486,5.203479912623744,1.0,3.14,-0.5089312950619219,-0.05409994056399005,2.843674551754786,3.1285013844082212,-3.14
376,0.5349528731892368,0.4068647418679524,0.34494184787648385,5.338310314156463,1.835680449399621,2.05144026154486,5.203479912623744,1.0,3.14,-0.5089312950619219,-0.054099940563990034,2.843674551754786,3.1285013844082212,-3.14
377,0.5349528731892368,0.4068647418679524,0.34494184787648385,5.338310314156463,1.835680449399621,2.05144026154486,5.203479912623744,1.0,3.14,-0.5089312950619219,-0.05409994056399003,2.843674551754786,3.1285013844082212,-3.14
378,0.5349528731892362,0.4068647418679524,0.34494184787648324,5.338310314156463,1.835680449399621,2.05144026154486,5.203479912623744,1.0,3.14,-0.5089312950619219,-0.054099940563990014,2.843674551754786,3.1285013844082212,-3.14
379,0.5349528731892369,0.40686474186795263,0.34494184787648385,5.338310314156463,1.8356804493996206,2.0514402615448604,5.203479912623744,1.0,3.14,-0.5089312950619217,-0.05409994056399007,2.843674551754786,3.1285013844082217,-3.14
380,0.534952873189237,0.40686474186795263,0.34494184787648385,5.338310314156463,1.8356804493996206,2.0514402615448604,5.203479912623744,1.0,3.14,-0.5089312950619217,-0.054099940563989986,2.843674551754786,3.1285013844082217,-3.14
381,0.5349528731892362,0.4068647418679524,0.34494184787648324,5.338310314156463,1.835680449399621,2.05144026154486,5.203479912623744,1.0,3.14,-0.508931295061922,-0.054099940563989986,2.843674551754786,3.1285013844082212,-3.14
382,0.5349528731892368,0.4068647418679524,0.34494184787648385,5.338310314156463,1.835680449399621,2.05144026154486,5.203479912623744,1.0,3.14,-0.5089312950619219,-0.05409994056399005,2.843674551754786,3.1285013844082212,-3.14
383,0.5349528731892368,0.4068647418679524,0.34494184787648385,5.338310314156463,1.835680449399621,2.05144026154486,5.203479912623744,1.0,3.14,-0.5089312950619219,-0.054099940563990034,2.843674551754786,3.1285013844082212,-3.14
384,0.5349528731892368,0.4068647418679524,0.34494184787648385,5.338310314156463,1.835680449399621,2.05144026154486,5.203479912623744,1.0,3.14,-0.5089312950619219,-0.05409994056399003,2.843674551754786,3.1285013844082212,-3.14
385,0.5349528731892362,0.4068647418679524,0.34494184787648324,5.338310314156463,1.835680449399621,2.05144026154486,5.203479912623744,1.0,3.14,-0.5089312950619219,-0.054099940563990014,2.843674551754786,3.1285013844082212,-3.14
386,0.5349528731892369,0.40686474186795263,0.34494184787648385,5.338310314156463,1.8356804493996206,2.0514402615448604,5.203479912623744,1.0,3.14,-0.5089312950619217,-0.05409994056399007,2.843674551754786,3.1285013844082217,-3.14
387,0.534952873189237,0.40686474186795263,0.34494184787648385,5.338310314156463,1.8356804493996206,2.0514402615448604,5.203479912623744,1.0,3.14,-0.5089312950619217,-0.054099940563989986,2.843674551754786,3.1285013844082217,-3.14
388,0.5349528731892362,0.4068647418679524,0.34494184787648324,5.338310314156463,1.835680449399621,2.05144026154486,5.203479912623744,1.0,3.14,-0.508931295061922,-0.054099940563989986,2.843674551754786,3.1285013844082212,-3.14
389,0.5349528731892368,0.4068647418679524,0.34494184787648385,5.338310314156463,1.835680449399621,2.05144026154486,5.203479912623744,1.0,3.14,-0.5089312950619219,-0.05409994056399005,2.843674551754786,3.1285013844082212,-3.14
390,0.5349528731892368,0.4068647418679524,0.34494184787648385,5.338310314156463,1.835680449399621,2.05144026154486,5.203479912623744,1.0,3.14,-0.5089312950619219,-0.054099940563990034,2.843674551754786,3.1285013844082212,-3.14
391,0.5349528731892368,0.4068647418679524,0.34494184787648385,5.338310314156463,1.835680449399621,2.05144026154486,5.203479912623744,1.0,3.14,-0.5089312950619219,-0.05409994056399003,2.843674551754786,3.1285013844082212,-3.14
392,0.5349528731892362,0.4068647418679524,0.34494184787648324,5.338310314156463,1.835680449399621,2.05144026154486,5.203479912623744,1.0,3.14,-0.5089312950619219,-0.054099940563990014,2.843674551754786,3.1285013844082212,-3.14
393,0.5349528731892369,0.40686474186795263,0.34494184787648385,5.338310314156463,1.8356804493996206,2.0514402615448604,5.203479912623744,1.0,3.14,-0.5089312950619217,-0.05409994056399007,2.843674551754786,3.1285013844082217,-3.14
394,0.534952873189237,0.40686474186795263,0.34494184787648385,5.338310314156463,1.8356804493996206,2.0514402615448604,5.203479912623744,1.0,3.14,-0.5089312950619217,-0.054099940563989986,2.843674551754786,3.1285013844082217,-3.14
395,0.5349528731892362,0.4068647418679524,0.34494184787648324,5.338310314156463,1.835680449399621,2.05144026154486,5.203479912623744,1.0,3.14,-0.508931295061922,-0.054099940563989986,2.843674551754786,3.1285013844082212,-3.14
396,0.5349528731892368,0.4068647418679524,0.34494184787648385,5.338310314156463,1.835680449399621,2.05144026154486,5.203479912623744,1.0,3.14,-0.5089312950619219,-0.05409994056399005,2.843674551754786,3.1285013844082212,-3.14
397,0.5349528731892368,0.4068647418679524,0.34494184787648385,5.338310314156463,1.835680449399621,2.05144026154486,5.203479912623744,1.0,3.14,-0.5089312950619219,-0.054099940563990034,2.843674551754786,3.1285013844082212,-3.14
398,0.5349528731892368,0.4068647418679524,0.34494184787648385,5.338310314156463,1.835680449399621,2.05144026154486,5.203479912623744,1.0,3.14,-0.5089312950619219,-0.05409994056399003,2.843674551754786,3.1285013844082212,-3.14
399,0.5349528731892362,0.4068647418679524,0.34494184787648324,5.338310314156463,1.835680449399621,2.05144026154486,5.203479912623744,1.0,3.14,-0.5089312950619219,-0.054099940563990014,2.843674551754786,3.1285013844082212,-3.14
400,0.5349528731892369,0.40686474186795263,0.34494184787648385,5.338310314156463,1.8356804493996206,2.0514402615448604,5.203479912623744,1.0,3.14,-0.5089312950619217,-0.05409994056399007,2.843674551754786,3.1285013844082217,-3.14
401,0.534952873189237,0.40686474186795263,0.34494184787648385,5.338310314156463,1.8356804493996206,2.0514402615448604,5.203479912623744,1.0,3.14,-0.5089312950619217,-0.054099940563989986,2.843674551754786,3.1285013844082217,-3.14
402,0.5349528731892362,0.4068647418679524,0.34494184787648324,5.338310314156463,1.835680449399621,2.05144026154486,5.203479912623744,1.0,3.14,-0.508931295061922,-0.054099940563989986,2.843674551754786,3.1285013844082212,-3.14
403,0.5349528731892368,0.4068647418679524,0.34494184787648385,5.338310314156463,1.835680449399621,2.05144026154486,5.203479912623744,1.0,3.14,-0.5089312950619219,-0.05409994056399005,2.843674551754786,3.1285013844082212,-3.14
404,0.5349528731892368,0.4068647418679524,0.34494184787648385,5.338310314156463,1.835680449399621,2.05144026154486,5.203479912623744,1.0,3.14,-0.5089312950619219,-0.054099940563990034,2.843674551754786,3.1285013844082212,-3.14
405,0.5349528731892368,0.4068647418679524,0.34494184787648385,5.338310314156463,1.835680449399621,2.05144026154486,5.203479912623744,1.0,3.14,-0.5089312950619219,-0.05409994056399003,2.843674551754786,3.1285013844082212,-3.14
406,0.5349528731892362,0.4068647418679524,0.34494184787648324,5.338310314156463,1.835680449399621,2.05144026154486,5.203479912623744,1.0,3.14,-0.5089312950619219,-0.054099940563990014,2.843674551754786,3.1285013844082212,-3.14
407,0.5349528731892369,0.40686474186795263,0.34494184787648385,5.338310314156463,1.8356804493996206,2.0514402615448604,5.203479912623744,1.0,3.14,-0.5089312950619217,-0.05409994056399007,2.843674551754786,3.1285013844082217,-3.14
408,0.534952873189237,0.40686474186795263,0.34494184787648385,5.338310314156463,1.8356804493996206,2.0514402615448604,5.203479912623744,1.0,3.14,-0.5089312950619217,-0.054099940563989986,2.843674551754786,3.1285013844082217,-3.14
409,0.5349528731892362,0.4068647418679524,0.34494184787648324,5.338310314156463,1.835680449399621,2.05144026154486,5.203479912623744,1.0,3.14,-0.508931295061922,-0.054099940563989986,2.843674551754786,3.1285013844082212,-3.14
410,0.5349528731892368,0.4068647418679524,0.34494184787648385,5.338310314156463,1.835680449399621,2.05144026154486,5.203479912623744,1.0,3.14,-0.5089312950619219,-0.05409994056399005,2.843674551754786,3.1285013844082212,-3.14
411,0.5349528731892368,0.4068647418679524,0.34494184787648385,5.338310314156463,1.835680449399621,2.05144026154486,5.203479912623744,1.0,3.14,-0.5089312950619219,-0.054099940563990034,2.843674551754786,3.1285013844082212,-3.14
412,0.5349528731892368,0.4068647418679524,0.34494184787648385,5.338310314156463,1.835680449399621,2.05144026154486,5.203479912623744,1.0,3.14,-0.5089312950619219,-0.05409994056399003,2.843674551754786,3.1285013844082212,-3.14
413,0.5349528731892362,0.4068647418679524,0.34494184787648324,5.338310314156463,1.835680449399621,2.05144026154486,5.203479912623744,1.0,3.14,-0.5089312950619219,-0.054099940563990014,2.843674551754786,3.1285013844082212,-3.14
414,0.5349528731892369,0.40686474186795263,0.34494184787648385,5.338310314156463,1.8356804493996206,2.0514402615448604,5.203479912623744,1.0,3.14,-0.5089312950619217,-0.05409994056399007,2.843674551754786,3.1285013844082217,-3.14
415,0.534952873189237,0.40686474186795263,0.34494184787648385,5.338310314156463,1.8356804493996206,2.0514402615448604,5.203479912623744,1.0,3.14,-0.5089312950619217,-0.054099940563989986,2.843674551754786,3.1285013844082217,-3.14
416,0.5349528731892362,0.4068647418679524,0.34494184787648324,5.338310314156463,1.835680449399621,2.05144026154486,5.203479912623744,1.0,3.14,-0.508931295061922,-0.054099940563989986,2.843674551754786,3.1285013844082212,-3.14
417,0.5349528731892368,0.4068647418679524,0.34494184787648385,5.338310314156463,1.835680449399621,2.05144026154486,5.203479912623744,1.0,3.14,-0.5089312950619219,-0.05409994056399005,2.843674551754786,3.1285013844082212,-3.14
418,0.5349528731892368,0.4068647418679524,0.34494184787648385,5.338310314156463,1.835680449399621,2.05144026154486,5.203479912623744,1.0,3.14,-0.5089312950619219,-0.054099940563990034,2.843674551754786,3.1285013844082212,-3.14
419,0.5349528731892368,0.4068647418679524,0.34494184787648385,5.338310314156463,1.835680449399621,2.05144026154486,5.203479912623744,1.0,3.14,-0.5089312950619219,-0.05409994056399003,2.843674551754786,3.1285013844082212,-3.14
420,0.5349528731892362,0.4068647418679524,0.34494184787648324,5.338310314156463,1.835680449399621,2.05144026154486,5.203479912623744,1.0,3.14,-0.5089312950619219,-0.054099940563990014,2.843674551754786,3.1285013844082212,-3.14
421,0.5349528731892369,0.40686474186795263,0.34494184787648385,5.338310314156463,1.8356804493996206,2.0514402615448604,5.203479912623744,1.0,3.14,-0.5089312950619217,-0.05409994056399007,2.843674551754786,3.1285013844082217,-3.14
422,0.534952873189237,0.40686474186795263,0.34494184787648385,5.338310314156463,1.8356804493996206,2.0514402615448604,5.203479912623744,1.0,3.14,-0.5089312950619217,-0.054099940563989986,2.843674551754786,3.1285013844082217,-3.14
423,0.5349528731892362,0.4068647418679524,0.34494184787648324,5.338310314156463,1.835680449399621,2.05144026154486,5.203479912623744,1.0,3.14,-0.508931295061922,-0.054099940563989986,2.843674551754786,3.1285013844082212,-3.14
424,0.5349528731892368,0.4068647418679524,0.34494184787648385,5.338310314156463,1.835680449399621,2.05144026154486,5.203479912623744,1.0,3.14,-0.5089312950619219,-0.05409994056399005,2.843674551754786,3.1285013844082212,-3.14
425,0.5349528731892368,0.4068647418679524,0.34494184787648385,5.338310314156463,1.835680449399621,2.05144026154486,5.203479912623744,1.0,3.14,-0.5089312950619219,-0.054099940563990034,2.843674551754786,3.1285013844082212,-3.14
426,0.5349528731892368,0.4068647418679524,0.34494184787648385,5.338310314156463,1.835680449399621,2.05144026154486,5.203479912623744,1.0,3.14,-0.5089312950619219,-0.05409994056399003,2.843674551754786,3.1285013844082212,-3.14
427,0.5349528731892362,0.4068647418679524,0.34494184787648324,5.338310314156463,1.835680449399621,2.05144026154486,5.203479912623744,1.0,3.14,-0.5089312950619219,-0.054099940563990014,2.843674551754786,3.1285013844082212,-3.14
428,0.5349528731892369,0.40686474186795263,0.34494184787648385,5.338310314156463,1.8356804493996206,2.0514402615448604,5.203479912623744,1.0,3.14,-0.5089312950619217,-0.05409994056399007,2.843674551754786,3.1285013844082217,-3.14
429,0.534952873189237,0.40686474186795263,0.34494184787648385,5.338310314156463,1.8356804493996206,2.0514402615448604,5.203479912623744,1.0,3.14,-0.5089312950619217,-0.054099940563989986,2.843674551754786,3.1285013844082217,-3.14
430,0.5349528731892362,0.4068647418679524,0.34494184787648324,5.338310314156463,1.835680449399621,2.05144026154486,5.203479912623744,1.0,3.14,-0.508931295061922,-0.054099940563989986,2.843674551754786,3.1285013844082212,-3.14
431,0.5349528731892368,0.4068647418679524,0.34494184787648385,5.338310314156463,1.835680449399621,2.05144026154486,5.203479912623744,1.0,3.14,-0.5089312950619219,-0.05409994056399005,2.843674551754786,3.1285013844082212,-3.14
432,0.5349528731892368,0.4068647418679524,0.34494184787648385,5.338310314156463,1.835680449399621,2.05144026154486,5.203479912623744,1.0,3.14,-0.5089312950619219,-0.054099940563990034,2.843674551754786,3.1285013844082212,-3.14
433,0.5349528731892368,0.4068647418679524,0.34494184787648385,5.338310314156463,1.835680449399621,2.05144026154486,5.203479912623744,1.0,3.14,-0.5089312950619219,-0.05409994056399003,2.843674551754786,3.1285013844082212,-3.14
434,0.5349528731892362,0.4068647418679524,0.34494184787648324,5.338310314156463,1.835680449399621,2.05144026154486,5.203479912623744,1.0,3.14,-0.5089312950619219,-0.054099940563990014,2.843674551754786,3.1285013844082212,-3.14
435,0.5349528731892369,0.40686474186795263,0.34494184787648385,5.338310314156463,1.8356804493996206,2.0514402615448604,5.203479912623744,1.0,3.14,-0.5089312950619217,-0.05409994056399007,2.843674551754786,3.1285013844082217,-3.14
436,0.534952873189237,0.40686474186795263,0.34494184787648385,5.338310314156463,1.8356804493996206,2.0514402615448604,5.203479912623744,1.0,3.14,-0.5089312950619217,-0.054099940563989986,2.843674551754786,3.1285013844082217,-3.14
437,0.5349528731892362,0.4068647418679524,0.34494184787648324,5.338310314156463,1.835680449399621,2.05144026154486,5.203479912623744,1.0,3.14,-0.508931295061922,-0.054099940563989986,2.843674551754786,3.1285013844082212,-3.14
