jkpark150901/flame_robotics_drt/experiment/inspection_ik/session_20260722_135839/fallback/inspection_ik_20260722_135924_rb20_1900es_normalized_fallback.csv
iteration,err_norm,position_error,orientation_error,tcp_x,tcp_y,tcp_z,q0_rt_joint_linear_track,q1_rt_joint_carriage,q2_rt_base,q3_rt_shoulder,q4_rt_elbow,q5_rt_wrist1,q6_rt_wrist2,q7_rt_wrist3
0,1.8467365381182503,1.8451781623892163,0.06706997165825541,2.2724429073143084,2.279648645580115,1.7105965841579858,2.158149609516709,1.0,0.12424447600756872,0.9270497902003269,-0.010280167512257687,0.08253723808135766,-2.4859166406391258,3.14
1,1.2131651068665863,1.198785766575718,0.1760663097579144,2.9188232201760513,2.2996761487264132,1.6885849693573478,2.6889787278161874,1.0,0.041760742318925084,0.946681792427719,-0.01937054858468072,0.21865052387755282,-2.491026066826119,3.14
2,0.8173359835833913,0.780451631598735,0.23686870462283982,3.338243340065159,2.318815856078927,1.6592539268234636,3.045999023909789,1.0,-0.0019240524502102674,0.9763993740349395,-0.0381370439910072,0.29316159529467833,-2.4925497059075084,3.14
3,0.5753253039387417,0.5098426697571522,0.26374360461283847,3.6114561585446667,2.326546677577623,1.6450657008578413,3.288673397730274,1.0,-0.022841497474242394,0.995715153569786,-0.0573358139985716,0.3270740745431052,-2.4862552856868145,3.14
4,0.4293783040159936,0.33441269213094127,0.26807445159759163,3.7899791213281477,2.3256285538941324,1.644776215463446,3.4575132152730985,1.0,-0.02947876382983465,1.003331987437709,-0.07231727198899013,0.33445036208803025,-2.4764537637688373,3.14
5,0.3412788771134101,0.22127412264938748,0.25929506122699736,3.906413400417119,2.320242628869199,1.6524634566693146,3.577932170925393,1.0,-0.02684077509209605,1.0028748281552669,-0.08211506965444618,0.32588342240396534,-2.466737444498891,3.14
6,0.286589568453238,0.1500094308161391,0.24397081519560218,3.9819553822155256,2.31336729349174,1.6631431382649686,3.665807326707996,1.0,-0.018432062029213367,0.9981232073825853,-0.08746049727313633,0.3087256069746425,-2.4588409961684614,3.14
7,0.2505889979421483,0.10776772369646014,0.22613691504312378,4.030650868082362,2.3066587863802206,1.6738145192967124,3.7312874883695426,1.0,-0.006833071602395222,0.9916990696786291,-0.08946626453394638,0.2877007911825378,-2.4532606434393163,3.14
8,0.22503245173206585,0.08564766586408018,0.2080544948938858,4.061845279349373,2.3008530488489067,1.6830739814426663,3.781050038945523,1.0,0.006132339894170072,0.9850786708910164,-0.08912461256110635,0.2656597524345614,-2.449870069780751,3.14
9,0.205564430045412,0.07624502440519264,0.19088231387314036,4.081721813839426,2.296152089968113,1.6904979664510418,3.819589576257675,1.0,0.0192642971565267,0.9789471633394834,-0.08719678887359401,0.24421855491807443,-2.4482937221495393,3.14
10,0.18994543455049265,0.07348760089880277,0.1751442081913922,4.094332802230321,2.292492566548313,1.6961616276854863,3.8499767232793642,1.0,0.03183785741098261,0.9735340750682765,-0.08423396190078543,0.22422042348209478,-2.448101412827594,3.14
11,0.17701083681084995,0.07351460758792427,0.16101793548245244,4.102307978517945,2.289706805908836,1.7003411883342994,3.8743316413424735,1.0,0.04346152281214583,0.9688435807461333,-0.08062653113476052,0.2060436698456697,-2.4488985359784268,3.14
12,0.16612058147610115,0.07444743052383206,0.14850154294451667,4.1073391996350885,2.287607975704493,1.703355875148769,3.8941339214326818,1.0,0.053962467122999506,0.9647888363821223,-0.07664928044653513,0.18979683589139706,-2.450359686814051,3.14
13,0.15688625683916213,0.07553193132857965,0.13750511491153067,4.110507415414544,2.2860284932736623,1.7054963204821263,3.9104301081889297,1.0,0.0633027378011952,0.9612608503659745,-0.07249545322926623,0.17543833135657652,-2.4522335834800617,3.14
14,0.14904115738833446,0.07651439749721053,0.12790005385811137,4.112499645201993,2.2848327002610396,1.7070000243027013,3.923973230184354,1.0,0.07152224931506063,0.9581588602969514,-0.06830075046915317,0.16284817433961454,-2.4543350914293094,3.14
15,0.142380420993103,0.07733602273470223,0.11954510552191516,4.113750879134936,2.2839170644845965,1.7080494976610725,3.9353162036580716,1.0,0.07870193072611509,0.9554005007462265,-0.06415988489519547,0.15187028521147433,-2.456532892733831,3.14
16,0.13673433154809894,0.07800502859323878,0.11229986517308102,4.114535800364278,2.2832054006667595,1.7087796198477687,3.944874041092769,1.0,0.08494088272010272,0.9529225603838865,-0.06013803499907548,0.14233696599462006,-2.458737036066566,3.14
17,0.13195676396666584,0.0785474427449059,0.1060315563963284,4.115027548778056,2.282642900234241,1.709287467608066,3.952965211200578,1.0,0.0903427994273363,0.9506780905992784,-0.05627888425883587,0.13408267797995618,-2.46088815669706,3.14
18,0.12792019504470192,0.07898981212880093,0.10061816713517664,4.1153351269344345,2.2821906347984493,1.7096416254876956,3.959839228819801,1.0,0.0950083059382578,0.9486326496822615,-0.05261036579640838,0.12695141344415695,-2.4629488674595983,3.14
19,0.12451332465844028,0.07935421441066923,0.09594959476559836,4.115527103016415,2.2818210931668736,1.7098899114576442,3.965695222713226,1.0,0.0990309669664341,0.9467608597744366,-0.049148838775080916,0.1208002519729912,-2.4648972168765213,3.14
20,0.12163957634718539,0.0796576816732563,0.0919277007598157,4.115646584583244,2.2815147986192534,1.7100653530417829,3.9706946100137004,1.0,0.10249551182489329,0.9450436568298923,-0.04590216893092996,0.11550066893976321,-2.466721880422415,3.14
21,0.11921579312453735,0.07991297780055201,0.08846577825375192,4.1157206590255555,2.281257852885569,1.7101906154519713,3.9749699125547155,1.0,0.10547735509539093,0.943466257075816,-0.04287202610478251,0.11093854869472036,-2.4684187074378907,3.14
22,0.11717091567665643,0.08012960881629039,0.08548772086839135,4.115766338171481,2.2810402035817,1.710281190095214,3.9786310288255415,1.0,0.10804284167963044,0.9420167292456169,-0.040055611166169895,0.10701348245848435,-2.4699882837237097,3.14
23,0.11544462383292128,0.0803147046404976,0.08292706102216606,4.115794298955495,2.2808544461017224,1.7103476448858221,3.9817698071776935,1.0,0.11024986818011395,0.9406850312902371,-0.03744696028151441,0.10363770318039685,-2.4714342336456774,3.14
24,0.11398598632689297,0.08047369465339087,0.08072597647636615,4.115811236396626,2.280695006360874,1.71039718952027,3.984463465522549,1.0,0.11214867289785525,0.9394623824128523,-0.03503793207269975,0.10073486932880754,-2.4727620501552927,3.14
25,0.11275217174722664,0.08061079506752963,0.07883432235700735,4.115821343429876,2.280557588183922,1.710434752640538,3.9867772111940254,1.0,0.11378267377516277,0.9383408669005471,-0.03281895451500459,0.09823882270391106,-2.473978296481289,3.14
26,0.11170726078574261,0.08072934992690307,0.07720872051821567,4.115827241513581,2.2804388012531813,1.7104637172135937,3.9887662927481125,1.0,0.11518928693483595,0.9373131925626187,-0.030779588477719454,0.0960923914794648,-2.4750900669276557,3.14
27,0.11082118274232292,0.08083206627012586,0.07581172238424273,4.115830565791275,2.2803359105880676,1.7104864196381195,3.9904776377927202,1.0,0.11640069070521208,0.9363725488996916,-0.02890895061496568,0.09424627635470248,-2.476104627044097,3.14
28,0.11006878435905997,0.08092117573734897,0.07461105164597856,4.115832332970275,2.2802466670202204,1.7105044870820771,3.991951181208474,1.0,0.11744451919215708,0.9355125273650058,-0.02719602800507741,0.09265803726655632,-2.4770291773466875,3.14
29,0.10942902836174755,0.08099854621447858,0.07357892720504895,4.115833172521876,2.280169191289292,1.7105190648664617,3.993220956019883,1.0,0.11834448059742997,0.9347270786760044,-0.025629909324329438,0.09129118579679073,-2.477870701816168,3.14
30,0.10888431246053917,0.08106575997431849,0.07269146320369718,4.1158334719050025,2.2801018935140243,1.7105309695249156,3.994315998211221,1.0,0.11912090172226363,0.9340104909943103,-0.024199951642282017,0.09011438120410678,-2.478635874380907,3.14
31,0.10841989614689473,0.08112416947426937,0.07192814099157989,4.11583346771173,2.280043416005182,1.7105407918283488,3.9952611028750624,1.0,0.1197912033762022,0.9333573788422137,-0.022895897612717476,0.0891007240155368,-2.479331004923825,3.14
32,0.1080234214532983,0.0811749382367987,0.0712713469035732,4.115833302806646,2.279992591549636,1.7105489662227236,3.9960774596770023,1.0,0.12037031293023646,0.9327626766511556,-0.021707954539695287,0.08822713911479872,-2.479962012108937,3.14
33,0.10768451408805682,0.08121907169335318,0.0707059693887777,4.115833062091367,2.279948412049617,1.7105558177611588,3.9967831891132346,1.0,0.12087102074387346,0.9322216334537902,-0.02062684426333627,0.08747383949647106,-2.480534414283454,3.14
34,0.10739445239976557,0.08125744117471179,0.07021904909567231,4.11583279484292,2.279910004204663,1.710561593966292,3.9973937964190136,1.0,0.12130428710573617,0.9317298068865371,-0.01964383084757819,0.08682386182215754,-2.481053332430558,3.14
35,0.10714589304043454,0.08129080311655132,0.06979947582214832,4.115832528627163,2.279876610093691,1.7105664865980634,3.997922556617811,1.0,0.12167950592784833,0.9312830556845767,-0.018750731525425324,0.08626266530553044,-2.4815235010146224,3.14
36,0.10693264371413835,0.08131981482673074,0.0694377266739096,4.115832277932625,2.2798475712673176,1.7105706466489163,3.998380841677294,1.0,0.12200473088735402,0.9308775304481316,-0.01793991516455804,0.08577778606965382,-2.4819492838438424,3.14
37,0.10674947486297526,0.08134504769705572,0.06912564027248458,4.115832049501767,2.2798223154414927,1.7105741947818596,3.9987783987986103,1.0,0.12228686911157059,0.930509662788535,-0.017204291581388476,0.08535853983887394,-2.482334692959842,3.14
38,0.10659196347344532,0.0813669984466505,0.06885622236936302,4.1158318456013365,2.2798003451891855,1.7105772286884893,3.999123587340338,1.0,0.12253184690751363,0.930176153125624,-0.01653729429705623,0.08499576657314141,-2.482683409176006,3.14
39,0.10645636335118425,0.08138609879649578,0.06862347872785249,4.115831666010499,2.2797812282204304,1.7105798283523708,3.999423580655778,1.0,0.12274475147492653,0.9298739574704392,-0.015932858750430556,0.08468161137995553,-2.48299880331206,3.14
40,0.10633949720551882,0.08140272385570274,0.06842227161328342,4.115831509214602,2.279764588963693,1.7105820598762582,3.9996845381265635,1.0,0.12292995202684526,0.9296002735316143,-0.015385397527092896,0.0844093367229706,-2.483283957470209,3.14
41,0.10623866671832155,0.0814171994243816,0.06824819667535366,4.115831373109292,2.279750101239512,1.7105839783145125,3.9999117518544813,1.0,0.12309120327938088,0.9293525264570323,-0.014889773803358167,0.08417316157385314,-2.4835416859075976,3.14
42,0.10615157746163552,0.0814298083691028,0.06809747740969915,4.115831255405008,2.279737481867669,1.710585629807764,4.000109771790033,1.0,0.12323173386300827,0.929128354480939,-0.014441273920327766,0.08396812372031688,-2.483774555208063,3.14
43,0.10607627609567662,0.08144079619482678,0.06796687474878398,4.11583115384989,2.279726485082189,1.7105870532210246,4.000282512503481,1.0,0.12335432184870966,0.9289255947005538,-0.014035579778885837,0.08378996194815178,-2.4839849035615504,3.14
44,0.10601109774244424,0.0814503759152552,0.06785360965524026,4.115831066344081,2.2797168976509834,1.7105882814225473,4.000433344321616,1.0,0.1234613592698399,0.9287422691609751,-0.013668741569987028,0.08363501526113125,-2.484174859034775,3.14
45,0.10595462180817708,0.08145873230796101,0.06775529687641471,4.11583099099028,2.2797085346129426,1.7105893422981429,4.000565171145559,1.0,0.12355490724998697,0.9285765713857469,-0.013337151215760118,0.08350013669404834,-2.484346356770521,3.14
46,0.10590563483562206,0.08146602562895666,0.06766988827009898,4.115830926107974,2.2797012355572335,1.7105902595670253,4.0006804969192675,1.0,0.12363674311370668,0.9284268534541792,-0.013037516788107714,0.08338261961566483,-2.4845011550913965,3.14
47,0.10586309921760105,0.0814723948520757,0.0675956243306767,4.115830870227834,2.2796948613790207,1.7105910534459976,4.000781482424931,1.0,0.12370840065631777,0.9282916136957231,-0.012766838086497234,0.08328013471511549,-2.484640850511197,3.14
48,0.10582612680750629,0.08147796049088057,0.06753099273650313,4.115830822076169,2.2796892914536055,1.7105917411956757,4.000869993832107,1.0,0.12377120457677036,0.9281694850462178,-0.0125223834906351,0.08319067612228512,-2.4847668916762355,3.14
49,0.10579395662897126,0.08148282705422978,0.06747469290501502,4.115830780555131,2.279684421177637,1.7105923375734389,4.000947644215371,1.0,0.12382629993016668,0.9280592240901747,-0.01230166815281627,0.08311251533456919,-2.4848805922722774,3.14
50,0.10576593602320579,0.08148708518083016,0.06742560568607218,4.115830744721941,2.2796801598319116,1.7105928552115677,4.001015829074861,1.0,0.12387467733043535,0.9279597007968683,-0.012102433555847229,0.08304416181360066,-2.4849831429415943,3.14
51,0.1057415046842013,0.08149081349296147,0.0673827674479849,4.115830713768876,2.2796764287254625,1.7105933049345934,4.001075756740586,1.0,0.12391719452597506,0.927869888945238,-0.011922628433084304,0.08298432927989854,-2.485075622260255,3.14
52,0.10572018112381894,0.08149408020491879,0.06734534791771307,4.1158306870048635,2.2796731595852946,1.710593696026765,4.0011284744107085,1.0,0.12395459487917433,0.9277888572229065,-0.011760391025326031,0.0829319068745184,-2.485159006828983,3.14
53,0.105701551184454,0.0814969445175614,0.06731263122887671,4.11583066383904,2.2796702931603163,1.7105940364581884,4.001174890462841,1.0,0.12398752320233464,0.9277157609774488,-0.011614032633463901,0.08288593447777148,-2.48523418053231,3.14
54,0.10568525827946872,0.08149945782661289,0.06728399971009769,4.115830643766307,2.279667778011764,1.71059433307653,4.0012157935827375,1.0,0.12401653933570603,0.9276498345929308,-0.011482022414664781,0.08284558157870027,-2.4853019430208474,3.14
55,0.10567099509341035,0.0815016647689947,0.06725892001431409,4.115830626354812,2.279665569465794,1.7105945917698442,4.001251869174248,1.0,0.12404212979640987,0.9275903844612919,-0.011362973362405595,0.08281012917765533,-2.4853630174706147,3.14
56,0.1056584965170456,0.0815036041285009,0.0672369312476011,4.115830611235178,2.2796636287069054,1.7105948176050836,4.001283713445819,1.0,0.12406471777852598,0.9275367825160221,-0.011255629406096432,0.08277895428010976,-2.485418057671818,3.14
57,0.10564753362806373,0.08150530961943679,0.06721763480603861,4.115830598091266,2.2796619219935326,1.7105950149460858,4.001311845510501,1.0,0.1240846717433092,0.927488460294496,-0.011158853563658882,0.08275151660461261,-2.4854676544974112,3.14
58,0.10563790855816027,0.08150681056446894,0.067200685671694,4.1158305866523115,2.2796604199795487,1.7105951875541643,4.001336717786749,1.0,0.12410231280332315,0.9274449034950564,-0.011071617079746224,0.08272734718307832,-2.4855123417994203,3.14
59,0.10562945011224965,0.08150813248088055,0.06718578495511983,4.1158305766862116,2.2796590971274595,1.7105953386739516,4.001358724945031,1.0,0.12411792107432158,0.9274056469952668,-0.010992989482890972,0.08270603857881031,-2.4855526017784464,3.14
60,0.1056220100264081,0.08150929758753386,0.06717267350320656,4.115830567993826,2.279657931200973,1.7105954711067026,4.001378211609264,1.0,0.12413174114319263,0.927370270298562,-0.010922129496407126,0.08268723648793332,-2.4855888698690927,3.14
61,0.10561545976877504,0.08151032524327011,0.06716112641727986,4.115830560404151,2.279656902826202,1.710595587272941,4.001395478991478,1.0,0.12414398677855826,0.9273383933776457,-0.010858276740100611,0.08267063252425674,-2.4856215391813676,3.14
62,0.10560968780234924,0.0815112323260203,0.0671509483496539,4.115830553770176,2.2796559951122135,1.7105956892660168,4.001410790611959,1.0,0.12415484499211207,0.9273096728843575,-0.0108007441625384,0.08265595801689424,-2.4856509645354232,3.14
63,0.10560459724104089,0.08151203356068647,0.06714196946567381,4.1158305479654045,2.2796551933228595,1.710595778897936,4.001424377234979,1.0,0.12416447954301289,0.9272837986972458,-0.010748911146641192,0.08264297867494638,-2.4856774661243732,3.14
64,0.10560010384082884,0.08151274180276606,0.0671340419751544,4.115830542880874,2.2796544845929048,1.710595857738587,4.001436441131214,1.0,0.12417303396422306,0.9272604907796957,-0.010702217234559922,0.08263148999484941,-2.4857013328373876,3.14
65,0.10559613427664971,0.08151336828374146,0.06712703715101717,4.115830538422628,2.279653857682427,1.7105959271493394,4.001447159761857,1.0,0.12418063417822683,0.9272394963231154,-0.010660156421079455,0.08262131330416134,-2.485722825272835,3.14
66,0.1055926246631474,0.08151392282345943,0.06712084276507058,4.115830534509562,2.279653302764257,1.7105959883118442,4.001456688965673,1.0,0.12418739075981272,0.9272205871513405,-0.010622271968090555,0.08261229235103162,-2.485742178468926,3.14
67,0.10558951928367258,0.08151441401398815,0.06711536088103917,4.1158305310715955,2.2796528112399668,1.7105960422527255,4.001465165718514,1.0,0.12419340089527563,0.9272035573640567,-0.010588151695919628,0.08260429036181188,-2.4857596043771206,3.14
68,0.10558676949727609,0.08151484937885886,0.06711050595368054,4.115830528048102,2.2796523755804965,1.7105960898647747,4.001472710524819,1.0,0.12419875008030153,0.9271882211986302,-0.010557423710473168,0.08259718750051626,-2.485775294101518,3.14
69,0.10558433279794596,0.08151523551103225,0.06710620319043226,4.115830525386579,2.279651989188074,1.7105961319251428,4.001479429492081,1.0,0.12420351359273861,0.9271744110912722,-0.010529752528200938,0.08259087867344632,-2.4857894199255046,3.14
70,0.10558217200415723,0.08151557819249557,0.06710238713814609,4.115830523041513,2.2796516462765206,1.710596169110977,4.001485416131995,1.0,0.12420775777128859,0.9271619759199262,-0.010504835563794801,0.0825852716304841,-2.4858021371451575,3.14
71,0.10558025456006301,0.08151588249799059,0.06709900046306125,4.115830520973403,2.2796513417674396,1.7105962020128642,4.001490752925771,1.0,0.1242115411267384,0.9271507794126594,-0.010482399948302055,0.0825802853215441,-2.4858135857272248,3.14
72,0.1055785519323862,0.08151615288502007,0.06709599289674667,4.115830519147932,2.2796510712001377,1.710596231146398,4.001495512685779,1.0,0.12421491530857814,0.927140698706649,-0.0104621996479369,0.08257584847264182,-2.4858238918079616,3.14
73,0.1055770390894308,0.08151639327199742,0.0670933203246846,4.1158305175352465,2.279650830653414,1.7105962569621418,4.00149975974117,1.0,0.12421792594662938,0.9271316230440775,-0.010444012856315738,0.08257189835112275,-2.485833169047668,3.14
74,0.1055756940506107,0.08151660710614715,0.06709094399745893,4.11583051610936,2.279650616677605,1.710596279854213,4.00150355097122,1.0,0.1242206133845477,0.927123452592411,-0.010427639635128598,0.08256837969394862,-2.4858415198544663,3.14
75,0.10557449749657233,0.0815167974225259,0.06708882984752682,4.115830514847615,2.2796504262355204,1.7105963001676878,4.001506936706814,1.0,0.12422301331970782,0.927116097377587,-0.010412899780379153,0.08256524377664598,-2.4858490364896393,3.14
76,0.10557343243144812,0.08151696689537864,0.06708694789687229,4.115830513730247,2.2796502566510437,1.7105963182049972,4.001509961517672,1.0,0.12422515736195539,0.927109476319644,-0.010399630893302978,0.08256244760370057,-2.485855802065735,3.14
77,0.10557248388997385,0.0815171178828313,0.06708527174299594,4.115830512739989,2.279650105564408,1.7105963342314443,4.001512664900444,1.0,0.12422707352198326,0.9271035163612326,-0.010387686636893788,0.08255995320389124,-2.4858618914476334,3.14
78,0.10557163868327875,0.08151725246584066,0.06708377811248735,4.11583051186174,2.2796499708932156,1.7105963484799875,4.001515081880743,1.0,0.12422878663860522,0.9270981516802943,-0.010376935160654872,0.08255772701637751,-2.4858673720658224,3.14
79,0.10557088517800828,0.081517372482139,0.06708244647289012,4.11583051108229,2.2796498507984677,1.7105963611553687,4.001517243540386,1.0,0.12423031875292691,0.9270933229789804,-0.010367257677741257,0.08255573935534563,-2.485872304650294,3.14
80,0.10557021310422923,0.08151747955585485,0.06708125869500943,4.115830510390051,2.2796497436549217,1.7105963724376976,4.001519177479563,1.0,0.12423168943632597,0.9270889768415875,-0.010358547180085689,0.0825539639427094,-2.485876743892673,3.14
81,0.10556961338820317,0.08151757512338142,0.06708019875871304,4.115830509774868,2.2796496480252033,1.71059638248556,4.001520908222353,1.0,0.12423291607821031,0.9270850651549525,-0.01035070727840831,0.08255237749982892,-2.485880739043492,3.14
82,0.1055690780066531,0.08151766045596688,0.06707925249651715,4.115830509227823,2.2796495626372,1.7105963914387075,4.001522457572857,1.0,0.12423401413872406,0.9270815445853477,-0.010343651155208248,0.08255095939044887,-2.485884334450879,3.14
83,0.10556859985964731,0.08151773667948527,0.06707840736975525,4.11583050874108,2.279649486364275,1.7105963994204065,4.001523844928249,1.0,0.12423499737087117,0.9270783761064626,-0.010337300619932056,0.08254969130813687,-2.4858875700463163,3.14
84,0.10556817265960461,0.0815178047917305,0.0670776522731115,4.115830508307743,2.2796494182079616,1.7105964065394708,4.001525087554203,1.0,0.12423587801593533,0.9270755245735696,-0.01033158525651539,0.0825485570024155,-2.4858904817826213,3.14
85,0.10556779083428121,0.08151786567756934,0.06707697736370215,4.11583050792174,2.279649357282798,1.7105964128920366,4.001526200827438,1.0,0.12423666697555774,0.9270729583394209,-0.010326441654406987,0.08254754203857398,-2.485893102028782,3.14
86,0.10556744944190294,0.0815179201222256,0.06707637391147026,4.115830507577722,2.2796493028030347,1.7105964185631077,4.001527198449489,1.0,0.12423737396339292,0.927070648907846,-0.010321812715019188,0.08254663358682127,-2.4858954599258616,3.14
87,0.1055671440968346,0.08151796882293,0.06707583416820549,4.1158305072709656,2.2796492540709754,1.710596423627902,4.001528092635268,1.0,0.12423800763887967,0.9270685706213975,-0.010317647026305258,0.08254582023702711,-2.4858975817077615,3.14
88,0.10556687090443259,0.08151801239915592,0.06707535125260128,4.115830506997309,2.2796492104667347,1.7105964281530297,4.001528894279548,1.0,0.12423857572533481,0.9270667003797419,-0.01031389829885696,0.0825450918357987,-2.4858994909902927,3.14
89,0.1055666264038811,0.08151805140161418,0.06707491904946129,4.115830506753067,2.2796491714392366,1.7105964321975209,4.001529613104051,1.0,0.12423908511429153,0.9270650173858003,-0.010310524857540507,0.08254443934307132,-2.4859012090316455,3.14
90,0.1055664075179854,0.0815180863201581,0.06707453212110989,4.115830506534984,2.279649136498304,1.7105964358137256,4.001530257787521,1.0,0.12423954195775669,0.9270635029169366,-0.010307489183261912,0.082543854705768,-2.485902754967076,3.14
91,0.10556621150904488,0.08151811759074769,0.06707418562952992,4.115830506340175,2.279649105207689,1.7105964390481005,4.001530836080824,1.0,0.12423995174985035,0.9270621401187455,-0.010304757499967775,0.08254333074639796,-2.485904146020335,3.14
92,0.10556603594002203,0.08151814560158313,0.0670738752678201,4.115830506166094,2.279649077178936,1.7105964419419024,4.001531354908884,1.0,0.12424031939910209,0.9270609138192271,-0.010302299402459395,0.0825428610647473,-2.4859053976941294,3.14
93,0.10556587864035046,0.08151817069851139,0.06707359719984839,4.115830506010472,2.279649052065972,1.7105964445317896,4.0015318204610235,1.0,0.12424064929252039,0.9270598103613531,-0.01030008752102212,0.08254243995105164,-2.4859065239416833,3.14
94,0.10556573767579551,0.08151819318979735,0.06707334800703003,4.115830505871304,2.2796490295603298,1.710596446850359,4.0015322382710865,1.0,0.12424094535241083,0.9270588174522165,-0.010298097219258565,0.08254206230924854,-2.48590753732126,3.14
95,0.10556561132186658,0.08151821335033305,0.06707312464138394,4.11583050574681,2.279649009386938,1.7105964489266074,4.001532613288536,1.0,0.12424121108679881,0.9270579240271365,-0.010296306321864067,0.0825417235890857,-2.4859084491353283,3.14
96,0.10556549804034365,0.08151823142536509,0.06707292438407023,4.1158305056354045,2.27964899130039,1.7105964507863503,4.001532949941598,1.0,0.12424144963420493,0.9270571201272431,-0.01029469486939835,0.08254141972601906,-2.48590926955589,3.14
97,0.10556539645853813,0.08151824763378307,0.06707274480877062,4.115830505535684,2.2796489750816544,1.7105964524525794,4.00153325219338,1.0,0.12424166380343124,0.9270563967892183,-0.010293244897394782,0.08254114708796752,-2.4859100077373406,3.14
98,0.10556530535094413,0.08151826217103128,0.06707258374927656,4.115830505446395,2.2796489605351598,1.7105964539457803,4.001533523591747,1.0,0.1242418561089362,0.9270557459459896,-0.010291940237406903,0.08254090242810722,-2.4859106719180932,3.14
99,0.10556522362301231,0.0815182752116925,0.06707243927081499,4.115830505366427,2.2796489474862103,1.7105964552842208,4.0015337673137195,1.0,0.12424202880230473,0.9270551603372957,-0.010290766337826177,0.08254068284299391,-2.4859112695120804,3.14
100,0.10556515029676723,0.08151828691177075,0.06707230964465208,4.115830505294786,2.279648935778701,1.7105964564841933,4.001533986204976,1.0,0.12424218390026161,0.9270546334291485,-0.010289710102517622,0.08254048573538467,-2.4859118071911412,3.14
101,0.1055650844980652,0.0815182974107173,0.06707219332555779,4.115830505230593,2.279648925273091,1.7105964575602373,4.001534182815045,1.0,0.12424232320962,0.9270541593413109,-0.010288759745510273,0.08254030878121262,-2.4859122909591935,3.14
102,0.10556502544529534,0.08151830683323333,0.06707208893186646,4.115830505173056,2.2796489158445983,1.710596458525333,4.001534359428667,1.0,0.12424244834951323,0.9270537327819957,-0.010287904660152893,0.08254014990023056,-2.4859127262190093,3.14
103,0.10556497243934376,0.08151831529086265,0.06707199522772976,4.115830505121478,2.2796489073816075,1.7105964593910759,4.001534518093746,1.0,0.12424256077121389,0.9270533489890704,-0.010287135301301676,0.0825400072299032,-2.485913117832329,3.14
104,0.10556492485468677,0.08151832288341238,0.06707191110737296,4.115830505075227,2.2796488997842475,1.7105964601678223,4.001534660646293,1.0,0.12424266177581277,0.9270530036771228,-0.010286443079247311,0.08253987910217095,-2.4859134701739753,3.14
105,0.105564882131476,0.08151832970021765,0.06707183558110998,4.11583050503375,2.2796488929631256,1.7105964608648332,4.001534788732672,1.0,0.12424275252999314,0.9270526929898025,-0.010285820264216356,0.08253976402276265,-2.485913787180566,3.14
106,0.10556484376849411,0.08151833582125655,0.06707176776290168,4.115830504996545,2.2796488868382125,1.7105964614903861,4.001534903829475,1.0,0.1242428340801143,0.9270524134569199,-0.010285259900396644,0.08253966065276439,-2.48591407239436,3.14
107,0.10556480931689358,0.08151834131815434,0.0670717068592754,4.115830504963165,2.2796488813378373,1.7105964620518874,4.001535007261258,1.0,0.1242429073647886,0.9270521619558233,-0.010284755728540316,0.0825395677921923,-2.485914329002724,3.14
108,0.10556477837461918,0.08151834625506975,0.06707165215947662,4.115830504933215,2.2796488763978,1.710596462555962,4.001535100216402,1.0,0.12424297322611895,0.9270519356766336,-0.0102843021162916,0.08253948436534332,-2.4859145598736565,3.14
109,0.10556475058144148,0.0815183506894885,0.06707160302669382,4.115830504906335,2.2796488719605783,1.7105964630085402,4.001535183761277,1.0,0.124243032419743,0.927051732090949,-0.010283893995470157,0.08253940940772488,-2.4859147675877593,3.14
110,0.10556472561453055,0.08151835467292756,0.0670715588902173,4.1158305048822115,2.2796488679746223,1.710596463414931,4.001535258852917,1.0,0.1242430856238132,0.927051548923677,-0.010283526805618491,0.08253934205439004,-2.485914954467015,3.14
111,0.10556470318450777,0.08151835825156636,0.06707151923848916,4.115830504860554,2.279648864393723,1.7105964637798892,4.001535326350349,1.0,0.12424313344702946,0.9270513841276802,-0.0102831964431885,0.08253928152952018,-2.485915122600683,3.14
112,0.10556468303192729,0.08151836146680802,0.06707148361284543,4.11583050484111,2.2796488611764514,1.7105964641076725,4.001535387024734,1.0,0.124243176435825,0.9270512358609564,-0.010282899215806395,0.0825392271371207,-2.4859152738686094,3.14
113,0.10556466492413191,0.08151836435577921,0.06707145160200038,4.115830504823652,2.2796488582856567,1.7105964644020974,4.001535441568441,1.0,0.12424321508079818,0.9270511024660995,-0.010282631801108106,0.08253917825270526,-2.4859154099622027,3.14
114,0.10556464865244979,0.08151836695177964,0.06707142283704745,4.115830504807975,2.279648855688018,1.7105964646665839,4.001535490603174,1.0,0.12424324982247058,0.9270509824518148,-0.010282391209691459,0.08253913431586196,-2.4859155324033106,3.14
115,0.1055646340296885,0.08151836928468331,0.0670713969870763,4.115830504793892,2.2796488533536428,1.7105964649041967,4.001535534687243,1.0,0.12424328105644306,0.9270508744762835,-0.010282174751772039,0.08253909482360555,-2.4859156425612077,3.14
116,0.10556462088789506,0.08151837138128998,0.06707137375516103,4.115830504781245,2.279648851255714,1.7105964651176844,4.001535574322086,1.0,0.12424330913801368,0.9270507773321897,-0.010281980007175374,0.08253905932443105,-2.4859157416678848,3.14
117,0.10556460907635237,0.08151837326564913,0.06707135287487831,4.115830504769884,2.2796488493701665,1.7105964653095107,4.001535609958102,1.0,0.12424333438631628,0.9270506899332471,-0.010281804798330404,0.0825390274129911,-2.485915830831804,3.14
118,0.10556459845979703,0.08151837495934626,0.06707133410710048,4.115830504759678,2.2796488476754018,1.7105964654818864,4.0015356419998875,1.0,0.12424335708802824,0.9270506113020733,-0.010281647165965847,0.08253899872533302,-2.4859159110502804,3.14
119,0.10556458891681317,0.08151837648175711,0.06707131723717297,4.115830504750507,2.2796488461520314,1.7105964656367947,4.001535670810925,1.0,0.1242433775006941,0.9270505405592782,-0.010281505347238575,0.08253897293463369,-2.4859159832206195,3.14
120,0.10556458033839951,0.08151837785027363,0.067071302072413,4.11583050474227,2.2796488447826526,1.7105964657760149,4.001535696717789,1.0,0.12424339585570537,0.927050476913644,-0.01028137775605153,0.08253894974738024,-2.4859160481501434,3.14
121,0.10556457262668956,0.08151837908051168,0.06707128843981046,4.115830504734866,2.2796488435516395,1.710596465901143,4.001535720013915,1.0,0.12424341236097335,0.9270504196532899,-0.010281262965342073,0.08253892889994648,-2.485916106565211,3.14
122,0.105564565693804,0.08151838018649336,0.06707127618401026,4.115830504728213,2.2796488424449612,1.7105964660136115,4.001535740962984,1.0,0.12424342720332483,0.9270503681377199,-0.010281159691143592,0.0825389101555282,-2.485916159119333,3.14
123,0.10556455946082363,0.08151838118081264,0.06707126516549686,4.115830504722234,2.279648841450016,1.7105964661147082,4.001535759801955,1.0,0.12424344055065249,0.9270503217906676,-0.01028106677824353,0.08253889330139402,-2.4859162064004763,3.14
124,0.10556455385686495,0.0815183820747782,0.06707125525896095,4.11583050471686,2.2796488405554873,1.7105964662055861,4.001535776743787,1.0,0.1242434525538437,0.9270502800936584,-0.010280983187277519,0.08253887814642193,-2.485916248937636,3.14
125,0.10556454881825839,0.08151838287854883,0.06707124635185169,4.1158305047120285,2.2796488397512107,1.7105964662872826,4.001535791979881,1.0,0.12424346334851108,0.9270502425802158,-0.010280907983116722,0.08253886451889043,-2.485916287206747,3.14
126,0.10556454428780893,0.081518383601251,0.06707123834305152,4.115830504707688,2.2796488390280536,1.7105964663607287,4.001535805682275,1.0,0.12424347305654625,0.9270502088306481,-0.010280840324417893,0.08253885226449724,-2.485916321636005,3.14
127,0.10556454021413261,0.08151838425108408,0.06707123114173315,4.115830504703785,2.2796488383778115,1.7105964664267594,4.001535818005607,1.0,0.12424348178751386,0.9270501784673582,-0.010280779454221137,0.08253884124458237,-2.485916352610654,3.14
128,0.10556453655106081,0.08151838483541175,0.06707122466626629,4.115830504700276,2.279648837793116,1.7105964664861273,4.001535829088883,1.0,0.12424348963990331,0.9270501511506222,-0.010280724691489362,0.0825388313345341,-2.485916380477294,3.14
129,0.10556453325711077,0.08151838536085389,0.06707121884332976,4.115830504697122,2.2796488372673434,1.7105964665395061,4.00153583905707,1.0,0.12424349670225258,0.9270501265747928,-0.010280675423495434,0.08253882242235867,-2.485916405547756,3.14
130,0.1055645302950035,0.0815183858333575,0.06707121360701696,4.115830504694286,2.2796488367945424,1.710596466587501,4.001535848022507,1.0,0.12424350305415756,0.9270501044648817,-0.010280631098972775,0.08253881440739617,-2.4859164281025876,3.14
131,0.10556452763124126,0.08151838625826831,0.06707120889811694,4.115830504691736,2.2796488363693643,1.710596466630658,4.001535856086196,1.0,0.1242435087671781,0.9270500845734846,-0.010280591221951935,0.08253880719916866,-2.4859164483941933,3.14
132,0.10556452523571541,0.0815183866403892,0.0670712046633889,4.115830504689445,2.279648835987003,1.710596466669464,4.001535863338945,1.0,0.12424351390565169,0.9270500666780159,-0.010280555346215416,0.08253880071634621,-2.485916466649656,3.14
133,0.10556452308136412,0.0815183869840362,0.06707120085500884,4.115830504687383,2.27964883564314,1.7105964667043605,4.001535869862399,1.0,0.12424351852742509,0.9270500505782188,-0.010280523070307936,0.08253879488581786,-2.485916483073275,3.14
134,0.10556452114386528,0.08151838729309001,0.06707119742997658,4.115830504685531,2.2796488353338917,1.710596466735741,4.00153587572997,1.0,0.1242435226845107,0.9270500360939263,-0.010280494033047413,0.08253878964185805,-2.485916497848856,3.14
135,0.10556451940135665,0.08151838757103985,0.06707119434963534,4.115830504683863,2.279648835055767,1.7105964667639606,4.001535881007667,1.0,0.12424352642367673,0.9270500230630458,-0.010280467909485549,0.08253878492537799,-2.485916511141761,3.14
136,0.10556451783418398,0.08151838782101989,0.06707119157925764,4.115830504682365,2.27964883480563,1.710596466789339,4.001535885754848,1.0,0.12424352978697682,0.9270500113397465,-0.010280444407273532,0.08253878068325379,-2.4859165231007627,3.14
137,0.10556451642467983,0.08151838804584924,0.06707118908759137,4.115830504681018,2.279648834580659,1.7105964668121623,4.001535890024886,1.0,0.12424353281222718,0.9270500007928281,-0.010280423263392305,0.08253877686772157,-2.485916533859707,3.14
138,0.10556451515695967,0.08151838824806201,0.0670711868465716,4.1158305046798045,2.2796488343783192,1.710596466832688,4.00153589386578,1.0,0.12424353553343385,0.9270499913042535,-0.010280404241210614,0.08253877343583582,-2.4859165435390107,3.14
139,0.10556451401674423,0.08151838842993632,0.06707118483094283,4.115830504678716,2.2796488341963306,1.7105964668511484,4.001535897320693,1.0,0.12424353798117763,0.927049982767828,-0.010280387127837853,0.08253877034898174,-2.485916552247008,3.14
140,0.10556451299119243,0.08151838859351854,0.06707118301802058,4.115830504677734,2.2796488340326455,1.7105964668677516,4.001535900428441,1.0,0.12424354018296008,0.9270499750880121,-0.010280371731742902,0.08253876757243697,-2.4859165600811646,3.14
141,0.10556451206876206,0.08151838874065227,0.06707118138738973,4.115830504676853,2.2796488338854193,1.7105964668826834,4.0015359032239335,1.0,0.12424354216351362,0.9270499681788515,-0.010280357880611277,0.08253876507497893,-2.485916567129166,3.14
142,0.1055645112390722,0.0815183888729925,0.06707117992070254,4.115830504676061,2.279648833752996,1.7105964668961136,4.001535905738565,1.0,0.1242435439450811,0.9270499619630159,-0.010280345419417252,0.08253876282853106,-2.4859165734698987,3.14
143,0.10556451049279014,0.08151838899202905,0.06707117860145996,4.1158305046753485,2.2796488336338845,1.7105964669081937,4.0015359080005695,1.0,0.1242435455476668,0.9270499563709342,-0.010280334208689679,0.08253876080784492,-2.4859165791743347,3.14
144,0.10556450982152295,0.08151838909909917,0.0670711774148261,4.115830504674707,2.279648833526747,1.710596466919058,4.001535910035342,1.0,0.12424354698926222,0.9270499513400163,-0.010280324122951351,0.08253875899021473,-2.4859165843063256,3.14
145,0.10556450921772315,0.08151838919540733,0.06707117634746257,4.11583050467413,2.2796488334303784,1.7105964669288303,4.001535911865721,1.0,0.12424354828604861,0.9270499468139516,-0.010280315049315047,0.08253875735522125,-2.4859165889233137,3.14
146,0.10556450867460608,0.08151838928203732,0.0670711753873628,4.115830504673613,2.279648833343694,1.7105964669376206,4.0015359135122495,1.0,0.12424354945257937,0.9270499427420797,-0.010280306886220609,0.08253875588450083,-2.485916593076979,3.14
147,0.10556450818606669,0.08151838935996109,0.06707117452374611,4.115830504673145,2.279648833265721,1.7105964669455267,4.001535914993401,1.0,0.12424355050194433,0.9270499390788243,-0.010280299542298239,0.0825387545615379,-2.4859165968138157,3.14
148,0.1055645077466165,0.08151838943005471,0.06707117374690852,4.115830504672725,2.2796488331955835,1.710596466952638,4.001535916325794,1.0,0.12424355144591663,0.9270499357831814,-0.010280292935346436,0.08253875337147944,-2.485916600175652,3.14
149,0.10556450735132074,0.0815183894931055,0.06707117304812675,4.115830504672347,2.279648833132493,1.710596466959035,4.001535917524376,1.0,0.12424355229508598,0.9270499328182615,-0.010280286991411767,0.08253875230096622,-2.4859166032001188,3.14
150,0.10556450699573854,0.08151838954982091,0.06707117241954551,4.115830504672007,2.279648833075742,1.7105964669647888,4.00153591860259,1.0,0.12424355305897711,0.9270499301508777,-0.010280281643961636,0.08253875133798338,-2.4859166059210716,3.14
151,0.10556450667587892,0.08151838960083913,0.06707117185411128,4.115830504671703,2.279648833024692,1.7105964669699645,4.00153591957253,1.0,0.12424355374615732,0.927049927751172,-0.010280276833139378,0.08253875047172445,-2.485916608368968,3.14
152,0.10556450638815083,0.08151838964673222,0.06707117134548286,4.115830504671428,2.27964883297877,1.71059646697462,4.00153592044507,1.0,0.12424355436433279,0.927049925592283,-0.010280272505094851,0.08253874969246958,-2.48591661057121,3.14
153,0.10556450612932507,0.08151838968801546,0.06707117088794191,4.115830504671182,2.2796488329374607,1.7105964669788079,4.001535921229996,1.0,0.12424355492043485,0.9270499236500447,-0.01028026861138133,0.08253874899147703,-2.485916612552449,3.14
154,0.10556450589649627,0.08151838972515173,0.06707117047635981,4.11583050467096,2.279648832900301,1.7105964669825755,4.001535921936107,1.0,0.12424355542069859,0.9270499219027161,-0.010280265108413447,0.0825387483608833,-2.4859166143348626,3.14
155,0.10556450568705184,0.08151838975855823,0.06707117010611813,4.115830504670759,2.2796488328668736,1.7105964669859637,4.001535922571319,1.0,0.12424355587073235,0.927049920330738,-0.01028026195697976,0.08253874779361574,-2.485916615938404,3.14
156,0.10556450549864349,0.08151838978860951,0.06707116977305566,4.11583050467058,2.2796488328368034,1.7105964669890124,4.001535923142755,1.0,0.1242435562755809,0.9270499189165134,-0.010280259121803427,0.0825387472833127,-2.4859166173810228,3.14
157,0.10556450532915586,0.08151838981564244,0.06707116947344853,4.115830504670419,2.2796488328097535,1.7105964669917542,4.001535923656817,1.0,0.12424355663978211,0.927049917644212,-0.01028025657114745,0.08253874682425208,-2.4859166186788686,3.14
158,0.10556450517668924,0.08151838983996058,0.06707116920392073,4.115830504670273,2.27964883278542,1.7105964669942209,4.001535924119269,1.0,0.12424355696741816,0.927049916499591,-0.010280254276459752,0.0825387464112864,-2.4859166198464697,3.14
159,0.10556450503953319,0.08151838986183733,0.06707116896146728,4.115830504670143,2.2796488327635296,1.7105964669964395,4.001535924535292,1.0,0.12424355726216078,0.9270499154698376,-0.010280252212053448,0.08253874603978613,-2.4859166208968966,3.14
160,0.10556450491615005,0.08151838988151633,0.06707116874335493,4.115830504670024,2.2796488327438382,1.7105964669984353,4.0015359249095495,1.0,0.12424355752731324,0.9270499145434246,-0.010280250354819125,0.08253874570558632,-2.485916621841908,3.14
161,0.1055645048051553,0.08151838989921949,0.06707116854714526,4.115830504669919,2.279648832726124,1.7105964670002314,4.001535925246235,1.0,0.12424355776584657,0.9270499137099811,-0.010280248683966525,0.08253874540494113,-2.485916622692083,3.14
162,0.10556450470530675,0.08151838991514562,0.0670711683706417,4.115830504669823,2.279648832710188,1.7105964670018463,4.00153592554912,1.0,0.12424355798043388,0.9270499129601778,-0.01028024718079169,0.0825387451344804,-2.485916623456938,3.14
163,0.10556450461548302,0.0815183899294727,0.06707116821185309,4.115830504669738,2.2796488326958517,1.7105964670032994,4.0015359258215994,1.0,0.12424355817347917,0.9270499122856208,-0.010280245828467618,0.08253874489117335,-2.485916624145036,3.14
164,0.10556450453467778,0.08151838994236096,0.06707116806901027,4.115830504669659,2.2796488326829554,1.7105964670046063,4.001535926066726,1.0,0.12424355834714551,0.9270499116787589,-0.01028024461185595,0.08253874467229304,-2.4859166247640796,3.14
165,0.10556450446198586,0.08151838995395551,0.06707116794051303,4.11583050466959,2.2796488326713535,1.7105964670057825,4.0015359262872465,1.0,0.1242435585033785,0.9270499111327988,-0.01028024351733739,0.08253874447538677,-2.485916625320999,3.14
166,0.10556450439659172,0.0815183899643855,0.06707116782490692,4.115830504669528,2.279648832660917,1.71059646700684,4.00153592648563,1.0,0.12424355864392853,0.9270499106416287,-0.010280242532659443,0.08253874429824792,-2.4859166258220284,3.14
167,0.10556450433776282,0.08151838997376898,0.06707116772091642,4.115830504669471,2.2796488326515276,1.7105964670077918,4.0015359266641,1.0,0.12424355877037009,0.92704991019975,-0.010280241646799072,0.08253874413889165,-2.4859166262727763,3.14
168,0.10556450428483943,0.08151838998220937,0.06707116762736208,4.115830504669422,2.279648832643082,1.7105964670086482,4.001535926824655,1.0,0.12424355888411949,0.9270499098022164,-0.010280240849839632,0.08253874399553265,-2.4859166266782893,3.14
169,0.10556450423722977,0.0815183899898034,0.06707116754320028,4.115830504669376,2.279648832635483,1.7105964670094185,4.001535926969094,1.0,0.12424355898645104,0.9270499094445774,-0.010280240132859495,0.0825387438665646,-2.485916627043107,3.14
170,0.10556450419439949,0.08151838999663409,0.06707116746748679,4.115830504669335,2.279648832628648,1.710596467010111,4.0015359270990345,1.0,0.1242435590785109,0.9270499091228297,-0.010280239487832266,0.08253874375054272,-2.4859166273713127,3.14
171,0.10556450415586925,0.08151839000278042,0.06707116739937016,4.115830504669299,2.279648832622498,1.710596467010734,4.001535927215933,1.0,0.12424355916133015,0.9270499088333712,-0.01028023890753722,0.0825387436461674,-2.4859166276665814,3.14
172,0.10556450412120591,0.08151839000830852,0.06707116733809501,4.1158305046692645,2.2796488326169664,1.710596467011295,4.001535927321097,1.0,0.12424355923583646,0.9270499085729614,-0.010280238385478131,0.08253874355226924,-2.485916627932218,3.14
173,0.10556450409002235,0.0815183900132823,0.06707116728297555,4.115830504669236,2.2796488326119895,1.7105964670117995,4.001535927415706,1.0,0.12424355930286428,0.9270499083386853,-0.010280237915810744,0.08253874346779655,-2.485916628171196,3.14
174,0.10556450406196913,0.08151839001775636,0.06707116723338226,4.115830504669209,2.2796488326075126,1.7105964670122529,4.001535927500818,1.0,0.12424355936316452,0.9270499081279203,-0.01028023749327727,0.08253874339180273,-2.485916628386191,3.14
175,0.10556450403673193,0.08151839002178171,0.06707116718876853,4.115830504669185,2.2796488326034847,1.7105964670126614,4.001535927577388,1.0,0.12424355941741229,0.9270499079383068,-0.0102802371131476,0.0825387433234369,-2.48591662857961,3.14
176,0.1055645040140286,0.08151839002540322,0.06707116714863405,4.1158305046691614,2.279648832599861,1.7105964670130285,4.001535927646272,1.0,0.12424355946621521,0.9270499077677221,-0.0102802367711662,0.08253874326193328,-2.4859166287536185,3.14
177,0.10556450399360383,0.08151839002866078,0.06707116711252827,4.115830504669144,2.2796488325966013,1.7105964670133589,4.001535927708243,1.0,0.12424355951011966,0.9270499076142568,-0.01028023646350476,0.0825387432066032,-2.485916628910164,3.14
178,0.10556450397522933,0.0815183900315917,0.06707116708004697,4.115830504669126,2.2796488325936686,1.710596467013656,4.001535927763994,1.0,0.12424355954961754,0.9270499074761925,-0.010280236186719038,0.08253874315682665,-2.485916629050999,3.14
179,0.1055645039586989,0.08151839003422838,0.06707116705082573,4.11583050466911,2.2796488325910302,1.7105964670139233,4.001535927814149,1.0,0.12424355958515107,0.9270499073519839,-0.010280235937710495,0.08253874311204629,-2.4859166291777,3.14
180,0.10556450394382755,0.08151839003660011,0.06707116702454317,4.115830504669097,2.279648832588657,1.7105964670141642,4.00153592785927,1.0,0.1242435596171181,0.9270499072402403,-0.010280235713691589,0.08253874307176068,-2.4859166292916863,3.14
181,0.10556450393044911,0.08151839003873394,0.06707116700088789,4.115830504669083,2.279648832586522,1.7105964670143807,4.001535927899862,1.0,0.12424355964587686,0.927049907139711,-0.010280235512154404,0.0825387430355183,-2.485916629394233,3.14
182,0.10556450391841302,0.08151839004065342,0.0670711669796147,4.115830504669072,2.279648832584601,1.710596467014575,4.001535927936381,1.0,0.12424355967174919,0.9270499070492707,-0.01028023533084272,0.08253874300291357,-2.4859166294864887,3.14
183,0.10556450390758561,0.08151839004238029,0.0670711669604685,4.115830504669062,2.279648832582873,1.7105964670147502,4.0015359279692335,1.0,0.12424355969502482,0.9270499069679065,-0.010280235167726899,0.08253874297358131,-2.485916629569486,3.14
184,0.10556450389784518,0.08151839004393452,0.06707116694325381,4.115830504669052,2.279648832581318,1.7105964670149076,4.001535927998789,1.0,0.1242435597159644,0.9270499068947076,-0.010280235020980742,0.08253874294719306,-2.4859166296441537,3.14
185,0.10556450388908215,0.08151839004533208,0.06707116692776191,4.115830504669044,2.2796488325799196,1.710596467015049,4.001535928025379,1.0,0.12424355973480238,0.9270499068288548,-0.010280234888961518,0.08253874292345341,-2.485916629711328,3.14
186,0.10556450388119865,0.08151839004658983,0.06707116691382715,4.115830504669035,2.279648832578661,1.710596467015177,4.001535928049299,1.0,0.12424355975174961,0.9270499067696106,-0.010280234770191299,0.08253874290209649,-2.485916629771761,3.14
187,0.10556450387410558,0.08151839004772023,0.0670711669012872,4.115830504669031,2.27964883257753,1.7105964670152913,4.00153592807082,1.0,0.12424355976699598,0.9270499067163123,-0.010280234663340526,0.08253874288288311,-2.4859166298261295,3.14
188,0.10556450386772498,0.08151839004873744,0.06707116689000953,4.115830504669024,2.279648832576512,1.7105964670153946,4.001535928090179,1.0,0.12424355978071228,0.9270499066683626,-0.01028023456721289,0.08253874286559786,-2.4859166298750415,3.14
189,0.10556450386198489,0.08151839004965346,0.06707116687986492,4.115830504669018,2.2796488325755955,1.7105964670154876,4.001535928107597,1.0,0.12424355979305192,0.9270499066252249,-0.010280234480732314,0.0825387428500475,-2.4859166299190445,3.14
190,0.10556450385682113,0.08151839005047716,0.06707116687073411,4.115830504669012,2.2796488325747712,1.7105964670155716,4.001535928123266,1.0,0.12424355980415305,0.9270499065864165,-0.010280234402930617,0.08253874283605799,-2.485916629958632,3.14
191,0.10556450385217528,0.08151839005121833,0.06707116686252103,4.11583050466901,2.2796488325740296,1.7105964670156462,4.001535928137363,1.0,0.12424355981414008,0.9270499065515028,-0.01028023433293688,0.08253874282347248,-2.4859166299942466,3.14
192,0.10556450384799589,0.08151839005188449,0.06707116685513288,4.115830504669006,2.279648832573363,1.7105964670157137,4.001535928150044,1.0,0.12424355982312486,0.9270499065200929,-0.010280234269967442,0.08253874281214998,-2.4859166300262867,3.14
193,0.10556450384423623,0.08151839005248453,0.06707116684848356,4.115830504669002,2.2796488325727626,1.7105964670157745,4.001535928161453,1.0,0.12424355983120795,0.9270499064918352,-0.010280234213317361,0.08253874280196376,-2.4859166300551117,3.14
194,0.10556450384085303,0.08151839005302376,0.0670711668425101,4.115830504668997,2.279648832572223,1.7105964670158293,4.001535928171717,1.0,0.12424355983847969,0.9270499064664133,-0.010280234162352542,0.0825387427928001,-2.485916630081044,3.14
195,0.10556450383781045,0.08151839005350972,0.06707116683712969,4.1158305046689945,2.279648832571737,1.7105964670158786,4.001535928180951,1.0,0.12424355984502161,0.9270499064435426,-0.010280234116502439,0.08253874278455613,-2.485916630104373,3.14
196,0.10556450383507265,0.081518390053946,0.06707116683228599,4.115830504668993,2.2796488325713002,1.7105964670159228,4.001535928189258,1.0,0.12424355985090699,0.9270499064229671,-0.010280234075253677,0.0825387427771395,-2.4859166301253612,3.14
197,0.10556450383260985,0.08151839005433921,0.06707116682793261,4.11583050466899,2.279648832570907,1.7105964670159628,4.0015359281967315,1.0,0.12424355985620177,0.9270499064044565,-0.010280234038144504,0.08253874277046713,-2.485916630144243,3.14
198,0.10556450383039417,0.08151839005469248,0.06707116682401658,4.1158305046689865,2.2796488325705533,1.710596467015999,4.001535928203455,1.0,0.12424355986096511,0.9270499063878036,-0.010280234004759511,0.08253874276446449,-2.48591663016123,3.14
199,0.10556450382840071,0.08151839005501026,0.06707116682049478,4.115830504668987,2.2796488325702353,1.7105964670160312,4.001535928209504,1.0,0.12424355986525037,0.9270499063728221,-0.010280233974725016,0.08253874275906434,-2.4859166301765123,3.14
200,0.1055645038266072,0.08151839005529606,0.06707116681732418,4.115830504668984,2.2796488325699493,1.71059646701606,4.001535928214945,1.0,0.1242435598691057,0.9270499063593441,-0.010280233947704632,0.08253874275420593,-2.485916630190261,3.14
201,0.10556450382499369,0.08151839005555347,0.06707116681446831,4.115830504668982,2.2796488325696918,1.710596467016086,4.001535928219841,1.0,0.12424355987257397,0.9270499063472186,-0.010280233923395945,0.08253874274983529,-2.4859166302026297,3.14
202,0.10556450382354277,0.08151839005578514,0.067071166811904,4.115830504668981,2.27964883256946,1.7105964670161093,4.0015359282242455,1.0,0.12424355987569423,0.92704990633631,-0.01028023390152677,0.08253874274590321,-2.485916630213757,3.14
203,0.10556450382223671,0.08151839005599329,0.0670711668095948,4.115830504668979,2.2796488325692517,1.7105964670161309,4.001535928228208,1.0,0.12424355987850129,0.9270499063264962,-0.01028023388185233,0.08253874274236585,-2.485916630223768,3.14
204,0.10556450382106207,0.08151839005618058,0.06707116680752082,4.115830504668979,2.2796488325690643,1.7105964670161495,4.001535928231772,1.0,0.12424355988102663,0.9270499063176673,-0.01028023386415238,0.08253874273918353,-2.485916630232774,3.14
205,0.10556450382000548,0.08151839005634923,0.06707116680565225,4.1158305046689785,2.2796488325688955,1.7105964670161666,4.001535928234979,1.0,0.12424355988329853,0.9270499063097243,-0.010280233848228789,0.08253874273632054,-2.4859166302408764,3.14
206,0.10556450381905425,0.08151839005650056,0.06707116680397253,4.115830504668977,2.279648832568744,1.7105964670161822,4.001535928237864,1.0,0.12424355988534247,0.9270499063025786,-0.010280233833903186,0.08253874273374484,-2.4859166302481657,3.14
207,0.10556450381819919,0.08151839005663682,0.06707116680245846,4.115830504668975,2.2796488325686077,1.710596467016196,4.001535928240459,1.0,0.1242435598871813,0.9270499062961499,-0.01028023382101525,0.08253874273142763,-2.4859166302547235,3.14
208,0.10556450381742989,0.08151839005675975,0.06707116680109679,4.115830504668977,2.2796488325684847,1.7105964670162082,4.001535928242795,1.0,0.12424355988883552,0.9270499062903665,-0.01028023380942071,0.0825387427293431,-2.4859166302606233,3.14
209,0.10556450381673707,0.08151839005686982,0.06707116679987758,4.115830504668974,2.2796488325683746,1.710596467016219,4.001535928244896,1.0,0.12424355989032383,0.9270499062851635,-0.010280233798989685,0.0825387427274676,-2.4859166302659306,3.14
210,0.10556450381611455,0.08151839005696968,0.06707116679877433,4.115830504668975,2.2796488325682747,1.7105964670162295,4.001535928246786,1.0,0.12424355989166265,0.9270499062804826,-0.010280233789605533,0.08253874272578045,-2.4859166302707054,3.14
211,0.10556450381555468,0.08151839005705933,0.06707116679778703,4.115830504668975,2.279648832568185,1.7105964670162384,4.001535928248486,1.0,0.12424355989286717,0.9270499062762714,-0.010280233781163167,0.08253874272426254,-2.485916630275001,3.14
212,0.10556450381505016,0.08151839005713965,0.06707116679689581,4.115830504668974,2.2796488325681046,1.7105964670162468,4.001535928250015,1.0,0.12424355989395078,0.9270499062724826,-0.010280233773568077,0.08253874272289699,-2.4859166302788656,3.14
213,0.10556450381459681,0.08151839005721155,0.06707116679608743,4.115830504668973,2.2796488325680326,1.7105964670162541,4.001535928251391,1.0,0.12424355989492572,0.9270499062690742,-0.010280233766735149,0.0825387427216684,-2.4859166302823423,3.14
214,0.10556450381418896,0.08151839005727679,0.06707116679537181,4.115830504668973,2.2796488325679674,1.7105964670162606,4.001535928252629,1.0,0.12424355989580278,0.927049906266008,-0.010280233760587948,0.08253874272056316,-2.48591663028547,3.14
215,0.10556450381382185,0.08151839005733537,0.06707116679472244,4.115830504668972,2.2796488325679087,1.7105964670162666,4.001535928253743,1.0,0.12424355989659182,0.9270499062632495,-0.01028023375505769,0.08253874271956887,-2.485916630288284,3.14
216,0.10556450381349151,0.08151839005738819,0.06707116679413935,4.115830504668972,2.279648832567856,1.7105964670162723,4.001535928254745,1.0,0.1242435598973017,0.9270499062607677,-0.01028023375008246,0.08253874271867431,-2.485916630290815,3.14
217,0.10556450381319481,0.08151839005743566,0.06707116679361588,4.115830504668971,2.2796488325678084,1.7105964670162768,4.001535928255646,1.0,0.12424355989794032,0.9270499062585351,-0.010280233745606515,0.08253874271786951,-2.485916630293093,3.14
218,0.10556450381292731,0.08151839005747782,0.0670711667931388,4.115830504668972,2.279648832567766,1.7105964670162812,4.001535928256457,1.0,0.12424355989851482,0.9270499062565265,-0.01028023374157978,0.08253874271714555,-2.485916630295142,3.14
219,0.10556450381268764,0.08151839005751689,0.06707116679271473,4.1158305046689705,2.279648832567727,1.7105964670162854,4.001535928257186,1.0,0.12424355989903169,0.9270499062547194,-0.010280233737957173,0.08253874271649421,-2.4859166302969853,3.14
220,0.10556450381247068,0.08151839005755106,0.06707116679233373,4.1158305046689705,2.279648832567693,1.7105964670162885,4.001535928257843,1.0,0.12424355989949659,0.9270499062530939,-0.010280233734698035,0.08253874271590839,-2.4859166302986435,3.14
221,0.10556450381227585,0.08151839005758169,0.06707116679198585,4.1158305046689705,2.2796488325676623,1.7105964670162912,4.001535928258433,1.0,0.12424355989991491,0.9270499062516315,-0.010280233731766019,0.08253874271538125,-2.4859166303001357,3.14
222,0.10556450381210097,0.08151839005760965,0.06707116679167774,4.1158305046689705,2.2796488325676343,1.7105964670162945,4.001535928258964,1.0,0.12424355990029123,0.9270499062503157,-0.010280233729128212,0.08253874271490702,-2.4859166303014777,3.14
223,0.10556450381194384,0.08151839005763495,0.06707116679140275,4.115830504668971,2.279648832567609,1.710596467016297,4.001535928259442,1.0,0.12424355990062981,0.927049906249132,-0.0102802337267552,0.08253874271448036,-2.485916630302685,3.14
224,0.10556450381180202,0.08151839005765758,0.06707116679115097,4.1158305046689705,2.2796488325675863,1.7105964670162992,4.001535928259872,1.0,0.12424355990093441,0.927049906248067,-0.010280233724620249,0.08253874271409653,-2.4859166303037714,3.14
225,0.10556450381167402,0.08151839005767711,0.06707116679092567,4.1158305046689705,2.279648832567567,1.710596467016301,4.001535928260259,1.0,0.12424355990120843,0.9270499062471091,-0.01028023372269959,0.08253874271375124,-2.485916630304749,3.14
226,0.10556450381155968,0.08151839005769619,0.06707116679072027,4.1158305046689705,2.2796488325675477,1.710596467016303,4.0015359282606076,1.0,0.12424355990145497,0.9270499062462472,-0.010280233720971706,0.08253874271344054,-2.4859166303056277,3.14
227,0.10556450381145652,0.08151839005771261,0.06707116679054136,4.1158305046689705,2.2796488325675313,1.7105964670163047,4.00153592826092,1.0,0.1242435599016768,0.9270499062454717,-0.010280233719417234,0.08253874271316096,-2.4859166303064186,3.14
228,0.10556450381136309,0.08151839005772725,0.06707116679037571,4.11583050466897,2.2796488325675166,1.7105964670163067,4.001535928261202,1.0,0.12424355990187635,0.927049906244774,-0.01028023371801878,0.08253874271290947,-2.48591663030713,3.14
229,0.10556450381128007,0.08151839005774057,0.06707116679022994,4.1158305046689705,2.2796488325675033,1.7105964670163076,4.001535928261455,1.0,0.12424355990205592,0.9270499062441465,-0.010280233716760645,0.08253874271268316,-2.4859166303077704,3.14
230,0.10556450381120502,0.08151839005775255,0.0670711667900974,4.115830504668969,2.2796488325674913,1.7105964670163087,4.001535928261682,1.0,0.12424355990221742,0.9270499062435819,-0.010280233715628768,0.08253874271247967,-2.4859166303083464,3.14
231,0.10556450381113755,0.08151839005776365,0.06707116678997814,4.115830504668969,2.27964883256748,1.71059646701631,4.001535928261887,1.0,0.12424355990236262,0.9270499062430739,-0.010280233714610497,0.08253874271229673,-2.4859166303088647,3.14
232,0.10556450381107653,0.08151839005777296,0.0670711667898655,4.115830504668969,2.279648832567471,1.7105964670163105,4.001535928262072,1.0,0.12424355990249333,0.9270499062426172,-0.010280233713694386,0.08253874271213202,-2.485916630309331,3.14
233,0.10556450381102232,0.08151839005778184,0.06707116678977273,4.11583050466897,2.279648832567462,1.7105964670163114,4.001535928262238,1.0,0.12424355990261089,0.9270499062422061,-0.0102802337128702,0.08253874271198393,-2.48591663030975,3.14
234,0.10556450381097257,0.08151839005778984,0.0670711667896866,4.11583050466897,2.279648832567454,1.7105964670163127,4.0015359282623875,1.0,0.12424355990271663,0.9270499062418361,-0.010280233712128701,0.08253874271185069,-2.4859166303101277,3.14
235,0.10556450381092804,0.08151839005779649,0.06707116678960708,4.11583050466897,2.2796488325674473,1.7105964670163132,4.001535928262522,1.0,0.12424355990281186,0.9270499062415034,-0.010280233711461676,0.08253874271173069,-2.485916630310467,3.14
236,0.10556450381088892,0.08151839005780315,0.0670711667895375,4.115830504668969,2.2796488325674407,1.7105964670163138,4.001535928262642,1.0,0.12424355990289745,0.9270499062412041,-0.01028023371086158,0.0825387427116228,-2.485916630310772,3.14
237,0.10556450381085274,0.08151839005780848,0.06707116678947456,4.115830504668969,2.2796488325674353,1.7105964670163145,4.001535928262752,1.0,0.12424355990297442,0.9270499062409349,-0.010280233710321761,0.08253874271152582,-2.485916630311047,3.14
238,0.10556450381082035,0.0815183900578138,0.06707116678941492,4.115830504668969,2.27964883256743,1.710596467016315,4.001535928262849,1.0,0.12424355990304371,0.9270499062406927,-0.010280233709836098,0.08253874271143853,-2.4859166303112943,3.14
239,0.10556450381079148,0.08151839005781823,0.06707116678936191,4.11583050466897,2.2796488325674256,1.710596467016315,4.001535928262937,1.0,0.12424355990310605,0.9270499062404748,-0.01028023370939912,0.08253874271135997,-2.4859166303115163,3.14
240,0.10556450381076543,0.08151839005782267,0.06707116678932215,4.115830504668969,2.279648832567421,1.7105964670163156,4.001535928263016,1.0,0.12424355990316216,0.9270499062402787,-0.01028023370900604,0.08253874271128926,-2.485916630311716,3.14
241,0.10556450381074206,0.08151839005782623,0.06707116678927909,4.1158305046689705,2.2796488325674176,1.710596467016316,4.001535928263087,1.0,0.12424355990321255,0.9270499062401022,-0.010280233708652433,0.08253874271122576,-2.485916630311896,3.14
242,0.10556450381072068,0.08151839005782978,0.06707116678923933,4.115830504668968,2.279648832567414,1.7105964670163165,4.00153592826315,1.0,0.12424355990325801,0.9270499062399433,-0.010280233708334294,0.0825387427111684,-2.4859166303120577,3.14
243,0.10556450381070229,0.08151839005783332,0.06707116678920619,4.115830504668969,2.2796488325674105,1.7105964670163172,4.001535928263208,1.0,0.12424355990329876,0.9270499062398004,-0.01028023370804808,0.08253874271111711,-2.4859166303122033,3.14
244,0.10556450381068523,0.08151839005783554,0.06707116678917638,4.115830504668969,2.2796488325674082,1.7105964670163176,4.0015359282632605,1.0,0.12424355990333545,0.9270499062396721,-0.0102802337077906,0.08253874271107088,-2.4859166303123343,3.14
245,0.10556450381066922,0.08151839005783776,0.06707116678914987,4.115830504668969,2.279648832567406,1.7105964670163176,4.001535928263307,1.0,0.12424355990336852,0.9270499062395566,-0.010280233707559015,0.08253874271102919,-2.4859166303124525,3.14
246,0.10556450381065557,0.08151839005783998,0.06707116678912668,4.115830504668968,2.279648832567404,1.7105964670163176,4.0015359282633485,1.0,0.12424355990339828,0.9270499062394527,-0.01028023370735059,0.08253874271099167,-2.4859166303125586,3.14
247,0.10556450381064317,0.0815183900578422,0.06707116678910349,4.115830504668968,2.2796488325674016,1.7105964670163176,4.001535928263387,1.0,0.124243559903425,0.9270499062393592,-0.010280233707163116,0.08253874271095803,-2.485916630312654,3.14
248,0.10556450381063236,0.08151839005784442,0.0670711667890803,4.115830504668969,2.2796488325673994,1.7105964670163185,4.001535928263421,1.0,0.12424355990344901,0.927049906239275,-0.010280233706994456,0.08253874271092777,-2.48591663031274,3.14
249,0.10556450381062164,0.08151839005784531,0.06707116678906373,4.115830504668969,2.2796488325673985,1.7105964670163183,4.0015359282634515,1.0,0.12424355990347069,0.9270499062391994,-0.01028023370684264,0.08253874271090046,-2.485916630312817,3.14
250,0.10556450381061282,0.08151839005784708,0.06707116678905048,4.115830504668969,2.2796488325673967,1.710596467016318,4.001535928263479,1.0,0.12424355990349023,0.9270499062391314,-0.010280233706706133,0.08253874271087583,-2.485916630312887,3.14
251,0.1055645038106051,0.08151839005784886,0.06707116678903723,4.115830504668969,2.279648832567395,1.7105964670163183,4.001535928263504,1.0,0.1242435599035078,0.92704990623907,-0.01028023370658326,0.08253874271085367,-2.4859166303129494,3.14
252,0.10556450381059773,0.08151839005784975,0.06707116678902067,4.115830504668969,2.279648832567394,1.7105964670163185,4.001535928263526,1.0,0.12424355990352355,0.9270499062390148,-0.010280233706472682,0.0825387427108338,-2.4859166303130054,3.14
253,0.10556450381059078,0.08151839005785064,0.06707116678901072,4.115830504668969,2.279648832567393,1.710596467016319,4.0015359282635465,1.0,0.12424355990353766,0.9270499062389652,-0.010280233706373244,0.08253874271081606,-2.485916630313056,3.14
254,0.10556450381058487,0.08151839005785153,0.06707116678900078,4.11583050466897,2.2796488325673923,1.7105964670163185,4.001535928263564,1.0,0.12424355990355045,0.9270499062389207,-0.01028023370628379,0.08253874271079996,-2.4859166303131017,3.14
255,0.10556450381057973,0.08151839005785241,0.06707116678898753,4.115830504668969,2.2796488325673914,1.710596467016319,4.00153592826358,1.0,0.12424355990356198,0.9270499062388805,-0.010280233706203292,0.08253874271078541,-2.4859166303131426,3.14
256,0.10556450381057468,0.0815183900578533,0.06707116678898421,4.115830504668969,2.2796488325673905,1.710596467016319,4.001535928263595,1.0,0.12424355990357226,0.9270499062388444,-0.010280233706130891,0.08253874271077247,-2.4859166303131794,3.14
257,0.10556450381057045,0.08151839005785373,0.06707116678897097,4.115830504668969,2.27964883256739,1.7105964670163192,4.001535928263609,1.0,0.12424355990358156,0.9270499062388119,-0.01028023370606577,0.0825387427107608,-2.4859166303132123,3.14
258,0.10556450381056631,0.08151839005785419,0.06707116678896434,4.11583050466897,2.2796488325673896,1.7105964670163192,4.00153592826362,1.0,0.12424355990358994,0.9270499062387827,-0.010280233706007207,0.0825387427107502,-2.485916630313242,3.14
259,0.10556450381056239,0.08151839005785463,0.06707116678895772,4.11583050466897,2.279648832567389,1.710596467016319,4.001535928263631,1.0,0.12424355990359746,0.9270499062387565,-0.01028023370595457,0.0825387427107407,-2.4859166303132687,3.14
260,0.10556450381056016,0.08151839005785551,0.0670711667889544,4.11583050466897,2.2796488325673883,1.7105964670163194,4.001535928263641,1.0,0.12424355990360424,0.9270499062387328,-0.010280233705907298,0.08253874271073212,-2.485916630313293,3.14
261,0.10556450381055729,0.08151839005785597,0.06707116678895109,4.11583050466897,2.279648832567388,1.7105964670163192,4.00153592826365,1.0,0.12424355990361031,0.9270499062387116,-0.01028023370586462,0.08253874271072448,-2.485916630313315,3.14
262,0.10556450381055435,0.08151839005785597,0.06707116678894447,4.1158305046689705,2.279648832567388,1.710596467016319,4.001535928263658,1.0,0.1242435599036158,0.9270499062386925,-0.010280233705826236,0.08253874271071758,-2.4859166303133344,3.14
263,0.10556450381055238,0.08151839005785684,0.06707116678894115,4.1158305046689705,2.279648832567387,1.7105964670163194,4.001535928263665,1.0,0.12424355990362074,0.9270499062386751,-0.01028023370579171,0.08253874271071132,-2.4859166303133517,3.14
264,0.10556450381054959,0.08151839005785685,0.06707116678893783,4.11583050466897,2.279648832567387,1.710596467016319,4.001535928263671,1.0,0.12424355990362525,0.9270499062386598,-0.010280233705760637,0.08253874271070563,-2.4859166303133677,3.14
265,0.10556450381054774,0.08151839005785728,0.06707116678893452,4.1158305046689705,2.2796488325673865,1.7105964670163196,4.001535928263676,1.0,0.12424355990362929,0.9270499062386457,-0.010280233705732703,0.08253874271070047,-2.485916630313382,3.14
266,0.10556450381054622,0.08151839005785773,0.06707116678893121,4.11583050466897,2.279648832567386,1.7105964670163198,4.001535928263681,1.0,0.12424355990363298,0.927049906238633,-0.010280233705707492,0.0825387427106958,-2.485916630313395,3.14
267,0.10556450381054486,0.08151839005785773,0.06707116678893121,4.115830504668969,2.279648832567386,1.7105964670163196,4.001535928263685,1.0,0.12424355990363622,0.9270499062386219,-0.010280233705684802,0.08253874271069173,-2.4859166303134064,3.14
268,0.10556450381054315,0.08151839005785773,0.06707116678892458,4.115830504668969,2.279648832567386,1.7105964670163196,4.001535928263689,1.0,0.12424355990363913,0.9270499062386118,-0.010280233705664445,0.08253874271068809,-2.4859166303134166,3.14
269,0.10556450381054217,0.08151839005785817,0.0670711667889279,4.115830504668968,2.2796488325673856,1.7105964670163192,4.001535928263692,1.0,0.12424355990364169,0.9270499062386027,-0.010280233705646158,0.08253874271068487,-2.485916630313426,3.14
270,0.10556450381054132,0.08151839005785862,0.06707116678892458,4.115830504668968,2.279648832567385,1.7105964670163194,4.001535928263696,1.0,0.12424355990364397,0.9270499062385944,-0.010280233705629728,0.08253874271068201,-2.4859166303134344,3.14
271,0.10556450381054056,0.08151839005785907,0.06707116678892458,4.115830504668967,2.2796488325673847,1.7105964670163196,4.001535928263698,1.0,0.12424355990364602,0.9270499062385869,-0.01028023370561493,0.08253874271067946,-2.485916630313442,3.14
272,0.10556450381053961,0.08151839005785907,0.06707116678891796,4.115830504668967,2.2796488325673847,1.7105964670163196,4.001535928263701,1.0,0.12424355990364787,0.9270499062385802,-0.010280233705601551,0.08253874271067717,-2.4859166303134486,3.14
273,0.10556450381053883,0.08151839005785907,0.06707116678891796,4.115830504668968,2.2796488325673847,1.7105964670163198,4.001535928263704,1.0,0.12424355990364952,0.9270499062385742,-0.010280233705589562,0.08253874271067511,-2.485916630313455,3.14
274,0.10556450381053833,0.08151839005785907,0.06707116678891796,4.115830504668969,2.2796488325673847,1.7105964670163198,4.001535928263706,1.0,0.12424355990365107,0.9270499062385689,-0.010280233705578767,0.08253874271067316,-2.48591663031346,3.14
275,0.10556450381053721,0.08151839005785862,0.06707116678891133,4.115830504668969,2.279648832567385,1.7105964670163196,4.001535928263708,1.0,0.12424355990365248,0.9270499062385642,-0.010280233705569047,0.08253874271067142,-2.485916630313465,3.14
276,0.10556450381053711,0.0815183900578595,0.06707116678891796,4.115830504668968,2.2796488325673843,1.7105964670163194,4.00153592826371,1.0,0.12424355990365378,0.9270499062385599,-0.010280233705560346,0.08253874271066974,-2.4859166303134694,3.14
277,0.10556450381053656,0.0815183900578595,0.06707116678891796,4.115830504668969,2.2796488325673843,1.7105964670163196,4.001535928263712,1.0,0.12424355990365483,0.9270499062385558,-0.010280233705552526,0.08253874271066843,-2.4859166303134734,3.14
278,0.10556450381053603,0.0815183900578595,0.06707116678891133,4.115830504668969,2.2796488325673843,1.7105964670163198,4.0015359282637135,1.0,0.12424355990365582,0.9270499062385522,-0.010280233705545445,0.08253874271066719,-2.485916630313477,3.14
279,0.10556450381053534,0.0815183900578595,0.06707116678891464,4.11583050466897,2.2796488325673843,1.7105964670163196,4.001535928263715,1.0,0.12424355990365672,0.9270499062385491,-0.010280233705539142,0.08253874271066605,-2.48591663031348,3.14
280,0.10556450381053512,0.0815183900578595,0.06707116678891133,4.115830504668969,2.2796488325673843,1.7105964670163198,4.001535928263716,1.0,0.1242435599036576,0.9270499062385461,-0.010280233705533435,0.08253874271066489,-2.485916630313483,3.14
281,0.10556450381053506,0.08151839005785996,0.06707116678891133,4.11583050466897,2.279648832567384,1.7105964670163198,4.001535928263717,1.0,0.12424355990365836,0.9270499062385436,-0.010280233705528235,0.08253874271066393,-2.485916630313486,3.14
282,0.10556450381053431,0.0815183900578595,0.06707116678891133,4.115830504668969,2.2796488325673843,1.7105964670163198,4.001535928263718,1.0,0.12424355990365903,0.9270499062385412,-0.010280233705523594,0.0825387427106631,-2.485916630313488,3.14
283,0.10556450381053403,0.0815183900578595,0.06707116678891133,4.115830504668969,2.2796488325673843,1.7105964670163198,4.001535928263719,1.0,0.12424355990365961,0.9270499062385391,-0.010280233705519469,0.08253874271066237,-2.4859166303134903,3.14
284,0.10556450381053413,0.08151839005785996,0.06707116678891133,4.11583050466897,2.279648832567384,1.7105964670163198,4.00153592826372,1.0,0.12424355990366015,0.9270499062385373,-0.010280233705515713,0.0825387427106617,-2.485916630313492,3.14
285,0.10556450381053364,0.0815183900578595,0.06707116678890471,4.115830504668968,2.2796488325673843,1.7105964670163198,4.00153592826372,1.0,0.12424355990366065,0.9270499062385357,-0.010280233705512358,0.08253874271066106,-2.485916630313494,3.14
286,0.10556450381053316,0.0815183900578595,0.06707116678891133,4.115830504668969,2.2796488325673843,1.7105964670163196,4.001535928263721,1.0,0.12424355990366107,0.9270499062385342,-0.01028023370550929,0.08253874271066054,-2.4859166303134956,3.14
287,0.10556450381053334,0.08151839005785995,0.06707116678890802,4.115830504668968,2.279648832567384,1.71059646701632,4.001535928263721,1.0,0.12424355990366145,0.9270499062385327,-0.01028023370550653,0.08253874271066002,-2.485916630313497,3.14
288,0.10556450381053332,0.08151839005785995,0.06707116678890471,4.115830504668969,2.279648832567384,1.71059646701632,4.0015359282637215,1.0,0.12424355990366175,0.9270499062385315,-0.010280233705504073,0.08253874271065971,-2.485916630313498,3.14
289,0.10556450381053312,0.08151839005785995,0.06707116678891133,4.115830504668969,2.279648832567384,1.7105964670163203,4.0015359282637215,1.0,0.12424355990366207,0.9270499062385302,-0.010280233705501865,0.08253874271065928,-2.485916630313499,3.14
290,0.10556450381053338,0.0815183900578604,0.06707116678890471,4.115830504668968,2.2796488325673834,1.7105964670163198,4.0015359282637215,1.0,0.12424355990366241,0.9270499062385293,-0.010280233705499863,0.08253874271065886,-2.4859166303135,3.14
291,0.10556450381053294,0.0815183900578604,0.06707116678890471,4.115830504668968,2.2796488325673834,1.7105964670163198,4.001535928263722,1.0,0.12424355990366259,0.9270499062385285,-0.010280233705498102,0.08253874271065868,-2.485916630313501,3.14
292,0.10556450381053328,0.0815183900578604,0.06707116678890471,4.115830504668969,2.2796488325673834,1.71059646701632,4.001535928263723,1.0,0.12424355990366277,0.9270499062385277,-0.01028023370549646,0.08253874271065847,-2.485916630313502,3.14
293,0.10556450381053227,0.0815183900578595,0.06707116678890802,4.115830504668969,2.2796488325673843,1.7105964670163198,4.001535928263723,1.0,0.124243559903663,0.9270499062385271,-0.010280233705494999,0.0825387427106582,-2.4859166303135027,3.14
294,0.10556450381053238,0.0815183900578595,0.06707116678890802,4.115830504668969,2.2796488325673843,1.7105964670163198,4.001535928263724,1.0,0.12424355990366319,0.9270499062385266,-0.010280233705493726,0.08253874271065795,-2.4859166303135036,3.14
295,0.10556450381053221,0.0815183900578595,0.06707116678890802,4.115830504668969,2.2796488325673843,1.7105964670163192,4.001535928263724,1.0,0.1242435599036634,0.9270499062385261,-0.01028023370549257,0.08253874271065768,-2.4859166303135045,3.14
296,0.10556450381053215,0.08151839005785996,0.06707116678890802,4.11583050466897,2.279648832567384,1.7105964670163194,4.001535928263725,1.0,0.1242435599036635,0.9270499062385256,-0.010280233705491498,0.08253874271065754,-2.485916630313505,3.14
297,0.10556450381053245,0.0815183900578604,0.06707116678890471,4.11583050466897,2.2796488325673834,1.7105964670163198,4.001535928263725,1.0,0.12424355990366368,0.9270499062385248,-0.01028023370549055,0.08253874271065725,-2.4859166303135054,3.14
298,0.10556450381053169,0.08151839005785996,0.06707116678890471,4.11583050466897,2.279648832567384,1.7105964670163196,4.001535928263725,1.0,0.12424355990366387,0.9270499062385245,-0.010280233705489633,0.08253874271065703,-2.485916630313506,3.14
299,0.10556450381053187,0.08151839005785996,0.06707116678890471,4.11583050466897,2.279648832567384,1.7105964670163194,4.001535928263725,1.0,0.12424355990366406,0.9270499062385241,-0.01028023370548881,0.08253874271065678,-2.4859166303135063,3.14
300,0.10556450381053234,0.08151839005785996,0.06707116678890471,4.11583050466897,2.279648832567384,1.7105964670163196,4.001535928263725,1.0,0.12424355990366415,0.9270499062385237,-0.010280233705488065,0.08253874271065668,-2.4859166303135063,3.14
301,0.10556450381053176,0.0815183900578595,0.06707116678890471,4.115830504668969,2.2796488325673843,1.7105964670163198,4.001535928263725,1.0,0.12424355990366422,0.9270499062385233,-0.010280233705487451,0.08253874271065662,-2.4859166303135067,3.14
302,0.10556450381053126,0.0815183900578595,0.06707116678890471,4.115830504668969,2.2796488325673843,1.7105964670163196,4.001535928263726,1.0,0.12424355990366427,0.9270499062385231,-0.010280233705486879,0.08253874271065656,-2.485916630313507,3.14
303,0.10556450381053208,0.08151839005785996,0.06707116678890471,4.11583050466897,2.279648832567384,1.7105964670163196,4.001535928263726,1.0,0.12424355990366438,0.9270499062385228,-0.010280233705486357,0.08253874271065641,-2.485916630313507,3.14
304,0.1055645038105317,0.0815183900578595,0.06707116678890802,4.11583050466897,2.2796488325673843,1.7105964670163196,4.001535928263726,1.0,0.1242435599036645,0.9270499062385227,-0.010280233705485895,0.08253874271065625,-2.4859166303135076,3.14
305,0.10556450381053209,0.08151839005785996,0.06707116678890471,4.11583050466897,2.279648832567384,1.7105964670163196,4.001535928263726,1.0,0.12424355990366456,0.9270499062385223,-0.010280233705485513,0.08253874271065616,-2.4859166303135076,3.14
306,0.10556450381053178,0.0815183900578595,0.06707116678890471,4.11583050466897,2.2796488325673843,1.71059646701632,4.001535928263726,1.0,0.12424355990366456,0.9270499062385221,-0.010280233705485212,0.08253874271065616,-2.4859166303135076,3.14
307,0.10556450381053159,0.0815183900578595,0.06707116678890471,4.11583050466897,2.2796488325673843,1.7105964670163198,4.001535928263726,1.0,0.1242435599036646,0.927049906238522,-0.010280233705484976,0.0825387427106561,-2.485916630313508,3.14
308,0.10556450381053224,0.08151839005785996,0.06707116678890471,4.11583050466897,2.279648832567384,1.7105964670163198,4.001535928263726,1.0,0.12424355990366465,0.9270499062385218,-0.010280233705484625,0.08253874271065606,-2.485916630313508,3.14
309,0.10556450381053138,0.0815183900578595,0.06707116678890471,4.11583050466897,2.2796488325673843,1.7105964670163196,4.001535928263726,1.0,0.12424355990366465,0.9270499062385218,-0.01028023370548438,0.08253874271065607,-2.485916630313508,3.14
310,0.10556450381053152,0.0815183900578595,0.06707116678890471,4.11583050466897,2.2796488325673843,1.7105964670163196,4.001535928263726,1.0,0.12424355990366472,0.9270499062385218,-0.010280233705484174,0.08253874271065598,-2.4859166303135085,3.14
311,0.10556450381053184,0.08151839005785996,0.06707116678890802,4.11583050466897,2.279648832567384,1.7105964670163196,4.001535928263726,1.0,0.12424355990366473,0.9270499062385217,-0.010280233705483961,0.08253874271065595,-2.4859166303135085,3.14
312,0.10556450381053137,0.0815183900578595,0.06707116678890471,4.11583050466897,2.2796488325673843,1.7105964670163196,4.001535928263726,1.0,0.12424355990366472,0.9270499062385216,-0.010280233705483725,0.08253874271065598,-2.4859166303135085,3.14
313,0.10556450381053185,0.08151839005785996,0.06707116678890802,4.11583050466897,2.279648832567384,1.7105964670163198,4.001535928263726,1.0,0.12424355990366472,0.9270499062385213,-0.010280233705483598,0.08253874271065596,-2.4859166303135085,3.14
314,0.10556450381053167,0.08151839005785996,0.06707116678890802,4.11583050466897,2.279648832567384,1.7105964670163196,4.001535928263726,1.0,0.12424355990366474,0.9270499062385213,-0.010280233705483487,0.08253874271065591,-2.4859166303135085,3.14
315,0.10556450381053183,0.08151839005785996,0.06707116678890471,4.11583050466897,2.279648832567384,1.7105964670163196,4.001535928263726,1.0,0.12424355990366477,0.9270499062385213,-0.01028023370548338,0.08253874271065587,-2.4859166303135085,3.14
316,0.1055645038105315,0.0815183900578595,0.06707116678890471,4.11583050466897,2.2796488325673843,1.7105964670163196,4.001535928263726,1.0,0.12424355990366479,0.9270499062385212,-0.010280233705483253,0.08253874271065588,-2.4859166303135085,3.14
317,0.10556450381053153,0.0815183900578595,0.06707116678890471,4.11583050466897,2.2796488325673843,1.7105964670163196,4.001535928263726,1.0,0.12424355990366481,0.9270499062385212,-0.01028023370548315,0.08253874271065582,-2.4859166303135085,3.14
318,0.10556450381053133,0.0815183900578595,0.06707116678890471,4.11583050466897,2.2796488325673843,1.7105964670163196,4.001535928263726,1.0,0.12424355990366487,0.9270499062385212,-0.01028023370548309,0.08253874271065573,-2.4859166303135085,3.14
319,0.10556450381053145,0.0815183900578595,0.06707116678890471,4.11583050466897,2.2796488325673843,1.7105964670163196,4.001535928263726,1.0,0.12424355990366492,0.9270499062385212,-0.010280233705483033,0.08253874271065566,-2.4859166303135085,3.14
320,0.10556450381053126,0.0815183900578595,0.06707116678890471,4.11583050466897,2.2796488325673843,1.7105964670163196,4.001535928263726,1.0,0.12424355990366495,0.9270499062385212,-0.010280233705482983,0.08253874271065559,-2.4859166303135085,3.14
321,0.10556450381053141,0.0815183900578595,0.06707116678890471,4.11583050466897,2.2796488325673843,1.7105964670163196,4.001535928263726,1.0,0.12424355990366498,0.9270499062385212,-0.010280233705482944,0.08253874271065555,-2.4859166303135085,3.14
322,0.10556450381053172,0.08151839005785996,0.06707116678890471,4.11583050466897,2.279648832567384,1.7105964670163196,4.001535928263726,1.0,0.124243559903665,0.9270499062385211,-0.010280233705482929,0.08253874271065552,-2.4859166303135085,3.14
323,0.10556450381053155,0.08151839005785996,0.06707116678890471,4.11583050466897,2.279648832567384,1.7105964670163196,4.001535928263726,1.0,0.12424355990366501,0.9270499062385211,-0.010280233705482903,0.0825387427106555,-2.4859166303135085,3.14
324,0.10556450381053153,0.08151839005785996,0.06707116678890471,4.11583050466897,2.279648832567384,1.7105964670163196,4.001535928263726,1.0,0.12424355990366502,0.9270499062385211,-0.01028023370548288,0.08253874271065549,-2.4859166303135085,3.14
325,0.10556450381053102,0.08151839005785996,0.06707116678890471,4.11583050466897,2.279648832567384,1.7105964670163196,4.001535928263726,1.0,0.12424355990366502,0.9270499062385211,-0.010280233705482861,0.08253874271065546,-2.4859166303135085,3.14
326,0.10556450381053116,0.08151839005785996,0.06707116678890471,4.11583050466897,2.279648832567384,1.7105964670163196,4.001535928263726,1.0,0.12424355990366506,0.9270499062385211,-0.010280233705482858,0.08253874271065541,-2.4859166303135085,3.14
327,0.10556450381053115,0.08151839005785996,0.06707116678890471,4.11583050466897,2.279648832567384,1.7105964670163196,4.001535928263726,1.0,0.12424355990366509,0.9270499062385211,-0.010280233705482858,0.08253874271065538,-2.4859166303135085,3.14
328,0.10556450381053176,0.0815183900578604,0.06707116678890471,4.11583050466897,2.2796488325673834,1.7105964670163198,4.001535928263726,1.0,0.1242435599036651,0.927049906238521,-0.01028023370548285,0.08253874271065535,-2.4859166303135085,3.14
329,0.10556450381053215,0.0815183900578604,0.06707116678890471,4.11583050466897,2.2796488325673834,1.7105964670163198,4.001535928263726,1.0,0.12424355990366506,0.927049906238521,-0.010280233705482781,0.08253874271065545,-2.4859166303135085,3.14
330,0.10556450381053138,0.0815183900578595,0.06707116678890471,4.11583050466897,2.2796488325673843,1.7105964670163196,4.001535928263726,1.0,0.12424355990366502,0.9270499062385211,-0.010280233705482755,0.08253874271065552,-2.485916630313509,3.14
331,0.1055645038105317,0.08151839005785996,0.06707116678890471,4.11583050466897,2.279648832567384,1.7105964670163194,4.001535928263726,1.0,0.12424355990366506,0.9270499062385211,-0.01028023370548272,0.08253874271065545,-2.485916630313509,3.14
332,0.10556450381053147,0.0815183900578595,0.06707116678890471,4.11583050466897,2.2796488325673843,1.7105964670163194,4.001535928263726,1.0,0.12424355990366509,0.9270499062385211,-0.010280233705482702,0.08253874271065542,-2.485916630313509,3.14
333,0.10556450381053137,0.0815183900578595,0.06707116678890471,4.11583050466897,2.2796488325673843,1.7105964670163194,4.001535928263726,1.0,0.12424355990366508,0.9270499062385211,-0.01028023370548267,0.08253874271065545,-2.485916630313509,3.14
334,0.10556450381053116,0.0815183900578595,0.06707116678890471,4.11583050466897,2.2796488325673843,1.7105964670163194,4.001535928263726,1.0,0.1242435599036651,0.9270499062385211,-0.010280233705482655,0.08253874271065538,-2.485916630313509,3.14
335,0.10556450381053106,0.0815183900578595,0.06707116678890471,4.11583050466897,2.2796488325673843,1.7105964670163194,4.001535928263726,1.0,0.12424355990366515,0.9270499062385211,-0.010280233705482651,0.08253874271065532,-2.485916630313509,3.14
336,0.1055645038105316,0.08151839005785996,0.06707116678890471,4.11583050466897,2.279648832567384,1.7105964670163196,4.001535928263726,1.0,0.12424355990366512,0.927049906238521,-0.010280233705482648,0.08253874271065535,-2.485916630313509,3.14
337,0.10556450381053145,0.08151839005785996,0.06707116678890139,4.11583050466897,2.279648832567384,1.7105964670163196,4.001535928263726,1.0,0.12424355990366508,0.927049906238521,-0.010280233705482613,0.08253874271065542,-2.485916630313509,3.14
338,0.10556450381053172,0.08151839005785996,0.06707116678890471,4.11583050466897,2.279648832567384,1.7105964670163196,4.001535928263726,1.0,0.12424355990366505,0.927049906238521,-0.010280233705482568,0.08253874271065549,-2.485916630313509,3.14
339,0.10556450381053137,0.08151839005785995,0.06707116678890139,4.11583050466897,2.279648832567384,1.71059646701632,4.001535928263726,1.0,0.12424355990366504,0.9270499062385209,-0.010280233705482575,0.08253874271065549,-2.485916630313509,3.14
340,0.10556450381053169,0.08151839005785995,0.06707116678890471,4.11583050466897,2.279648832567384,1.71059646701632,4.001535928263726,1.0,0.12424355990366505,0.9270499062385208,-0.010280233705482582,0.08253874271065546,-2.485916630313509,3.14
341,0.10556450381053147,0.08151839005785995,0.06707116678890471,4.11583050466897,2.279648832567384,1.71059646701632,4.001535928263726,1.0,0.12424355990366509,0.9270499062385209,-0.010280233705482585,0.08253874271065542,-2.4859166303135094,3.14
342,0.10556450381053181,0.08151839005785995,0.06707116678890471,4.11583050466897,2.279648832567384,1.71059646701632,4.001535928263726,1.0,0.12424355990366509,0.9270499062385209,-0.01028023370548257,0.08253874271065545,-2.4859166303135094,3.14
343,0.10556450381053172,0.08151839005785995,0.06707116678890471,4.11583050466897,2.279648832567384,1.71059646701632,4.001535928263726,1.0,0.12424355990366506,0.9270499062385209,-0.01028023370548252,0.0825387427106555,-2.4859166303135094,3.14
344,0.10556450381053198,0.08151839005785996,0.06707116678890471,4.11583050466897,2.279648832567384,1.7105964670163196,4.001535928263726,1.0,0.12424355990366512,0.927049906238521,-0.010280233705482459,0.08253874271065544,-2.4859166303135094,3.14
345,0.10556450381053156,0.0815183900578595,0.06707116678890471,4.11583050466897,2.2796488325673843,1.7105964670163196,4.001535928263726,1.0,0.12424355990366508,0.927049906238521,-0.010280233705482433,0.08253874271065552,-2.4859166303135094,3.14
346,0.10556450381053137,0.0815183900578595,0.06707116678890471,4.11583050466897,2.2796488325673843,1.7105964670163196,4.001535928263726,1.0,0.12424355990366512,0.927049906238521,-0.010280233705482407,0.08253874271065546,-2.4859166303135094,3.14
347,0.10556450381053165,0.0815183900578595,0.06707116678890471,4.11583050466897,2.2796488325673843,1.7105964670163196,4.001535928263726,1.0,0.12424355990366512,0.927049906238521,-0.010280233705482384,0.08253874271065545,-2.4859166303135094,3.14
348,0.10556450381053156,0.0815183900578595,0.06707116678890471,4.11583050466897,2.2796488325673843,1.7105964670163198,4.001535928263726,1.0,0.12424355990366506,0.9270499062385209,-0.01028023370548238,0.08253874271065552,-2.4859166303135094,3.14
349,0.10556450381053155,0.0815183900578595,0.06707116678890471,4.11583050466897,2.2796488325673843,1.7105964670163198,4.001535928263726,1.0,0.12424355990366509,0.9270499062385209,-0.010280233705482358,0.08253874271065546,-2.4859166303135094,3.14
350,0.10556450381053128,0.08151839005785996,0.06707116678890471,4.11583050466897,2.279648832567384,1.7105964670163198,4.001535928263726,1.0,0.1242435599036651,0.9270499062385208,-0.010280233705482327,0.08253874271065544,-2.4859166303135094,3.14
351,0.10556450381053113,0.08151839005785996,0.06707116678890471,4.11583050466897,2.279648832567384,1.7105964670163198,4.001535928263726,1.0,0.12424355990366508,0.9270499062385208,-0.01028023370548233,0.08253874271065546,-2.4859166303135094,3.14
352,0.10556450381053102,0.08151839005785996,0.06707116678890471,4.11583050466897,2.279648832567384,1.7105964670163198,4.001535928263726,1.0,0.12424355990366506,0.9270499062385208,-0.01028023370548233,0.08253874271065548,-2.4859166303135094,3.14
353,0.10556450381053162,0.0815183900578595,0.06707116678890471,4.11583050466897,2.2796488325673843,1.7105964670163198,4.001535928263726,1.0,0.12424355990366513,0.9270499062385209,-0.01028023370548233,0.08253874271065538,-2.4859166303135094,3.14
354,0.10556450381053181,0.08151839005785996,0.06707116678890471,4.11583050466897,2.279648832567384,1.7105964670163196,4.001535928263726,1.0,0.1242435599036651,0.927049906238521,-0.01028023370548233,0.08253874271065542,-2.4859166303135094,3.14
355,0.10556450381053122,0.0815183900578595,0.06707116678890471,4.11583050466897,2.2796488325673843,1.7105964670163196,4.001535928263726,1.0,0.12424355990366505,0.927049906238521,-0.010280233705482353,0.0825387427106555,-2.4859166303135094,3.14
356,0.10556450381053066,0.0815183900578595,0.06707116678890471,4.11583050466897,2.2796488325673843,1.7105964670163192,4.001535928263726,1.0,0.1242435599036651,0.9270499062385211,-0.010280233705482299,0.08253874271065541,-2.4859166303135094,3.14
357,0.1055645038105316,0.08151839005785996,0.06707116678890471,4.11583050466897,2.279648832567384,1.7105964670163198,4.001535928263726,1.0,0.12424355990366513,0.9270499062385209,-0.01028023370548236,0.08253874271065535,-2.4859166303135094,3.14
358,0.10556450381053163,0.0815183900578595,0.06707116678890471,4.11583050466897,2.2796488325673843,1.7105964670163198,4.001535928263726,1.0,0.12424355990366513,0.9270499062385209,-0.010280233705482325,0.0825387427106554,-2.4859166303135094,3.14
359,0.10556450381053165,0.0815183900578595,0.06707116678890471,4.11583050466897,2.2796488325673843,1.7105964670163196,4.001535928263726,1.0,0.1242435599036651,0.927049906238521,-0.010280233705482329,0.08253874271065544,-2.4859166303135094,3.14
360,0.10556450381053172,0.08151839005785996,0.06707116678890471,4.11583050466897,2.279648832567384,1.7105964670163196,4.001535928263726,1.0,0.12424355990366506,0.927049906238521,-0.010280233705482351,0.08253874271065549,-2.4859166303135094,3.14
361,0.1055645038105312,0.08151839005785996,0.06707116678890471,4.11583050466897,2.279648832567384,1.7105964670163194,4.001535928263726,1.0,0.12424355990366509,0.927049906238521,-0.010280233705482313,0.08253874271065546,-2.4859166303135094,3.14
362,0.10556450381053148,0.0815183900578595,0.06707116678890471,4.11583050466897,2.2796488325673843,1.7105964670163198,4.001535928263726,1.0,0.12424355990366509,0.9270499062385209,-0.010280233705482332,0.08253874271065545,-2.4859166303135094,3.14
363,0.10556450381053188,0.08151839005785996,0.06707116678890471,4.11583050466897,2.279648832567384,1.7105964670163196,4.001535928263726,1.0,0.12424355990366508,0.9270499062385209,-0.0102802337054823,0.08253874271065548,-2.4859166303135094,3.14
364,0.1055645038105317,0.08151839005785996,0.06707116678890802,4.11583050466897,2.279648832567384,1.7105964670163196,4.001535928263726,1.0,0.12424355990366505,0.9270499062385208,-0.010280233705482313,0.0825387427106555,-2.4859166303135094,3.14
365,0.10556450381053141,0.08151839005785996,0.06707116678890471,4.11583050466897,2.279648832567384,1.7105964670163198,4.001535928263726,1.0,0.12424355990366502,0.9270499062385206,-0.010280233705482325,0.08253874271065552,-2.4859166303135094,3.14
366,0.10556450381053153,0.08151839005785996,0.06707116678890471,4.11583050466897,2.279648832567384,1.7105964670163198,4.001535928263726,1.0,0.12424355990366506,0.9270499062385206,-0.01028023370548228,0.08253874271065546,-2.4859166303135094,3.14
367,0.10556450381053145,0.08151839005785996,0.06707116678890471,4.11583050466897,2.279648832567384,1.7105964670163198,4.001535928263726,1.0,0.1242435599036651,0.9270499062385207,-0.010280233705482245,0.08253874271065542,-2.4859166303135094,3.14
368,0.10556450381053153,0.08151839005785996,0.06707116678890471,4.11583050466897,2.279648832567384,1.7105964670163196,4.001535928263726,1.0,0.12424355990366509,0.9270499062385208,-0.010280233705482245,0.08253874271065545,-2.4859166303135094,3.14
369,0.10556450381053153,0.08151839005785996,0.06707116678890471,4.11583050466897,2.279648832567384,1.7105964670163196,4.001535928263726,1.0,0.12424355990366509,0.9270499062385208,-0.010280233705482245,0.08253874271065545,-2.4859166303135094,3.14
370,0.10556450381053153,0.08151839005785996,0.06707116678890471,4.11583050466897,2.279648832567384,1.7105964670163196,4.001535928263726,1.0,0.12424355990366509,0.9270499062385208,-0.010280233705482245,0.08253874271065545,-2.4859166303135094,3.14
371,0.10556450381053153,0.08151839005785996,0.06707116678890471,4.11583050466897,2.279648832567384,1.7105964670163196,4.001535928263726,1.0,0.12424355990366509,0.9270499062385208,-0.010280233705482245,0.08253874271065545,-2.4859166303135094,3.14
372,0.10556450381053153,0.08151839005785996,0.06707116678890471,4.11583050466897,2.279648832567384,1.7105964670163196,4.001535928263726,1.0,0.12424355990366509,0.9270499062385208,-0.010280233705482245,0.08253874271065545,-2.4859166303135094,3.14
373,0.10556450381053153,0.08151839005785996,0.06707116678890471,4.11583050466897,2.279648832567384,1.7105964670163196,4.001535928263726,1.0,0.12424355990366509,0.9270499062385208,-0.010280233705482245,0.08253874271065545,-2.4859166303135094,3.14
374,0.10556450381053153,0.08151839005785996,0.06707116678890471,4.11583050466897,2.279648832567384,1.7105964670163196,4.001535928263726,1.0,0.12424355990366509,0.9270499062385208,-0.010280233705482245,0.08253874271065545,-2.4859166303135094,3.14
375,0.10556450381053153,0.08151839005785996,0.06707116678890471,4.11583050466897,2.279648832567384,1.7105964670163196,4.001535928263726,1.0,0.12424355990366509,0.9270499062385208,-0.010280233705482245,0.08253874271065545,-2.4859166303135094,3.14
376,0.10556450381053153,0.08151839005785996,0.06707116678890471,4.11583050466897,2.279648832567384,1.7105964670163196,4.001535928263726,1.0,0.12424355990366509,0.9270499062385208,-0.010280233705482245,0.08253874271065545,-2.4859166303135094,3.14
377,0.10556450381053153,0.08151839005785996,0.06707116678890471,4.11583050466897,2.279648832567384,1.7105964670163196,4.001535928263726,1.0,0.12424355990366509,0.9270499062385208,-0.010280233705482245,0.08253874271065545,-2.4859166303135094,3.14
378,0.10556450381053153,0.08151839005785996,0.06707116678890471,4.11583050466897,2.279648832567384,1.7105964670163196,4.001535928263726,1.0,0.12424355990366509,0.9270499062385208,-0.010280233705482245,0.08253874271065545,-2.4859166303135094,3.14
379,0.10556450381053153,0.08151839005785996,0.06707116678890471,4.11583050466897,2.279648832567384,1.7105964670163196,4.001535928263726,1.0,0.12424355990366509,0.9270499062385208,-0.010280233705482245,0.08253874271065545,-2.4859166303135094,3.14
380,0.10556450381053153,0.08151839005785996,0.06707116678890471,4.11583050466897,2.279648832567384,1.7105964670163196,4.001535928263726,1.0,0.12424355990366509,0.9270499062385208,-0.010280233705482245,0.08253874271065545,-2.4859166303135094,3.14
381,0.10556450381053153,0.08151839005785996,0.06707116678890471,4.11583050466897,2.279648832567384,1.7105964670163196,4.001535928263726,1.0,0.12424355990366509,0.9270499062385208,-0.010280233705482245,0.08253874271065545,-2.4859166303135094,3.14
382,0.10556450381053153,0.08151839005785996,0.06707116678890471,4.11583050466897,2.279648832567384,1.7105964670163196,4.001535928263726,1.0,0.12424355990366509,0.9270499062385208,-0.010280233705482245,0.08253874271065545,-2.4859166303135094,3.14
383,0.10556450381053153,0.08151839005785996,0.06707116678890471,4.11583050466897,2.279648832567384,1.7105964670163196,4.001535928263726,1.0,0.12424355990366509,0.9270499062385208,-0.010280233705482245,0.08253874271065545,-2.4859166303135094,3.14
384,0.10556450381053153,0.08151839005785996,0.06707116678890471,4.11583050466897,2.279648832567384,1.7105964670163196,4.001535928263726,1.0,0.12424355990366509,0.9270499062385208,-0.010280233705482245,0.08253874271065545,-2.4859166303135094,3.14
385,0.10556450381053153,0.08151839005785996,0.06707116678890471,4.11583050466897,2.279648832567384,1.7105964670163196,4.001535928263726,1.0,0.12424355990366509,0.9270499062385208,-0.010280233705482245,0.08253874271065545,-2.4859166303135094,3.14
386,0.10556450381053153,0.08151839005785996,0.06707116678890471,4.11583050466897,2.279648832567384,1.7105964670163196,4.001535928263726,1.0,0.12424355990366509,0.9270499062385208,-0.010280233705482245,0.08253874271065545,-2.4859166303135094,3.14
387,0.10556450381053153,0.08151839005785996,0.06707116678890471,4.11583050466897,2.279648832567384,1.7105964670163196,4.001535928263726,1.0,0.12424355990366509,0.9270499062385208,-0.010280233705482245,0.08253874271065545,-2.4859166303135094,3.14
388,0.10556450381053153,0.08151839005785996,0.06707116678890471,4.11583050466897,2.279648832567384,1.7105964670163196,4.001535928263726,1.0,0.12424355990366509,0.9270499062385208,-0.010280233705482245,0.08253874271065545,-2.4859166303135094,3.14
389,0.10556450381053153,0.08151839005785996,0.06707116678890471,4.11583050466897,2.279648832567384,1.7105964670163196,4.001535928263726,1.0,0.12424355990366509,0.9270499062385208,-0.010280233705482245,0.08253874271065545,-2.4859166303135094,3.14
390,0.10556450381053153,0.08151839005785996,0.06707116678890471,4.11583050466897,2.279648832567384,1.7105964670163196,4.001535928263726,1.0,0.12424355990366509,0.9270499062385208,-0.010280233705482245,0.08253874271065545,-2.4859166303135094,3.14
391,0.10556450381053153,0.08151839005785996,0.06707116678890471,4.11583050466897,2.279648832567384,1.7105964670163196,4.001535928263726,1.0,0.12424355990366509,0.9270499062385208,-0.010280233705482245,0.08253874271065545,-2.4859166303135094,3.14
392,0.10556450381053153,0.08151839005785996,0.06707116678890471,4.11583050466897,2.279648832567384,1.7105964670163196,4.001535928263726,1.0,0.12424355990366509,0.9270499062385208,-0.010280233705482245,0.08253874271065545,-2.4859166303135094,3.14
393,0.10556450381053153,0.08151839005785996,0.06707116678890471,4.11583050466897,2.279648832567384,1.7105964670163196,4.001535928263726,1.0,0.12424355990366509,0.9270499062385208,-0.010280233705482245,0.08253874271065545,-2.4859166303135094,3.14
394,0.10556450381053153,0.08151839005785996,0.06707116678890471,4.11583050466897,2.279648832567384,1.7105964670163196,4.001535928263726,1.0,0.12424355990366509,0.9270499062385208,-0.010280233705482245,0.08253874271065545,-2.4859166303135094,3.14
395,0.10556450381053153,0.08151839005785996,0.06707116678890471,4.11583050466897,2.279648832567384,1.7105964670163196,4.001535928263726,1.0,0.12424355990366509,0.9270499062385208,-0.010280233705482245,0.08253874271065545,-2.4859166303135094,3.14
396,0.10556450381053153,0.08151839005785996,0.06707116678890471,4.11583050466897,2.279648832567384,1.7105964670163196,4.001535928263726,1.0,0.12424355990366509,0.9270499062385208,-0.010280233705482245,0.08253874271065545,-2.4859166303135094,3.14
397,0.10556450381053153,0.08151839005785996,0.06707116678890471,4.11583050466897,2.279648832567384,1.7105964670163196,4.001535928263726,1.0,0.12424355990366509,0.9270499062385208,-0.010280233705482245,0.08253874271065545,-2.4859166303135094,3.14
398,0.10556450381053153,0.08151839005785996,0.06707116678890471,4.11583050466897,2.279648832567384,1.7105964670163196,4.001535928263726,1.0,0.12424355990366509,0.9270499062385208,-0.010280233705482245,0.08253874271065545,-2.4859166303135094,3.14
399,0.10556450381053153,0.08151839005785996,0.06707116678890471,4.11583050466897,2.279648832567384,1.7105964670163196,4.001535928263726,1.0,0.12424355990366509,0.9270499062385208,-0.010280233705482245,0.08253874271065545,-2.4859166303135094,3.14
400,0.10556450381053153,0.08151839005785996,0.06707116678890471,4.11583050466897,2.279648832567384,1.7105964670163196,4.001535928263726,1.0,0.12424355990366509,0.9270499062385208,-0.010280233705482245,0.08253874271065545,-2.4859166303135094,3.14
401,0.10556450381053153,0.08151839005785996,0.06707116678890471,4.11583050466897,2.279648832567384,1.7105964670163196,4.001535928263726,1.0,0.12424355990366509,0.9270499062385208,-0.010280233705482245,0.08253874271065545,-2.4859166303135094,3.14
402,0.10556450381053153,0.08151839005785996,0.06707116678890471,4.11583050466897,2.279648832567384,1.7105964670163196,4.001535928263726,1.0,0.12424355990366509,0.9270499062385208,-0.010280233705482245,0.08253874271065545,-2.4859166303135094,3.14
403,0.10556450381053153,0.08151839005785996,0.06707116678890471,4.11583050466897,2.279648832567384,1.7105964670163196,4.001535928263726,1.0,0.12424355990366509,0.9270499062385208,-0.010280233705482245,0.08253874271065545,-2.4859166303135094,3.14
404,0.10556450381053153,0.08151839005785996,0.06707116678890471,4.11583050466897,2.279648832567384,1.7105964670163196,4.001535928263726,1.0,0.12424355990366509,0.9270499062385208,-0.010280233705482245,0.08253874271065545,-2.4859166303135094,3.14
405,0.10556450381053153,0.08151839005785996,0.06707116678890471,4.11583050466897,2.279648832567384,1.7105964670163196,4.001535928263726,1.0,0.12424355990366509,0.9270499062385208,-0.010280233705482245,0.08253874271065545,-2.4859166303135094,3.14
406,0.10556450381053153,0.08151839005785996,0.06707116678890471,4.11583050466897,2.279648832567384,1.7105964670163196,4.001535928263726,1.0,0.12424355990366509,0.9270499062385208,-0.010280233705482245,0.08253874271065545,-2.4859166303135094,3.14
