jkpark150901/flame_robotics_drt/experiment/inspection_ik/session_20260722_142108/collision/inspection_ik_20260722_142142_rb20_1900es_normalized_fallback_collision.csv
iteration,err_norm,position_error,orientation_error,tcp_x,tcp_y,tcp_z,q0_rt_joint_linear_track,q1_rt_joint_carriage,q2_rt_base,q3_rt_shoulder,q4_rt_elbow,q5_rt_wrist1,q6_rt_wrist2,q7_rt_wrist3
0,9.340190670551344,6.11935355849479,2.973021167740329,0.267,-3.2807478955731993e-13,2.541,0.0,0.0,0.0,0.0,0.0,0.0,0.0,0.0
1,8.684102175423428,5.52842154909994,2.9861455197928817,0.5239162180489778,1.327333811916687,2.0328641838558776,0.20311180821688118,0.08767381118983687,-0.0511369483052095,0.7728787783387157,0.00785937104368503,-0.10905367179534177,-0.7571600362513458,-0.10905367179534177
2,4.742826051899188,3.3656611891138923,2.8581336567292452,3.405678842039865,0.14342864669126734,1.138242734108203,1.7453921338325324,1.0,1.0707158619546564,-1.1940740901604538,-0.24215873650122563,1.1466051407082636,1.5752419586379514,-2.220184053227792
3,3.9262053504428676,2.9004139163222744,2.2542527955850638,3.4372578778858256,0.72534891715583,2.092221706547342,2.1937792312972855,0.9959025804479791,1.3349295756636967,-0.40009764638509804,-0.5059116815142148,1.059143990524952,0.8642516367784252,-3.14
4,4.53211264077026,2.385863790602257,2.9029812403510014,3.8811053541141893,1.0507142648092576,2.4227367966146525,3.858423566830414,1.0,1.5209398382520725,0.458998944733385,-0.6493450402239732,2.280734855007542,0.2583148176519878,-3.14
5,6.420844655182054,4.856899158711868,2.3590248559565703,1.6353778754734227,1.1242017491301415,0.15087313595958796,0.37295431022884795,1.0,1.6202885634940942,-2.9956729806244535,1.805807784683747,2.6737249783708923,-0.07664962279671567,-3.14
6,10.485275254820152,6.487972089991459,3.10729461465571,0.22654206465867932,-0.8017017526366513,1.390152653026818,0.08196462649855107,-1.0,3.14,-1.1954693466677435,2.158335834711543,0.9269796107263397,3.0330686497782042,-2.487950771080986
7,7.464401504525008,5.041867541071927,2.9027138008350706,2.4052566670541458,-1.1204518422880698,0.5565160308829322,2.2613033778587157,-1.0,3.14,-0.4061144496989505,3.0847333885171597,-0.512110642879845,-0.17586246392119298,-2.3859494824342384
8,7.123980337388712,5.099343620764713,2.5209369380483966,1.5744439697476456,-0.050225765687663806,0.686552939835164,1.4635433422628112,0.04306090944493102,2.739301106965911,-1.2975115724846544,3.14,-0.28010920035274356,-0.6426035501552166,-1.9699153794174795
9,6.377327057188366,4.022829882171134,2.8314313971192027,2.394516820719574,0.8527388410077859,0.7610432484364019,2.211861313337435,0.7582873225408326,2.3189113977550937,-2.1006973527807866,3.14,0.10900208630098457,-1.4442228565512378,-1.7111178019281745
10,5.015284813930402,3.940325720718551,1.933527699257625,2.1496407107714695,1.346657417061916,1.6579081096038206,0.8197738750130008,0.34963553243334994,2.264315007036736,-1.24895988851863,0.585665764581107,-0.3054099516861839,-0.6149997353175233,-1.9341634759033384
11,4.046231233964232,3.272387132415104,1.669508900882052,2.887924683309095,1.123920409443617,2.3725473258789602,2.6099216529136484,0.9208461398183017,3.0219373618289165,-0.03839216153373903,-0.21952144406948415,-1.928849943987993,-1.7305908755156296,-0.8509867333889076
12,3.4835956083010995,2.8540999760674985,1.9373908055208031,3.7335438870330657,0.9555891687001724,0.7345386067829954,3.592748851288931,1.0,2.4013906350620267,-2.557641972848894,3.14,-1.7690816948417691,-0.4309327982920266,-3.14
13,2.4786878250037776,2.1319181515872017,1.2629603894697397,4.214920577277908,1.1657062363643838,1.3337313392065981,3.7896883178827907,1.0,2.3330321514049053,-1.6095747030838203,2.250628229187688,-2.037167483831722,-1.0849114682474403,-3.0346546868264923
14,1.746781330410674,1.4767835939187748,0.9310773473163451,4.78823931862638,1.399424229825469,1.5574970442262754,4.20777964513144,1.0,2.4210034739038795,-1.463447421280455,1.7372530781778321,-2.383285632870334,-1.6096065651117009,-2.7491715044430682
15,1.1898665914534352,1.0160582637290276,0.6180788107264126,5.200430959671965,1.5525716807468817,1.7182453618504885,4.600455654404568,1.0,2.531766995347453,-1.275021702825933,1.3671104779282366,-2.416519481351531,-1.999645598878009,-2.754429875743183
16,0.8177365201344748,0.7079740987116618,0.40849590460903745,5.477912716743616,1.6669762331823081,1.8164421674583808,4.899188838299849,1.0,2.6240440199721102,-1.1361808457033995,1.089540268821288,-2.4062615180377045,-2.2807721201597104,-2.7256129831752545
17,0.5743804046911782,0.5062227798314797,0.27090218644577846,5.659882963132331,1.748136879600339,1.8831796793368623,5.132932120337683,1.0,2.715005937657446,-1.024443100656262,0.8736680060357931,-2.381770409158326,-2.4788077234630865,-2.667572305530904
18,0.4186919664561001,0.37750454936284106,0.18076652965209006,5.778957998001812,1.801665686689454,1.9309599206292651,5.323002042041669,1.0,2.807436673736549,-0.9323792259424094,0.7035718038918045,-2.3552302062369592,-2.6196460631269987,-2.5919528383660198
19,0.32345254126814466,0.29972021358536494,0.12139436277093421,5.8570429893764056,1.8336867443538238,1.965604773269569,5.479429819954343,1.0,2.8980228271549344,-0.8565642182439934,0.5679028034964249,-2.33086900636265,-2.722854002833975,-2.5092413107700415
20,0.270474701444975,0.2577147641718528,0.08194479815910988,5.908288546007021,1.849470040640897,1.9906785170738797,5.606483400345859,1.0,2.9815995873963805,-0.7945185997677644,0.45909552425945765,-2.3085848703565266,-2.800544162986015,-2.4272822050438476
21,0.2462830957262863,0.23993416025561934,0.05545210405211046,5.941840825884054,1.8535106419984348,2.0087587805408087,5.7056212584620365,1.0,3.0527753353102014,-0.7447023553263749,0.3735105818115364,-2.2866393217383734,-2.858811104281788,-2.3518657168554493
22,0.23961514976725043,0.23665569133486883,0.037463935601299785,5.963612487339379,1.8502572792249765,2.021758829131109,5.777586780078166,1.0,3.107317351041738,-0.7063505063443244,0.3096777839550948,-2.263451609209408,-2.900392864324177,-2.2869854060479793
23,0.2411475013710057,0.23953192570440107,0.027802966614516502,5.981083085095461,1.8441937322596629,2.0310534482255544,5.8250719124024,1.0,3.14,-0.6784203480692982,0.26519053831967465,-2.2384710153241043,-2.9277224538401785,-2.233957567842833
24,0.2463549205035557,0.24325323370678567,0.03887400350867917,6.0088970700186435,1.8393026703079354,2.0376342156920173,5.854177201648681,1.0,3.14,-0.6587725851325498,0.2351853907076816,-2.2124930702202303,-2.9445930736883614,-2.1912134804890684
25,0.25290112796678477,0.2480856427943021,0.04899172175349905,6.027930330747383,1.8355939220554787,2.0422465253526174,5.874042411183212,1.0,3.14,-0.6443784895353013,0.2131587779334348,-2.187974946474535,-2.956057853379192,-2.1554906431363596
26,0.2583385264138426,0.2522735578898997,0.05550231813648343,6.040290013563217,1.8329213336770986,2.0454711177138982,5.886888096972048,1.0,3.14,-0.6338182595818618,0.19684141715269454,-2.1643127378084817,-2.9636494114967356,-2.1249983499096086
27,0.26197038315370474,0.25528180506982695,0.05865996451569902,6.047606707168016,1.831081064505248,2.0477184724094437,5.894431256282741,1.0,3.14,-0.6260411951865162,0.18462562165841676,-2.141162712507249,-2.9684417460093786,-2.098412512804751
28,0.26384819156347233,0.25710685827133567,0.059098969737183926,6.051126623060931,1.8298780224778008,2.0492794551323565,5.897983636434358,1.0,3.14,-0.6202701484368823,0.17535181770277253,-2.11833649387858,-2.97120007966595,-2.0747552503491993
29,0.2642908089652074,0.25794158929674693,0.057423709077620705,6.051796218929024,1.8291486106872479,2.050360071085051,5.898541239214676,1.0,3.14,-0.6159325480982083,0.16817631942042077,-2.0957371423477413,-2.9724750200809225,-2.0533053399697723
30,0.2636743840880341,0.25802542658215366,0.05413683932636033,6.0503324526585365,1.828764737923228,2.051105816718141,5.896858428631983,1.0,3.14,-0.6126088875913932,0.16248331741693964,-2.0733209839000364,-2.9726653675038675,-2.0335314704532435
31,0.2623483491039138,0.2575830804477155,0.04963857064675291,6.047278414687475,1.828630260909889,2.051619031414976,5.893506560780883,1.0,3.14,-0.6099936019113565,0.1578232180703975,-2.0510750845977457,-2.972061531063512,-2.0150425572182975
32,0.26060743441769596,0.2568036480045001,0.04424209743268073,6.0430462124833495,1.828675010963481,2.051971365379315,5.888919160121914,1.0,3.14,-0.6078653412346599,0.15386821704892495,-2.029004036171095,-2.9708760810495973,-1.9975509366749142
33,0.25868744413942363,0.25583723711898926,0.03819091280163867,6.037949493841678,1.8288487209873965,2.0522127494611713,5.883426169202674,1.0,3.14,-0.6060645675010241,0.15037989662960763,-2.0071222139995655,-2.969265427711622,-1.980845239668772
34,0.2567702431495572,0.2547985153354469,0.031674064172759676,6.032227876085026,1.8291157766741954,2.0523778271337347,5.877279664781705,1.0,3.14,-0.6044768506248712,0.1471854984760552,-1.9854492338055956,-2.9673452727962055,-1.9647704695824304
35,0.25499156711794785,0.2537724083599303,0.024838537916393087,6.026065203465222,1.8294510421115002,2.052490540830655,5.870673068895968,1.0,3.14,-0.6030205417239114,0.14416053915101085,-1.9640072789754308,-2.9652016637019725,-1.9492133932926858
36,0.25344900001559023,0.25281990658714404,0.017798960104367337,6.019603167994376,1.8298367074447373,2.052567381133601,5.863755475121961,1.0,3.14,-0.6016377541899829,0.14121607701940836,-1.9428195275034013,-2.962898935559498,-1.9340918228838284
37,0.2522491272880208,0.2519821379997719,0.011572198316562875,6.01372125209941,1.8303001432753103,2.0526196737404976,5.856642338780157,1.0,3.139072873095724,-0.6002878083313041,0.13828938725224066,-1.9219092305631154,-2.9604854469495554,-1.919346734969173
38,0.2513362719501043,0.25122299527273323,0.0075253181978053455,6.009623273861442,1.8308788406509844,2.052655181679126,5.849601437650189,1.0,3.136076348447704,-0.5989143692291402,0.13527337886907387,-1.901383190072303,-2.9580744568935695,-1.9048817040910235
39,0.2505513319214753,0.25050324053441786,0.004896026044103428,6.006781069815273,1.831512292836542,2.052679165165892,5.8430705417429385,1.0,3.132147920240188,-0.5974471200667455,0.13202395665225877,-1.8814475369222263,-2.955849521566179,-1.8905652142870972
40,0.24983417720648413,0.24981372709166821,0.00318826098678343,6.004817684719722,1.8321608175439843,2.0526951445378403,5.837193918569466,1.0,3.127907178830579,-0.5958748800776261,0.1285275652959428,-1.8621979918874916,-2.9538654342224113,-1.8763828041538726
41,0.2491633242439057,0.24915460262616915,0.0020793716386537323,6.003466191870653,1.832800597356155,2.052705570320285,5.831974212406288,1.0,3.123678788428335,-0.5942110455562613,0.12482328313925506,-1.8436692746115129,-2.952117987304867,-1.862368900060389
42,0.24853175639204766,0.2485280184119111,0.0013595958954853637,6.002538839730465,1.8334181041913176,2.052712183375152,5.827353108719925,1.0,3.119622010804743,-0.592476943175598,0.12096557454369725,-1.8258634234353117,-2.950579521001034,-1.848572683236516
43,0.2479373932514048,0.2479357782284206,0.0008926258101372035,6.001904327729778,1.834006107203733,2.052716223951625,5.82325262805119,1.0,3.115805469760521,-0.5906943463436091,0.1170078189056061,-1.8087659651384205,-2.949216249746815,-1.8350422277460807
44,0.24737948125865805,0.24737877431011523,0.0005899231380479624,6.0014712937190815,1.8345611428401596,2.0527185679527133,5.819594948645399,1.0,3.1122498311835467,-0.5888825253235261,0.11299609597279148,-1.7923549676319641,-2.947996071078463,-1.8218181316249964
45,0.24685734445849816,0.24685702847585664,0.000393994242377688,6.001176445593423,1.8350819784733714,2.0527198244094147,5.81631080219051,1.0,3.108951765696333,-0.587057438346621,0.10896777086163616,-1.7766059287342413,-2.9468915431676743,-1.8089318421988816
46,0.24637004265942666,0.24636989673596246,0.00026749563256921665,6.000976107783152,1.8355686911079427,2.052720408497593,5.813342032873953,1.0,3.1058970844260423,-0.585231854744332,0.10495211837424016,-1.7614942631953499,-2.9458805245453257,-1.7964061142046512
47,0.24591635122652908,0.2459162804570885,0.000186130225201698,6.000840245765983,1.836022115219781,2.0527205967720024,5.810641377780568,1.0,3.103067690614489,-0.5834158188661079,0.10097164297098053,-1.746996438645216,-2.9449457779197163,-1.7842562812910316
48,0.24549483386855445,0.24549479712828515,0.00013401484568639188,6.000748269576338,1.8364435108190493,2.0527205685475525,5.808171094799764,1.0,3.100445060438836,-0.5816171808964786,0.09704348131220382,-1.7330903797150212,-2.944074196999063,-1.7724916978182017
49,0.24510392540846052,0.24510390464565016,0.00010068363644522321,6.000686103162837,1.8368343634430053,2.052720436350845,5.805901264858142,1.0,3.098011823312702,-0.5798420799747369,0.09318064029967577,-1.7197554984541947,-2.9432559726208636,-1.761117066461888
50,0.24474199922791434,0.24474198636624434,7.920188518131144e-05,6.000644147737492,1.8371962637177535,2.0527202678669347,5.803808158134042,1.0,3.095752338385757,-0.5780953420298817,0.08939299872980286,-1.7069725527901753,-2.9424838357293717,-1.7501335500130755
51,0.24440741551726977,0.24440740684196302,6.501644558512364e-05,6.000615872471372,1.8375308351706272,2.0527201014192027,5.801872822110201,1.0,3.0936527701793426,-0.576380789624644,0.08568807813644141,-1.6947234426066728,-2.941752424612318,-1.739539653525683
52,0.24409855332805805,0.24409854706236234,5.522948904920686e-05,6.000596842997676,1.837839691370422,2.052719956652751,5.8000799321587655,1.0,3.091700938449051,-0.5747014749826247,0.08207161748879149,-1.6829909997759274,-2.9410577809424328,-1.7293319006710766
53,0.24381383075300644,0.24381382600103435,4.807676249259259e-05,6.000584053980756,1.8381244108692316,2.0527198417452923,5.798416890762815,1.0,3.0898860873117546,-0.5730598512376766,0.0785479928109781,-1.6717587985117959,-2.940396960931975,-1.7195053405939986
54,0.2435517170317318,0.24355171331052833,4.252630590593844e-05,6.000575471972867,1.8383865228944565,2.0527197581612238,5.796873139937734,1.0,3.088198645784057,-0.5714578963975225,0.07512051954560507,-1.6610109961179222,-2.939767742030407,-1.7100539220655508
55,0.24331073942709788,0.24331073645532902,3.798814254245675e-05,6.000569723158599,1.8386274994774598,2.0527197037055203,5.795439646466397,1.0,3.086630012050205,-0.5698972023230368,0.07179166895906781,-1.6507322057879508,-2.939168405531498,-1.7009707672617713
56,0.24308948683561216,0.24308948443558384,3.412575434369102e-05,6.000565880593256,1.8388487513929705,2.052719674426497,5.794108522244898,1.0,3.085172372808317,-0.5683790384884767,0.06856322299310418,-1.6409073991182372,-2.938597577802466,-1.692248371542944
57,0.2428866114158094,0.2428866094664769,3.0744009908416375e-05,6.000563319558792,1.8390516263265122,2.0527196657565105,5.792872747639515,1.0,3.083818558635423,-0.5669043979579428,0.06543638588098499,-1.6315218343954916,-2.9380541159055813,-1.6838787497861527
58,0.24270082903877452,0.2427008274522669,2.7726356428712837e-05,6.000561619429874,1.839237408330931,2.0527196731601993,5.791725971933583,1.0,3.0825619316670068,-0.5654740310766607,0.06241186591141594,-1.6225610063621911,-2.9375370263629366,-1.675853544781481
59,0.2425309190442832,0.24253091775360247,2.5000329658747506e-05,6.000560497218789,1.8394073180277313,2.05271969247312,5.7906623706307565,1.0,3.081396300271202,-0.5640884708524452,0.059489936913101504,-1.6140106133929677,-2.937045408400721,-1.6681641091119241
60,0.24237572358042944,0.24237572253265613,2.251883476631613e-05,6.000559762649459,1.8395625132478541,2.052719720052106,5.789676544186223,1.0,3.080315855282179,-0.5627480528453159,0.05667048618353075,-1.6058565384853922,-2.936578415117311,-1.6608015687516624
61,0.24223414667785872,0.24223414583017366,2.024956510515123e-05,6.000559287832782,1.8397040899483423,2.0527197528160115,5.788763446598608,1.0,3.0793151229085893,-0.5614529315242086,0.0539530535014424,-1.5980848409991388,-2.936135227673853,-1.6537568742058877
62,0.24210515313502165,0.24210515245223807,1.8169202827864064e-05,6.000558986826438,1.839833083322799,2.052719788226527,5.787918335299652,1.0,3.0783889302144907,-0.5602030944230467,0.05133686436339422,-1.5906817565837235,-2.9357150388724067,-1.647020843228514
63,0.2419877672494055,0.24198776670233843,1.6260000704539966e-05,6.000558801874488,1.8399504690681132,2.0527198242395492,5.787136736065401,1.0,3.0775323798666734,-0.5589983749775026,0.04882085952128623,-1.5836337031831054,-2.9353170434399223,-1.640584197853243
64,0.24188107140884976,0.24188107097317235,1.4507656054967669e-05,6.000558694154009,1.8400571647921504,2.0527198592450464,5.786414418386194,1.0,3.076740831558622,-0.5578384646034357,0.04640372215260646,-1.5769272913873995,-2.9349404330457833,-1.6344375975415122
65,0.24178420454845165,0.24178420420385258,1.2900137581026868e-05,6.000558637558337,1.840154031556344,2.052719892005442,5.785747378002667,1.0,3.0760098881252484,-0.5567229243534119,0.044083903480044394,-1.5705493377216988,-2.934584394605013,-1.628571669593987
66,0.2416963604769322,0.2416963602064593,1.1426965930361162e-05,6.000558614523506,1.840241875549074,2.0527199215977094,5.785131824248715,1.0,3.0753353848523926,-0.5556511963328349,0.04185964730664888,-1.5644868797279319,-2.9342481108054317,-1.6229770375176602
67,0.2416167860781539,0.24161678586768687,1.0078562057569737e-05,6.000558613227837,1.8403214498840044,2.0527199473614286,5.78456417052514,1.0,3.0747133808727884,-0.5546226149528473,0.03972901369934982,-1.5587271919169596,-2.9339307620812773,-1.6176443477330809
68,0.24154477939680657,0.24154477923462,8.846271100405452e-06,6.000558625713346,1.8403934565143143,2.052719968853441,5.784041026725028,1.0,3.074140151841944,-0.5536364180290826,0.0376899019030343,-1.5532578018530874,-2.9336315294654094,-1.6125642948044547
69,0.24147968762081864,0.24147968749721402,7.72185016873835e-06,6.000558646625449,1.8404585482502294,2.0527199858089133,5.783559192793146,1.0,3.0736121833194074,-0.5526917576933416,0.035740072474863854,-1.548066505788684,-2.9333495979073376,-1.607727645248816
70,0.24142090497613683,0.24142090488312912,6.697636841867601e-06,6.000558672367096,1.8405173308642018,2.052719998108169,5.783115652863411,1.0,3.073126164457656,-0.5517877110617719,0.03387716857645829,-1.543141383398053,-2.933084159759749,-1.6031252599067556
71,0.24136787055184247,0.2413678704828896,5.766345072782735e-06,6.00055870053048,1.8405703652657637,2.0527200057485775,5.78270756960756,1.0,3.0726789817342963,-0.5509232905926152,0.03209873633724642,-1.5384708112712122,-2.93283441822259,-1.5987481148199514
72,0.24132006607500636,0.24132006602477818,4.921129634626824e-06,6.000558729514693,1.840618169726644,2.05272000882076,5.782332278564292,1.0,3.0722677125631046,-0.5500974540650434,0.03040224419663443,-1.5340434749228742,-2.932599590598745,-1.5945873205481111
73,0.2412770136552464,0.24127701361942575,4.155580947864496e-06,6.000558758267908,1.8406612221361878,2.052720007488448,5.781987282315341,1.0,3.0718896186932536,-0.549309114115014,0.028785101139082492,-1.5298483791520447,-2.932378911264452,-1.590634139861308
74,0.24123827351875513,0.2412382734938673,3.4636145736645676e-06,6.000558786113019,1.8406999622673086,2.0527200019714438,5.7816702444437125,1.0,3.0715421393597406,-0.5485571472722358,0.027244673750021924,-1.5258748566550706,-2.932171634294726,-1.5868800037569353
75,0.24120344175070885,0.24120344173397631,2.8398345111788746e-06,6.0005588126292855,1.8407347940340604,2.0527199925312063,5.781378983257075,1.0,3.071222884186212,-0.5478404024526385,0.025778302038430432,-1.5221125748511397,-2.9319770357121087,-1.5833165257692106
76,0.241172148063619,0.2411721480528378,2.2796341666301817e-06,6.000558837571616,1.8407660877232699,2.0527199794586792,5.781111465291539,1.0,3.0709296258675463,-0.5471577088719999,0.02438331399143179,-1.5185515409253956,-2.931794415348054,-1.5799355145602703
77,0.24114405360748414,0.24114405360091987,1.7784272131726335e-06,6.000558860815215,1.8407941821843699,2.052719963064053,5.7808657986319,1.0,3.0706602926765587,-0.5465078833577273,0.02305703884582934,-1.5151821051320693,-2.9316230983217926,-1.5767289848032864
78,0.24111884883562199,0.241118848831923,1.33513073829435e-06,6.000558882317401,1.8408193869635536,2.052719943668187,5.780640226096786,1.0,3.0704129608491453,-0.5458897370466766,0.021796819079952068,-1.5119949624293467,-2.931462436152719,-1.5736891663883004
79,0.2410962514380508,0.24109625143617353,9.508762439217817e-07,6.000558902091076,1.8408419843703847,2.0527199215954934,5.780433118343359,1.0,3.070185846906848,-0.5453020814668497,0.020600021145819825,-1.5089811525400132,-2.9313118075301405,-1.5708085119997321
80,0.2410760043521183,0.241076004351268,6.3953589599953e-07,6.000558920186196,1.840862231467155,2.052719897168084,5.780242966947947,1.0,3.0699772999765376,-0.5447437340096911,0.01946404497609492,-1.5061320585481384,-2.9311706187693054,-1.568079703130251
81,0.24105787385810193,0.24105787385768226,4.490172616636601e-07,6.000558936676711,1.840880361973278,2.052719870701033,5.780068377517564,1.0,3.0697857941647775,-0.5442135228072967,0.01838633231232644,-1.5034394041530144,-2.9310383039856003,-1.5654956546086887
82,0.24104164776550918,0.2410416477650808,4.5295608501347284e-07,6.00055895165135,1.8408965880789814,2.0527198424986146,5.779908062883651,1.0,3.0696099210403025,-0.5437102910351717,0.01736437391064636,-1.5008952497080201,-2.930914325020082,-1.563049517729876
83,0.24102713369402048,0.24102713369326761,6.01239234263668e-07,6.000558965207074,1.8409111021643567,2.0527198128513784,5.779760836424387,1.0,3.0694483822726193,-0.5432329006662253,0.016395715688404332,-1.4984919871748092,-2.9307981711495423,-1.5607346820817938
84,0.24101415745140892,0.24101415745011184,7.896209537680217e-07,6.000558977444446,1.8409240784214358,2.0527197820339778,5.779625605556082,1.0,3.069299982468538,-0.5427802357055411,0.015477963880404478,-1.4962223341228469,-2.9306893586133542,-1.5585447761704543
85,0.2410025615093001,0.24100256150731378,9.77361698854401e-07,6.00055898846434,1.8409356743784249,2.052719750303619,5.779501365427962,1.0,3.0691636222419123,-0.5423512049382406,0.014608789276675374,-1.4940793269014976,-2.9305874299877153,-1.5564736669456833
86,0.24099220357641155,0.24099220357364784,1.1528915842703443e-06,6.000558998365663,1.8409460323264624,2.052719717899062,5.779387192848421,1.0,3.069038291545301,-0.5419447442245288,0.013785930615252344,-1.4920563131071103,-2.93049195343579,-1.5545154583317662
87,0.2409829552678487,0.24098295526426178,1.313501648368871e-06,6.000559007243779,1.84095528065032,2.052719685040087,5.779282240464734,1.0,3.0689230632859092,-0.5415598183769489,0.01300719720357537,-1.4901469434613501,-2.9304025218598393,-1.552664488866007
88,0.2409747008681282,0.24097470086370434,1.4587924779083135e-06,6.000559015189479,1.8409635350653752,2.052719651927334,5.779185731212569,1.0,3.068817087242203,-0.5411954226551022,0.012270470841043147,-1.4883451632097993,-2.9303187519788567,-1.5509153285459218
89,0.24096733618495636,0.2409673361797047,1.589612406861304e-06,6.000559022288335,1.840970899763832,2.0527196187424717,5.779096953046364,1.0,3.0687195842921122,-0.5408505839126612,0.0115737071131824,-1.4866452031419488,-2.9302402833525925,-1.5492627749823265
90,0.24096076749017137,0.24096076748411718,1.7068172768685926e-06,6.000559028620335,1.840977468473776,2.0527195856486196,5.779015253956992,1.0,3.068629840958814,-0.5405243614306575,0.010914936125118074,-1.4850415703254103,-2.930166777370283,-1.5477018489512013
91,0.24095491054389453,0.24095491053707446,1.8114566435835582e-06,6.00055903425976,1.840983325435021,2.052719552790971,5.77894003727898,1.0,3.0685472042757724,-0.5402158474697482,0.010292262738637923,-1.4835290386387547,-2.930097916219901,-1.5462277894321799
92,0.2409496896976345,0.24094968969009145,1.9050189035534029e-06,6.000559039275178,1.8409885462960047,2.0527195202975825,5.778870757286026,1.0,3.0684710769689754,-0.5399241675726097,0.009703866373372574,-1.4821026391790089,-2.9300334018513996,-1.5448360482159882
93,0.24094503707190626,0.2409450370636876,1.9885095736521514e-06,6.00055904372959,1.8409931989361668,2.052719488280266,5.77880691507054,1.0,3.0684009129511782,-0.5396484806458678,0.009148000428586732,-1.480757650611667,-2.929972954945273,-1.5435222841573482
94,0.24094089180383452,0.24094089179498965,2.0630441069459737e-06,6.000559047680621,1.840997344218345,2.052719456835573,5.7787480547004755,1.0,3.068336213120363,-0.5393879788490609,0.008622991377900598,-1.4794895895232318,-2.929916313895752,-1.5422823571438826
95,0.2409371993602251,0.24093719935080318,2.1292502772950394e-06,6.000559051180797,1.8410010366757037,2.05271942604582,5.778693759644748,1.0,3.0682765214525474,-0.539141887316176,0.008127237585052996,-1.4782942008288433,-2.9298632338162065,-1.5411123218455667
96,0.24093391091160105,0.2409339109016494,2.1882901886667444e-06,6.000559054277834,1.8410043251376969,2.0527193959801497,5.778643649456949,1.0,3.0682214213774697,-0.5389094637332966,0.00765920788465683,-1.477167448280577,-2.929813485572722,-1.5400084213033374
97,0.24093098276282165,0.24093098275238697,2.240730373464623e-06,6.0005590570149385,1.8410072532994453,2.0527193666955856,5.778597376705975,1.0,3.068170532424478,-0.5386899977939243,0.0072174399678430375,-1.476105505115495,-2.929766854850451,-1.5389670804096969
98,0.240928375836056,0.24092837582518165,2.2875102534558333e-06,6.000559059431148,1.841009860238767,2.0527193382380813,5.778554624141335,1.0,3.0681235071251205,-0.5384828105515855,0.006800538608772057,-1.4751047448765593,-2.9297231412561247,-1.5379848993285954
99,0.24092605520202276,0.24092605519075008,2.3289709335049925e-06,6.000559061561648,1.8410121808849331,2.0527193106435417,5.778515102080431,1.0,3.068080028158417,-0.5382872536874703,0.00640717376428763,-1.4741617324340606,-2.9296821574590868,-1.5370586468965735
100,0.24092398965561723,0.24092398964398398,2.366049149821808e-06,6.0005590634380725,1.841014246443043,2.0527192839388073,5.778478546004828,1.0,3.068039805724568,-0.5381027087090716,0.006036078575487889,-1.4732732152302566,-2.929643728372342,-1.5361852540421532
101,0.24092215133225947,0.24092215132030137,2.398855556560226e-06,6.000559065088821,1.8410160847776729,2.0527192581425933,5.778444714352512,1.0,3.0680025751328075,-0.5379285860940876,0.005686047296702773,-1.472436114765465,-2.9296076903743664,-1.5353618072557893
102,0.24092051536150003,0.24092051534924938,2.428112095841608e-06,6.000559066539338,1.8410177207592726,2.0527192332663806,5.778413386493256,1.0,3.067968094589301,-0.5377643243922895,0.005355933174346331,-1.4716475183398647,-2.9295738905718416,-1.5345855421383396
103,0.24091905955463086,0.2409190595421166,2.4541267008835488e-06,6.000559067812382,1.8410191765765531,2.0527192093152533,5.7783843608745,1.0,3.067936143171291,-0.5376093892965726,0.005044646295301913,-1.4709046710617202,-2.9295421861029647,-1.5338538370520096
104,0.24091776412329755,0.2409177641105468,2.4770911595057322e-06,6.0005590689282915,1.8410204720178722,2.052719186288672,5.778357453325525,1.0,3.067906518974131,-0.5374632726930593,0.00475115142194457,-1.4702049681296165,-2.929512443480612,-1.5331642068940448
105,0.24091661142629378,0.24091661141333104,2.4976230962190977e-06,6.0005590699052,1.8410216247244424,2.052719164181205,5.77833249550818,1.0,3.0678790374183658,-0.537325491698866,0.004474465828558681,-1.4695459473935581,-2.9294845379743117,-1.5325142970100982
106,0.2409155857419401,0.24091558572878716,2.515782069016796e-06,6.000559070759269,1.841022650417951,2.0527191429831864,5.778309333502951,1.0,3.0678535297046,-0.5371955876950218,0.00421365715180663,-1.4689252821973915,-2.9294583530297533,-1.5319018772611641
107,0.24091467306365505,0.24091467305033198,2.532145337815077e-06,6.000559071504876,1.8410235631049876,2.0527191226813315,5.778287826519731,1.0,3.067829841404542,-0.5370731253609745,0.003967841265984204,-1.4683407745029604,-2.9294337797243952,-1.5313248362552372
108,0.24091386091650926,0.24091386090303418,2.5464859399246873e-06,6.000559072154811,1.8410243752604913,2.052719103259289,5.778267845723244,1.0,3.0678078311772383,-0.5369576917162067,0.0037361801921019437,-1.4677903482946268,-2.9294107162576,-1.53078117575241
109,0.24091313819274898,0.24091313817913787,2.559358483153933e-06,6.000559072720428,1.8410250979922267,2.052719084698145,5.778249273163687,1.0,3.067787369600209,-0.5368488951736178,0.00351788004828191,-1.4672720432612982,-2.929389067473664,-1.5302690052499441
110,0.24091249500443174,0.24091249499069856,2.5707850203765137e-06,6.000559073211798,1.8410257411881477,2.0527190669768802,5.7782320008037695,1.0,3.0677683381058434,-0.5367463646086023,0.0033121890476242866,-1.4667840087518313,-2.9293687444160565,-1.5297865367519223
111,0.2409119225514883,0.24091192253764607,2.5809568279525014e-06,6.000559073637856,1.8410263136483345,2.0527190500727723,5.778215929633927,1.0,3.0677506280140774,-0.5366497484470624,0.003118395548478343,-1.4663244979986392,-2.9293496639111827,-1.5293320797263892
112,0.24091141300367996,0.2409114129897408,2.589974423578145e-06,6.0005590740065085,1.8410268232030373,2.0527190339617656,5.778200968868067,1.0,3.067734139653027,-0.5365587137750064,0.002935826160996279,-1.4658918626034623,-2.929331748179989,-1.5289040362514112
113,0.24091095939504992,0.2409109593810239,2.5980207659899293e-06,6.000559074324762,1.841027276818226,2.0527190186187902,5.778187035212791,1.0,3.067718781559854,-0.5364729454718576,0.00276384391292463,-1.465484547278576,-2.9293149244757655,-1.5285008963501925
114,0.24091055552959714,0.24091055551549348,2.605190087909584e-06,6.0005590745988036,1.8410276806899137,2.052719004018047,5.778174052203552,1.0,3.0677044697547466,-0.5363921453691329,0.0026018464767695727,-1.465101084836157,-2.9292991247465405,-1.528121233514276
115,0.24091019589703008,0.2409101958828572,2.611574637049674e-06,6.000559074834109,1.841028040328404,2.052718990133263,5.778161949601752,1.0,3.067691127081458,-0.5363160314357401,0.0024492644597683224,-1.4647400914181166,-2.9292842853205205,-1.5277637004129152
116,0.24090987559756105,0.24090987558332586,2.6171801567204495e-06,6.000559075035508,1.8410283606334976,2.052718976937907,5.778150662847254,1.0,3.0676786826083764,-0.5362443369908042,0.0023055597575007427,-1.4644002619584033,-2.9292703466130905,-1.5274270247858863
117,0.24090959027479977,0.24090959026050948,2.6224350332738487e-06,6.000559075207266,1.8410286459615959,2.0527189644053783,5.778140132561245,1.0,3.0676670710846015,-0.5361768099446044,0.0021702239714385795,-1.4640803658695694,-2.9292572528539553,-1.5271100055163531
118,0.24090933605590428,0.240909336041564,2.6268342434676463e-06,6.000559075353139,1.8410289001855542,2.0527189525091765,5.778130304094825,1.0,3.0676562324459793,-0.536113212067955,0.0020427768902928473,-1.4637792429452743,-2.9292449518330788,-1.5268115088798297
119,0.24090910949821834,0.24090910948383407,2.63097292155144e-06,6.000559075476445,1.8410291267480392,2.052718941223034,5.778121127119089,1.0,3.0676461113664684,-0.536053318290134,0.0019227650346473593,-1.4634957994703464,-2.929233394664141,-1.5265304649648397
120,0.24090890754172825,0.24090890752730407,2.634599466704663e-06,6.0005590755800995,1.8410293287090775,2.05271893052104,5.778112555252839,1.0,3.0676366568506337,-0.5359969160252603,0.0018097602640395425,-1.4632290045300334,-2.929222535564317,-1.526265864260509
121,0.24090872746669206,0.2409087274522326,2.637715991293408e-06,6.000559075666668,1.8410295087884214,2.05271892037774,5.778104545724415,1.0,3.067627821863423,-0.5359438045268713,0.0017033584453978626,-1.4629778865101353,-2.9292123316492464,-1.5260167544060523
122,0.24090856685592346,0.24090856684143253,2.640744755230915e-06,6.000559075738406,1.8410296694032686,2.0527189107682156,5.778097059064444,1.0,3.067619562993742,-0.5358937942703066,0.0016031781815282321,-1.4627415297798163,-2.929202742742127,-1.525782237096905
123,0.2409084235612002,0.24090842354668077,2.6432660741164714e-06,6.0005590757973,1.8410298127018525,2.0527189016681526,5.778090058826607,1.0,3.067611840148648,-0.5358467063623908,0.001508859598161596,-1.462519071549037,-2.929193731195948,-1.5255614651421063
124,0.24090829567337133,0.24090829565882657,2.645533206603362e-06,6.000559075845088,1.841029940593334,2.052718893053898,5.778083511333778,1.0,3.0676046162752884,-0.5358023719778214,0.0014200631879504235,-1.462309698892714,-2.929185261727936,-1.5253536396674523
125,0.24090818149576435,0.2409081814811962,2.6477145364818286e-06,6.000559075883295,1.8410300547743963,2.0527188849024967,5.778077385447137,1.0,3.0675978571079656,-0.535760631821587,0.0013364687096860098,-1.4621126459339104,-2.9291773012653413,-1.52515800745889
126,0.24090807952051616,0.24090807950592788,2.649558874475881e-06,6.0005590759132605,1.8410301567529108,2.0527188771917273,5.778071652356114,1.0,3.0675915309379613,-0.5357213356166868,0.0012577741409359469,-1.4619271911785734,-2.9291698188017654,-1.5249738584406214
127,0.24090798840754205,0.2409079883929356,2.6511506792902317e-06,6.000559075936155,1.8410302478689726,2.0527188699001218,5.778066285387162,1.0,3.0675856084039776,-0.5356843416163766,0.0011836946822464441,-1.4617526549945603,-2.929162785263283,-1.524800523282418
128,0.24090790696581427,0.240907906951191,2.6526578237832277e-06,6.000559075953,1.8410303293136188,2.052718863006983,5.778061259829609,1.0,3.067580062301247,-0.5356495161401308,0.001113961811020307,-1.4615883972279333,-2.9291561733836544,-1.5246373711307022
129,0.2409078341367336,0.2409078341220956,2.653996789266328e-06,6.0005590759646905,1.8410304021454562,2.0527188564923873,5.778056552776975,1.0,3.06757486740756,-0.5356167331324918,0.0010483223831632155,-1.461433814949746,-2.9291499575879882,-1.5244838074580407
130,0.24090776897934688,0.24090776896469548,2.655251456187104e-06,6.000559075972008,1.841030467305447,2.0527188503371945,5.778052142982287,1.0,3.067570000324619,-0.5355858737439605,0.000986537780593236,-1.461288340326795,-2.92914411388425,-1.5243392720257933
131,0.2409077106571999,0.24090771064253616,2.656254763026684e-06,6.000559075975631,1.8410305256300532,2.0527188445230355,5.778048010726091,1.0,3.0675654393332783,-0.5355568259330837,0.0009283831027210083,-1.4611514386100648,-2.9291386197620652,-1.524203236954783
132,0.2409076584266721,0.24090765841199793,2.6572576910454415e-06,6.0005590759761525,1.8410305778629021,2.0527188390323117,5.778044137695964,1.0,3.0675611642613765,-0.5355294840888731,0.00087364640001213,-1.4610226062348346,-2.9291334540982956,-1.524075204898991
133,0.24090761162659774,0.2409076116119141,2.65817670931195e-06,6.000559075974088,1.8410306246651675,2.0527188338481803,5.778040506876458,1.0,3.0675571563629864,-0.5355037486727298,0.0008221279478063926,-1.4609013690266832,-2.929128597068912,-1.523954707317412
134,0.24090756966905405,0.24090756965436155,2.659095409953705e-06,6.00055907596988,1.8410306666247793,2.0527188289545406,5.778037102448497,1.0,3.0675533982080205,-0.5354795258790254,0.0007736395585716194,-1.4607872805078574,-2.929124030066723,-1.5238413028393705
135,0.24090753203117593,0.24090753201647525,2.6595963856374836e-06,6.000559075963914,1.841030704264609,2.0527188243360217,5.778033909697367,1.0,3.0675498735812323,-0.5354567273135261,0.0007280039308326621,-1.4606799202987257,-2.9291197356245453,-1.5237345757187457
136,0.24090749824788607,0.24090749823317825,2.6603476722760547e-06,6.000559075956529,1.8410307380497397,2.052718819977957,5.778030914928484,1.0,3.067546567389756,-0.5354352696888551,0.0006850540330608185,-1.460578892609271,-2.929115697343436,-1.5236341343727182
137,0.24090746790544235,0.2409074678907284,2.660931859678781e-06,6.000559075948005,1.8410307683939195,2.052718815866371,5.778028105390245,1.0,3.0675434655783933,-0.5354150745362065,0.0006446325208518724,-1.4604838248158114,-2.9291118998256374,-1.523539610000811
138,0.2409074406357036,0.24090744062098346,2.661349057884521e-06,6.000559075938595,1.8410307956652963,2.0527188119879547,5.778025469203309,1.0,3.0675405550519437,-0.5353960679325499,0.0006065911857830628,-1.4603943661183598,-2.9291083286119046,-1.5234506552801699
139,0.24090741611103553,0.24090741609631025,2.661849609418596e-06,6.000559075928509,1.8410308201915084,2.052718808330045,5.778022995295715,1.0,3.067537823603945,-0.5353781802425888,0.000570790434394048,-1.4603101862742622,-2.929104970122912,-1.5233669431331778
140,0.24090739403979758,0.2409073940250678,2.6622666638057102e-06,6.000559075917928,1.841030842264202,2.0527188048806004,5.778020673343332,1.0,3.0675352598512364,-0.5353613458747497,0.0005370987957853221,-1.4602309744039534,-2.9291018116044634,-1.5232881655636745
141,0.2409073741623255,0.24090737414759109,2.662767042846649e-06,6.000559075907006,1.8410308621430471,2.0527188016281808,5.778018493715131,1.0,3.0675328531738364,-0.5353455030505152,0.0005053924563914864,-1.4601564378648881,-2.9290988410762404,-1.5232140325582046
142,0.24090735624736706,0.24090735623262877,2.663183953563768e-06,6.000559075895877,1.8410308800592994,2.052718798561922,5.778016447422885,1.0,3.0675305936596446,-0.5353305935864371,0.00047555482054902873,-1.46008630118989,-2.92909604728385,-1.523144271048875
143,0.24090734008892137,0.24090734007417933,2.663434068669449e-06,6.000559075884649,1.8410308962189648,2.0527187956715145,5.77801452607487,1.0,3.067528472053561,-0.535316562688184,0.00044747609552010315,-1.460020305086361,-2.9290934196539493,-1.5230786239345613
144,0.24090732550342914,0.2409073254886837,2.6637675189453933e-06,6.000559075873414,1.8410309108056064,2.0527187929471786,5.778012721833249,1.0,3.06752647971062,-0.5353033587560114,0.0004210528997052411,-1.4599582054929718,-2.929090948252236,-1.5230168491573493
145,0.24090731232727786,0.24090731231252957,2.664017579262203e-06,6.00055907586225,1.8410309239828406,2.0527187903796458,5.778011027374789,1.0,3.067524608552799,-0.535290933201065,0.0003961878928256736,-1.4598997726906255,-2.9290886237441156,-1.522958718831244
146,0.24090730041458794,0.2409073003998369,2.6642676161090876e-06,6.0005590758512195,1.841030935896551,2.052718787960129,5.778009435854639,1.0,3.067522851029178,-0.5352792402719542,0.0003727894269157536,-1.4598447904646605,-2.9290864373578662,-1.5229040184203204
147,0.24090728963524832,0.2409072896204948,2.6644342943047594e-06,6.000559075840378,1.8410309466768522,2.0527187856803106,5.778007940872906,1.0,3.0675212000791694,-0.5352682368910477,0.0003507712170057639,-1.459793055315415,-2.9290843808501306,-1.5228525459636337
148,0.240907279873167,0.24090727985841123,2.664684292049783e-06,6.0005590758297656,1.8410309564398393,2.0527187835323124,5.778006536443778,1.0,3.0675196490985503,-0.5352578824999921,0.0003300520304542488,-1.4597443757144268,-2.9290824464735876,-1.5228041113443234
149,0.24090727102472415,0.24090727100996648,2.6648509441836618e-06,6.0005590758194165,1.8410309652891352,2.05271878150868,5.778005216966992,1.0,3.0675181919080665,-0.5352481389139438,0.0003105553939059274,-1.4596985714036912,-2.9290806269466536,-1.5227585356004936
150,0.24090726299739554,0.24090726298263596,2.6651009028451633e-06,6.000559075809357,1.8410309733172676,2.0527187796023614,5.778003977201452,1.0,3.067516822724389,-0.5352389701840592,0.0002922093169275645,-1.459655472735536,-2.929078915425085,-1.522715650275557
151,0.24090725570852745,0.24090725569376592,2.6652675289294705e-06,6.000559075799605,1.841030980606893,2.052718777806686,5.7780028122408025,1.0,3.067515536133233,-0.5352303424677883,0.00027494603140529664,-1.459614920050806,-2.9290773054753556,-1.5226752968058581
152,0.24090724908425232,0.24090724906948965,2.6653508380653487e-06,6.000559075790178,1.8410309872318806,2.0527187761153507,5.778001717490814,1.0,3.0675143270644587,-0.5352222239065529,0.00025870174583984276,-1.4595767630931749,-2.9290757910496903,-1.5226373259434995
153,0.24090724305852593,0.2409072430437614,2.665434144597369e-06,6.0005590757810845,1.841030993258279,2.052718774522393,5.77800068864842,1.0,3.0675131907689894,-0.5352145845104032,0.00024341641371672973,-1.4595408604575204,-2.929074366462656,-1.522601597212405
154,0.24090723757226634,0.24090723755750057,2.6655174485257753e-06,6.000559075772331,1.8410309987451707,2.052718773022185,5.777999721682282,1.0,3.0675121227974094,-0.5352073960492659,0.00022903351516841104,-1.4595070790704177,-2.9290730263692013,-1.522567978395755
155,0.24090723257259603,0.24090723255782903,2.665767344691751e-06,6.000559075763917,1.8410310037454365,2.052718771609404,5.777998812814755,1.0,3.067511118980096,-0.5352006319504294,0.00021549985119500748,-1.4594752937009026,-2.929071765744053,-1.5225363450530307
156,0.24090722801216616,0.24090722799739814,2.665767344691751e-06,6.000559075755849,1.841031008306427,2.0527187702790286,5.777997958505141,1.0,3.0675101754087764,-0.5351942672019055,0.00020276534973148917,-1.4594453864997743,-2.9290705798623886,-1.522506580064995
157,0.24090722384855207,0.24090722383378285,2.66593392912214e-06,6.000559075748118,1.841031012470569,2.052718769026315,5.777997155434126,1.0,3.0675092884193846,-0.5351882782613583,0.0001907828829106214,-1.4594172465657875,-2.929069464281696,-1.522478573205029
158,0.2409072200437212,0.24090722002895112,2.66593392912214e-06,6.000559075740725,1.841031016275897,2.052718767846787,5.777996400489327,1.0,3.0675084545761284,-0.5351826429702706,0.0001795080948764254,-1.4593907695371886,-2.929068414824748,-1.5224522207353295
159,0.24090721656355948,0.24090721654878844,2.666100503143929e-06,6.000559075733658,1.8410310197565267,2.0527187667362172,5.777995690751835,1.0,3.067507670656666,-0.5351773404730693,0.00016889923956527408,-1.4593658572071313,-2.9290674275636226,-1.522427425026552
160,0.24090721337744325,0.2409072133626714,2.6661837862522085e-06,6.000559075726917,1.8410310229430835,2.052718765690619,5.777995023483701,1.0,3.0675069336383105,-0.5351723511409205,0.0001589170278829217,-1.4593424171615916,-2.929066498804699,-1.5224040941995625
161,0.24090721045787156,0.24090721044309896,2.666100503143929e-06,6.000559075720488,1.84103102586307,2.0527187647062304,5.777994396116278,1.0,3.0675062406851845,-0.5351676564999346,0.0001495244837451263,-1.459320362438479,-2.9290656250745735,-1.5223821417880357
162,0.24090720778012653,0.24090720776535346,2.66626706675907e-06,6.000559075714365,1.8410310285412053,2.0527187637795032,5.777993806239369,1.0,3.0675055891362506,-0.5351632391635334,0.00014068680848256722,-1.4592996112067138,-2.9290648031068303,-1.522361486420702
163,0.2409072053219775,0.24090720530720364,2.66626706675907e-06,6.000559075708539,1.841031030999722,2.052718762907088,5.777993251591104,1.0,3.067504976494159,-0.5351590827687395,0.00013237125312586532,-1.4592800864641158,-2.929064029829622,-1.5223420515221198
164,0.24090720306341892,0.2409072030486444,2.6663503446647564e-06,6.0005590757029985,1.8410310332586266,2.0527187620858336,5.777992730048508,1.0,3.0675044004148413,-0.5351551719161631,0.00012454699812110428,-1.4592617157530063,-2.929063302354003,-1.5223237650309078
165,0.24090720098642934,0.24090720097165433,2.66651689267358e-06,6.000559075697731,1.8410310353359418,2.052718761312759,5.7779922396187,1.0,3.067503858697808,-0.5351514921134876,0.00011718504006157978,-1.4592444308924963,-2.929062617962969,-1.5223065591344263
166,0.24090719907476868,0.24090719905999292,2.66651689267358e-06,6.000559075692733,1.8410310372479093,2.052718760585062,5.777991778430679,1.0,3.0675033492770885,-0.5351480297222299,0.00011025808500988515,-1.4592281677264891,-2.9290619741011654,-1.5222903700189672
167,0.24090719731378518,0.2409071972990092,2.66651689267358e-06,6.0005590756879865,1.841031039009181,2.0527187599000962,5.777991344727654,1.0,3.0675028702127767,-0.5351447719076166,0.00010374044805795522,-1.4592128658864796,-2.929061368365216,-1.5222751376345494
168,0.2409071956902545,0.24090719567547791,2.666600162777205e-06,6.000559075683488,1.8410310406329835,2.05271875925537,5.777990936859882,1.0,3.0675024196831275,-0.5351417065913734,9.760795874513479e-05,-1.459198468568289,-2.929060798494635,-1.5222608054734792
169,0.24090719419222728,0.2409071941774503,2.66651689267358e-06,6.000559075679221,1.8410310421312663,2.0527187586485343,5.777990553277979,1.0,3.0675019959771777,-0.5351388224072751,9.183787200797156e-05,-1.4591849223219215,-2.9290602623632913,-1.5222473203618756
170,0.24090719280889875,0.2409071927941217,2.666600162777205e-06,6.000559075675179,1.8410310435148352,2.052718758077374,5.777990192526661,1.0,3.0675015974878423,-0.535136108659288,8.640878433547644e-05,-1.4591721768537738,-2.9290597579713835,-1.5222346322634106
171,0.24090719153049361,0.24090719151571613,2.6666834302806297e-06,6.000559075671351,1.8410310447934668,2.052718757539805,5.777989853238899,1.0,3.0675012227054657,-0.535133555282161,8.130055483348563e-05,-1.4591601848404792,-2.929059283437902,-1.5222226940945538
172,0.2409071903481533,0.2409071903333751,2.666600162777205e-06,6.000559075667729,1.8410310459760206,2.05271875703386,5.777989534130445,1.0,3.0675008702117843,-0.5351311528043234,7.649423091260153e-05,-1.4591489017537014,-2.9290588369935437,-1.5222114615506526
173,0.24090718925385082,0.24090718923907242,2.6666834302806297e-06,6.000559075664299,1.8410310470705236,2.0527187565576903,5.777989233994715,1.0,3.06750053867428,-0.5351288923129478,7.197197832478168e-05,-1.4591382856952408,-2.9290584169740503,-1.5222008929422193
174,0.24090718824030055,0.240907188225522,2.6667666951840984e-06,6.000559075661055,1.8410310480842624,2.05271875610955,5.777988951698004,1.0,3.067500226840893,-0.5351267654210674,6.771701530958024e-05,-1.4591282972418456,-2.9290580218139497,-1.5221909490408276
175,0.24090718730088817,0.24090718728610921,2.6666834302806297e-06,6.000559075657989,1.8410310490238526,2.0527187556877964,5.777988686174994,1.0,3.0674999335350766,-0.535124764236614,6.371355059733031e-05,-1.459118899299162,-2.929057650040671,-1.52218159293406
176,0.24090718642960046,0.24090718641482142,2.6667666951840984e-06,6.000559075655088,1.8410310498953073,2.0527187552908823,5.77798843642456,1.0,3.06749965765116,-0.5351228813332737,5.9946725052112315e-05,-1.4591100569642859,-2.9290573002690143,-1.5221727898889796
177,0.2409071856209661,0.24090718560618662,2.666849957487854e-06,6.00055907565235,1.8410310507040992,2.052718754917351,5.777988201505838,1.0,3.0674993981500096,-0.5351211097230516,5.640255674220626e-05,-1.4591017373964115,-2.9290569711959495,-1.522164507223624
178,0.24090718487000307,0.24090718485522328,2.666849957487854e-06,6.000559075649761,1.8410310514552104,2.052718754565828,5.777987980534537,1.0,3.0674991540549628,-0.5351194428304488,5.3067889237180756e-05,-1.4590939096951014,-2.929056661595729,-1.522156714186057
179,0.2409071841721723,0.24090718415739248,2.6667666951840984e-06,6.000559075647318,1.8410310521531803,2.052718754235023,5.777987772679485,1.0,3.0674989244480138,-0.5351178744681496,4.993034293847582e-05,-1.4590865447857329,-2.9290563703152905,-1.5221493818405345
180,0.2409071835233294,0.2409071835085492,2.66693321719214e-06,6.0005590756450085,1.8410310528021545,2.052718753923718,5.7779875771594,1.0,3.0674987084662444,-0.5351163988141464,4.697826927958464e-05,-1.4590796153116934,-2.9290560962699357,-1.5221424829603665
181,0.2409071829196908,0.2409071829049107,2.6667666951840984e-06,6.00055907564283,1.8410310534059162,2.0527187536307667,5.777987393239847,1.0,3.067498505298473,-0.5351150103901989,4.420070761032627e-05,-1.4590730955329356,-2.9290558384392673,-1.5221359919270858
182,0.2409071823578011,0.24090718234302108,2.66693321719214e-06,6.000559075640773,1.8410310539679218,2.05271875335509,5.777987220230399,1.0,3.0674983141821146,-0.5351137040415656,4.158734462252002e-05,-1.4590669612305134,-2.9290555958633693,-1.5221298846355533
183,0.2409071818344967,0.24090718181971618,2.666849957487854e-06,6.000559075638831,1.8410310544913358,2.0527187530956725,5.7779870574819645,1.0,3.067498134400234,-0.5351124749179252,3.912847616206263e-05,-1.4590611896167467,-2.9290553676392124,-1.5221241384046498
184,0.24090718134687994,0.24090718133209943,2.66693321719214e-06,6.000559075636999,1.8410310549790552,2.0527187528515576,5.7779869043842895,1.0,3.067497965278784,-0.5351113184554218,3.6814971288980306e-05,-1.4590557592506876,-2.9290551529172775,-1.5221187318932297
185,0.24090718089229776,0.24090718087751706,2.66693321719214e-06,6.0005590756352705,1.8410310554337341,2.052718752621845,5.777986760363605,1.0,3.0674978061840115,-0.5351102303597641,3.4638238452366355e-05,-1.4590506499585727,-2.9290549508983785,-1.5221136450210246
186,0.24090718046831378,0.24090718045353277,2.66693321719214e-06,6.000559075633642,1.8410310558578094,2.0527187524056854,5.777986624880426,1.0,3.0674976565200263,-0.535109206590322,3.25901936586267e-05,-1.4590458427589694,-2.929054760830674,-1.5221088588942102
187,0.24090718007269193,0.24090718005791084,2.66693321719214e-06,6.000559075632104,1.8410310562535168,2.052718752202282,5.77798649742748,1.0,3.0674975157265165,-0.5351082433451565,3.0663230512553775e-05,-1.459041319792339,-2.9290545820068585,-1.5221043557353577
188,0.2409071797033793,0.24090717968859793,2.66693321719214e-06,6.000559075630657,1.8410310566229102,2.0527187520108834,5.777986377527772,1.0,3.0674973832766055,-0.5351073370469346,2.8850192026751674e-05,-1.4590370642547579,-2.92905441376152,-1.5221001188175172
189,0.24090717935848338,0.2409071793437025,2.6670164742972004e-06,6.00055907562929,1.8410310569678814,2.052718751830783,5.777986264732756,1.0,3.0674972586748424,-0.5351064843296723,2.714434409047562e-05,-1.45903306033555,-2.929054255468654,-1.522096132402185
190,0.24090717903626568,0.24090717902148448,2.66693321719214e-06,6.000559075628002,1.8410310572901707,2.052718751661313,5.77798615862063,1.0,3.067497141455309,-0.535105682026259,2.5539350502403384e-05,-1.4590292931586006,-2.929054106539328,-1.5220923816809324
191,0.24090717873512338,0.24090717872034204,2.66693321719214e-06,6.00055907562679,1.8410310575913802,2.0527187515018492,5.777986058794727,1.0,3.0674970311798493,-0.5351049271567131,2.402924947291502e-05,-1.4590257487271376,-2.92905396641948,-1.5220888527204741
192,0.24090717845357737,0.24090717843879594,2.6670164742972004e-06,6.000559075625644,1.8410310578729894,2.0527187513518,5.777985964882004,1.0,3.0674969274364035,-0.5351042169171408,2.2608431520175862e-05,-1.4590224138717691,-2.9290538345878567,-1.5220855324109783
193,0.24090717819026478,0.24090717817548332,2.6670164742972004e-06,6.000559075624565,1.8410310581363614,2.052718751210612,5.777985876531632,1.0,3.067496829837441,-0.5351035486693307,2.127161865702902e-05,-1.4590192762015923,-2.929053710554062,-1.5220824084174287
194,0.24090717794392483,0.24090717792914296,2.6670997288032783e-06,6.000559075623551,1.8410310583827576,2.052718751077761,5.777985793413661,1.0,3.0674967380184954,-0.5351029199309766,2.0013844818964022e-05,-1.4590163240581884,-2.9290535938567324,-1.522079469133852
195,0.24090717771339235,0.24090717769861064,2.6670164742972004e-06,6.000559075622595,1.8410310586133425,2.052718750952756,5.777985715217767,1.0,3.067496651636779,-0.5351023283664651,1.8830437435545083e-05,-1.4590135464723353,-2.9290534840618156,-1.5220767036402503
196,0.24090717749759089,0.240907177482809,2.66693321719214e-06,6.000559075621694,1.8410310588291936,2.0527187508351337,5.777985641652084,1.0,3.0674965703698907,-0.5351017717782155,1.771700009693638e-05,-1.4590109331232761,-2.9290533807609522,-1.5220741016620742
197,0.2409071772955237,0.24090717728074168,2.66693321719214e-06,6.000559075620844,1.8410310590313075,2.05271875072446,5.7779855724420965,1.0,3.0674964939145926,-0.5351012480985233,1.6669396237740216e-05,-1.459008474300394,-2.929053283569952,-1.5220716535320888
198,0.24090717710626586,0.2409071770914842,2.6670997288032783e-06,6.000559075620045,1.8410310592206087,2.0527187506203237,5.777985507329605,1.0,3.06749642198567,-0.5351007553818925,1.5683733789103887e-05,-1.4590061608671507,-2.9290531921273644,-1.5220693501544886
199,0.2409071769289625,0.24090717691418062,2.66693321719214e-06,6.0005590756192895,1.8410310593979535,2.0527187505223385,5.77798544607175,1.0,3.067496354314853,-0.5351002917978129,1.4756350731611347e-05,-1.4590039842271565,-2.9290531060931295,-1.522067182971134
200,0.2409071767628184,0.24090717674803633,2.6670164742972004e-06,6.000559075618579,1.8410310595641366,2.0527187504301425,5.777985388440099,1.0,3.067496290649803,-0.5350998556239683,1.3883801503863209e-05,-1.4590019362922424,-2.9290530251473124,-1.5220651439297805
201,0.24090717660709648,0.2409071765923145,2.6670164742972004e-06,6.000559075617912,1.841031059719895,2.0527187503433937,5.777985334219783,1.0,3.067496230753168,-0.5350994452398448,1.3062844212890945e-05,-1.4590000094524211,-2.929052948988911,-1.5220632254541826
202,0.24090717646111268,0.2409071764463303,2.6670997288032783e-06,6.000559075617283,1.8410310598659134,2.0527187502617705,5.777985283208689,1.0,3.0674961744016853,-0.5350990591207155,1.2290428600094e-05,-1.4589981965476222,-2.929052877334735,-1.5220614204159642
203,0.24090717632422834,0.2409071763094461,2.6670997288032783e-06,6.000559075616691,1.84103106000283,2.05271875018497,5.777985235216701,1.0,3.067496121385343,-0.5350986958319808,1.1563684716153555e-05,-1.4589964908410957,-2.92905280991835,-1.5220597221081518
204,0.24090717619585292,0.24090717618107077,2.66693321719214e-06,6.00055907561613,1.8410310601312356,2.0527187501127084,5.777985190064985,1.0,3.067496071506591,-0.5350983540238434,1.087991226762543e-05,-1.4589948859943893,-2.9290527464890883,-1.5220581242202684
205,0.2409071760754354,0.24090717606065326,2.6670164742972004e-06,6.000559075615606,1.8410310602516817,2.0527187500447166,5.7779851475853174,1.0,3.0674960245795995,-0.5350980324262966,1.0236570588941828e-05,-1.4589933760438039,-2.929052686811111,-1.5220566208149005
206,0.2409071759624637,0.24090717594768124,2.6670997288032783e-06,6.000559075615111,1.8410310603646807,2.052718749980742,5.777985107619451,1.0,3.0674959804295607,-0.5350977298444085,9.631269209234664e-06,-1.4589919553782396,-2.929052630662535,-1.5220552063056474
207,0.2409071758564599,0.24090717584167737,2.6670164742972004e-06,6.000559075614643,1.8410310604707099,2.0527187499205484,5.777985070018526,1.0,3.067495938892034,-0.5350974451538862,9.061758975954676e-06,-1.458990618718352,-2.9290525778346033,-1.5220538754363764
208,0.24090717575697942,0.240907175742197,2.6670997288032783e-06,6.0005590756142055,1.841031060570214,2.0527187498639123,5.7779850346425095,1.0,3.0674958998123283,-0.5350971772969011,8.525923702568116e-06,-1.4589893610969389,-2.9290525281309097,-1.5220526232617002
209,0.24090717566360575,0.24090717564882347,2.6670164742972004e-06,6.0005590756137925,1.84103106066361,2.052718749810624,5.777985001359668,1.0,3.067495863044925,-0.5350969252781616,8.021772310761811e-06,-1.4589881778404883,-2.9290524813666674,-1.5220514451286087
210,0.240907175575953,0.24090717556117067,2.6670997288032783e-06,6.000559075613404,1.8410310607512839,2.052718749760484,5.777984970046079,1.0,3.06749582845293,-0.5350966881612155,7.547431434160507e-06,-1.458987064551815,-2.929052437368022,-1.5220503366591875
211,0.24090717549366075,0.24090717547887835,2.66693321719214e-06,6.000559075613039,1.841031060833596,2.052718749713309,5.777984940585165,1.0,3.067495795907562,-0.5350964650649721,7.101138460632261e-06,-1.4589860170937246,-2.929052395971402,-1.522049293734357
212,0.24090717541639095,0.2409071754016084,2.6670997288032783e-06,6.000559075612694,1.8410310609108846,2.052718749668921,5.777984912867256,1.0,3.0674957652876733,-0.5350962551604329,6.681234987854078e-06,-1.4589850315736423,-2.9290523570229134,-1.52204831247857
213,0.24090717534382852,0.24090717532904624,2.6670997288032783e-06,6.0005590756123715,1.8410310609834644,2.052718749627158,5.777984886789181,1.0,3.0674957364792923,-0.5350960576676083,6.2861606601173345e-06,-1.4589841043291512,-2.9290523203777656,-1.522047389245418
214,0.24090717527567937,0.24090717526089686,2.6671829807106168e-06,6.000559075612064,1.8410310610516303,2.0527187495878625,5.77798486225388,1.0,3.067495709375201,-0.5350958718526249,5.9144473764679726e-06,-1.4589832319143847,-2.9290522858997328,-1.5220465206040832
215,0.24090717521166866,0.24090717519688604,2.6670997288032783e-06,6.000559075611776,1.8410310611156566,2.0527187495508903,5.7779848391700455,1.0,3.0674956838745318,-0.5350956970249956,5.56471383299071e-06,-1.4589824110872234,-2.9290522534606467,-1.5220457033265957
216,0.2409071751515394,0.24090717513675705,2.6670997288032783e-06,6.000559075611509,1.8410310611758003,2.052718749516104,5.777984817451777,1.0,3.0674956598823924,-0.5350955325350581,5.23566039526323e-06,-1.4589816387972494,-2.9290522229399207,-1.5220449343758407
217,0.24090717509505077,0.2409071750802682,2.6670997288032783e-06,6.000559075611253,1.8410310612323029,2.052718749483374,5.777984797018261,1.0,3.0674956373095106,-0.5350953777715607,4.9260642693312085e-06,-1.4589809121744117,-2.929052194224101,-1.5220442108942744
218,0.24090717504197656,0.24090717502719408,2.6670164742972004e-06,6.000559075611014,1.84103106128539,2.052718749452578,5.777984777793471,1.0,3.0674956160719007,-0.5350952321593914,4.634774959457499e-06,-1.4589802285183615,-2.9290521672064433,-1.5220435301933104
219,0.24090717499210823,0.24090717497732572,2.6670997288032783e-06,6.000559075610788,1.8410310613352705,2.0527187494236023,5.777984759705882,1.0,3.0674955960905503,-0.5350950951574396,4.360709991629145e-06,-1.4589795852884206,-2.9290521417865185,-1.5220428897433291
220,0.24090717494524808,0.24090717493046532,2.6670997288032783e-06,6.000559075610576,1.8410310613821423,2.052718749396341,5.777984742688204,1.0,3.0674955772911257,-0.5350949662565896,4.102850895652003e-06,-1.4589789800941388,-2.929052117869837,-1.5220422871642805
221,0.24090717490121033,0.24090717488642757,2.6670164742972004e-06,6.000559075610376,1.8410310614261909,2.052718749370691,5.777984726677132,1.0,3.0674955596036937,-0.535094844977828,3.860239420305475e-06,-1.4589784106864123,-2.9290520953674974,-1.5220417202168401
222,0.24090717485982338,0.24090717484504062,2.6670997288032783e-06,6.000559075610187,1.841031061467588,2.052718749346556,5.777984711613108,1.0,3.0674955429624617,-0.5350947308704623,3.6319739718853835e-06,-1.4589778749491265,-2.9290520741958574,-1.5220411867940906
223,0.24090717482092497,0.2409071748061424,2.6670997288032783e-06,6.000559075610012,1.8410310615064958,2.0527187493238492,5.7779846974400995,1.0,3.0674955273055318,-0.5350946235104481,3.41720626526722e-06,-1.4589773708912928,-2.929052054276221,-1.5220406849136923
224,0.2409071747843618,0.2409071747695791,2.6670164742972004e-06,6.000559075609845,1.841031061543068,2.0527187493024845,5.777984684105392,1.0,3.0674955125746703,-0.5350945224988143,3.2151381734076844e-06,-1.45897689663965,-2.929052035534546,-1.5220402127105181
225,0.2409071747499938,0.24090717473521125,2.6670997288032783e-06,6.00055907560969,1.8410310615774443,2.052718749282383,5.77798467155939,1.0,3.0674954987150898,-0.5350944274601785,3.025018759597679e-06,-1.4589764504317035,-2.9290520179011703,-1.522039768429724
226,0.24090717471768586,0.2409071747029033,2.6670997288032783e-06,6.00055907560954,1.8410310616097603,2.0527187492634695,5.777984659755433,1.0,3.067495485675246,-0.5350943380413554,2.8461414900217223e-06,-1.4589760306091766,-2.929052001310552,-1.5220393504202272
227,0.2409071746873139,0.2409071746725313,2.6670997288032783e-06,6.000559075609403,1.8410310616401397,2.0527187492456753,5.7779846486496265,1.0,3.0674954734066446,-0.5350942539100407,2.6778416053009644e-06,-1.4589756356118466,-2.9290519857010247,-1.5220389571285733
228,0.2409071746587606,0.24090717464397762,2.6670997288032783e-06,6.0005590756092735,1.8410310616687005,2.052718749228932,5.7779846382006665,1.0,3.0674954618636625,-0.5350941747535815,2.519493655042918e-06,-1.4589752639717488,-2.9290519710145695,-1.5220385870931616
229,0.24090717463191488,0.24090717461713218,2.6670997288032783e-06,6.00055907560915,1.8410310616955525,2.052718749213179,5.7779846283696985,1.0,3.0674954510033756,-0.5350941002778082,2.3705091681540963e-06,-1.458974914307721,-2.9290519571965987,-1.5220382389388165
230,0.24090717460667335,0.24090717459189062,2.6670997288032783e-06,6.000559075609035,1.8410310617208003,2.052718749198357,5.777984619120166,1.0,3.0674954407854003,-0.5350940302059484,2.230334472062991e-06,-1.45897458532027,-2.9290519441957525,-1.5220379113716755
231,0.24090717458294067,0.24090717456815813,2.6670997288032783e-06,6.000559075608925,1.8410310617445387,2.052718749184412,5.777984610417675,1.0,3.0674954311717415,-0.5350939642775925,2.0984486308642825e-06,-1.4589742757867432,-2.929051931963709,-1.522037603174383
232,0.24090717456062474,0.24090717454584196,2.6670997288032783e-06,6.000559075608824,1.8410310617668604,2.052718749171292,5.777984602229867,1.0,3.0674954221266533,-0.53509390224773,1.9743615121954023e-06,-1.4589739845567857,-2.9290519204550045,-1.5220373132015654
233,0.2409071745396403,0.2409071745248575,2.6670997288032783e-06,6.000559075608726,1.84103106178785,2.0527187491589465,5.777984594526299,1.0,3.0674954136165047,-0.535093843885838,1.8576119653975247e-06,-1.4589737105480642,-2.929051909626863,-1.5220370403755759
234,0.24090717451990767,0.24090717450512503,2.6670997288032783e-06,6.000559075608637,1.8410310618075874,2.0527187491473318,5.777984587278329,1.0,3.0674954056096544,-0.5350937889750229,1.747766106568491e-06,-1.458973452742246,-2.9290518994390387,-1.5220367836824895
235,0.24090717450135113,0.24090717448656826,2.6670164742972004e-06,6.0005590756085505,1.8410310618261487,2.0527187491364027,5.777984580459008,1.0,3.0674953980763333,-0.5350937373112177,1.6444157090411285e-06,-1.4589732101812136,-2.929051889853666,-1.522036542168335
236,0.24090717448390092,0.24090717446911833,2.6670997288032783e-06,6.0005590756084715,1.841031061843603,2.0527187491261203,5.777984574042982,1.0,3.067495390988533,-0.5350936887024202,1.5471766832602972e-06,-1.4589729819635053,-2.929051880835119,-1.5220363149355511
237,0.24090717446749046,0.24090717445270776,2.6670997288032783e-06,6.000559075608394,1.8410310618600176,2.0527187491164463,5.777984568006399,1.0,3.0674953843199035,-0.5350936429679826,1.4556876518681256e-06,-1.4589727672409638,-2.9290518723498775,-1.52203610113965
238,0.2409071744520563,0.24090717443727347,2.6670164742972004e-06,6.000559075608326,1.8410310618754557,2.052718749107345,5.777984562326816,1.0,3.0674953780456513,-0.5350935999379388,1.369608606624567e-06,-1.4589725652155854,-2.929051864366404,-1.5220358999860788
239,0.24090717443754003,0.24090717442275758,2.6670164742972004e-06,6.000559075608258,1.8410310618899752,2.052718749098781,5.777984556983117,1.0,3.067495372142452,-0.5350935594523738,1.2886196443984292e-06,-1.4589723751365535,-2.9290518568550272,-1.522035710727268
240,0.2409071744238875,0.24090717440910456,2.6670997288032783e-06,6.000559075608194,1.8410310619036316,2.052718749090723,5.777984551955438,1.0,3.0674953665883598,-0.5350935213608263,1.2124197769165248e-06,-1.4589721962974493,-2.9290518497878293,-1.522035532659853
241,0.24090717441104695,0.2409071743962645,2.6670997288032783e-06,6.000559075608137,1.841031061916475,2.052718749083142,5.777984547225087,1.0,3.0674953613627265,-0.535093485521733,1.1407258139711513e-06,-1.4589720280336258,-2.9290518431385433,-1.5220353651220602
242,0.24090717439897,0.24090717438418738,2.6670997288032783e-06,6.00055907560808,1.841031061928555,2.052718749076009,5.777984542774479,1.0,3.067495356446127,-0.5350934518019015,1.073271311596428e-06,-1.4589718697197382,-2.9290518368824565,-1.5220352074912475
243,0.2409071743876112,0.24090717437282838,2.6670997288032783e-06,6.0005590756080265,1.8410310619399168,2.0527187490692977,5.77798453858707,1.0,3.067495351820283,-0.535093420076015,1.0098055804525822e-06,-1.4589717207674198,-2.929051830996317,-1.522035059181591
244,0.24090717437692608,0.24090717436214337,2.6670997288032783e-06,6.0005590756079785,1.8410310619506045,2.0527187490629837,5.7779845346472944,1.0,3.067495347468,-0.5350933902261673,9.500927551998306e-07,-1.4589715806230947,-2.929051825458248,-1.5220349196419074
245,0.24090717436687623,0.24090717435209347,2.6670164742972004e-06,6.0005590756079314,1.841031061960657,2.0527187490570427,5.777984530940506,1.0,3.067495343373098,-0.535093362141424,8.939109175296112e-07,-1.4589714487659222,-2.9290518202476665,-1.5220347883536056
246,0.240907174357423,0.24090717434264028,2.6670997288032783e-06,6.00055907560789,1.8410310619701125,2.0527187490514525,5.777984527452926,1.0,3.0674953395203564,-0.5350933357174101,8.410512713580178e-07,-1.4589713247058596,-2.9290518153452068,-1.5220346648287604
247,0.2409071743485307,0.24090717433374803,2.6670164742972004e-06,6.000559075607847,1.841031061979007,2.052718749046193,5.777984524171589,1.0,3.0674953358954533,-0.5350933108559224,7.913173668775449e-07,-1.458971207981842,-2.9290518107326484,-1.522034548608298
248,0.24090717434016704,0.24090717432538414,2.6670997288032783e-06,6.000559075607807,1.8410310619873729,2.052718749041246,5.777984521084299,1.0,3.0674953324849143,-0.5350932874645645,7.44524370681324e-07,-1.4589710981600679,-2.929051806392848,-1.5220344392602916
249,0.24090717433229872,0.24090717431751618,2.6670997288032783e-06,6.000559075607771,1.8410310619952428,2.0527187490365897,5.777984518179581,1.0,3.0674953292760616,-0.5350932654564051,7.00498380384162e-07,-1.4589709948323877,-2.929051802309676,-1.522034336378354
250,0.24090717432489833,0.2409071743101155,2.6670997288032783e-06,6.000559075607737,1.8410310620026453,2.052718749032209,5.7779845154466365,1.0,3.067495326256968,-0.5350932447496513,6.590757748157609e-07,-1.458970897614787,-2.929051798467957,-1.522034239580129
251,0.24090717431793576,0.240907174303153,2.6670997288032783e-06,6.000559075607706,1.8410310620096095,2.052718749028088,5.777984512875308,1.0,3.0674953234164115,-0.5350932252673475,6.201026088889934e-07,-1.4589708061459594,-2.9290517948534127,-1.5220341485058702
252,0.24090717431138714,0.24090717429660433,2.6670997288032783e-06,6.000559075607674,1.8410310620161598,2.0527187490242103,5.777984510456036,1.0,3.067495320743834,-0.535093206937089,5.834340407955633e-07,-1.4589707200859632,-2.92905179145261,-1.5220340628171034
253,0.24090717430522676,0.2409071742904439,2.6671829807106168e-06,6.000559075607646,1.8410310620223218,2.052718749020563,5.77798450817983,1.0,3.0674953182293003,-0.5350931896907521,5.489337934350339e-07,-1.4589706391149577,-2.929051788252909,-1.52203398219537
254,0.24090717429943076,0.24090717428464775,2.6670997288032783e-06,6.00055907560762,1.8410310620281194,2.0527187490171297,5.777984506038228,1.0,3.067495315863465,-0.5350931734642427,5.164736488275401e-07,-1.4589705629320162,-2.9290517852424176,-1.5220339063410413
255,0.2409071742939788,0.24090717427919592,2.6670164742972004e-06,6.000559075607593,1.8410310620335726,2.0527187490139007,5.777984504023271,1.0,3.0674953136375342,-0.5350931581972544,4.859329690167783e-07,-1.4589704912540065,-2.9290517824099473,-1.5220338349722076
256,0.24090717428884925,0.24090717427406666,2.6670997288032783e-06,6.000559075607572,1.8410310620387031,2.0527187490108614,5.777984502127469,1.0,3.067495311543234,-0.5350931438330487,4.571982512587912e-07,-1.4589704238145382,-2.929051779744971,-1.5220337678236289
257,0.24090717428402533,0.24090717426924235,2.6670997288032783e-06,6.000559075607548,1.8410310620435286,2.0527187490080023,5.777984500343775,1.0,3.067495309572781,-0.535093130318241,4.30162703400654e-07,-1.458970360362974,-2.9290517772375844,-1.522033704645749
258,0.24090717427948513,0.2409071742647027,2.6670997288032783e-06,6.000559075607527,1.8410310620480694,2.052718749005313,5.77798449866556,1.0,3.0674953077188505,-0.5350931176026043,4.047258488903306e-07,-1.458970300663497,-2.929051774878468,-1.5220336452037695
259,0.2409071742752151,0.2409071742604323,2.6670997288032783e-06,6.000559075607506,1.841031062052341,2.0527187490027816,5.777984497086586,1.0,3.067495305974552,-0.5350931056388818,3.8079315301306904e-07,-1.4589702444942352,-2.9290517726588545,-1.5220335892767751
260,0.24090717427119826,0.2409071742564154,2.6670997288032783e-06,6.00055907560749,1.8410310620563588,2.052718749000401,5.777984495600985,1.0,3.067495304333402,-0.5350930943826101,3.582756697671439e-07,-1.458970191646436,-2.9290517705704944,-1.522033536656915
261,0.2409071742674183,0.24090717425263558,2.6670164742972004e-06,6.000559075607471,1.8410310620601396,2.05271874899816,5.777984494203234,1.0,3.0674953027893013,-0.5350930837919559,3.3708971389821303e-07,-1.4589701419236913,-2.9290517686056265,-1.5220334871486285
262,0.2409071742638635,0.24090717424908065,2.6670997288032783e-06,6.000559075607454,1.8410310620636954,2.0527187489960523,5.777984492888138,1.0,3.06749530133651,-0.5350930738275588,3.171565478650777e-07,-1.4589700951412075,-2.929051766756948,-1.522033440567919
263,0.24090717426051902,0.24090717424573616,2.6670997288032783e-06,6.000559075607439,1.8410310620670407,2.052718748994069,5.777984491650811,1.0,3.0674952999696288,-0.5350930644523868,2.98402090877019e-07,-1.4589700511251176,-2.929051765017588,-1.5220333967416704
264,0.24090717425737174,0.240907174242589,2.6670997288032783e-06,6.000559075607424,1.8410310620701886,2.052718748992204,5.777984490486651,1.0,3.0674952986835775,-0.5350930556315977,2.8075664281535336e-07,-1.4589700097118363,-2.929051763381082,-1.5220333555070027
265,0.24090717425441094,0.24090717423962812,2.6670164742972004e-06,6.000559075607411,1.8410310620731503,2.0527187489904475,5.777984489391334,1.0,3.0674952974735756,-0.5350930473324097,2.641546250691104e-07,-1.4589699707474515,-2.9290517618413485,-1.522033316710668
266,0.24090717425162528,0.2409071742368426,2.6670997288032783e-06,6.000559075607398,1.8410310620759365,2.0527187489887955,5.777984488360787,1.0,3.0674952963351267,-0.5350930395239772,2.4853433488799685e-07,-1.458969934087153,-2.9290517603926647,-1.5220332802084808
267,0.2409071742490055,0.24090717423422245,2.6670997288032783e-06,6.000559075607387,1.8410310620785573,2.0527187489872416,5.777984487391182,1.0,3.067495295263999,-0.5350930321772814,2.338377208031854e-07,-1.4589698995946925,-2.929051759029646,-1.5220332458647812
268,0.24090717424653996,0.24090717423175706,2.6670997288032783e-06,6.000559075607375,1.8410310620810233,2.052718748985779,5.777984486478912,1.0,3.067495294256212,-0.5350930252650186,2.2001016300204278e-07,-1.4589698671418792,-2.9290517577472275,-1.522033213551931
269,0.24090717424422062,0.24090717422943791,2.6670997288032783e-06,6.000559075607363,1.841031062083343,2.052718748984403,5.777984485620589,1.0,3.067495293308019,-0.5350930187614987,2.0700027109407253e-07,-1.4589698366081025,-2.9290517565406424,-1.5220331831498404
270,0.24090717424203834,0.24090717422725577,2.6670997288032783e-06,6.000559075607353,1.8410310620855257,2.052718748983109,5.777984484813023,1.0,3.0674952924158965,-0.5350930126425518,1.9475969420832485e-07,-1.458969807879884,-2.929051755405407,-1.5220331545455201
271,0.24090717423998553,0.24090717422520302,2.6670997288032783e-06,6.000559075607344,1.841031062087579,2.052718748981891,5.777984484053211,1.0,3.067495291576529,-0.5350930068854378,1.8324294125844007e-07,-1.4589697808504554,-2.929051754337302,-1.5220331276326622
272,0.24090717423805408,0.24090717422327151,2.6670997288032783e-06,6.000559075607336,1.841031062089511,2.052718748980745,5.777984483338329,1.0,3.0674952907867965,-0.53509300146876,1.7240720988923936e-07,-1.4589697554193617,-2.9290517533323572,-1.5220331023112454
273,0.24090717423623734,0.24090717422145452,2.6670997288032783e-06,6.000559075607327,1.8410310620913284,2.052718748979667,5.777984482665722,1.0,3.067495290043764,-0.5350929963723867,1.6221222859267208e-07,-1.4589697314920886,-2.9290517523868385,-1.5220330784871634
274,0.24090717423452765,0.24090717421974497,2.6670997288032783e-06,6.0005590756073195,1.8410310620930384,2.052718748978653,5.777984482032888,1.0,3.06749528934467,-0.5350929915773781,1.5262010861153454e-07,-1.4589697089797105,-2.929051751497231,-1.5220330560718738
275,0.2409071742329192,0.24090717421813646,2.6670164742972004e-06,6.000559075607312,1.8410310620946473,2.052718748977698,5.777984481437477,1.0,3.067495288686916,-0.5350929870659132,1.4359520055024101e-07,-1.45896968779856,-2.929051750660229,-1.5220330349820703
276,0.24090717423140692,0.24090717421662425,2.6670997288032783e-06,6.000559075607305,1.8410310620961599,2.0527187489768,5.777984480877273,1.0,3.0674952880680575,-0.535092982821225,1.3510396321983243e-07,-1.458969667869918,-2.9290517498727215,-1.5220330151393733
277,0.240907174229983,0.2409071742152002,2.6670997288032783e-06,6.000559075607299,1.8410310620975843,2.052718748975955,5.777984480350197,1.0,3.0674952874857944,-0.5350929788275386,1.2711483947111812e-07,-1.4589696491197193,-2.9290517491317822,-1.522032996470037
278,0.24090717422864408,0.24090717421386115,2.6670997288032783e-06,6.000559075607291,1.8410310620989236,2.0527187489751606,5.777984479854288,1.0,3.067495286937963,-0.5350929750700112,1.195981374969779e-07,-1.458969631478279,-2.929051748434657,-1.5220329789046774
279,0.24090717422738364,0.24090717421260094,2.6671829807106168e-06,6.000559075607286,1.8410310621001842,2.0527187489744128,5.777984479387705,1.0,3.0674952864225262,-0.5350929715346784,1.1252592192672495e-07,-1.4589696148800326,-2.929051747778755,-1.5220329623780127
280,0.2409071742261981,0.2409071742114155,2.6670997288032783e-06,6.0005590756072795,1.84103106210137,2.0527187489737093,5.777984478948712,1.0,3.0674952859375693,-0.5350929682084008,1.0587190852701648e-07,-1.4589695992632932,-2.929051747161639,-1.5220329468286216
281,0.24090717422508265,0.24090717421029978,2.6670997288032783e-06,6.000559075607274,1.841031062102486,2.0527187489730467,5.777984478535679,1.0,3.06749528548129,-0.5350929650788167,9.961136810382233e-08,-1.4589695845700208,-2.929051746581015,-1.5220329321987147
282,0.24090717422403354,0.24090717420925067,2.6670997288032783e-06,6.000559075607269,1.8410310621035353,2.0527187489724246,5.7779844781470695,1.0,3.0674952850519914,-0.535092962134294,9.372103256918001e-08,-1.458969570745608,-2.929051746034725,-1.5220329184339205
283,0.24090717422304556,0.2409071742082626,2.6670997288032783e-06,6.000559075607264,1.8410310621045236,2.052718748971838,5.77798447778144,1.0,3.067495284648079,-0.5350929593638911,8.817901176563332e-08,-1.4589695577386765,-2.9290517455207388,-1.5220329054830817
284,0.2409071742221165,0.24090717420733357,2.6670997288032783e-06,6.000559075607261,1.8410310621054529,2.052718748971287,5.777984477437432,1.0,3.067495284268052,-0.5350929567573103,8.296470764402617e-08,-1.458969545500886,-2.9290517450371465,-1.522032893298067
285,0.24090717422124266,0.24090717420646005,2.6670997288032783e-06,6.000559075607256,1.8410310621063266,2.052718748970768,5.777984477113766,1.0,3.0674952839104965,-0.5350929543048649,7.805874182608327e-08,-1.4589695339867548,-2.9290517445821505,-1.5220328818335904
286,0.24090717422041988,0.24090717420563712,2.6670997288032783e-06,6.000559075607253,1.8410310621071497,2.0527187489702796,5.77798447680924,1.0,3.067495283574085,-0.5350929519974407,7.344288153124711e-08,-1.4589695231534905,-2.92905174415406,-1.5220328710470445
287,0.24090717421964633,0.2409071742048635,2.6670997288032783e-06,6.00055907560725,1.8410310621079236,2.0527187489698204,5.777984476522722,1.0,3.067495283257567,-0.5350929498264615,6.90999713949565e-08,-1.4589695129608315,-2.929051743751284,-1.5220328608983411
288,0.24090717421891888,0.24090717420413604,2.6671829807106168e-06,6.0005590756072476,1.8410310621086512,2.0527187489693883,5.777984476253146,1.0,3.0674952829597655,-0.5350929477838591,6.501387116406787e-08,-1.4589695033708967,-2.9290517433723253,-1.5220328513497627
289,0.2409071742182333,0.24090717420345054,2.6670997288032783e-06,6.000559075607242,1.8410310621093369,2.052718748968982,5.777984475999511,1.0,3.067495282679574,-0.5350929458620423,6.116939497845238e-08,-1.4589694943480451,-2.9290517430157754,-1.522032842365822
290,0.24090717421758862,0.24090717420280564,2.6670997288032783e-06,6.000559075607241,1.841031062109982,2.0527187489685987,5.777984475760875,1.0,3.067495282415951,-0.5350929440538689,5.755225518377435e-08,-1.4589694858587432,-2.9290517426803095,-1.52203283391313
291,0.2409071742169834,0.24090717420220029,2.6670997288032783e-06,6.000559075607239,1.8410310621105874,2.0527187489682395,5.77798447553635,1.0,3.067495282167917,-0.5350929423526175,5.4149007333901436e-08,-1.4589694778714408,-2.929051742364681,-1.5220328259602725
292,0.24090717421641233,0.24090717420162958,2.6670997288032783e-06,6.000559075607234,1.8410310621111583,2.052718748967901,5.777984475325102,1.0,3.0674952819345505,-0.5350929407519668,5.094700452591853e-08,-1.4589694703564529,-2.9290517420677165,-1.5220328184776926
293,0.24090717421587535,0.24090717420109256,2.6670997288032783e-06,6.0005590756072325,1.8410310621116954,2.052718748967582,5.777984475126345,1.0,3.0674952817149834,-0.5350929392459681,4.7934346859367384e-08,-1.4589694632858499,-2.9290517417883124,-1.5220328114375812
294,0.24090717421537136,0.24090717420058866,2.6671829807106168e-06,6.000559075607231,1.8410310621121995,2.052718748967283,5.777984474939342,1.0,3.0674952815084002,-0.5350929378290238,4.5099837004740815e-08,-1.4589694566333542,-2.9290517415254307,-1.522032804813774
295,0.24090717421489571,0.2409071742001127,2.6670997288032783e-06,6.000559075607227,1.8410310621126755,2.0527187489670005,5.777984474763397,1.0,3.067495281314033,-0.5350929364958681,4.243294091751543e-08,-1.4589694503742416,-2.929051741278094,-1.5220327985816533
296,0.24090717421444832,0.24090717419966562,2.6670997288032783e-06,6.000559075607225,1.8410310621131227,2.052718748966735,5.777984474597856,1.0,3.0674952811311593,-0.535092935241546,3.992374673485033e-08,-1.4589694444852501,-2.9290517410453827,-1.5220327927180577
297,0.24090717421402816,0.24090717419924518,2.6670164742972004e-06,6.0005590756072245,1.8410310621135433,2.0527187489664853,5.777984474442104,1.0,3.0674952809590996,-0.5350929340613955,3.75629286943809e-08,-1.4589694389444934,-2.9290517408264325,-1.5220327872011952
298,0.24090717421363236,0.24090717419884958,2.6670997288032783e-06,6.000559075607222,1.841031062113939,2.052718748966251,5.777984474295563,1.0,3.067495280797214,-0.5350929329510309,3.534171320254759e-08,-1.4589694337313792,-2.9290517406204297,-1.5220327820105624
299,0.24090717421326016,0.2409071741984773,2.6670997288032783e-06,6.000559075607221,1.8410310621143113,2.0527187489660292,5.7779844741576865,1.0,3.0674952806449016,-0.5350929319063262,3.325184578323301e-08,-1.4589694288265331,-2.9290517404266083,-1.5220327771268678
300,0.2409071742129102,0.24090717419812743,2.6670164742972004e-06,6.000559075607219,1.8410310621146613,2.052718748965822,5.777984474027963,1.0,3.067495280501596,-0.5350929309233978,3.128555840816791e-08,-1.4589694242117262,-2.9290517402442484,-1.5220327725319618
301,0.24090717421258004,0.24090717419779759,2.6670997288032783e-06,6.000559075607217,1.8410310621149912,2.052718748965626,5.77798447390591,1.0,3.067495280366764,-0.5350929299985934,2.9435544053301368e-08,-1.4589694198698073,-2.929051740072672,-1.522032768208767
302,0.24090717421227026,0.24090717419748744,2.6670997288032783e-06,6.000559075607216,1.8410310621153014,2.0527187489654417,5.777984473791075,1.0,3.0674952802399056,-0.5350929291284757,2.7694927107664787e-08,-1.45896941578464,-2.9290517399112415,-1.5220327641412164
303,0.24090717421197896,0.2409071741971962,2.6670997288032783e-06,6.000559075607215,1.8410310621155928,2.0527187489652685,5.777984473683031,1.0,3.0674952801205486,-0.5350929283098106,2.6057238027448208e-08,-1.4589694119410415,-2.9290517397593567,-1.522032760314193
304,0.24090717421170454,0.24090717419692184,2.6671829807106168e-06,6.000559075607211,1.8410310621158672,2.052718748965106,5.777984473581375,1.0,3.0674952800082496,-0.5350929275395554,2.4516390478008328e-08,-1.4589694083247273,-2.9290517396164533,-1.5220327567134737
305,0.2409071742114463,0.24090717419666322,2.6670164742972004e-06,6.000559075607212,1.8410310621161259,2.0527187489649523,5.7779844734857315,1.0,3.067495279902591,-0.5350929268148483,2.306665856786327e-08,-1.458969404922257,-2.9290517394820004,-1.5220327533256766
306,0.24090717421120325,0.24090717419642035,2.6670997288032783e-06,6.000559075607209,1.8410310621163688,2.052718748964808,5.777984473395743,1.0,3.0674952798031807,-0.5350929261329954,2.17026538686871e-08,-1.4589694017209858,-2.929051739355498,-1.5220327501382103
307,0.24090717421097493,0.24090717419619215,2.6670997288032783e-06,6.0005590756072085,1.841031062116597,2.0527187489646725,5.777984473311076,1.0,3.0674952797096484,-0.5350929254914625,2.041930687211594e-08,-1.4589693987090158,-2.9290517392364763,-1.5220327471392292
308,0.2409071742107596,0.24090717419597682,2.6670997288032783e-06,6.0005590756072085,1.8410310621168124,2.0527187489645446,5.777984473231416,1.0,3.0674952796216473,-0.5350929248878656,1.9211848526625442e-08,-1.458969395875153,-2.9290517391244926,-1.5220327443175874
309,0.24090717421055763,0.24090717419577481,2.6670997288032783e-06,6.000559075607208,1.8410310621170145,2.0527187489644247,5.777984473156466,1.0,3.06749527953885,-0.5350929243199612,1.807579089981923e-08,-1.4589693932088659,-2.9290517390191306,-1.5220327416627981
310,0.24090717421036664,0.24090717419558413,2.6670997288032783e-06,6.000559075607208,1.8410310621172052,2.0527187489643115,5.777984473085948,1.0,3.0674952794609487,-0.5350929237856391,1.700691219126159e-08,-1.4589693907002446,-2.9290517389199993,-1.5220327391649948
311,0.24090717421018779,0.24090717419540497,2.6670997288032783e-06,6.000559075607205,1.8410310621173844,2.052718748964205,5.7779844730196,1.0,3.067495279387654,-0.5350929232829129,1.6001239457080193e-08,-1.4589693883399661,-2.92905173882673,-1.5220327368148947
312,0.2409071742100191,0.24090717419523625,2.6670997288032783e-06,6.000559075607205,1.8410310621175532,2.0527187489641054,5.777984472957176,1.0,3.0674952793186936,-0.5350929228099142,1.5055034959228016e-08,-1.4589693861192585,-2.9290517387389756,-1.5220327346037636
313,0.24090717420986058,0.24090717419507776,2.6670997288032783e-06,6.000559075607204,1.8410310621177117,2.052718748964011,5.777984472898442,1.0,3.067495279253811,-0.5350929223648859,1.4164783128625718e-08,-1.4589693840298683,-2.9290517386564106,-1.5220327325233836
314,0.24090717420971183,0.24090717419492924,2.6670997288032783e-06,6.000559075607204,1.8410310621178603,2.0527187489639225,5.777984472843182,1.0,3.0674952791927645,-0.5350929219461732,1.3327174399801368e-08,-1.4589693820640304,-2.9290517385787282,-1.522032730566023
315,0.24090717420957106,0.2409071741947883,2.6670997288032783e-06,6.000559075607203,1.8410310621180013,2.052718748963839,5.77798447279119,1.0,3.0674952791353283,-0.5350929215522204,1.2539096189993116e-08,-1.4589693802144386,-2.929051738505639,-1.5220327287244075
316,0.24090717420943966,0.24090717419465688,2.6670997288032783e-06,6.000559075607201,1.8410310621181327,2.0527187489637604,5.777984472742272,1.0,3.067495279081289,-0.5350929211815633,1.1797619531043976e-08,-1.458969378474219,-2.9290517384368724,-1.5220327269916925
317,0.24090717420931523,0.24090717419453234,2.6670997288032783e-06,6.000559075607201,1.8410310621182573,2.052718748963687,5.777984472696247,1.0,3.067495279030444,-0.535092920832824,1.1099988474720869e-08,-1.4589693768369043,-2.9290517383721717,-1.5220327253614385
318,0.24090717420919877,0.2409071741944158,2.6670164742972004e-06,6.000559075607201,1.8410310621183739,2.0527187489636174,5.7779844726529435,1.0,3.0674952789826064,-0.5350929205047071,1.0443610922636735e-08,-1.4589693752964092,-2.9290517383112973,-1.5220327238275866
319,0.2409071742090883,0.24090717419430568,2.6671829807106168e-06,6.000559075607201,1.841031062118484,2.0527187489635526,5.777984472612201,1.0,3.0674952789375975,-0.5350929201959926,9.826046844797544e-09,-1.4589693738470086,-2.929051738254022,-1.5220327223844363
320,0.24090717420898528,0.24090717419420224,2.6670997288032783e-06,6.000559075607201,1.8410310621185875,2.0527187489634913,5.777984472573867,1.0,3.0674952788952505,-0.5350929199055339,9.24500174949642e-09,-1.4589693724833155,-2.929051738200134,-1.5220327210266238
321,0.24090717420888735,0.24090717419410457,2.6670164742972004e-06,6.000559075607199,1.8410310621186852,2.0527187489634326,5.7779844725378,1.0,3.0674952788554073,-0.535092919632251,8.698315782645684e-09,-1.4589693712002618,-2.929051738149433,-1.522032719749103
322,0.24090717420879584,0.2409071741940131,2.6670997288032783e-06,6.000559075607199,1.8410310621187767,2.052718748963378,5.777984472503866,1.0,3.0674952788179204,-0.5350929193751278,8.183956758231682e-09,-1.4589693699930792,-2.92905173810173,-1.5220327185471263
323,0.2409071742087091,0.2409071741939263,2.6670997288032783e-06,6.000559075607199,1.8410310621188635,2.0527187489633274,5.777984472471939,1.0,3.06749527878265,-0.5350929191332087,7.700012931397379e-09,-1.4589693688572813,-2.929051738056847,-1.5220327174162263
324,0.2409071742086289,0.24090717419384594,2.6670997288032783e-06,6.0005590756072,1.8410310621189439,2.05271874896328,5.7779844724419,1.0,3.067495278749465,-0.5350929189055952,7.244686424011247e-09,-1.4589693677886466,-2.9290517380146186,-1.5220327163522
325,0.24090717420855196,0.24090717419376914,2.6670997288032783e-06,6.000559075607199,1.8410310621190207,2.0527187489632337,5.777984472413636,1.0,3.067495278718243,-0.5350929186914417,6.8162853033213986e-09,-1.4589693667832038,-2.9290517379748873,-1.5220327153510929
326,0.24090717420848007,0.24090717419369742,2.6670997288032783e-06,6.000559075607199,1.8410310621190924,2.0527187489631915,5.777984472387044,1.0,3.0674952786888667,-0.5350929184899514,6.4132166190830316e-09,-1.4589693658372158,-2.929051737937505,-1.5220327144091845
327,0.24090717420841293,0.24090717419363017,2.6670164742972004e-06,6.000559075607197,1.8410310621191597,2.052718748963151,5.777984472362024,1.0,3.0674952786612275,-0.5350929183003763,6.033983000525369e-09,-1.4589693649471671,-2.9290517379023338,-1.522032713522974
328,0.240907174208349,0.24090717419356603,2.6670997288032783e-06,6.000559075607195,1.8410310621192238,2.052718748963113,5.777984472338484,1.0,3.067495278635223,-0.5350929181220112,5.677174443317235e-09,-1.4589693641097499,-2.929051737869242,-1.5220327126891682
329,0.2409071742082894,0.24090717419350674,2.6670997288032783e-06,6.000559075607197,1.8410310621192831,2.052718748963078,5.777984472316337,1.0,3.0674952786107554,-0.5350929179541928,5.3414645886316065e-09,-1.458969363321852,-2.9290517378381073,-1.5220327119046682
330,0.24090717420823338,0.2409071741934508,2.6670164742972004e-06,6.000559075607197,1.841031062119339,2.052718748963045,5.7779844722955,1.0,3.0674952785877356,-0.5350929177962984,5.025606713381304e-09,-1.4589693625805449,-2.929051737808814,-1.522032711166558
331,0.24090717420818056,0.24090717419339774,2.6670164742972004e-06,6.000559075607197,1.8410310621193922,2.0527187489630134,5.777984472275893,1.0,3.067495278566077,-0.5350929176477414,4.728427054268833e-09,-1.4589693618830737,-2.9290517377812524,-1.522032710472094
332,0.2409071742081302,0.24090717419334737,2.6670164742972004e-06,6.000559075607197,1.8410310621194426,2.0527187489629832,5.7779844722574465,1.0,3.067495278545699,-0.5350929175079688,4.448820385273247e-09,-1.458969361226846,-2.9290517377553207,-1.5220327098186963
333,0.24090717420808386,0.24090717419330096,2.6670997288032783e-06,6.000559075607197,1.841031062119489,2.0527187489629557,5.777984472240091,1.0,3.067495278526526,-0.5350929173764608,4.185747187985259e-09,-1.4589693606094234,-2.9290517377309224,-1.522032709203936
334,0.24090717420804023,0.24090717419325722,2.6670164742972004e-06,6.000559075607196,1.8410310621195327,2.0527187489629295,5.7779844722237605,1.0,3.0674952785084866,-0.5350929172527294,3.938230464004287e-09,-1.458969360028511,-2.929051737707967,-1.5220327086255288
335,0.24090717420799768,0.24090717419321506,2.6670164742972004e-06,6.000559075607194,1.841031062119575,2.0527187489629055,5.777984472208397,1.0,3.067495278491514,-0.5350929171363147,3.7053501070652795e-09,-1.4589693594819497,-2.9290517376863687,-1.5220327080813245
336,0.24090717420795923,0.24090717419317642,2.6670997288032783e-06,6.000559075607196,1.8410310621196135,2.052718748962882,5.777984472193942,1.0,3.067495278475545,-0.5350929170267846,3.4862415251439603e-09,-1.4589693589677082,-2.9290517376660477,-1.5220327075693005
337,0.24090717420792224,0.24090717419313934,2.6670997288032783e-06,6.000559075607195,1.8410310621196506,2.0527187489628598,5.777984472180341,1.0,3.0674952784605205,-0.5350929169237312,3.2800891332284765e-09,-1.4589693584838754,-2.9290517376469287,-1.5220327070875541
338,0.2409071742078874,0.24090717419310473,2.6670997288032783e-06,6.000559075607195,1.8410310621196853,2.0527187489628393,5.777984472167545,1.0,3.0674952784463843,-0.5350929168267712,3.0861269076229642e-09,-1.4589693580286531,-2.92905173762894,-1.5220327066342951
339,0.2409071742078555,0.24090717419307275,2.6670997288032783e-06,6.000559075607195,1.8410310621197172,2.05271874896282,5.777984472155506,1.0,3.067495278433084,-0.5350929167355447,2.903634162659596e-09,-1.4589693576003497,-2.929051737612015,-1.522032706207839
340,0.24090717420782534,0.24090717419304233,2.6671829807106168e-06,6.000559075607196,1.8410310621197477,2.052718748962802,5.777984472144178,1.0,3.06749527842057,-0.5350929166497127,2.731932771554913e-09,-1.4589693571973734,-2.9290517375960907,-1.5220327058066003
341,0.24090717420779623,0.24090717419301327,2.6670997288032783e-06,6.000559075607197,1.8410310621197767,2.0527187489627847,5.777984472133521,1.0,3.067495278408796,-0.5350929165689564,2.5703848924783465e-09,-1.4589693568182263,-2.9290517375811085,-1.522032705429088
342,0.2409071742077695,0.24090717419298663,2.6670997288032783e-06,6.000559075607196,1.8410310621198034,2.052718748962769,5.777984472123492,1.0,3.0674952783977187,-0.5350929164929753,2.41838959935884e-09,-1.4589693564614994,-2.929051737567012,-1.5220327050738993
343,0.24090717420774377,0.24090717419296087,2.6670997288032783e-06,6.000559075607195,1.8410310621198291,2.052718748962754,5.777984472114057,1.0,3.0674952783872964,-0.5350929164214875,2.275382696004892e-09,-1.4589693561258668,-2.9290517375537495,-1.522032704739714
344,0.24090717420771976,0.2409071741929369,2.6670997288032783e-06,6.000559075607194,1.8410310621198531,2.0527187489627403,5.77798447210518,1.0,3.06749527837749,-0.535092916354227,2.1408320943662323e-09,-1.4589693558100811,-2.9290517375412706,-1.5220327044252902
345,0.24090717420769672,0.24090717419291405,2.6671829807106168e-06,6.000559075607193,1.841031062119876,2.0527187489627265,5.777984472096827,1.0,3.0674952783682636,-0.5350929162909442,2.0142383159330935e-09,-1.4589693555129688,-2.9290517375295297,-1.522032704129459
346,0.24090717420767524,0.24090717419289273,2.6671829807106168e-06,6.000559075607195,1.8410310621198973,2.0527187489627132,5.77798447208897,1.0,3.067495278359583,-0.5350929162314035,1.895130446225756e-09,-1.4589693552334255,-2.929051737518483,-1.5220327038511214
347,0.24090717420765573,0.24090717419287275,2.6670997288032783e-06,6.000559075607193,1.8410310621199173,2.0527187489627012,5.777984472081576,1.0,3.0674952783514158,-0.535092916175383,1.7830651167443194e-09,-1.4589693549704128,-2.92905173750809,-1.522032703589243
348,0.24090717420763713,0.24090717419285432,2.6670997288032783e-06,6.000559075607193,1.8410310621199357,2.0527187489626906,5.777984472074619,1.0,3.067495278343731,-0.535092916122675,1.6776264577837915e-09,-1.4589693547229527,-2.929051737498311,-1.5220327033428502
349,0.24090717420761965,0.24090717419283678,2.6670997288032783e-06,6.000559075607194,1.8410310621199533,2.0527187489626804,5.777984472068075,1.0,3.0674952783365006,-0.5350929160730841,1.57842290463513e-09,-1.4589693544901259,-2.9290517374891105,-1.5220327031110275
350,0.24090717420760263,0.24090717419281968,2.6670164742972004e-06,6.0005590756071925,1.8410310621199704,2.05271874896267,5.777984472061918,1.0,3.067495278329698,-0.5350929160264263,1.4850862781943773e-09,-1.4589693542710667,-2.9290517374804543,-1.5220327028929128
351,0.24090717420758673,0.24090717419280394,2.6670997288032783e-06,6.000559075607193,1.8410310621199861,2.0527187489626604,5.777984472056125,1.0,3.067495278323298,-0.535092915982527,1.3972683323616071e-09,-1.458969354064961,-2.9290517374723097,-1.5220327026876963
352,0.24090717420757274,0.24090717419278995,2.6670997288032783e-06,6.000559075607194,1.8410310621200001,2.0527187489626524,5.777984472050674,1.0,3.067495278317276,-0.5350929159412231,1.3146430289256336e-09,-1.4589693538710435,-2.9290517374646465,-1.522032702494615
353,0.24090717420755908,0.24090717419277619,2.6670997288032783e-06,6.000559075607196,1.8410310621200139,2.052718748962644,5.777984472045546,1.0,3.0674952783116103,-0.5350929159023623,1.2369042421848456e-09,-1.4589693536885928,-2.9290517374574367,-1.522032702312951
354,0.24090717420754565,0.24090717419276264,2.6670164742972004e-06,6.000559075607193,1.8410310621200274,2.052718748962636,5.777984472040719,1.0,3.06749527830628,-0.5350929158657991,1.163761920764398e-09,-1.4589693535169312,-2.9290517374506533,-1.5220327021420292
355,0.24090717420753308,0.24090717419275043,2.6670997288032783e-06,6.000559075607194,1.8410310621200396,2.052718748962629,5.777984472036179,1.0,3.0674952783012643,-0.5350929158313983,1.0949450912456741e-09,-1.4589693533554202,-2.929051737444271,-1.5220327019812148
356,0.24090717420752233,0.24090717419273933,2.6670997288032783e-06,6.000559075607193,1.8410310621200507,2.052718748962622,5.777984472031908,1.0,3.0674952782965454,-0.5350929157990314,1.0301973956174658e-09,-1.45896935320346,-2.929051737438266,-1.5220327018299098
357,0.24090717420751107,0.24090717419272822,2.6670997288032783e-06,6.000559075607194,1.8410310621200618,2.0527187489626155,5.777984472027889,1.0,3.0674952782921054,-0.5350929157685786,9.692785030104185e-10,-1.4589693530604857,-2.929051737432616,-1.522032701687552
358,0.24090717420750127,0.24090717419271823,2.6670997288032783e-06,6.0005590756071925,1.8410310621200718,2.05271874896261,5.777984472024107,1.0,3.0674952782879283,-0.5350929157399265,9.119617580772634e-10,-1.458969352925966,-2.9290517374273004,-1.5220327015536121
359,0.2409071742074914,0.24090717419270846,2.6670164742972004e-06,6.000559075607192,1.8410310621200816,2.0527187489626044,5.777984472020549,1.0,3.067495278283998,-0.5350929157129694,8.58035133270138e-10,-1.4589693527994005,-2.929051737422299,-1.5220327014275925
360,0.2409071742074817,0.24090717419269891,2.6670997288032783e-06,6.000559075607193,1.8410310621200912,2.052718748962598,5.777984472017202,1.0,3.0674952782803,-0.5350929156876062,8.072972348045804e-10,-1.4589693526803191,-2.9290517374175935,-1.522032701309025
361,0.24090717420747307,0.24090717419269028,2.6670997288032783e-06,6.0005590756071925,1.8410310621200998,2.0527187489625933,5.777984472014053,1.0,3.067495278276821,-0.5350929156637422,7.595589546080735e-10,-1.4589693525682796,-2.9290517374131664,-1.5220327011974686
362,0.24090717420746519,0.2409071741926825,2.6670164742972004e-06,6.000559075607193,1.8410310621201076,2.052718748962588,5.77798447201109,1.0,3.0674952782735474,-0.5350929156412894,7.146435894738629e-10,-1.4589693524628655,-2.929051737409001,-1.522032701092509
363,0.2409071742074577,0.24090717419267518,2.6670997288032783e-06,6.000559075607193,1.841031062120115,2.0527187489625844,5.777984472008302,1.0,3.0674952782704676,-0.5350929156201641,6.723841119618926e-10,-1.4589693523636849,-2.9290517374050817,-1.522032700993756
364,0.24090717420745109,0.24090717419266808,2.6670997288032783e-06,6.000559075607192,1.841031062120122,2.05271874896258,5.777984472005678,1.0,3.06749527826757,-0.5350929156002887,6.326243014068525e-10,-1.4589693522703688,-2.9290517374013945,-1.5220327009008425
365,0.24090717420744415,0.2409071741926612,2.6670997288032783e-06,6.000559075607193,1.841031062120129,2.052718748962576,5.777984472003211,1.0,3.0674952782648433,-0.5350929155815883,5.952152608137486e-10,-1.458969352182571,-2.929051737397925,-1.5220327008134233
366,0.24090717420743757,0.24090717419265498,2.6670997288032783e-06,6.000559075607195,1.8410310621201351,2.0527187489625724,5.777984472000889,1.0,3.067495278262278,-0.5350929155639937,5.600183223046193e-10,-1.458969352099965,-2.9290517373946603,-1.5220327007311736
367,0.24090717420743182,0.2409071741926492,2.6670997288032783e-06,6.000559075607192,1.841031062120141,2.052718748962569,5.777984471998703,1.0,3.067495278259865,-0.5350929155474394,5.269026187637095e-10,-1.4589693520222438,-2.9290517373915894,-1.5220327006537873
368,0.24090717420742655,0.24090717419264365,2.6670997288032783e-06,6.000559075607193,1.8410310621201464,2.0527187489625653,5.777984471996648,1.0,3.067495278257594,-0.5350929155318641,4.957451453208409e-10,-1.4589693519491183,-2.9290517373886997,-1.5220327005809773
369,0.24090717420742094,0.24090717419263832,2.6670997288032783e-06,6.000559075607193,1.8410310621201518,2.0527187489625627,5.777984471994714,1.0,3.0674952782554574,-0.5350929155172097,4.664300320365022e-10,-1.458969351880317,-2.929051737385981,-1.5220327005124727
370,0.24090717420741622,0.24090717419263347,2.6670997288032783e-06,6.000559075607193,1.8410310621201567,2.052718748962559,5.7779844719928946,1.0,3.0674952782534475,-0.5350929155034222,4.3884877649010343e-10,-1.4589693518155842,-2.929051737383423,-1.522032700448019
371,0.24090717420741195,0.24090717419262925,2.6671829807106168e-06,6.0005590756071925,1.8410310621201609,2.052718748962557,5.777984471991182,1.0,3.067495278251556,-0.5350929154904496,4.1289802322940975e-10,-1.4589693517546793,-2.929051737381016,-1.5220327003873768
372,0.24090717420740748,0.24090717419262456,2.6670997288032783e-06,6.000559075607192,1.8410310621201655,2.052718748962554,5.777984471989571,1.0,3.0674952782497766,-0.5350929154782441,3.884819382678414e-10,-1.458969351697376,-2.9290517373787517,-1.5220327003303205
373,0.24090717420740343,0.24090717419262078,2.6670997288032783e-06,6.0005590756071925,1.8410310621201693,2.052718748962552,5.777984471988056,1.0,3.067495278248102,-0.5350929154667603,3.6550952431062956e-10,-1.4589693516434612,-2.929051737376621,-1.5220327002766383
374,0.24090717420739935,0.24090717419261656,2.6670997288032783e-06,6.000559075607193,1.8410310621201735,2.05271874896255,5.777984471986629,1.0,3.067495278246527,-0.5350929154559559,3.438959333532838e-10,-1.4589693515927344,-2.9290517373746163,-1.5220327002261302
375,0.24090717420739557,0.2409071741926128,2.6671829807106168e-06,6.000559075607191,1.8410310621201773,2.052718748962547,5.777984471985287,1.0,3.067495278245045,-0.5350929154457906,3.235605564075698e-10,-1.4589693515450073,-2.9290517373727303,-1.522032700178609
376,0.2409071742073919,0.24090717419260949,2.6670997288032783e-06,6.0005590756071925,1.8410310621201806,2.0527187489625454,5.777984471984025,1.0,3.0674952782436504,-0.535092915436226,3.0442717744824304e-10,-1.4589693515001023,-2.9290517373709557,-1.5220327001338978
377,0.240907174207389,0.24090717419260613,2.6670164742972004e-06,6.0005590756071925,1.841031062120184,2.052718748962543,5.777984471982838,1.0,3.0674952782423386,-0.5350929154272271,2.8642557055083557e-10,-1.4589693514578528,-2.9290517373692864,-1.5220327000918303
378,0.2409071742073869,0.24090717419260416,2.6671829807106168e-06,6.0005590756071925,1.841031062120186,2.0527187489625423,5.77798447198172,1.0,3.067495278241104,-0.5350929154187599,2.694878923906393e-10,-1.4589693514181017,-2.9290517373677156,-1.5220327000522509
379,0.24090717420738328,0.24090717419260058,2.6670164742972004e-06,6.0005590756071925,1.8410310621201895,2.05271874896254,5.777984471980669,1.0,3.0674952782399427,-0.5350929154107941,2.5355241223384834e-10,-1.4589693513807012,-2.9290517373662377,-1.5220327000150116
380,0.24090717420738106,0.24090717419259813,2.6670997288032783e-06,6.0005590756071925,1.841031062120192,2.0527187489625383,5.777984471979679,1.0,3.06749527823885,-0.5350929154032991,2.3855901745551543e-10,-1.4589693513455122,-2.9290517373648473,-1.5220326999799745
381,0.24090717420737853,0.24090717419259547,2.6670997288032783e-06,6.0005590756071925,1.8410310621201946,2.0527187489625374,5.777984471978749,1.0,3.0674952782378218,-0.535092915396247,2.24452091819198e-10,-1.4589693513124042,-2.929051737363539,-1.5220326999470093
