jkpark150901/flame_robotics_drt/experiment/inspection_ik/session_20260721_142344/collision/inspection_ik_20260721_142502_dda_rb10_1300e_normalized_fallback_collision.csv
iteration,err_norm,position_error,orientation_error,tcp_x,tcp_y,tcp_z,q0_dda_joint_linear_track,q1_dda_joint_carriage,q2_dda_joint_base,q3_dda_joint_shoulder,q4_dda_joint_elbow,q5_dda_joint_wrist1,q6_dda_joint_wrist2,q7_dda_joint_wrist3
0,4.114946079504862,2.9626875600281606,2.082861877128523,0.47255,3.7499999999986655,2.697,0.0,0.0,0.0,0.0,0.0,0.0,0.0,0.0
1,2.8557659301026925,2.028381830324736,1.7173131679074076,0.7755938551537991,2.7823944294801954,2.284531949988687,0.1744977345597314,-0.08216316157541555,0.14573067500261896,-0.7314386465438847,-0.235092883792899,0.2267832980782848,0.2723081606070607,0.3216860336850711
2,2.2451598777847295,1.720973552089703,1.2872437553697518,0.9613610245494028,2.298635377781519,2.4043419706226072,0.18240416233135157,-1.0,0.5284078143174331,-0.9577519063252748,0.6196265994425592,0.36693784098920074,0.04468081566462856,-0.737628357374227
3,3.3456598676434712,1.1339404592701576,2.945933753338945,1.5774317120077543,2.402315196951751,2.0828669793442876,1.6687572368634194,-1.0,-0.9696345750331892,-1.0897625217456097,1.248121623371716,2.1227382953834475,1.8701357810650763,-3.14
4,2.4605508373742437,1.0755981328342588,2.10849376910848,2.124841634363938,2.644336523973476,2.2163241826352773,1.9428798051557115,-1.0,-1.1942427306236234,-0.5884634524312995,1.2781398713585468,2.303508689662279,2.1599453919094747,-3.14
5,1.8570867351181657,0.9684871434661564,1.532209038558056,2.5088384389411598,2.6709056221025635,2.0126669933186907,2.297914510976203,-1.0,-1.4358132618146489,-0.7092027017717742,1.8605857396157066,2.327944465979717,2.287582306129324,-3.14
6,1.5595904882768197,0.9381989922880688,1.2158155995038031,2.638686469335867,2.6810541439653526,1.7610071707388113,2.459869750636757,-1.0,-1.6199052092742865,-0.8457937053447317,2.3929329999855518,2.1706755867329677,2.4075224801953903,-3.14
7,1.384006941069806,0.9483010374475316,0.9905333911177697,2.630662500887674,2.6971385489776973,1.5931069015311037,2.469555324598517,-1.0,-1.6549345367914938,-0.8506882849492375,2.703138469615788,2.0073864813532087,2.610956411497684,-3.14
8,1.2370082312501944,0.9557535464200997,0.7759341468598376,2.577444622313604,2.70576483824091,1.5088349022936252,2.429421923271109,-1.0,-1.6071025900339948,-0.8028519873880976,2.860317369861256,1.9532685628229973,2.8151288502385436,-3.14
9,1.1135302647448058,0.95387273507698,0.5698379886063002,2.5241682518244977,2.707748552373978,1.4878452347899416,2.3769452550927688,-1.0,-1.5661343037253606,-0.7327317454055509,2.908452066590613,2.007402092273086,2.9533290122097946,-3.14
10,1.0353625669369027,0.9490764270637689,0.41142148779350807,2.4862761318620925,2.708762950646407,1.5019892772739887,2.322357898354857,-1.0,-1.5551375658647997,-0.6616661454800195,2.884792144833542,2.1019466104637714,3.0304925360714092,-3.14
11,0.9933166152570977,0.9445742297189242,0.30611261360179215,2.4616373623736107,2.7096636540444545,1.5287626557501865,2.2709341437597703,-1.0,-1.5562311808856293,-0.6065230208065551,2.8277260673959557,2.1996425740620236,3.076451687744668,-3.14
12,0.9710981083648228,0.9411253700379154,0.238778124223655,2.4458419838551473,2.710161361364425,1.5567838544338817,2.228746755861134,-1.0,-1.5597754460157454,-0.5707642644969971,2.7655845666247956,2.2875472610568615,3.105768515494257,-3.14
13,0.9584973231790885,0.9388014066211412,0.19299584671495848,2.435913066731873,2.7103367167216534,1.5812847629158442,2.197716960868084,-1.0,-1.5628364446343816,-0.5486086703713635,2.712245565842226,2.3611650469756893,3.1249737042177244,-3.14
14,0.9506543700458118,0.9373689626201809,0.15821907206188146,2.4298463669185435,2.7103595977057466,1.6009952443281648,2.176059619322373,-1.0,-1.5650108551862583,-0.5338776890315171,2.6708986582855894,2.4207486445039534,3.1376175661515657,-3.14
15,0.9455476512167071,0.9365010426668794,0.13033980488825422,2.426137669965926,2.710327353219527,1.6168485190132216,2.1611560640498793,-1.0,-1.5665202818945463,-0.5230756503267405,2.6403402545113974,2.4683010615470162,3.14,-3.14
16,0.9421357742657953,0.9360428093080339,0.10680603963345742,2.4240398770511473,2.710281729803115,1.627868735946832,2.151616562184823,-1.0,-1.5675918113309033,-0.5149051282683654,2.6203980440580796,2.503979093320827,3.14,-3.14
17,0.9398592390102047,0.9358010355822791,0.08704279960814486,2.422841774839545,2.7102374737033,1.6351102996548657,2.1455191481327995,-1.0,-1.5683683364519263,-0.5085399846136172,2.6079925134312396,2.5302775910727484,3.14,-3.14
18,0.9383592487517275,0.9356645495173215,0.07081686136001693,2.422110595150689,2.710199205590936,1.6398611785303823,2.141505315447064,-1.0,-1.5689425826903196,-0.5034992065001724,2.6003466704119007,2.5497468027253425,3.14,-3.14
19,0.9373840741547479,0.9355819378094193,0.05779901953762357,2.4216296069114285,2.710167576277282,1.642974580666675,2.138798970682227,-1.0,-1.5693745814041116,-0.4994953072636589,2.595699048338596,2.5642127385820364,3.14,-3.14
20,0.9367574133364963,0.9355286597437108,0.04760410777645681,2.421290206700234,2.7101419692138147,1.6450132939497046,2.1369385187436443,-1.0,-1.5697039892946838,-0.49632216502420984,2.5929288562145643,2.5749941084811385,3.14,-3.14
21,0.9363582839422205,0.9354924773184721,0.039829056034546895,2.421037175840735,2.7101214564812137,1.646347503399591,2.135639123626657,-1.0,-1.5699576892404803,-0.4938171619882783,2.5913234361091715,2.5830502441588883,3.14,-3.14
22,0.9361055732561513,0.9354669378688181,0.03407377519117874,2.4208414377915344,2.710105125558635,1.6472202572486698,2.1347193543910943,-1.0,-1.5701544324088392,-0.491847408719245,2.590431265864669,2.5890832188359223,3.14,-3.14
23,0.9359460264337794,0.9354484138200679,0.02995075716409242,2.4206867155311675,2.7100921777707487,1.6477909359109386,2.134060573933586,-1.0,-1.5703076747924607,-0.4903036840834764,2.5899680183733613,2.593609390826331,3.14,-3.14
24,0.9358452791156223,0.9354347268668202,0.027094411464988376,2.420563085256256,2.7100819453498137,1.648163966354763,2.133583549921579,-1.0,-1.5704273254132142,-0.48909674583757734,2.5897562071568196,2.597010140203912,3.14,-3.14
25,0.9357814564644027,0.9354244873028722,0.025175995555211075,2.420463894175099,2.710073881423581,1.6484077276429485,2.1332344670874344,-1.0,-1.5705208413280856,-0.48815436262582323,2.5896863431806416,2.599568194897032,3.14,-3.14
26,0.9357407747622287,0.9354167626827005,0.023919810635640568,2.4203842925735644,2.7100675427959713,1.648566972677493,2.132976274034475,-1.0,-1.570593929865995,-0.48741864108172495,2.589691953881232,2.6014938366950955,3.14,-3.14
27,0.9357146091819505,0.9354109025525157,0.023111904950579173,2.420320527929432,2.710062572484327,1.6486709791738015,2.1327831738801675,-1.0,-1.5706510127551,-0.4868435922990892,2.589733558744147,2.6029439239071874,3.14,-3.14
28,0.9356975846273905,0.9354064400412789,0.022597636205720823,2.420269593203363,2.7100586841812775,1.6487388935952247,2.1326370333088356,-1.0,-1.5706955436537209,-0.4863929651568277,2.5897884333345456,2.6040357724492016,3.14,-3.14
29,0.9356863551957003,0.9354030331615881,0.02227139213833903,2.420229037791885,2.7100556490813235,1.6487832325558134,2.132524997999622,-1.0,-1.5707302332705497,-0.4860383699683432,2.5898441087183683,2.604857331840558,3.14,-3.14
30,0.9356788347067031,0.9354004277865398,0.022063932451386898,2.420196853151915,2.710053284935957,1.6488121758330911,2.1324378856512247,-1.0,-1.5707572143585566,-0.48575769370809974,2.5898942743511553,2.605474676003503,3.14,-3.14
31,0.9356737166345847,0.9353984331612977,0.021931072481711868,2.420171393671135,2.710051447045358,1.6488310673696336,2.1323690901538703,-1.0,-1.5707781660815818,-0.4855337889908104,2.5899362208988665,2.605937538265279,3.14,-3.14
32,0.9356701768050489,0.9353969050763534,0.021845069099433637,2.420151315600548,2.710050020883256,1.6488433974266945,2.1323138269555364,-1.0,-1.5707944098019448,-0.4853534075140484,2.5899692642386487,2.606283415383471,3.14,-3.14
33,0.93566769014029,0.9353957339606007,0.021788642434138663,2.4201355267417486,2.7100489160830743,1.6488514449892042,2.1322686089473457,-1.0,-1.570806983981505,-0.4852063439172201,2.58999379022695,2.60654062022198,3.14,-3.14
34,0.9356659179456674,0.9353948362667323,0.021751050443119667,2.4201231437857977,2.7100480615527225,1.6488566977912051,2.1322308796273526,-1.0,-1.570816703314756,-0.485084755856076,2.5900106887299144,2.6067305590051686,3.14,-3.14
35,0.9356646385617596,0.9353941481342586,0.021725596308463546,2.420113455885505,2.710047401521887,1.6488601268433167,2.1321987544688676,-1.0,-1.570824205659635,-0.4849826286241887,2.590021028998043,2.606869434604844,3.14,-3.14
36,0.9356637045769285,0.9353936206698187,0.021708076903380502,2.4201058936594118,2.7100468923570014,1.6488623658015704,2.132170837288449,-1.0,-1.5708299893632376,-0.484895356473479,2.5900258824923514,2.6069695235633,3.14,-3.14
37,0.9356630162853962,0.9353932163994267,0.021695827758224692,2.420100003021852,2.7100465000056273,1.6488638281243808,2.1321460889640953,-1.0,-1.5708344429477583,-0.4848194169942516,2.5900262340448994,2.6070401355773205,3.14,-3.14
38,0.9356625050909421,0.9353929065833302,0.021687138231254142,2.4200954232856255,2.7100461979545085,1.648864783572223,2.1321237329447955,-1.0,-1.5708378686873614,-0.48475211898832987,2.590022944509461,2.6070883357753676,3.14,-3.14
39,0.9356621230193883,0.935392669173507,0.021680893652337756,2.420091869001903,2.7100459656047624,1.6488654081458587,2.1321031867932425,-1.0,-1.5708405012914353,-0.4846914079403028,2.5900167422366938,2.6071194893490963,3.14,-3.14
40,0.9356618360047878,0.9353924872543442,0.021676355742667474,2.4200891150233304,2.7100457869840926,1.6488658166776542,2.132084012275172,-1.0,-1.5708425226702671,-0.4846357163560942,2.590008229667242,2.607137672842369,3.14,-3.14
41,0.9356616195260835,0.9353923478491425,0.021673027091465055,2.4200869843098007,2.7100456497299183,1.6488660840973006,2.132065878751884,-1.0,-1.570844073571031,-0.4845838488830533,2.5899978969454356,2.607145985149002,3.14,-3.14
42,0.9356614557236819,0.9353922410050445,0.02167056678750751,2.4200853380397196,2.7100455442892315,1.6488662593052326,2.132048536179182,-1.0,-1.5708452627207947,-0.4845348942889259,2.5899861379275637,2.607146782942396,3.14,-3.14
43,0.9356613314601451,0.9353921590906523,0.02166873730491688,2.4200840676388062,2.710045463291008,1.6488663742222218,2.1320317950888126,-1.0,-1.5708461739903228,-0.48448815811777696,2.589973266074954,2.607141859075284,3.14,-3.14
44,0.935661236992504,0.9353920962565624,0.021667370610876382,2.4200830883889264,2.710045401055422,1.648866449691857,2.13201551167711,-1.0,-1.5708468719919995,-0.4844431112246444,2.5899595289864537,2.607132577880156,3.14,-3.14
45,0.9356611650475436,0.9353920480209161,0.021666346202540293,2.420082334328346,2.710045353211083,1.6488664993301991,2.1319995766513817,-1.0,-1.5708474064431242,-0.4843993504802931,2.589945121059349,2.607119977858576,3.14,-3.14
46,0.93566111016739,0.9353920109509869,0.021665576633220263,2.4200817542000435,2.7100453163972458,1.6488665320365616,2.131983906856325,-1.0,-1.5708478155589534,-0.4843565687891504,2.5899301941768664,2.6071048496692164,3.14,-3.14
47,0.9356610682397228,0.9353919824185963,0.021664997805002927,2.4200813082452197,2.7100452880326507,1.6488665536311777,2.131968438967455,-1.0,-1.5708481286856064,-0.48431453222544235,2.5899148665332192,2.6070877953887956,3.14,-3.14
48,0.9356610361563085,0.9353919604122953,0.02166456234250083,2.4200809656746585,2.710045266136443,1.648866567923498,2.131953124728299,-1.0,-1.570848368339155,-0.4842730626046601,2.589899229804441,2.6070692735639533,3.14,-3.14
49,0.9356610115622017,0.9353919433931869,0.021664234992764438,2.420080702680999,2.7100452491896867,1.6488665774092035,2.1319379273451458,-1.0,-1.5708485517820432,-0.4842320242022608,2.5898833549047513,2.6070496334747673,3.14,-3.14
50,0.9356609926699543,0.9353919301843079,0.02166398938076146,2.4200805008807573,2.710045236028449,1.648866583725099,2.1319228187527353,-1.0,-1.5708486922398823,-0.4841913136349611,2.589867296564251,2.607029141202302,3.14,-3.14
51,0.9356609781210206,0.9353919198857878,0.021663805688821106,2.4200803460963964,2.71004522576137,1.6488665879460898,2.131907777537205,-1.0,-1.5708487998393201,-0.4841508521527145,2.5898510969424478,2.6070079994665183,3.14,-3.14
52,0.9356609668817992,0.935391911809814,0.02166366897604784,2.4200802274065247,2.7100452177062033,1.6488665907791518,2.1318927873562528,-1.0,-1.570848882329999,-0.48411057976764554,2.5898347884638375,2.6069863627270804,3.14,-3.14
53,0.9356609581653371,0.935391905430799,0.021663567948698795,2.42008013640679,2.7100452113410025,1.6488665926900918,2.131877835736253,-1.0,-1.5708489456396735,-0.48407045078243155,2.589818396032381,2.606964348680692,3.14,-3.14
54,0.9356609513721504,0.9353919003472222,0.021663494052563913,2.4200800666358893,2.710045206266634,1.6488665939864449,2.131862913155629,-1.0,-1.5708489943006063,-0.4840304303846532,2.5898019387541606,2.606942047016431,3.14,-3.14
55,0.9356609460453902,0.9353918962524067,0.021663440798284188,2.4200800131306073,2.7100452021779855,1.6488665948717252,2.1318480123459254,-1.0,-1.5708490317767956,-0.48399049205301764,2.589785431273135,2.6069195260840563,3.14,-3.14
56,0.9356609418368114,0.9353918929121665,0.021663403257062272,2.4200799720814468,2.7100451988418994,1.6488665954809714,2.131833127758617,-1.0,-1.5708490607148948,-0.48395061558188707,2.5897688848041156,2.606896837973442,3.14,-3.14
57,0.9356609384809087,0.935391890147705,0.021663377681873982,2.4200799405665046,2.710045196080257,1.6488665959040552,2.131818255158207,-1.0,-1.57084908313648,-0.4839107855766828,2.5897523079298286,2.6068740223841482,3.14,-3.14
58,0.935660935775233,0.9353918878225342,0.021663361222240156,2.4200799163460993,2.710045193757016,1.6488665962009903,2.1318033913116374,-1.0,-1.5708491005852845,-0.4838709903078875,2.5897357072147895,2.606851109573594,3.14,-3.14
59,0.9356609335654019,0.9353918858324807,0.021663351708420382,2.420079897704475,2.710045191768298,1.6488665964120064,2.131788533751163,-1.0,-1.570849114239881,-0.48383122083814273,2.589719087677355,2.6068281226034027,3.14,-3.14
60,0.935660931733684,0.9353918840980443,0.021663347488316668,2.4200798833279276,2.7100451900347995,1.6488665965641816,2.1317736805933043,-1.0,-1.5708491249998806,-0.4837914703573347,2.5897024531522415,2.6068050790511097,3.14,-3.14
61,0.935660930190297,0.9353918825585619,0.021663347303457627,2.420079872211065,2.710045188495986,1.648866596675827,2.1317588304006083,-1.0,-1.5708491335518429,-0.4837517336760866,2.589685806568617,2.60678199231456,3.14,-3.14
62,0.9356609288667699,0.9353918811677493,0.021663350195116587,2.420079863584776,2.7100451871056617,1.648866596759385,2.1317439820760935,-1.0,-1.5708491404196518,-0.4837120068399005,2.589669150163224,2.6067588726059605,3.14,-3.14
63,0.9356609277108859,0.935391879890295,0.021663355432651438,2.4200798568609265,2.7100451858285717,1.6488665968233573,2.1317291347826575,-1.0,-1.5708491460030083,-0.4836722868351989,2.5896524856435845,2.606735727709459,3.14,-3.14
64,0.9356609266828244,0.9353918786992629,0.021663362459331124,2.420079851589928,2.7100451846378197,1.6488665968735843,2.131714287881545,-1.0,-1.5708491506068312,-0.4836325713653662,2.5896358143128966,2.606712563558524,3.14,-3.14
65,0.9356609257522182,0.935391877574105,0.02166337085073917,2.4200798474282093,2.7100451835128836,1.648866596914104,2.1316994408853707,-1.0,-1.5708491544637093,-0.4835928586801151,2.589619137165552,2.606689384676004,3.14,-3.14
66,0.9356609248959097,0.9353918764991501,0.02166338028345829,2.420079844113288,2.7100451824381104,1.6488665969477232,2.131684593422261,-1.0,-1.5708491577510435,-0.4835531474454757,2.5896024549601613,2.606666194509528,3.14,-3.14
67,0.9356609240962396,0.9353918754624438,0.021663390510848302,2.420079841444678,2.710045181401558,1.6488665969764082,2.1316697452084785,-1.0,-1.570849160604131,-0.48351343664473295,2.5895857682753474,2.6066429956871526,3.14,-3.14
68,0.9356609233397422,0.9353918744548707,0.02166340134495383,2.4200798392692873,2.7100451803941192,1.6488665970015428,2.1316548960275337,-1.0,-1.5708491631261519,-0.4834737255029413,2.58956907755237,2.606619790212213,3.14,-3.14
69,0.935660922616149,0.9353918734694784,0.02166341264247123,2.4200798374702317,2.7100451794088474,1.6488665970241079,2.1316400457142386,-1.0,-1.5708491653957875,-0.48343401342940445,2.5895523831276694,2.6065965796118493,3.14,-3.14
70,0.9356609219176307,0.9353918725009646,0.02166342429416993,2.4200798359582913,2.7100451784404442,1.6488665970448035,2.1316251941425417,-1.0,-1.5708491674730343,-0.4833942999738431,2.589535685257715,2.606573365050216,3.14,-3.14
71,0.9356609212382165,0.9353918715452866,0.0216634362167637,2.4200798346653705,2.71004517748487,1.648866597064133,2.131610341216244,-1.0,-1.57084916940364,-0.483354584792993,2.58951898413797,2.606550147414774,3.14,-3.14
72,0.9356609205733544,0.9353918705993614,0.02166344834672952,2.4200798335395057,2.7100451765390434,1.6488665970824576,2.131595486861916,-1.0,-1.5708491712224857,-0.48331486762514886,2.5895022799173644,2.6065269273820695,3.14,-3.14
73,0.9356609199195732,0.9353918696608379,0.021663460635705036,2.420079832541047,2.710045175600615,1.6488665971000425,2.131580631023495,-1.0,-1.5708491729561662,-0.48327514827076523,2.5894855727093344,2.6065037054678726,3.14,-3.14
74,0.9356609192742257,0.9353918687279229,0.021663473046726587,2.4200798316397454,2.7100451746677923,1.648866597117079,2.1315657736581617,-1.0,-1.570849174624958,-0.4832354265776721,2.5894688626002518,2.606480482065396,3.14,-3.14
75,0.9356609186352943,0.9353918677992505,0.021663485551707537,2.4200798308125244,2.7100451737392106,1.648866597133708,2.1315509147331975,-1.0,-1.5708491762443195,-0.4831957024298075,2.5894521496558442,2.60645725747443,3.14,-3.14
76,0.9356609180012403,0.9353918668737776,0.021663498129152397,2.420079830041784,2.710045172813827,1.6488665971500345,2.1315360542235857,-1.0,-1.5708491778260367,-0.48315597573863023,2.589435433926101,2.6064340319235506,3.14,-3.14
77,0.9356609173708912,0.9353918659507101,0.021663510762742238,2.420079829314096,2.7100451718908474,1.6488665971661343,2.131521192110182,-1.0,-1.5708491793790944,-0.4831162464365745,2.58941871544901,2.6064108055870463,3.14,-3.14
78,0.9356609167433506,0.9353918650294415,0.021663523439971345,2.4200798286192216,2.710045170969666,1.6488665971820644,2.1315063283783218,-1.0,-1.5708491809103424,-0.48307651447206246,2.5894019942534063,2.6063875785978237,3.14,-3.14
79,0.9356609161179382,0.9353918641095101,0.021663536151378435,2.4200798279493543,2.7100451700498214,1.648866597197868,2.1314914630167534,-1.0,-1.570849182425003,-0.4830367798057016,2.5893852703611477,2.6063643510572443,3.14,-3.14
80,0.9356609154941331,0.9353918631905634,0.021663548889675352,2.420079827298537,2.710045169130961,1.6488665972135772,2.1314765960168285,-1.0,-1.5708491839270569,-0.48299704240738744,2.589368543788773,2.606341123042622,3.14,-3.14
81,0.9356609148715396,0.9353918622723331,0.021663561649337037,2.42007982666223,2.7100451682128166,1.648866597229215,2.1314617273718843,-1.0,-1.5708491854195388,-0.4829573022540949,2.589351814548765,2.6063178946129395,3.14,-3.14
82,0.935660914249855,0.9353918613546142,0.02166357442619151,2.4200798260369707,2.7100451672951835,1.6488665972448,2.131446857076771,-1.0,-1.5708491869047627,-0.48291755932819497,2.5893350826505137,2.6062946658132073,3.14,-3.14
83,0.935660913628848,0.9353918604372498,0.02166358721697909,2.420079825420118,2.710045166377905,1.6488665972603453,2.131431985127492,-1.0,-1.570849188384492,-0.4828778136161712,2.589318348101053,2.606271436677782,3.14,-3.14
84,0.9356609130083442,0.9353918595201224,0.02166360001930114,2.420079824809659,2.710045165460863,1.6488665972758614,2.131417111520931,-1.0,-1.5708491898600712,-0.4828380651076426,2.5893016109056175,2.6062482072329005,3.14,-3.14
85,0.9356609123882094,0.9353918586031397,0.021663612831240808,2.420079824204061,2.7100451645439656,1.648866597291355,2.1314022362546416,-1.0,-1.570849191332525,-0.48279831379461735,2.5892848710680734,2.6062249774986097,3.14,-3.14
86,0.9356609117683409,0.9353918576862336,0.021663625651404013,2.420079823602151,2.7100451636271448,1.6488665973068326,2.1313873593266877,-1.0,-1.5708491928026354,-0.4827585596709254,2.5892681285912413,2.6062017474902386,3.14,-3.14
87,0.9356609111486609,0.9353918567693503,0.02166363847869394,2.420079823003038,2.7100451627103466,1.648866597322299,2.1313724807355245,-1.0,-1.5708491942709975,-0.4827188027317847,2.589251383477145,2.6061785172195187,3.14,-3.14
88,0.9356609105291096,0.9353918558524507,0.0216636513123008,2.420079822406042,2.7100451617935324,1.6488665973377568,2.131357600479903,-1.0,-1.5708491957380653,-0.48267904297347153,2.5892346357272027,2.6061552866954387,3.14,-3.14
89,0.935660909909643,0.935391854935503,0.02166366415156855,2.4200798218106443,2.7100451608766702,1.6488665973532095,2.1313427185588014,-1.0,-1.5708491972041851,-0.4826392803930689,2.589217885342368,2.6061320559248977,3.14,-3.14
90,0.9356609092902258,0.9353918540184845,0.021663676996056407,2.4200798212164503,2.7100451599597366,1.6488665973686578,2.1313278349713696,-1.0,-1.570849198669621,-0.4825995149882746,2.5892011323232436,2.6061088249132007,3.14,-3.14
91,0.9356609086708308,0.9353918531013767,0.02166368984535435,2.4200798206231564,2.710045159042714,1.6488665973841037,2.1313129497168894,-1.0,-1.5708492001345737,-0.48255974675725494,2.5891843766701617,2.606085593664439,3.14,-3.14
92,0.9356609080514402,0.9353918521841667,0.021663702699185605,2.420079820030535,2.710045158125589,1.6488665973995484,2.1312980627947433,-1.0,-1.570849201599197,-0.4825199756985336,2.5891676183832493,2.6060623621817776,3.14,-3.14
93,0.9356609074320368,0.9353918512668435,0.02166371555738616,2.42007981943841,2.7100451572083513,1.6488665974149928,2.13128317420439,-1.0,-1.5708492030636074,-0.48248020181090645,2.5891508574624775,2.606039130467675,3.14,-3.14
94,0.9356609068126087,0.9353918503493995,0.021663728419771502,2.4200798188466495,2.7100451562909926,1.648866597430437,2.1312682839453454,-1.0,-1.5708492045278943,-0.4824404250933772,2.589134093907698,2.6060158985240522,3.14,-3.14
95,0.9356609061931486,0.9353918494318287,0.021663741286177613,2.420079818255149,2.710045155373507,1.6488665974458825,2.131253392017171,-1.0,-1.570849205992126,-0.4824006455451075,2.5891173277186716,2.6059926663524204,3.14,-3.14
96,0.935660905573649,0.9353918485141262,0.021663754156563488,2.420079817663833,2.71004515445589,1.6488665974613288,2.1312384984194614,-1.0,-1.5708492074563536,-0.48236086316537913,2.58910055889509,2.605969433953977,3.14,-3.14
97,0.9356609049541033,0.9353918475962885,0.021663767030836865,2.420079817072641,2.710045153538137,1.648866597476776,2.1312236031518377,-1.0,-1.5708492089206167,-0.4823210779535666,2.589083787436592,2.6059462013296826,3.14,-3.14
98,0.9356609043345098,0.9353918466783128,0.02166377990894648,2.420079816481528,2.7100451526202467,1.6488665974922254,2.1312087062139398,-1.0,-1.5708492103849458,-0.4822812899091143,2.589067013342775,2.6059229684803156,3.14,-3.14
99,0.9356609037148642,0.9353918457601974,0.021663792790851337,2.42007981589046,2.7100451517022166,1.6488665975076764,2.131193807605423,-1.0,-1.5708492118493638,-0.4822414990315196,2.589050236613207,2.6058997354065148,3.14,-3.14
100,0.9356609030951647,0.9353918448419406,0.021663805676530916,2.420079815299411,2.710045150784045,1.648866597523129,2.131178907325954,-1.0,-1.5708492133138878,-0.48220170532032086,2.5890334572474325,2.605876502108815,3.14,-3.14
101,0.9356609024754092,0.9353918439235412,0.021663818565933964,2.4200798147083606,2.710045149865731,1.6488665975385837,2.1311640053752083,-1.0,-1.5708492147785316,-0.4821619087750876,2.5890166752449764,2.60585326858767,3.14,-3.14
102,0.9356609018555969,0.9353918430049983,0.021663831459070724,2.4200798141172943,2.710045148947273,1.6488665975540402,2.1311491017528676,-1.0,-1.5708492162433052,-0.48212210939541267,2.588999890605352,2.605830034843472,3.14,-3.14
103,0.9356609012357247,0.9353918420863105,0.02166384435592069,2.4200798135261996,2.710045148028671,1.6488665975694987,2.1311341964586186,-1.0,-1.5708492177082165,-0.48208230718090717,2.5889831033280606,2.6058068008765676,3.14,-3.14
104,0.9356609006157955,0.9353918411674783,0.021663857256453103,2.4200798129350685,2.7100451471099243,1.6488665975849597,2.1311192894921525,-1.0,-1.570849219173271,-0.4820425021311957,2.5889663134125955,2.6057835666872666,3.14,-3.14
105,0.9356608999958063,0.9353918402485009,0.021663870160698706,2.4200798123438925,2.7100451461910318,1.6488665976004226,2.131104380853162,-1.0,-1.5708492206384737,-0.4820026942459138,2.588949520858445,2.6057603322758527,3.14,-3.14
106,0.9356608993757562,0.9353918393293773,0.021663883068616493,2.4200798117526685,2.7100451452719936,1.6488665976158874,2.1310894705413435,-1.0,-1.5708492221038282,-0.4819628835247045,2.5889327256650927,2.6057370976425873,3.14,-3.14
107,0.9356608987556467,0.9353918384101083,0.021663895980226958,2.4200798111613913,2.7100451443528097,1.6488665976313552,2.131074558556394,-1.0,-1.5708492235693365,-0.4819230699672169,2.5889159278320166,2.6057138627877183,3.14,-3.14
108,0.9356608981354759,0.935391837490693,0.021663908895519845,2.420079810570059,2.7100451434334802,1.6488665976468246,2.131059644898013,-1.0,-1.5708492250350012,-0.48188325357310496,2.5888991273586943,2.6056906277114797,3.14,-3.14
109,0.9356608975152447,0.9353918365711315,0.021663921814484895,2.4200798099786676,2.7100451425140037,1.648866597662296,2.131044729565899,-1.0,-1.5708492265008236,-0.481843434342026,2.5888823242446,2.605667392414098,3.14,-3.14
110,0.9356608968949518,0.935391835651423,0.021663934737152852,2.420079809387218,2.7100451415943807,1.64886659767777,2.131029812559753,-1.0,-1.570849227966805,-0.4818036122736401,2.588865518489206,2.605644156895792,3.14,-3.14
111,0.9356608962745979,0.9353918347315684,0.02166394766347246,2.4200798087957054,2.7100451406746116,1.6488665976932464,2.1310148938792755,-1.0,-1.570849229432946,-0.48176378736760955,2.5888487100919844,2.6056209211567753,3.14,-3.14
112,0.9356608956541829,0.9353918338115674,0.02166396059346421,2.420079808204132,2.710045139754696,1.648866597708725,2.130999973524168,-1.0,-1.5708492308992474,-0.48172395962359804,2.588831899052405,2.6055976851972575,3.14,-3.14
113,0.9356608950337063,0.9353918328914193,0.021663973527148602,2.4200798076124963,2.710045138834633,1.6488665977242054,2.130985051494132,-1.0,-1.5708492323657102,-0.48168412904127034,2.588815085369938,2.6055744490174453,3.14,-3.14
114,0.9356608944131689,0.9353918319711245,0.021663986464515374,2.4200798070207945,2.710045137914424,1.6488665977396884,2.1309701277888684,-1.0,-1.5708492338323343,-0.4816442956202922,2.5887982690440525,2.6055512126175433,3.14,-3.14
115,0.9356608937925689,0.9353918310506825,0.02166399940555427,2.4200798064290305,2.7100451369940672,1.6488665977551735,2.1309552024080802,-1.0,-1.5708492352991204,-0.48160445936033,2.5887814500742166,2.605527975997754,3.14,-3.14
116,0.935660893171908,0.935391830130094,0.021664012350265282,2.420079805837202,2.710045136073564,1.6488665977706607,2.1309402753514686,-1.0,-1.5708492367660685,-0.48156462026105057,2.5887646284598986,2.605504739158279,3.14,-3.14
117,0.935660892551186,0.9353918292093584,0.02166402529866891,2.4200798052453076,2.710045135152914,1.6488665977861503,2.1309253466187354,-1.0,-1.570849238233179,-0.48152477832212137,2.588747804200566,2.6054815020993187,3.14,-3.14
118,0.9356608919304016,0.9353918282884756,0.021664038250754886,2.42007980465335,2.710045134232117,1.6488665978016421,2.1309104162095838,-1.0,-1.5708492397004516,-0.48148493354320987,2.588730977295686,2.6054582648210727,3.14,-3.14
119,0.935660891309556,0.9353918273674462,0.021664051206512967,2.4200798040613267,2.710045133311173,1.6488665978171366,2.1308954841237147,-1.0,-1.570849241167887,-0.481445085923984,2.5887141477447266,2.6054350273237405,3.14,-3.14
120,0.9356608906886494,0.9353918264462697,0.021664064165953383,2.420079803469238,2.710045132390082,1.6488665978326325,2.1308805503608306,-1.0,-1.570849242635485,-0.48140523546411174,2.5886973155471544,2.605411789607521,3.14,-3.14
121,0.9356608900676805,0.9353918255249457,0.02166407712907614,2.420079802877085,2.7100451314688434,1.6488665978481314,2.130865614920633,-1.0,-1.5708492441032458,-0.4813653821632612,2.5886804807024357,2.605388551672613,3.14,-3.14
122,0.9356608894466497,0.9353918246034746,0.02166409009587097,2.4200798022848664,2.7100451305474578,1.6488665978636319,2.1308506778028247,-1.0,-1.5708492455711696,-0.48132552602110057,2.5886636432100376,2.6053653135192145,3.14,-3.14
123,0.9356608888255579,0.9353918236818569,0.02166410306637888,2.420079801692582,2.7100451296259256,1.6488665978791355,2.130835739007107,-1.0,-1.570849247039256,-0.48128566703729797,2.5886468030694263,2.6053420751475245,3.14,-3.14
124,0.9356608882044037,0.9353918227600914,0.02166411604055885,2.4200798011002322,2.7100451287042455,1.6488665978946406,2.130820798533182,-1.0,-1.5708492485075054,-0.4812458052115217,2.588629960280069,2.605318836557741,3.14,-3.14
125,0.9356608875831884,0.9353918218381786,0.021664129018431375,2.4200798005078172,2.7100451277824185,1.6488665979101482,2.130805856380752,-1.0,-1.570849249975918,-0.4812059405434404,2.58861311484143,2.6052955977500623,3.14,-3.14
126,0.9356608869619116,0.9353918209161186,0.021664141999975958,2.4200797999153374,2.710045126860444,1.6488665979256578,2.1307909125495184,-1.0,-1.5708492514444934,-0.4811660730327222,2.5885962667529774,2.6052723587246867,3.14,-3.14
127,0.9356608863405727,0.9353918199939115,0.021664154985223335,2.42007979932279,2.7100451259383225,1.6488665979411703,2.1307759670391824,-1.0,-1.5708492529132319,-0.4811262026790355,2.5885794160141753,2.6052491194818126,3.14,-3.14
128,0.9356608857191717,0.9353918190715566,0.021664167974153,2.4200797987301783,2.710045125016053,1.6488665979566846,2.130761019849447,-1.0,-1.5708492543821335,-0.48108632948204866,2.5885625626244906,2.6052258800216386,3.14,-3.14
129,0.9356608850977095,0.9353918181490548,0.021664180966785445,2.420079798137501,2.7100451240936367,1.6488665979722013,2.1307460709800132,-1.0,-1.5708492558511984,-0.4810464534414301,2.588545706583388,2.6052026403443627,3.14,-3.14
130,0.9356608844761863,0.9353918172264054,0.02166419396310017,2.420079797544758,2.7100451231710734,1.64886659798772,2.130731120430583,-1.0,-1.5708492573204265,-0.481006574556848,2.588528847890334,2.605179400450184,3.14,-3.14
131,0.9356608838545993,0.9353918163036081,0.02166420696310741,2.4200797969519487,2.7100451222483617,1.648866598003241,2.1307161682008577,-1.0,-1.5708492587898177,-0.4809666928279708,2.5885119865447934,2.6051561603393005,3.14,-3.14
132,0.9356608832329524,0.9353918153806637,0.021664219966817416,2.420079796359076,2.7100451213255026,1.648866598018765,2.1307012142905393,-1.0,-1.5708492602593722,-0.48092680825446676,2.588495122546231,2.6051329200119113,3.14,-3.14
133,0.9356608826112426,0.9353918144575716,0.021664232974209677,2.4200797957661355,2.710045120402496,1.6488665980342905,2.130686258699328,-1.0,-1.57084926172909,-0.48088692083600443,2.588478255894113,2.6051096794682147,3.14,-3.14
134,0.935660881989472,0.9353918135343323,0.021664245985304684,2.4200797951731303,2.710045119479343,1.6488665980498183,2.130671301426927,-1.0,-1.5708492631989708,-0.4808470305722519,2.5884613865879036,2.6050864387084096,3.14,-3.14
135,0.9356608813676393,0.935391812610945,0.02166425900009219,2.42007979458006,2.710045118556041,1.6488665980653483,2.1306563424730367,-1.0,-1.570849264669015,-0.4808071374628778,2.588444514627068,2.6050631977326955,3.14,-3.14
136,0.9356608807457453,0.9353918116874105,0.021664272018592674,2.4200797939869223,2.710045117632592,1.6488665980808805,2.130641381837358,-1.0,-1.5708492661392228,-0.48076724150755024,2.588427640011071,2.6050399565412707,3.14,-3.14
137,0.935660880123788,0.935391810763728,0.02166428504078564,2.4200797933937204,2.7100451167089954,1.6488665980964152,2.130626419519593,-1.0,-1.570849267609594,-0.48072734270593737,2.5884107627393775,2.605016715134335,3.14,-3.14
138,0.9356608795017698,0.9353918098398978,0.02166429806668133,2.4200797928004523,2.7100451157852508,1.6488665981119521,2.1306114555194426,-1.0,-1.5708492690801286,-0.4806874410577076,2.5883938828114514,2.604993473512087,3.14,-3.14
139,0.93566087887969,0.93539180891592,0.021664311096259235,2.420079792207118,2.7100451148613587,1.6488665981274915,2.130596489836608,-1.0,-1.5708492705508266,-0.48064753656252907,2.5883770002267577,2.6049702316747267,3.14,-3.14
140,0.9356608782575475,0.9353918079917939,0.0216643241295501,2.420079791613719,2.7100451139373183,1.648866598143033,2.1305815224707905,-1.0,-1.570849272021688,-0.48060762922006994,2.58836011498476,2.6049469896224533,3.14,-3.14
141,0.9356608776353441,0.935391807067521,0.021664337166553915,2.4200797910202536,2.7100451130131313,1.6488665981585768,2.130566553421691,-1.0,-1.570849273492713,-0.4805677190299986,2.588343227084924,2.604923747355466,3.14,-3.14
142,0.9356608770130784,0.9353918061430992,0.021664350207250178,2.4200797904267217,2.710045112088795,1.6488665981741228,2.1305515826890105,-1.0,-1.5708492749639016,-0.4805278059919832,2.588326336526712,2.604900504873964,3.14,-3.14
143,0.9356608763907517,0.9353918052185308,0.021664363251649128,2.420079789833126,2.7100451111643125,1.648866598189671,2.13053661027245,-1.0,-1.5708492764352537,-0.4804878901056919,2.5883094433095892,2.604877262178148,3.14,-3.14
144,0.9356608757683614,0.9353918042938133,0.021664376299771262,2.4200797892394634,2.710045110239681,1.6488665982052215,2.1305216361717103,-1.0,-1.5708492779067693,-0.4804479713707928,2.588292547433019,2.6048540192682177,3.14,-3.14
145,0.9356608751459108,0.9353918033689484,0.021664389351585822,2.420079788645735,2.710045109314902,1.6488665982207749,2.130506660386492,-1.0,-1.5708492793784485,-0.4804080497869543,2.5882756488964653,2.604830776144372,3.14,-3.14
146,0.935660874523398,0.9353918024439358,0.02166440240712355,2.420079788051941,2.7100451083899753,1.6488665982363295,2.130491682916497,-1.0,-1.5708492808502914,-0.4803681253538444,2.588258747699392,2.6048075328068117,3.14,-3.14
147,0.9356608739008226,0.9353918015187745,0.021664415466363943,2.4200797874580804,2.7100451074648997,1.6488665982518866,2.1304767037614245,-1.0,-1.570849282322298,-0.48032819807113125,2.5882418438412618,2.6047842892557367,3.14,-3.14
148,0.9356608732781859,0.9353918005934658,0.021664428529306987,2.420079786864155,2.7100451065396767,1.648866598267446,2.1304617229209764,-1.0,-1.5708492837944683,-0.480288267938483,2.5882249373215385,2.6047610454913475,3.14,-3.14
149,0.9356608726554869,0.9353917996680089,0.021664441595962935,2.420079786270163,2.710045105614306,1.6488665982830082,2.1304467403948526,-1.0,-1.5708492852668023,-0.4802483349555676,2.588208028139685,2.6047378015138443,3.14,-3.14
150,0.9356608720327267,0.935391798742404,0.021664454666342023,2.4200797856761063,2.7100451046887866,1.6488665982985722,2.1304317561827544,-1.0,-1.5708492867393002,-0.4802083991220532,2.588191116295165,2.604714557323427,3.14,-3.14
151,0.9356608714099043,0.9353917978166505,0.021664467740423746,2.4200797850819833,2.710045103763119,1.6488665983141386,2.1304167702843815,-1.0,-1.5708492882119618,-0.48016846043760775,2.5881742017874414,2.6046913129202967,3.14,-3.14
152,0.935660870787019,0.9353917968907488,0.021664480818218347,2.4200797844877933,2.710045102837303,1.6488665983297075,2.1304017826994346,-1.0,-1.5708492896847872,-0.48012851890189945,2.588157284615977,2.6046680683046537,3.14,-3.14
153,0.9356608701640726,0.9353917959646996,0.021664493899736074,2.420079783893539,2.71004510191134,1.6488665983452782,2.130386793427615,-1.0,-1.5708492911577765,-0.4800885745145962,2.5881403647802346,2.604644823476699,3.14,-3.14
154,0.9356608695410644,0.9353917950385019,0.02166450698496666,2.4200797832992187,2.710045100985228,1.6488665983608515,2.1303718024686216,-1.0,-1.5708492926309297,-0.48004862727536607,2.588123442279677,2.6046215784366327,3.14,-3.14
155,0.9356608689179943,0.9353917941121558,0.02166452007392036,2.420079782704831,2.710045100058968,1.6488665983764266,2.1303568098221555,-1.0,-1.5708492941042467,-0.4800086771838771,2.5881065171137667,2.6045983331846565,3.14,-3.14
156,0.9356608682948617,0.9353917931856613,0.02166453316659716,2.420079782110378,2.710045099132559,1.6488665983920046,2.1303418154879172,-1.0,-1.5708492955777278,-0.47996872423979714,2.588089589281966,2.604575087720971,3.14,-3.14
157,0.9356608676716673,0.9353917922590188,0.021664546262976557,2.4200797815158603,2.7100450982060025,1.6488665984075843,2.1303268194656066,-1.0,-1.5708492970513728,-0.47992876844279414,2.5880726587837377,2.6045518420457774,3.14,-3.14
158,0.9356608670484104,0.9353917913322275,0.02166455936308929,2.420079780921276,2.7100450972792975,1.6488665984231665,2.1303118217549235,-1.0,-1.5708492985251816,-0.4798888097925362,2.5880557256185432,2.6045285961592772,3.14,-3.14
159,0.9356608664250922,0.9353917904052884,0.021664572466914857,2.4200797803266254,2.7100450963524443,1.6488665984387512,2.1302968223555685,-1.0,-1.5708492999991546,-0.4798488482886912,2.5880387897858457,2.6045053500616713,3.14,-3.14
160,0.9356608658017118,0.9353917894782,0.021664585574463498,2.420079779731908,2.710045095425442,1.6488665984543378,2.1302818212672414,-1.0,-1.5708493014732916,-0.4798088839309271,2.5880218512851063,2.604482103753161,3.14,-3.14
161,0.9356608651782693,0.9353917885509638,0.021664598685745454,2.420079779137127,2.710045094498292,1.6488665984699273,2.130266818489643,-1.0,-1.5708493029475927,-0.47976891671891164,2.588004910115787,2.604458857233948,3.14,-3.14
162,0.9356608645547648,0.935391787623579,0.021664611800729976,2.420079778542278,2.7100450935709928,1.6488665984855186,2.1302518140224715,-1.0,-1.570849304422058,-0.47972894665231286,2.58798796627735,2.6044356105042334,3.14,-3.14
163,0.9356608639311988,0.935391786696046,0.0216646249194683,2.4200797779473637,2.7100450926435458,1.6488665985011117,2.1302368078654284,-1.0,-1.5708493058966873,-0.4796889737307985,2.587971019769257,2.6044123635642196,3.14,-3.14
164,0.9356608633075696,0.9353917857683639,0.021664638041909174,2.4200797773523837,2.7100450917159495,1.6488665985167077,2.1302218000182127,-1.0,-1.5708493073714807,-0.4796489979540365,2.5879540705909685,2.6043891164141084,3.14,-3.14
165,0.935660862683879,0.9353917848405332,0.021664651168093588,2.420079776757337,2.710045090788205,1.6488665985323059,2.1302067904805244,-1.0,-1.5708493088464384,-0.47960901932169475,2.5879371187419467,2.6043658690541016,3.14,-3.14
166,0.9356608620601267,0.9353917839125544,0.021664664298001034,2.4200797761622255,2.710045089860312,1.6488665985479067,2.1301917792520633,-1.0,-1.5708493103215602,-0.47956903783344096,2.5879201642216527,2.6043426214844008,3.14,-3.14
167,0.9356608614363118,0.9353917829844265,0.02166467743165201,2.420079775567047,2.7100450889322705,1.6488665985635091,2.1301767663325286,-1.0,-1.5708493117968463,-0.47952905348894304,2.5879032070295485,2.604319373705208,3.14,-3.14
168,0.935660860812435,0.93539178205615,0.021664690569005506,2.420079774971802,2.71004508800408,1.6488665985791142,2.1301617517216207,-1.0,-1.5708493132722967,-0.4794890662878687,2.587886247165094,2.604296125716726,3.14,-3.14
169,0.9356608601884953,0.9353917811277243,0.021664703710112768,2.4200797743764912,2.7100450870757404,1.648866598594721,2.1301467354190384,-1.0,-1.5708493147479112,-0.47944907622988575,2.5878692846277502,2.6042728775191573,3.14,-3.14
170,0.9356608595644945,0.9353917801991505,0.021664716854943037,2.420079773781115,2.710045086147253,1.6488665986103306,2.1301317174244816,-1.0,-1.5708493162236903,-0.4794090833146621,2.587852319416978,2.6042496291127035,3.14,-3.14
171,0.9356608589404318,0.9353917792704278,0.021664730003506553,2.4200797731856727,2.710045085218616,1.6488665986259425,2.1301166977376496,-1.0,-1.5708493176996337,-0.47936908754186525,2.5878353515322385,2.604226380497568,3.14,-3.14
172,0.9356608583163064,0.9353917783415563,0.021664743155813567,2.4200797725901637,2.7100450842898307,1.6488665986415567,2.130101676358242,-1.0,-1.5708493191757416,-0.479329088911163,2.587818380972992,2.6042031316739522,3.14,-3.14
173,0.9356608576921193,0.9353917774125359,0.021664756311853814,2.420079771994589,2.7100450833608964,1.648866598657173,2.130086653285958,-1.0,-1.5708493206520135,-0.479289087422223,2.5878014077386995,2.6041798826420597,3.14,-3.14
174,0.9356608570678695,0.9353917764833665,0.021664769471637542,2.42007977139895,2.7100450824318134,1.6488665986727917,2.1300716285204975,-1.0,-1.57084932212845,-0.4792490830747131,2.587784431828821,2.604156633402093,3.14,-3.14
175,0.9356608564435578,0.9353917755540483,0.021664782635144243,2.420079770803242,2.710045081502581,1.6488665986884128,2.130056602061558,-1.0,-1.5708493236050511,-0.4792090758683011,2.5877674532428165,2.6041333839542555,3.14,-3.14
176,0.9356608558191837,0.9353917746245809,0.02166479580240466,2.4200797702074675,2.7100450805731997,1.648866598704036,2.1300415739088403,-1.0,-1.5708493250818167,-0.47916906580265445,2.5877504719801467,2.6041101342987494,3.14,-3.14
177,0.9356608551947474,0.9353917736949647,0.02166480897339829,2.4200797696116294,2.71004507964367,1.6488665987196611,2.1300265440620434,-1.0,-1.5708493265587469,-0.4791290528774408,2.587733488040271,2.604086884435778,3.14,-3.14
178,0.9356608545702496,0.9353917727651994,0.021664822148145618,2.4200797690157234,2.710045078713991,1.6488665987352893,2.1300115125208654,-1.0,-1.5708493280358415,-0.47908903709232786,2.587716501422649,2.604063634365545,3.14,-3.14
179,0.9356608539456888,0.9353917718352849,0.021664835326605646,2.420079768419752,2.7100450777841623,1.6488665987509188,2.1299964792850066,-1.0,-1.570849329513101,-0.4790490184469831,2.5876995121267417,2.604040384088253,3.14,-3.14
180,0.9356608533210662,0.9353917709052216,0.021664848508829607,2.4200797678237143,2.7100450768541853,1.6488665987665512,2.1299814443541645,-1.0,-1.5708493309905247,-0.4790089969410742,2.5876825201520077,2.6040171336041062,3.14,-3.14
181,0.9356608526963812,0.9353917699750087,0.021664861694797005,2.4200797672276098,2.710045075924059,1.6488665987821858,2.1299664077280394,-1.0,-1.5708493324681132,-0.4789689725742688,2.587665525497907,2.603993882913308,3.14,-3.14
182,0.9356608520716342,0.9353917690446474,0.02166487488450783,2.42007976663144,2.7100450749937837,1.6488665987978224,2.1299513694063292,-1.0,-1.5708493339458665,-0.4789289453462345,2.5876485281638986,2.6039706320160616,3.14,-3.14
183,0.9356608514468243,0.935391768114136,0.02166488807795182,2.420079766035203,2.7100450740633586,1.6488665988134616,2.129936329388733,-1.0,-1.5708493354237845,-0.4788889152566388,2.587631528149442,2.603947380912571,3.14,-3.14
184,0.9356608508219532,0.9353917671834762,0.02166490127516997,2.420079765438901,2.710045073132785,1.6488665988291031,2.1299212876749496,-1.0,-1.570849336901867,-0.4788488823051492,2.587614525453996,2.6039241296030395,3.14,-3.14
185,0.9356608501970195,0.9353917662526667,0.021664914476121278,2.420079764842532,2.710045072202062,1.6488665988447468,2.129906244264678,-1.0,-1.5708493383801143,-0.4788088464914334,2.5875975200770207,2.603900878087672,3.14,-3.14
186,0.9356608495720233,0.935391765321708,0.02166492768081598,2.420079764246098,2.7100450712711894,1.6488665988603928,2.1298911991576164,-1.0,-1.5708493398585264,-0.4787688078151588,2.5875805120179742,2.603877626366671,3.14,-3.14
187,0.9356608489469648,0.9353917643905998,0.021664940889274578,2.4200797636495963,2.7100450703401675,1.6488665988760411,2.129876152353463,-1.0,-1.5708493413371034,-0.47872876627599303,2.5875635012763154,2.6038543744402425,3.14,-3.14
188,0.9356608483218438,0.9353917634593423,0.021664954101476556,2.4200797630530277,2.7100450694089964,1.648866598891692,2.1298611038519173,-1.0,-1.5708493428158452,-0.4786887218736034,2.5875464878515033,2.6038311223085895,3.14,-3.14
189,0.935660847696661,0.9353917625279354,0.021664967317442413,2.4200797624563952,2.710045068477676,1.6488665989073445,2.1298460536526775,-1.0,-1.5708493442947518,-0.4786486746076574,2.5875294717429966,2.603807869971916,3.14,-3.14
190,0.9356608470714156,0.9353917615963794,0.02166498053715164,2.420079761859694,2.710045067546206,1.6488665989229996,2.1298310017554414,-1.0,-1.5708493457738233,-0.4786086244778227,2.5875124529502536,2.6037846174304273,3.14,-3.14
191,0.9356608464461085,0.9353917606646738,0.02166499376061448,2.4200797612629277,2.7100450666145868,1.6488665989386575,2.129815948159908,-1.0,-1.57084934725306,-0.4785685714837666,2.5874954314727323,2.6037613646843276,3.14,-3.14
192,0.9356608458207388,0.9353917597328184,0.02166500698783093,2.4200797606660953,2.710045065682818,1.6488665989543168,2.129800892865776,-1.0,-1.5708493487324615,-0.4785285156251562,2.587478407309892,2.603738111733821,3.14,-3.14
193,0.9356608451953063,0.9353917588008138,0.021665020218811226,2.420079760069196,2.7100450647509,1.648866598969979,2.129785835872742,-1.0,-1.5708493502120278,-0.47848845690165925,2.5874613804611895,2.6037148585791132,3.14,-3.14
194,0.935660844569812,0.9353917578686594,0.021665033453545115,2.4200797594722303,2.7100450638188316,1.6488665989856428,2.129770777180506,-1.0,-1.5708493516917592,-0.47844839531294325,2.587444350926084,2.6036916052204084,3.14,-3.14
195,0.9356608439442551,0.9353917569363556,0.021665046692032588,2.420079758875198,2.710045062886614,1.6488665990013096,2.129755716788765,-1.0,-1.5708493531716559,-0.4784083308586754,2.587427318704032,2.603668351657912,3.14,-3.14
196,0.9356608433186354,0.9353917560039019,0.021665059934283894,2.4200797582781,2.710045061954247,1.6488665990169782,2.129740654697218,-1.0,-1.5708493546517175,-0.47836826353852296,2.5874102837944926,2.6036450978918286,3.14,-3.14
197,0.9356608426929544,0.9353917550712987,0.02166507318029902,2.420079757680936,2.71004506102173,1.6488665990326494,2.129725590905563,-1.0,-1.570849356131944,-0.47832819335215343,2.5873932461969225,2.6036218439223635,3.14,-3.14
198,0.9356608420672103,0.9353917541385459,0.02166508643007796,2.420079757083706,2.7100450600890635,1.6488665990483227,2.129710525413497,-1.0,-1.5708493576123357,-0.4782881202992342,2.58737620591078,2.603598589749722,3.14,-3.14
199,0.9356608414414038,0.9353917532056434,0.02166509968362071,2.420079756486409,2.710045059156248,1.6488665990639986,2.1296954582207186,-1.0,-1.5708493590928927,-0.4782480443794327,2.5873591629355217,2.603575335374109,3.14,-3.14
200,0.9356608408155356,0.9353917522725911,0.02166511294091701,2.420079755889045,2.710045058223282,1.6488665990796767,2.129680389326925,-1.0,-1.5708493605736147,-0.4782079655924161,2.5873421172706057,2.6035520807957306,3.14,-3.14
201,0.9356608401896036,0.9353917513393886,0.021665126201987357,2.420079755291614,2.7100450572901655,1.648866599095357,2.129665318731815,-1.0,-1.570849362054502,-0.47816788393785165,2.587325068915489,2.6035288260147915,3.14,-3.14
202,0.9356608395636106,0.9353917504060366,0.021665139466821488,2.4200797546941173,2.7100450563569005,1.6488665991110392,2.129650246435086,-1.0,-1.5708493635355547,-0.4781277994154065,2.587308017869629,2.603505571031498,3.14,-3.14
203,0.9356608389375544,0.9353917494725346,0.02166515273540915,2.420079754096555,2.7100450554234845,1.6488665991267242,2.1296351724364357,-1.0,-1.5708493650167725,-0.47808771202474803,2.5872909641324817,2.6034823158460556,3.14,-3.14
204,0.9356608383114364,0.935391748538883,0.021665166007791337,2.420079753498925,2.7100450544899197,1.6488665991424118,2.129620096735562,-1.0,-1.5708493664981558,-0.4780476217655435,2.5872739077035045,2.6034590604586705,3.14,-3.14
205,0.9356608376852558,0.9353917476050814,0.02166517928393729,2.4200797529012292,2.710045053556205,1.6488665991581009,2.1296050193321623,-1.0,-1.5708493679797042,-0.47800752863746004,2.5872568485821543,2.6034358048695476,3.14,-3.14
206,0.9356608370590122,0.9353917466711295,0.021665192563847,2.4200797523034674,2.7100450526223394,1.6488665991737927,2.129589940225934,-1.0,-1.570849369461418,-0.477967432640165,2.587239786767887,2.6034125490788944,3.14,-3.14
207,0.9356608364327068,0.935391745737028,0.021665205847520467,2.4200797517056376,2.7100450516883243,1.6488665991894869,2.1295748594165747,-1.0,-1.5708493709432974,-0.4779273337733256,2.5872227222601603,2.603389293086916,3.14,-3.14
208,0.9356608358063382,0.935391744802776,0.021665219134967925,2.420079751107743,2.710045050754159,1.6488665992051834,2.129559776903782,-1.0,-1.5708493724253418,-0.47788723203660877,2.5872056550584293,2.603366036893819,3.14,-3.14
209,0.9356608351799077,0.9353917438683742,0.021665232426189375,2.4200797505097813,2.7100450498198434,1.6488665992208815,2.129544692687254,-1.0,-1.570849373907552,-0.477847127429682,2.587188585162151,2.6033427804998093,3.14,-3.14
210,0.9356608345534144,0.9353917429338222,0.021665245721195055,2.4200797499117535,2.7100450488853784,1.648866599236583,2.1295296067666865,-1.0,-1.5708493753899275,-0.4778070199522123,2.587171512570781,2.6033195239050944,3.14,-3.14
211,0.935660833926859,0.9353917419991203,0.021665259019974712,2.420079749313658,2.710045047950763,1.6488665992522857,2.1295145191417775,-1.0,-1.5708493768724685,-0.47776690960386686,2.5871544372837763,2.60329626710988,3.14,-3.14
212,0.9356608333002405,0.9353917410642679,0.021665272322518084,2.4200797487154957,2.7100450470159974,1.6488665992679914,2.129499429812224,-1.0,-1.5708493783551751,-0.47772679638431287,2.5871373593005917,2.603273010114373,3.14,-3.14
213,0.93566083267356,0.9353917401292655,0.021665285628845666,2.4200797481172684,2.710045046081081,1.648866599283699,2.1294843387777243,-1.0,-1.5708493798380472,-0.4776866802932172,2.5871202786206835,2.60324975291878,3.14,-3.14
214,0.9356608320468167,0.9353917391941129,0.021665298938957456,2.4200797475189746,2.7100450451460154,1.6488665992994094,2.1294692460379743,-1.0,-1.5708493813210846,-0.47764656133024724,2.587103195243507,2.6032264955233084,3.14,-3.14
215,0.9356608314200114,0.93539173825881,0.02166531225284319,2.4200797469206132,2.710045044210799,1.6488665993151217,2.1294541515926713,-1.0,-1.570849382804288,-0.47760643949507015,2.5870861091685184,2.6032032379281644,3.14,-3.14
216,0.9356608307931432,0.935391737323357,0.021665325570502863,2.4200797463221853,2.710045043275433,1.6488665993308367,2.129439055441513,-1.0,-1.5708493842876567,-0.47756631478735273,2.5870690203951727,2.6031799801335556,3.14,-3.14
217,0.9356608301662117,0.9353917363877529,0.02166533889195697,2.4200797457236916,2.7100450423399156,1.6488665993465537,2.1294239575841956,-1.0,-1.5708493857711914,-0.47752618720676226,2.5870519289229255,2.6031567221396887,3.14,-3.14
218,0.9356608295392194,0.9353917354519994,0.02166535221719525,2.4200797451251304,2.7100450414042485,1.6488665993622724,2.1294088580204162,-1.0,-1.5708493872548916,-0.4774860567529656,2.5870348347512317,2.6031334639467714,3.14,-3.14
219,0.9356608289121633,0.935391734516095,0.021665365546197204,2.4200797445265025,2.710045040468431,1.648866599377994,2.1293937567498715,-1.0,-1.5708493887387576,-0.4774459234256299,2.5870177378795463,2.6031102055550113,3.14,-3.14
220,0.9356608282850444,0.9353917335800401,0.021665378879003817,2.4200797439278086,2.7100450395324627,1.6488665993937182,2.129378653772259,-1.0,-1.5708493902227894,-0.4774057872244222,2.587000638307324,2.6030869469646154,3.14,-3.14
221,0.9356608276578634,0.9353917326438349,0.021665392215594582,2.420079743329048,2.710045038596344,1.648866599409445,2.129363549087275,-1.0,-1.570849391706987,-0.4773656481490093,2.5869835360340203,2.6030636881757916,3.14,-3.14
222,0.9356608270306199,0.9353917317074791,0.021665405555979747,2.4200797427302208,2.710045037660075,1.6488665994251732,2.129348442694616,-1.0,-1.5708493931913503,-0.47732550619905817,2.5869664310590905,2.603040429188747,3.14,-3.14
223,0.9356608264033132,0.9353917307709724,0.021665418900128554,2.4200797421313265,2.7100450367236553,1.6488665994409035,2.1293333345939787,-1.0,-1.5708493946758797,-0.47728536137423605,2.586949323381988,2.6030171700036897,3.14,-3.14
224,0.9356608257759442,0.9353917298343155,0.021665432248071742,2.4200797415323656,2.710045035787085,1.6488665994566365,2.1293182247850595,-1.0,-1.5708493961605747,-0.47724521367420963,2.5869322130021675,2.6029939106208277,3.14,-3.14
225,0.9356608251485131,0.9353917288975084,0.021665445599819557,2.420079740933338,2.7100450348503644,1.6488665994723721,2.1293031132675555,-1.0,-1.5708493976454356,-0.47720506309864597,2.586915099919083,2.602970651040369,3.14,-3.14
226,0.935660824521019,0.9353917279605501,0.02166545895535149,2.4200797403342436,2.7100450339134934,1.64886659948811,2.129288000041163,-1.0,-1.5708493991304626,-0.47716490964721203,2.5868979841321895,2.602947391262522,3.14,-3.14
227,0.9356608238934623,0.9353917270234412,0.021665472314688038,2.420079739735083,2.710045032976471,1.6488665995038498,2.1292728851055784,-1.0,-1.5708494006156555,-0.4771247533195746,2.5868808656409414,2.602924131287494,3.14,-3.14
228,0.9356608232658423,0.9353917260861816,0.02166548567779844,2.420079739135856,2.7100450320392984,1.6488665995195921,2.1292577684604983,-1.0,-1.5708494021010144,-0.47708459411540066,2.586863744444792,2.602900871115494,3.14,-3.14
229,0.9356608226381599,0.9353917251487711,0.02166549904470319,2.4200797385365607,2.7100450311019744,1.6488665995353369,2.129242650105618,-1.0,-1.5708494035865392,-0.47704443203435715,2.5868466205431955,2.60287761074673,3.14,-3.14
230,0.9356608220104153,0.9353917242112102,0.021665512415412532,2.4200797379372,2.7100450301645003,1.6488665995510836,2.1292275300406347,-1.0,-1.5708494050722301,-0.4770042670761109,2.5868294939356056,2.6028543501814108,3.14,-3.14
231,0.9356608213826084,0.9353917232734986,0.02166552578991621,2.4200797373377716,2.7100450292268756,1.648866599566833,2.129212408265244,-1.0,-1.5708494065580871,-0.47696409924032873,2.586812364621476,2.6028310894197446,3.14,-3.14
232,0.9356608207547379,0.9353917223356356,0.02166553916821421,2.4200797367382765,2.7100450282890995,1.6488665995825842,2.129197284779143,-1.0,-1.5708494080441102,-0.4769239285266775,2.58679523260026,2.6028078284619403,3.14,-3.14
233,0.9356608201268051,0.9353917213976222,0.021665552550316786,2.4200797361387156,2.710045027351173,1.6488665995983385,2.1291821595820273,-1.0,-1.5708494095302994,-0.47688375493482393,2.5867780978714108,2.6027845673082073,3.14,-3.14
234,0.9356608194988094,0.9353917204594574,0.02166556593621367,2.4200797355390877,2.710045026413095,1.6488665996140943,2.129167032673593,-1.0,-1.5708494110166549,-0.476843578464435,2.5867609604343826,2.6027613059587535,3.14,-3.14
235,0.9356608188707515,0.9353917195211419,0.021665579325904863,2.4200797349393928,2.7100450254748667,1.6488665996298526,2.129151904053536,-1.0,-1.5708494125031764,-0.47680339911517733,2.5867438202886284,2.6027380444137886,3.14,-3.14
236,0.9356608182426296,0.9353917185826754,0.021665592719410855,2.4200797343396308,2.7100450245364867,1.6488665996456138,2.1291367737215516,-1.0,-1.570849413989864,-0.47676321688671786,2.5867266774336004,2.6027147826735217,3.14,-3.14
237,0.9356608176144466,0.9353917176440584,0.021665606116711134,2.4200797337398026,2.7100450235979565,1.6488665996613765,2.1291216416773366,-1.0,-1.570849415476718,-0.4767230317787233,2.5867095318687525,2.602691520738162,3.14,-3.14
238,0.9356608169861996,0.9353917167052894,0.021665619517815954,2.420079733139907,2.7100450226592745,1.648866599677142,2.1291065079205866,-1.0,-1.5708494169637381,-0.4766828437908606,2.586692383593537,2.6026682586079186,3.14,-3.14
239,0.9356608163578908,0.9353917157663699,0.021665632922715047,2.4200797325399446,2.7100450217204424,1.6488665996929102,2.1290913724509974,-1.0,-1.5708494184509247,-0.47664265292279645,2.586675232607407,2.602644996283001,3.14,-3.14
240,0.9356608157295184,0.9353917148272992,0.02166564633144941,2.4200797319399157,2.7100450207814584,1.6488665997086798,2.129076235268265,-1.0,-1.5708494199382776,-0.47660245917419747,2.586658078909816,2.602621733763619,3.14,-3.14
241,0.9356608151010833,0.9353917138880775,0.021665659743967787,2.4200797313398197,2.7100450198423234,1.6488665997244523,2.129061096372084,-1.0,-1.5708494214257969,-0.4765622625447304,2.5866409225002145,2.6025984710499817,3.14,-3.14
242,0.9356608144725854,0.935391712948704,0.021665673160290673,2.420079730739656,2.7100450189030374,1.6488665997402268,2.1290459557621513,-1.0,-1.5708494229134824,-0.47652206303406197,2.5866237633780558,2.6025752081422993,3.14,-3.14
243,0.9356608138440254,0.9353917120091799,0.021665686580448804,2.420079730139427,2.7100450179636,1.6488665997560037,2.129030813438162,-1.0,-1.5708494244013345,-0.4764818606418589,2.586606601542792,2.6025519450407812,3.14,-3.14
244,0.935660813215403,0.9353917110695047,0.021665700004390928,2.4200797295391303,2.7100450170240116,1.6488665997717828,2.129015669399811,-1.0,-1.570849425889353,-0.4764416553677878,2.586589436993876,2.6025286817456377,3.14,-3.14
245,0.9356608125867167,0.9353917101296776,0.021665713432147786,2.420079728938766,2.7100450160842717,1.6488665997875644,2.1290005236467944,-1.0,-1.570849427377538,-0.4764014472115152,2.5865722697307585,2.6025054182570786,3.14,-3.14
246,0.9356608119579675,0.9353917091896994,0.021665726863719374,2.4200797283383353,2.7100450151443805,1.6488665998033483,2.1289853761788073,-1.0,-1.5708494288658894,-0.476361236172708,2.5865550997528923,2.602482154575314,3.14,-3.14
247,0.9356608113291558,0.9353917082495699,0.02166574029911593,2.420079727737838,2.710045014204338,1.648866599819134,2.1289702269955453,-1.0,-1.5708494303544074,-0.4763210222510326,2.5865379270597293,2.6024588907005546,3.14,-3.14
248,0.9356608107002815,0.9353917073092891,0.02166575373831695,2.4200797271372734,2.7100450132641445,1.6488665998349226,2.1289550760967035,-1.0,-1.570849431843092,-0.4762808054461558,2.58652075165072,2.6024356266330106,3.14,-3.14
249,0.9356608100713439,0.9353917063688566,0.021665767181332674,2.4200797265366427,2.710045012323799,1.6488665998507137,2.1289399234819775,-1.0,-1.5708494333319432,-0.4762405857577442,2.586503573525317,2.6024123623728928,3.14,-3.14
250,0.9356608094423432,0.9353917054282725,0.02166578062817335,2.4200797259359437,2.710045011383302,1.6488665998665069,2.128924769151062,-1.0,-1.570849434820961,-0.47620036318546416,2.5864863926829718,2.602389097920411,3.14,-3.14
251,0.9356608088132806,0.9353917044875377,0.021665794078818464,2.420079725335179,2.710045010442654,1.6488665998823024,2.1289096131036525,-1.0,-1.5708494363101453,-0.4761601377289824,2.586469209123135,2.602365833275776,3.14,-3.14
252,0.9356608081841543,0.9353917035466505,0.021665807533288516,2.4200797247343466,2.710045009501854,1.6488665998981,2.1288944553394438,-1.0,-1.5708494377994964,-0.4761199093879656,2.5864520228452585,2.602342568439199,3.14,-3.14
253,0.9356608075549652,0.9353917026056121,0.021665820991573242,2.4200797241334464,2.7100450085609027,1.6488665999139,2.1288792958581304,-1.0,-1.570849439289014,-0.4760796781620803,2.586434833848793,2.6023193034108907,3.14,-3.14
254,0.9356608069257142,0.9353917016644226,0.021665834453672643,2.4200797235324805,2.7100450076198004,1.6488665999297023,2.1288641346594086,-1.0,-1.5708494407786984,-0.476039444050993,2.5864176421331893,2.602296038191062,3.14,-3.14
255,0.9356608062963989,0.9353917007230806,0.021665847919617454,2.4200797229314475,2.7100450066785458,1.648866599945507,2.1288489717429724,-1.0,-1.5708494422685497,-0.4759992070543703,2.5864004476978986,2.6022727727799237,3.14,-3.14
256,0.9356608056670218,0.9353916997815876,0.021665861389366672,2.420079722330346,2.7100450057371397,1.648866599961314,2.1288338071085167,-1.0,-1.5708494437585678,-0.4759589671718786,2.5863832505423714,2.6022495071776874,3.14,-3.14
257,0.9356608050375812,0.9353916988399427,0.021665874862930538,2.4200797217291785,2.7100450047955817,1.6488665999771233,2.1288186407557363,-1.0,-1.5708494452487527,-0.4759187244031842,2.5863660506660584,2.6022262413845643,3.14,-3.14
258,0.9356608044080776,0.9353916978981458,0.021665888340339796,2.420079721127944,2.710045003853872,1.6488665999929348,2.1288034726843263,-1.0,-1.5708494467391043,-0.47587847874795386,2.58634884806841,2.602202975400766,3.14,-3.14
259,0.9356608037785111,0.9353916969561978,0.021665901821573935,2.4200797205266418,2.710045002912011,1.6488666000087489,2.128788302893981,-1.0,-1.570849448229623,-0.47583823020585403,2.586331642748876,2.6021797092265038,3.14,-3.14
260,0.9356608031488817,0.9353916960140973,0.021665915306612455,2.4200797199252735,2.710045001969998,1.6488666000245649,2.128773131384396,-1.0,-1.5708494497203085,-0.47579797877655106,2.586314434706907,2.6021564428619888,3.14,-3.14
261,0.9356608025191895,0.935391695071845,0.021665928795506592,2.420079719323838,2.710045001027833,1.648866600040384,2.1287579581552647,-1.0,-1.5708494512111608,-0.4757577244597113,2.5862972239419535,2.602133176307434,3.14,-3.14
262,0.935660801889434,0.9353916941294411,0.021665942288215344,2.4200797187223353,2.7100450000855165,1.6488666000562047,2.128742783206282,-1.0,-1.5708494527021801,-0.47571746725500147,2.586280010453466,2.6021099095630493,3.14,-3.14
263,0.9356608012596161,0.9353916931868854,0.021665955784759203,2.4200797181207654,2.7100449991430478,1.6488666000720276,2.1287276065371423,-1.0,-1.5708494541933666,-0.4756772071620879,2.5862627942408936,2.602086642629048,3.14,-3.14
264,0.9356608006297346,0.9353916922441777,0.021665969285127908,2.420079717519127,2.710044998200427,1.6488666000878536,2.12871242814754,-1.0,-1.5708494556847201,-0.47563694418063684,2.5862455753036855,2.6020633755056424,3.14,-3.14
265,0.93566079999979,0.9353916913013177,0.02166598278934195,2.4200797169174235,2.7100449972576546,1.6488666001036814,2.1286972480371698,-1.0,-1.5708494571762406,-0.4755966783103146,2.5862283536412924,2.6020401081930435,3.14,-3.14
266,0.9356607993697827,0.935391690358306,0.02166599629737058,2.4200797163156516,2.71004499631473,1.6488666001195114,2.1286820662057253,-1.0,-1.570849458667928,-0.47555640955078776,2.5862111292531638,2.6020168406914643,3.14,-3.14
267,0.9356607987397123,0.9353916894151421,0.021666009809234287,2.420079715713812,2.7100449953716534,1.6488666001353438,2.1286668826529014,-1.0,-1.5708494601597827,-0.47551613790172276,2.586193902138748,2.601993573001117,3.14,-3.14
268,0.9356607981095794,0.9353916884718266,0.02166602332494331,2.4200797151119064,2.7100449944284253,1.6488666001511791,2.128651697378393,-1.0,-1.5708494616518043,-0.47547586336278574,2.586176672297495,2.601970305122214,3.14,-3.14
269,0.9356607974793829,0.9353916875283583,0.0216660368444874,2.4200797145099333,2.7100449934850444,1.6488666001670158,2.128636510381893,-1.0,-1.570849463143993,-0.4754355859336432,2.5861594397288545,2.601947037054967,3.14,-3.14
270,0.9356607968491238,0.9353916865847383,0.02166605036787679,2.420079713907893,2.7100449925415115,1.6488666001828556,2.128621321663096,-1.0,-1.5708494646363491,-0.47539530561396154,2.586142204432275,2.6019237687995904,3.14,-3.14
271,0.9356607962188007,0.9353916856409658,0.02166606389509098,2.4200797133057854,2.7100449915978264,1.6488666001986976,2.1286061312216957,-1.0,-1.5708494661288726,-0.475355022403407,2.5861249664072052,2.6019005003562956,3.14,-3.14
272,0.9356607955884149,0.9353916846970414,0.021666077426150458,2.4200797127036116,2.7100449906539894,1.6488666002145416,2.128590939057387,-1.0,-1.5708494676215632,-0.4753147363016456,2.5861077256530947,2.6018772317252954,3.14,-3.14
273,0.9356607949579664,0.9353916837529644,0.02166609096105522,2.4200797121013684,2.71004498971,1.648866600230388,2.1285757451698624,-1.0,-1.570849469114421,-0.47527444730834384,2.5860904821693915,2.6018539629068034,3.14,-3.14
274,0.935660794327455,0.9353916828087355,0.02166610449979501,2.4200797114990604,2.7100449887658584,1.6488666002462367,2.1285605495588173,-1.0,-1.5708494706074463,-0.47523415542316794,2.5860732359555443,2.6018306939010323,3.14,-3.14
275,0.9356607936968798,0.9353916818643543,0.021666118042390315,2.420079710896683,2.7100449878215644,1.648866600262088,2.128545352223944,-1.0,-1.5708494721006387,-0.47519386064578417,2.5860559870110014,2.6018074247081957,3.14,-3.14
276,0.9356607930662423,0.9353916809198207,0.021666131588810384,2.4200797102942393,2.710044986877118,1.6488666002779413,2.1285301531649377,-1.0,-1.5708494735939986,-0.47515356297585876,2.5860387353352117,2.6017841553285064,3.14,-3.14
277,0.9356607924355407,0.9353916799751344,0.021666145139085952,2.4200797096917284,2.7100449859325195,1.648866600293797,2.1285149523814915,-1.0,-1.570849475087526,-0.47511326241305796,2.586021480927623,2.601760885762178,3.14,-3.14
278,0.9356607918047769,0.9353916790302961,0.021666158693196522,2.4200797090891495,2.7100449849877686,1.6488666003096553,2.1284997498732987,-1.0,-1.5708494765812206,-0.475072958957048,2.586004223787684,2.601737616009424,3.14,-3.14
279,0.9356607911739493,0.935391678085305,0.02166617225117283,2.420079708486504,2.710044984042865,1.6488666003255152,2.1284845456400534,-1.0,-1.5708494780750826,-0.475032652607495,2.585986963914842,2.6017143460704575,3.14,-3.14
280,0.9356607905430588,0.9353916771401616,0.02166618581298412,2.4200797078837906,2.710044983097809,1.6488666003413786,2.128469339681449,-1.0,-1.5708494795691121,-0.47499234336406543,2.5859697013085445,2.601691075945493,3.14,-3.14
281,0.9356607899121057,0.9353916761948659,0.021666199378640633,2.42007970728101,2.7100449821526005,1.6488666003572436,2.1284541319971795,-1.0,-1.5708494810633093,-0.47495203122642526,2.5859524359682404,2.601667805634744,3.14,-3.14
282,0.9356607892810884,0.9353916752494172,0.02166621294816286,2.4200797066781625,2.7100449812072394,1.6488666003731107,2.128438922586938,-1.0,-1.570849482557674,-0.4749117161942406,2.585935167893377,2.601644535138424,3.14,-3.14
283,0.9356607886500089,0.9353916743038163,0.021666226521530302,2.420079706075248,2.710044980261726,1.6488666003889807,2.128423711450418,-1.0,-1.5708494840522063,-0.4748713982671777,2.585917897083401,2.6016212644567474,3.14,-3.14
284,0.9356607880188654,0.9353916733580624,0.021666240098753196,2.4200797054722663,2.7100449793160593,1.648866600404853,2.128408498587312,-1.0,-1.5708494855469062,-0.47483107744490266,2.585900623537761,2.601597993589928,3.14,-3.14
285,0.9356607873876593,0.9353916724121563,0.021666253679821286,2.4200797048692158,2.7100449783702407,1.648866600420727,2.128393283997314,-1.0,-1.5708494870417737,-0.47479075372708157,2.5858833472559035,2.6015747225381802,3.14,-3.14
286,0.9356607867563899,0.935391671466097,0.021666267264744812,2.4200797042660986,2.7100449774242694,1.648866600436604,2.128378067680117,-1.0,-1.5708494885368087,-0.4747504271133805,2.5858660682372756,2.6015514513017184,3.14,-3.14
287,0.9356607861250571,0.9353916705198855,0.02166628085351352,2.420079703662914,2.7100449764781454,1.6488666004524828,2.128362849635415,-1.0,-1.5708494900320114,-0.47471009760346566,2.585848786481325,2.6015281798807566,3.14,-3.14
288,0.9356607854936605,0.9353916695735207,0.02166629444617865,2.4200797030596624,2.7100449755318676,1.6488666004683643,2.1283476298629003,-1.0,-1.5708494915273818,-0.4746697651970033,2.5858315019874976,2.60150490827551,3.14,-3.14
289,0.9356607848622018,0.9353916686270038,0.021666308042668447,2.420079702456343,2.7100449745854385,1.6488666004842483,2.1283324083622657,-1.0,-1.57084949302292,-0.4746294298936593,2.5858142147552408,2.6014816364861932,3.14,-3.14
290,0.9356607842306788,0.9353916676803332,0.021666321643003403,2.420079701852956,2.7100449736388557,1.6488666005001342,2.128317185133205,-1.0,-1.570849494518626,-0.4745890916930998,2.5857969247840016,2.6014583645130203,3.14,-3.14
291,0.9356607835990935,0.9353916667335103,0.02166633524723476,2.4200797012495023,2.71004497269212,1.6488666005160226,2.1283019601754103,-1.0,-1.5708494960144999,-0.4745487505949908,2.5857796320732263,2.6014350923562066,3.14,-3.14
292,0.9356607829674441,0.9353916657865341,0.021666348855301013,2.42007970064598,2.7100449717452317,1.6488666005319135,2.128286733488575,-1.0,-1.5708494975105416,-0.4745084065989983,2.585762336622361,2.601411820015967,3.14,-3.14
293,0.9356607823357318,0.9353916648394052,0.02166636246724315,2.420079700042391,2.71004497079819,1.6488666005478063,2.128271505072392,-1.0,-1.5708494990067512,-0.4744680597047882,2.5857450384308525,2.6013885474925162,3.14,-3.14
294,0.9356607817039572,0.9353916638921237,0.021666376083040666,2.420079699438734,2.7100449698509963,1.6488666005637018,2.1282562749265543,-1.0,-1.5708495005031287,-0.47442770991202665,2.5857277374981464,2.60136527478607,3.14,-3.14
295,0.9356607810721177,0.9353916629446887,0.02166638970271405,2.4200796988350097,2.7100449689036488,1.6488666005795998,2.1282410430507546,-1.0,-1.5708495019996738,-0.4743873572203795,2.5857104338236896,2.6013420018968425,3.14,-3.14
296,0.9356607804402155,0.935391661997101,0.021666403326222307,2.420079698231218,2.710044967956149,1.6488666005955,2.128225809444685,-1.0,-1.5708495034963872,-0.47434700162951304,2.5856931274069277,2.6013187288250506,3.14,-3.14
297,0.9356607798082501,0.93539166104936,0.021666416953637167,2.420079697627359,2.7100449670084954,1.6488666006114023,2.1282105741080386,-1.0,-1.5708495049932683,-0.47430664313909293,2.5856758182473065,2.6012954555709085,3.14,-3.14
298,0.9356607791762214,0.935391660101466,0.021666430584907376,2.4200796970234326,2.710044966060689,1.648866600627307,2.1281953370405082,-1.0,-1.5708495064903174,-0.4742662817487854,2.585658506344272,2.6012721821346325,3.14,-3.14
299,0.9356607785441293,0.9353916591534188,0.021666444220022677,2.4200796964194375,2.7100449651127296,1.6488666006432138,2.128180098241786,-1.0,-1.5708495079875349,-0.4742259174582564,2.585641191697269,2.601248908516438,3.14,-3.14
300,0.9356607779119744,0.9353916582052189,0.021666457859044565,2.420079695815376,2.7100449641646174,1.6488666006591233,2.128164857711564,-1.0,-1.5708495094849202,-0.47418555026717146,2.5856238743057434,2.6012256347165414,3.14,-3.14
301,0.9356607772797557,0.935391657256865,0.02166647150191153,2.4200796952112467,2.710044963216351,1.6488666006750352,2.1281496154495354,-1.0,-1.5708495109824736,-0.4741451801751968,2.585606554169141,2.601202360735158,3.14,-3.14
302,0.9356607766474733,0.9353916563083581,0.021666485148644065,2.420079694607049,2.710044962267932,1.6488666006909491,2.1281343714553924,-1.0,-1.570849512480195,-0.4741048071819983,2.585589231286907,2.6011790865725035,3.14,-3.14
303,0.9356607760151281,0.9353916553596983,0.021666498799252414,2.4200796940027853,2.71004496131936,1.6488666007068657,2.128119125728827,-1.0,-1.570849513978085,-0.47406443128724196,2.5855719056584863,2.6011558122287948,3.14,-3.14
304,0.9356607753827194,0.935391654410885,0.021666512453746817,2.4200796933984527,2.7100449603706345,1.6488666007227846,2.1281038782695316,-1.0,-1.5708495154761428,-0.4740240524905935,2.5855545772833235,2.601132537704247,3.14,-3.14
305,0.9356607747502469,0.9353916534619181,0.021666526112117016,2.420079692794052,2.7100449594217553,1.6488666007387058,2.1280886290771983,-1.0,-1.5708495169743688,-0.4739836707917187,2.585537246160864,2.6011092629990777,3.14,-3.14
306,0.9356607741177115,0.9353916525127983,0.021666539774352758,2.4200796921895855,2.7100449584727233,1.648866600754629,2.12807337815152,-1.0,-1.5708495184727629,-0.47394328619028364,2.585519912290553,2.6010859881135024,3.14,-3.14
307,0.935660773485113,0.9353916515635249,0.02166655344047453,2.4200796915850504,2.7100449575235377,1.648866600770555,2.128058125492188,-1.0,-1.5708495199713253,-0.4739028986859543,2.5855025756718346,2.6010627130477384,3.14,-3.14
308,0.9356607728524504,0.9353916506140979,0.02166656711048233,2.4200796909804474,2.7100449565741984,1.648866600786483,2.1280428710988946,-1.0,-1.5708495214700562,-0.4738625082783965,2.5854852363041534,2.6010394378020014,3.14,-3.14
309,0.9356607722197243,0.9353916496645174,0.0216665807843454,2.4200796903757777,2.7100449556247055,1.6488666008024135,2.128027614971332,-1.0,-1.5708495229689554,-0.4738221149672758,2.5854678941869533,2.601016162376509,3.14,-3.14
310,0.9356607715869354,0.9353916487147833,0.021666594462104727,2.4200796897710393,2.71004495467506,1.6488666008183468,2.128012357109191,-1.0,-1.570849524468023,-0.47378171875225805,2.5854505493196793,2.600992886771478,3.14,-3.14
311,0.9356607709540831,0.935391647764896,0.02166660814372956,2.420079689166234,2.71004495372526,1.6488666008342818,2.127997097512165,-1.0,-1.570849525967259,-0.47374131963300903,2.585433201701776,2.600969610987125,3.14,-3.14
312,0.9356607703211663,0.9353916468148546,0.021666621829271135,2.4200796885613607,2.7100449527753065,1.6488666008502195,2.1279818361799454,-1.0,-1.5708495274666634,-0.47370091760919447,2.5854158513326864,2.6009463350236666,3.14,-3.14
313,0.9356607696881868,0.9353916458646602,0.0216666355186577,2.4200796879564197,2.7100449518252,1.6488666008661592,2.1279665731122233,-1.0,-1.570849528966236,-0.47366051268048015,2.5853984982118554,2.6009230588813206,3.14,-3.14
314,0.9356607690551431,0.9353916449143116,0.021666649211950748,2.4200796873514117,2.710044950874939,1.6488666008821014,2.127951308308691,-1.0,-1.5708495304659773,-0.47362010484653205,2.585381142338726,2.600899782560304,3.14,-3.14
315,0.9356607684220372,0.9353916439638096,0.02166666290911952,2.4200796867463343,2.7100449499245247,1.648866600898046,2.1279360417690394,-1.0,-1.5708495319658868,-0.47357969410701584,2.5853637837127423,2.600876506060835,3.14,-3.14
316,0.9356607677888668,0.9353916430131538,0.021666676610174254,2.42007968614119,2.710044948973957,1.648866600913993,2.127920773492961,-1.0,-1.5708495334659651,-0.4735392804615974,2.5853464223333478,2.60085322938313,3.14,-3.14
317,0.935660767155634,0.9353916420623446,0.021666690315135448,2.4200796855359785,2.710044948023236,1.6488666009299424,2.127905503480147,-1.0,-1.570849534966212,-0.4734988639099421,2.585329058199986,2.6008299525274072,3.14,-3.14
318,0.935660766522337,0.9353916411113813,0.021666704023972343,2.4200796849306987,2.7100449470723604,1.6488666009458939,2.127890231730289,-1.0,-1.5708495364666273,-0.4734584444517159,2.5853116913121004,2.6008066754938843,3.14,-3.14
319,0.935660765888976,0.9353916401602642,0.021666717736695183,2.4200796843253514,2.7100449461213314,1.6488666009618476,2.1278749582430785,-1.0,-1.5708495379672114,-0.47341802208658446,2.585294321669134,2.6007833982827786,3.14,-3.14
320,0.9356607652555513,0.9353916392089926,0.021666731453314207,2.420079683719936,2.7100449451701474,1.6488666009778041,2.127859683018207,-1.0,-1.570849539467964,-0.4733775968142134,2.58527694927053,2.6007601208943085,3.14,-3.14
321,0.9356607646220642,0.9353916382575679,0.02166674517382941,2.4200796831144524,2.7100449442188106,1.6488666009937631,2.127844406055365,-1.0,-1.5708495409688852,-0.4733371686342684,2.5852595741157316,2.6007368433286917,3.14,-3.14
322,0.9356607639885128,0.9353916373059891,0.021666758898220284,2.4200796825089013,2.71004494326732,1.6488666010097237,2.1278291273542447,-1.0,-1.570849542469975,-0.4732967375464152,2.585242196204182,2.600713565586146,3.14,-3.14
323,0.9356607633548987,0.9353916363542564,0.021666772626517575,2.4200796819032835,2.710044942315675,1.6488666010256872,2.1278138469145373,-1.0,-1.5708495439712338,-0.4732563035503195,2.5852248155353226,2.600690287666891,3.14,-3.14
324,0.9356607627212198,0.9353916354023691,0.021666786358721265,2.4200796812975964,2.710044941363876,1.648866601041653,2.1277985647359334,-1.0,-1.5708495454726614,-0.47321586664564697,2.585207432108597,2.600667009571144,3.14,-3.14
325,0.9356607620874782,0.9353916344503285,0.021666800094810857,2.4200796806918423,2.7100449404119233,1.648866601057621,2.1277832808181247,-1.0,-1.5708495469742576,-0.47317542683206293,2.585190045923448,2.6006437312991233,3.14,-3.14
326,0.935660761453673,0.9353916334981337,0.021666813834786344,2.42007968008602,2.7100449394598165,1.6488666010735913,2.1277679951608017,-1.0,-1.5708495484760228,-0.4731349841092333,2.585172656979317,2.600620452851048,3.14,-3.14
327,0.9356607608198039,0.9353916325457846,0.02166682757867846,2.42007967948013,2.7100449385075556,1.6488666010895645,2.1277527077636558,-1.0,-1.5708495499779567,-0.47309453847682353,2.585155265275647,2.6005971742271363,3.14,-3.14
328,0.9356607601858713,0.9353916315932814,0.0216668413264667,2.420079678874172,2.71004493755514,1.6488666011055395,2.1277374186263778,-1.0,-1.5708495514800593,-0.4730540899344992,2.585137870811881,2.600573895427607,3.14,-3.14
329,0.935660759551875,0.935391630640624,0.021666855078140812,2.4200796782681464,2.710044936602571,1.648866601121517,2.1277221277486587,-1.0,-1.570849552982331,-0.4730136384819261,2.5851204735874593,2.600550616452679,3.14,-3.14
330,0.9356607589178155,0.9353916296878124,0.021666868833731534,2.4200796776620535,2.7100449356498473,1.6488666011374968,2.1277068351301893,-1.0,-1.5708495544847716,-0.4729731841187697,2.585103073601825,2.6005273373025712,3.14,-3.14
331,0.935660758283692,0.935391628734847,0.021666882593228607,2.4200796770558903,2.7100449346969704,1.648866601153479,2.12769154077066,-1.0,-1.5708495559873812,-0.4729327268446956,2.585085670854419,2.600504057977503,3.14,-3.14
332,0.9356607576495044,0.9353916277817266,0.02166689635660128,2.4200796764496606,2.710044933743938,1.648866601169463,2.127676244669762,-1.0,-1.5708495574901598,-0.4728922666593691,2.5850682653446837,2.600480778477694,3.14,-3.14
333,0.9356607570152539,0.9353916268284521,0.02166691012391104,2.420079675843363,2.710044932790751,1.64886660118545,2.127660946827186,-1.0,-1.5708495589931073,-0.472851803562456,2.5850508570720603,2.6004574988033626,3.14,-3.14
334,0.9356607563809395,0.9353916258750236,0.021666923895116878,2.420079675236998,2.7100449318374107,1.6488666012014397,2.127645647242623,-1.0,-1.570849560496224,-0.4728113375536217,2.58503344603599,2.600434218954729,3.14,-3.14
335,0.9356607557465615,0.9353916249214403,0.02166693767022904,2.4200796746305646,2.7100449308839156,1.6488666012174313,2.1276303459157626,-1.0,-1.5708495619995098,-0.47277086863253165,2.585016032235915,2.600410938932012,3.14,-3.14
336,0.9356607551121195,0.9353916239677029,0.021666951449247518,2.420079674024063,2.710044929930267,1.648866601233425,2.1276150428462963,-1.0,-1.5708495635029647,-0.47273039679885137,2.584998615671276,2.6003876587354307,3.14,-3.14
337,0.9356607544776142,0.9353916230138107,0.021666965232182554,2.420079673417494,2.7100449289764628,1.6488666012494213,2.1275997380339136,-1.0,-1.5708495650065888,-0.4726899220522464,2.5849811963415137,2.600364378365206,3.14,-3.14
338,0.9356607538430455,0.9353916220597643,0.02166697901901364,2.4200796728108567,2.710044928022504,1.6488666012654203,2.1275844314783052,-1.0,-1.5708495665103819,-0.4726494443923821,2.584963774246069,2.6003410978215578,3.14,-3.14
339,0.9356607532084125,0.9353916211055634,0.02166699280977152,2.4200796722041513,2.7100449270683917,1.6488666012814213,2.127569123179162,-1.0,-1.5708495680143444,-0.47260896381892403,2.5849463493843836,2.600317817104705,3.14,-3.14
340,0.9356607525737156,0.9353916201512077,0.021667006604435685,2.4200796715973776,2.710044926114124,1.6488666012974247,2.1275538131361733,-1.0,-1.5708495695184759,-0.4725684803315375,2.584928921755898,2.600294536214869,3.14,-3.14
341,0.9356607519389557,0.9353916191966976,0.021667020403016376,2.4200796709905354,2.710044925159702,1.6488666013134305,2.12753850134903,-1.0,-1.5708495710227766,-0.47252799392988815,2.584911491360052,2.6002712551522684,3.14,-3.14
342,0.9356607513041318,0.9353916182420327,0.021667034205503338,2.4200796703836276,2.7100449242051257,1.6488666013294389,2.1275231878174234,-1.0,-1.5708495725272467,-0.47248750461364136,2.584894058196287,2.6002479739171243,3.14,-3.14
343,0.9356607506692441,0.9353916172872135,0.02166704801191706,2.420079669776649,2.7100449232503943,1.6488666013454492,2.1275078725410417,-1.0,-1.5708495740318862,-0.4724470123824626,2.5848766222640434,2.600224692509657,3.14,-3.14
344,0.9356607500342919,0.9353916163322389,0.02166706182224729,2.420079669169603,2.7100449222955083,1.6488666013614617,2.127492555519576,-1.0,-1.570849575536695,-0.4724065172360171,2.5848591835627612,2.600201410930087,3.14,-3.14
345,0.9356607493992771,0.9353916153771101,0.021667075636483766,2.4200796685624892,2.710044921340468,1.648866601377477,2.127477236752716,-1.0,-1.570849577041673,-0.4723660191739705,2.58484174209188,2.600178129178635,3.14,-3.14
346,0.9356607487641977,0.9353916144218264,0.02166708945464698,2.420079667955308,2.710044920385272,1.6488666013934945,2.127461916240152,-1.0,-1.5708495785468206,-0.47232551819598795,2.5848242978508402,2.600154847255521,3.14,-3.14
347,0.9356607481290544,0.9353916134663879,0.021667103276726676,2.4200796673480585,2.710044919429922,1.6488666014095146,2.127446593981574,-1.0,-1.5708495800521376,-0.4722850143017349,2.584806850839082,2.6001315651609667,3.14,-3.14
348,0.9356607474938482,0.9353916125107946,0.021667117102743348,2.4200796667407403,2.710044918474417,1.6488666014255369,2.1274312699766713,-1.0,-1.570849581557624,-0.47224450749087676,2.5847894010560446,2.6001082828951922,3.14,-3.14
349,0.9356607468585779,0.9353916115550466,0.021667130932666236,2.4200796661333537,2.710044917518757,1.6488666014415616,2.127415944225134,-1.0,-1.5708495830632798,-0.4722039977630788,2.5847719485011678,2.600085000458419,3.14,-3.14
350,0.9356607462232441,0.9353916105991434,0.021667144766505584,2.4200796655259005,2.7100449165629423,1.6488666014575881,2.1274006167266526,-1.0,-1.5708495845691053,-0.4721634851180064,2.5847544931738913,2.6000617178508683,3.14,-3.14
351,0.9356607455878454,0.9353916096430855,0.02166715860429213,2.4200796649183776,2.710044915606973,1.648866601473618,2.1273852874809154,-1.0,-1.5708495860751002,-0.4721229695553249,2.584737035073654,2.6000384350727614,3.14,-3.14
352,0.935660744952384,0.9353916086868725,0.02166717244599512,2.4200796643107876,2.7100449146508483,1.6488666014896496,2.1273699564876134,-1.0,-1.5708495875812647,-0.47208245107469954,2.584719574199896,2.6000151521243193,3.14,-3.14
353,0.9356607443168583,0.9353916077305044,0.0216671862916248,2.4200796637031288,2.7100449136945683,1.6488666015056836,2.127354623746435,-1.0,-1.5708495890875986,-0.4720419296757957,2.584702110552056,2.5999918690057635,3.14,-3.14
354,0.9356607436812685,0.9353916067739814,0.021667200141170906,2.420079663095402,2.710044912738134,1.6488666015217204,2.1273392892570704,-1.0,-1.5708495905941027,-0.47200140535827884,2.584684644129573,2.599968585717316,3.14,-3.14
355,0.9356607430456152,0.9353916058173031,0.021667213994653933,2.4200796624876073,2.7100449117815435,1.6488666015377593,2.127323953019209,-1.0,-1.5708495921007761,-0.4719608781218138,2.5846671749318864,2.5999453022591976,3.14,-3.14
356,0.9356607424098977,0.93539160486047,0.02166722785207387,2.420079661879744,2.710044910824799,1.6488666015538005,2.12730861503254,-1.0,-1.5708495936076192,-0.4719203479660661,2.5846497029584348,2.5999220186316303,3.14,-3.14
357,0.935660741774117,0.9353916039034817,0.021667241713420465,2.4200796612718127,2.710044909867899,1.6488666015698439,2.1272932752967533,-1.0,-1.570849595114632,-0.471879814890701,2.5846322282086565,2.5998987348348366,3.14,-3.14
358,0.935660741138272,0.9353916029463379,0.02166725557869371,2.4200796606638124,2.710044908910844,1.6488666015858902,2.1272779338115377,-1.0,-1.5708495966218146,-0.4718392788953839,2.58461475068199,2.599875450869038,3.14,-3.14
359,0.9356607405023628,0.9353916019890393,0.02166726944791409,2.4200796600557455,2.7100449079536335,1.6488666016019382,2.127262590576583,-1.0,-1.570849598129167,-0.4717987399797798,2.584597270377875,2.5998521667344563,3.14,-3.14
360,0.93566073986639,0.935391601031585,0.02166728332104061,2.420079659447609,2.7100449069962678,1.6488666016179887,2.127247245591578,-1.0,-1.5708495996366894,-0.47175819814355396,2.5845797872957483,2.5998288824313143,3.14,-3.14
361,0.9356607392303528,0.9353916000739757,0.021667297198134747,2.420079658839404,2.710044906038747,1.648866601634042,2.1272318988562113,-1.0,-1.5708496011443813,-0.47171765338637156,2.5845623014350485,2.599805597959834,3.14,-3.14
362,0.9356607385942523,0.9353915991162113,0.021667311079155503,2.4200796582311312,2.710044905081071,1.6488666016500972,2.1272165503701737,-1.0,-1.5708496026522432,-0.47167710570789784,2.584544812795214,2.5997823133202376,3.14,-3.14
363,0.935660737958088,0.9353915981582912,0.02166732496410287,2.4200796576227916,2.7100449041232393,1.6488666016661553,2.127201200133153,-1.0,-1.570849604160275,-0.47163655510779806,2.5845273213756825,2.5997590285127483,3.14,-3.14
364,0.9356607373218593,0.9353915972002157,0.021667338852997337,2.420079657014382,2.7100449031652523,1.6488666016822153,2.127185848144838,-1.0,-1.5708496056684769,-0.47159600158573733,2.5845098271758924,2.599735743537588,3.14,-3.14
365,0.9356607366855668,0.9353915962419845,0.0216673527458389,2.420079656405904,2.71004490220711,1.6488666016982778,2.127170494404918,-1.0,-1.5708496071768485,-0.4715554451413807,2.584492330195281,2.5997124583949796,3.14,-3.14
366,0.9356607360492102,0.9353915952835985,0.021667366642607044,2.4200796557973576,2.7100449012488124,1.6488666017143432,2.127155138913082,-1.0,-1.5708496086853903,-0.47151488577439354,2.5844748304332854,2.5996891730851464,3.14,-3.14
367,0.9356607354127896,0.9353915943250565,0.021667380543332518,2.420079655188744,2.7100449002903586,1.6488666017304097,2.1271397816690194,-1.0,-1.5708496101941019,-0.4714743234844408,2.5844573278893446,2.5996658876083103,3.14,-3.14
368,0.9356607347763056,0.9353915933663591,0.021667394447984566,2.4200796545800607,2.71004489933175,1.6488666017464797,2.1271244226724177,-1.0,-1.5708496117029835,-0.4714337582711879,2.584439822562894,2.5996426019646957,3.14,-3.14
369,0.9356607341397566,0.935391592407506,0.021667408356593924,2.4200796539713103,2.7100448983729852,1.648866601762552,2.1271090619229667,-1.0,-1.5708496132120353,-0.4713931901342997,2.5844223144533722,2.599619316154525,3.14,-3.14
370,0.9356607335031444,0.9353915914484974,0.02166742226912984,2.42007965336249,2.710044897414065,1.6488666017786258,2.1270936994203544,-1.0,-1.5708496147212572,-0.4713526190734415,2.5844048035602163,2.5995960301780214,3.14,-3.14
371,0.9356607328664681,0.9353915904893333,0.021667436185633302,2.4200796527536026,2.7100448964549897,1.648866601794703,2.12707833516427,-1.0,-1.5708496162306493,-0.47131204508827834,2.584387289882862,2.599572744035409,3.14,-3.14
372,0.9356607322297275,0.9353915895300134,0.0216674501060838,2.420079652144647,2.7100448954957583,1.6488666018107818,2.127062969154402,-1.0,-1.5708496177402116,-0.4712714681784751,2.584369773420748,2.5995494577269107,3.14,-3.14
373,0.9356607315929235,0.9353915885705378,0.021667464030481334,2.420079651535622,2.710044894536371,1.6488666018268636,2.1270476013904385,-1.0,-1.570849619249944,-0.47123088834369703,2.58435225417331,2.59952617125275,3.14,-3.14
374,0.9356607309560547,0.9353915876109066,0.021667477958815642,2.4200796509265308,2.7100448935768284,1.6488666018429472,2.1270322318720685,-1.0,-1.5708496207598466,-0.4711903055836092,2.5843347321399848,2.599502884613151,3.14,-3.14
375,0.9356607303191218,0.9353915866511193,0.021667491891107213,2.4200796503173687,2.7100448926171303,1.6488666018590339,2.127016860598979,-1.0,-1.5708496222699195,-0.4711497198978768,2.584317207320209,2.599479597808337,3.14,-3.14
376,0.9356607296821257,0.9353915856911765,0.021667505827356045,2.4200796497081387,2.710044891657276,1.6488666018751226,2.12700148757086,-1.0,-1.5708496237801626,-0.4711091312861646,2.584299679713419,2.5994563108385327,3.14,-3.14
377,0.9356607290450644,0.9353915847310775,0.02166751976755188,2.420079649098841,2.7100448906972656,1.6488666018912133,2.1269861127873995,-1.0,-1.5708496252905761,-0.47106853974813784,2.5842821493190513,2.599433023703961,3.14,-3.14
378,0.9356607284079399,0.935391583770823,0.021667533711704955,2.4200796484894735,2.7100448897371,1.6488666019073068,2.1269707362482846,-1.0,-1.5708496268011598,-0.4710279452834615,2.584264616136542,2.599409736404847,3.14,-3.14
379,0.9356607277707506,0.9353915828104122,0.021667547659805015,2.420079647880039,2.7100448887767774,1.6488666019234022,2.126955357953205,-1.0,-1.570849628311914,-0.4709873478918006,2.584247080165327,2.5993864489414147,3.14,-3.14
380,0.935660727133498,0.9353915818498458,0.021667561611872554,2.4200796472705353,2.7100448878163,1.6488666019395009,2.126939977901848,-1.0,-1.5708496298228385,-0.4709467475728202,2.5842295414048415,2.599363161313889,3.14,-3.14
381,0.9356607264961807,0.9353915808891229,0.02166757556788706,2.4200796466609633,2.7100448868556657,1.6488666019556013,2.126924596093902,-1.0,-1.5708496313339335,-0.4709061443261852,2.5842119998545225,2.599339873522493,3.14,-3.14
382,0.9356607258588002,0.935391579928245,0.021667589527879283,2.420079646051323,2.7100448858948765,1.6488666019717042,2.1269092125290547,-1.0,-1.5708496328451989,-0.4708655381515606,2.5841944555138054,2.5993165855674523,3.14,-3.14
383,0.9356607252213544,0.9353915789672098,0.021667603491818455,2.4200796454416134,2.71004488493393,1.6488666019878095,2.126893827206994,-1.0,-1.5708496343566347,-0.47082492904861156,2.5841769083821258,2.5992932974489915,3.14,-3.14
384,0.9356607245838453,0.9353915780060191,0.021667617459714825,2.420079644831836,2.710044883972828,1.648866602003917,2.1268784401274083,-1.0,-1.5708496358682413,-0.47078431701700285,2.5841593584589186,2.599270009167335,3.14,-3.14
385,0.9356607239462711,0.935391577044672,0.021667631431568385,2.4200796442219894,2.7100448830115695,1.648866602020027,2.126863051289985,-1.0,-1.5708496373800185,-0.4707437020563993,2.584141805743619,2.599246720722708,3.14,-3.14
386,0.9356607233086336,0.935391576083169,0.021667645407399624,2.4200796436120746,2.7100448820501555,1.6488666020361398,2.126847660694412,-1.0,-1.570849638891966,-0.47070308416646583,2.584124250235663,2.599223432115336,3.14,-3.14
387,0.9356607226709316,0.9353915751215096,0.021667659387188037,2.420079643002092,2.710044881088585,1.6488666020522544,2.126832268340377,-1.0,-1.570849640404084,-0.47066246334686757,2.584106691934485,2.5992001433454432,3.14,-3.14
388,0.9356607220331655,0.9353915741596941,0.021667673370943864,2.4200796423920394,2.7100448801268584,1.6488666020683718,2.126816874227568,-1.0,-1.5708496419163727,-0.4706218395972696,2.5840891308395206,2.5991768544132556,3.14,-3.14
389,0.9356607213953353,0.9353915731977225,0.021667687358667097,2.4200796417819195,2.7100448791649754,1.6488666020844918,2.126801478355673,-1.0,-1.5708496434288322,-0.4705812129173366,2.5840715669502043,2.599153565318998,3.14,-3.14
390,0.935660720757441,0.9353915722355944,0.02166770135034748,2.4200796411717302,2.710044878202936,1.6488666021006138,2.1267860807243784,-1.0,-1.5708496449414624,-0.47054058330673354,2.5840540002659713,2.599130276062896,3.14,-3.14
391,0.9356607201194819,0.93539157127331,0.021667715346005506,2.4200796405614726,2.7100448772407404,1.6488666021167377,2.126770681333373,-1.0,-1.5708496464542632,-0.47049995076512513,2.584036430786256,2.5991069866451744,3.14,-3.14
392,0.9356607194814599,0.9353915703108694,0.021667729345641165,2.4200796399511466,2.7100448762783884,1.6488666021328646,2.1267552801823433,-1.0,-1.5708496479672347,-0.4704593152921765,2.584018858510492,2.5990836970660602,3.14,-3.14
393,0.9356607188433725,0.935391569348272,0.021667743349223702,2.4200796393407518,2.71004487531588,1.6488666021489937,2.126739877270977,-1.0,-1.570849649480377,-0.47041867688755246,2.5840012834381145,2.599060407325779,3.14,-3.14
394,0.9356607182052207,0.9353915683855184,0.0216677573567941,2.4200796387302885,2.7100448743532155,1.6488666021651253,2.1267244725989616,-1.0,-1.5708496509936902,-0.47037803555091795,2.5839837055685573,2.5990371174245563,3.14,-3.14
395,0.9356607175670053,0.935391567422608,0.021667771368331864,2.4200796381197556,2.7100448733903937,1.6488666021812595,2.126709066165984,-1.0,-1.5708496525071742,-0.4703373912819376,2.583966124901255,2.599013827362618,3.14,-3.14
396,0.9356607169287251,0.935391566459541,0.02166778538384723,2.420079637509155,2.7100448724274155,1.6488666021973954,2.1266936579717326,-1.0,-1.5708496540208292,-0.4702967440802763,2.5839485414356416,2.5989905371401902,3.14,-3.14
397,0.9356607162903813,0.9353915654963181,0.021667799403329937,2.4200796368984854,2.710044871464282,1.648866602213534,2.1266782480158937,-1.0,-1.570849655534655,-0.47025609394559886,2.5839309551711502,2.5989672467574993,3.14,-3.14
398,0.9356607156519734,0.9353915645329386,0.02166781342681073,2.4200796362877472,2.710044870500991,1.6488666022296754,2.1266628362981543,-1.0,-1.5708496570486516,-0.4702154408775702,2.583913366107215,2.5989439562147716,3.14,-3.14
399,0.9356607150135003,0.9353915635694015,0.021667827454238356,2.4200796356769407,2.710044869537543,1.6488666022458187,2.126647422818202,-1.0,-1.5708496585628193,-0.4701747848758551,2.5838957742432704,2.5989206655122334,3.14,-3.14
400,0.9356607143749636,0.9353915626057085,0.02166784148566405,2.4200796350660645,2.710044868573939,1.6488666022619647,2.1266320075757235,-1.0,-1.570849660077158,-0.47013412594011833,2.583878179578749,2.5988973746501114,3.14,-3.14
401,0.9356607137363625,0.9353915616418589,0.021667855521067307,2.42007963445512,2.7100448676101783,1.6488666022781127,2.1266165905704058,-1.0,-1.5708496615916678,-0.47009346407002467,2.583860582113085,2.5988740836286324,3.14,-3.14
402,0.9356607130976965,0.935391560677852,0.021667869560448118,2.4200796338441064,2.7100448666462604,1.648866602294263,2.126601171801936,-1.0,-1.5708496631063487,-0.4700527992652388,2.5838429818457107,2.598850792448023,3.14,-3.14
403,0.9356607124589672,0.9353915597136886,0.021667883603816728,2.4200796332330246,2.7100448656821863,1.6488666023104162,2.1265857512700013,-1.0,-1.5708496646212005,-0.4700121315254256,2.5838253787760594,2.59882750110851,3.14,-3.14
404,0.9356607118201726,0.9353915587493685,0.021667897651152627,2.420079632621874,2.710044864717955,1.6488666023265721,2.126570328974288,-1.0,-1.5708496661362232,-0.46997146085024977,2.5838077729035644,2.59880420961032,3.14,-3.14
405,0.9356607111813144,0.9353915577848916,0.021667911702486553,2.4200796320106552,2.7100448637535672,1.6488666023427299,2.126554904914483,-1.0,-1.5708496676514172,-0.46993078723937615,2.583790164227659,2.5987809179536807,3.14,-3.14
406,0.935660710542392,0.9353915568202577,0.021667925757808255,2.4200796313993664,2.7100448627890223,1.6488666023588898,2.126539479090273,-1.0,-1.5708496691667824,-0.46989011069246955,2.5837725527477757,2.598757626138819,3.14,-3.14
407,0.9356607099034041,0.9353915558554668,0.021667939817107473,2.4200796307880097,2.7100448618243203,1.6488666023750524,2.126524051501345,-1.0,-1.570849670682319,-0.4698494312091946,2.583754938463347,2.5987343341659623,3.14,-3.14
408,0.9356607092643525,0.9353915548905191,0.021667953880394445,2.4200796301765837,2.710044860859462,1.6488666023912175,2.1265086221473846,-1.0,-1.5708496721980265,-0.46980874878921586,2.583737321373805,2.598711042035338,3.14,-3.14
409,0.9356607086252369,0.9353915539254146,0.021667967947679417,2.420079629565089,2.710044859894446,1.648866602407385,2.1264931910280795,-1.0,-1.5708496737139053,-0.4697680634321981,2.583719701478583,2.598687749747174,3.14,-3.14
410,0.9356607079860562,0.9353915529601525,0.021667982018941885,2.420079628953526,2.7100448589292734,1.6488666024235548,2.1264777581431162,-1.0,-1.5708496752299554,-0.46972737513780616,2.5837020787771134,2.5986644573016973,3.14,-3.14
411,0.9356607073468113,0.9353915519947337,0.021667996094192083,2.4200796283418935,2.7100448579639433,1.6488666024397267,2.1264623234921802,-1.0,-1.5708496767461768,-0.46968668390570467,2.583684453268828,2.598641164699136,3.14,-3.14
412,0.9356607067075027,0.9353915510291582,0.021668010173440257,2.4200796277301917,2.710044856998457,1.6488666024559018,2.1264468870749584,-1.0,-1.5708496782625696,-0.46964598973555843,2.5836668249531587,2.598617871939718,3.14,-3.14
413,0.9356607060681287,0.9353915500634249,0.02166802425667615,2.420079627118422,2.7100448560328125,1.6488666024720786,2.1264314488911373,-1.0,-1.5708496797791338,-0.4696052926270319,2.5836491938295376,2.598594579023671,3.14,-3.14
414,0.935660705428691,0.9353915490975346,0.02166803834392025,2.4200796265065825,2.7100448550670118,1.6488666024882574,2.126416008940403,-1.0,-1.5708496812958694,-0.4695645925797897,2.583631559897397,2.5985712859512233,3.14,-3.14
415,0.9356607047891891,0.9353915481314876,0.021668052435152053,2.420079625894675,2.710044854101054,1.6488666025044398,2.1264005672224418,-1.0,-1.5708496828127765,-0.4695238895934966,2.5836139231561672,2.5985479927226036,3.14,-3.14
416,0.9356607041496215,0.9353915471652826,0.021668066530371552,2.420079625282698,2.7100448531349377,1.6488666025206238,2.1263851237369398,-1.0,-1.5708496843298547,-0.4694831836678172,2.5835962836052815,2.598524699338039,3.14,-3.14
417,0.9356607035099905,0.9353915461989208,0.021668080629599233,2.420079624670653,2.7100448521686653,1.6488666025368104,2.1263696784835835,-1.0,-1.5708496858471048,-0.4694424748024163,2.5835786412441704,2.5985014057977587,3.14,-3.14
418,0.9356607028702951,0.9353915452324019,0.021668094732814593,2.4200796240585376,2.7100448512022357,1.6488666025529994,2.126354231462058,-1.0,-1.5708496873645263,-0.46940176299695824,2.5835609960722654,2.5984781121019913,3.14,-3.14
419,0.9356607022305348,0.9353915442657253,0.021668108840038124,2.4200796234463544,2.710044850235648,1.6488666025691905,2.1263387826720503,-1.0,-1.5708496888821193,-0.46936104825110764,2.583543348088998,2.598454818250965,3.14,-3.14
420,0.9356607015907102,0.9353915432988913,0.021668122951259566,2.420079622834102,2.710044849268903,1.6488666025853844,2.1263233321132455,-1.0,-1.5708496903998839,-0.4693203305645294,2.583525697293799,2.598431524244909,3.14,-3.14
421,0.9356607009508207,0.9353915423319,0.02166813706647891,2.4200796222217797,2.710044848302001,1.6488666026015806,2.12630787978533,-1.0,-1.57084969191782,-0.4692796099368879,2.5835080436860993,2.598408230084052,3.14,-3.14
422,0.9356607003108671,0.9353915413647512,0.021668151185696153,2.4200796216093887,2.7100448473349417,1.6488666026177787,2.12629242568799,-1.0,-1.570849693435928,-0.4692388863678476,2.5834903872653303,2.5983849357686224,3.14,-3.14
423,0.9356606996708492,0.9353915403974452,0.02166816530893178,2.4200796209969297,2.710044846367725,1.64886660263398,2.126276969820911,-1.0,-1.5708496949542075,-0.46919815985707325,2.5834727280309218,2.59836164129885,3.14,-3.14
424,0.9356606990307659,0.9353915394299813,0.021668179436165287,2.420079620384401,2.7100448454003505,1.6488666026501835,2.1262615121837785,-1.0,-1.5708496964726586,-0.46915743040422936,2.5834550659823052,2.598338346674964,3.14,-3.14
425,0.935660698390619,0.9353915384623602,0.02166819356740692,2.4200796197718035,2.7100448444328187,1.648866602666389,2.1262460527762785,-1.0,-1.5708496979912814,-0.4691166980089805,2.583437401118911,2.5983150518971927,3.14,-3.14
426,0.9356606977504068,0.9353915374945813,0.02166820770264641,2.4200796191591376,2.7100448434651287,1.6488666026825973,2.126230591598097,-1.0,-1.570849699510076,-0.4690759626709912,2.583419733440169,2.5982917569657666,3.14,-3.14
427,0.9356606971101309,0.9353915365266446,0.02166822184191451,2.420079618546402,2.7100448424972816,1.6488666026988077,2.1262151286489184,-1.0,-1.5708497010290425,-0.4690352243899261,2.5834020629455106,2.598268461880915,3.14,-3.14
428,0.9356606964697901,0.9353915355585505,0.02166823598517021,2.420079617933597,2.7100448415292764,1.6488666027150205,2.126199663928429,-1.0,-1.5708497025481807,-0.4689944831654496,2.5833843896343645,2.598245166642867,3.14,-3.14
429,0.9356606958293848,0.9353915345902988,0.021668250132454495,2.420079617320724,2.710044840561114,1.6488666027312362,2.1261841974363143,-1.0,-1.570849704067491,-0.46895373899722625,2.583366713506161,2.5982218712518534,3.14,-3.14
430,0.9356606951889145,0.9353915336218892,0.021668264283726365,2.4200796167077816,2.710044839592794,1.648866602747454,2.1261687291722593,-1.0,-1.5708497055869728,-0.46891299188492047,2.583349034560331,2.598198575708103,3.14,-3.14
431,0.9356606945483804,0.9353915326533221,0.021668278439047305,2.4200796160947697,2.710044838624316,1.648866602763674,2.1261532591359495,-1.0,-1.5708497071066265,-0.46887224182819687,2.583331352796304,2.598175280011846,3.14,-3.14
432,0.9356606939077806,0.9353915316845964,0.02166829259835581,2.4200796154816886,2.71004483765568,1.6488666027798966,2.1261377873270706,-1.0,-1.5708497086264523,-0.46883148882672004,2.583313668213509,2.5981519841633127,3.14,-3.14
433,0.9356606932671164,0.9353915307157136,0.021668306761692874,2.4200796148685386,2.7100448366868863,1.6488666027961214,2.1261223137453076,-1.0,-1.57084971014645,-0.46879073288015427,2.583295980811376,2.5981286881627335,3.14,-3.14
