jkpark150901/flame_robotics_drt/experiment/inspection_ik/session_20260716_141644/success/inspection_ik_20260716_141809_rb20_1900es_normalized_success.csv
iteration,err_norm,position_error,orientation_error,tcp_x,tcp_y,tcp_z,q0_rt_joint_linear_track,q1_rt_joint_carriage,q2_rt_base,q3_rt_shoulder,q4_rt_elbow,q5_rt_wrist1,q6_rt_wrist2,q7_rt_wrist3
0,10.128331595496848,6.22051504246809,3.141587223634461,0.267,-3.2807478955731993e-13,2.541,0.0,0.0,0.0,0.0,0.0,0.0,0.0,0.0
1,10.15111180283635,6.79034089830129,2.8466930364694325,-0.49524215738329014,0.9131434257667471,1.9058474522367652,0.34999999999999953,0.34999999999999964,1.0989999999999915,1.099,-0.5516374011883228,-0.35663028119167806,-1.098999999861305,-0.3584291168304194
2,7.991159273594024,5.9280602544653656,2.4815862571871623,0.9669999999831448,-1.013471446195294,1.4703167206642114,0.6999999999999986,5.321870721886057e-11,-9.103828801926284e-15,2.3428370354849903e-11,-1.6256842564156662,0.7194798336493865,1.3869505544050753e-10,0.7405708831695805
3,5.62767441549958,4.901169694893688,1.8698520640186214,1.7095362298827255,0.07669095423890328,1.0380510062210204,1.0499999999999983,0.3500000003980576,1.0989999999999909,0.382436347210969,-2.3828421282078334,1.8184798334348544,0.9375671285679076,1.0835375079915814
4,4.413758935939656,3.7315074228846097,1.6922208942768937,2.7293173876381487,1.3527322327010052,0.8615464046952578,1.4000000002396402,0.6750000001990286,2.1195000000000053,-0.7165636526964388,-1.2838421282078334,2.4792399167174275,1.803641562987163,1.3135249921123906
5,4.4168221408316075,3.4911059033478065,1.933425592290332,3.526826963500278,-0.12356956505236247,0.7162607946586426,1.7499999999471343,0.8374999999742714,1.0205000000000053,-1.3955888658224862,-0.1848421282078332,2.4171359157448244,0.7966277274350735,0.21452499211239062
6,3.807127225829358,3.062941694408199,1.736627245366494,3.454685510623469,1.551442349595222,0.8164121348176576,2.0999999999471344,0.9187499998935587,2.080250000000003,-0.757509990698058,-1.2838421282078332,2.458197343256678,1.8956277274245723,1.3135249921123906
7,2.9058734795019285,2.3020298783629434,1.5235329531164135,4.176174279734945,0.8236216705204117,1.4419476956550812,2.450000000095423,0.959374999834129,1.48175982019265,-0.9356519104081737,-0.18484212820783297,2.591348394090751,1.7788962826648886,0.31161214106542956
8,2.657886169581068,2.362451267028094,1.0249414344292935,4.252941199832465,1.8513662620470792,0.8262741742828477,2.8000000001006056,0.9796874999170646,2.1493630892525397,-1.8319383102953481,0.9141578717921677,2.865674197045376,2.459448141332444,1.4106121410654295
9,2.0717437867331094,1.8119152314103315,0.9241754903222146,4.638616366024834,0.8587909541213125,1.7072420076797767,3.150000000094836,0.9898437500998507,1.4287162349742424,-0.7329383102953482,-0.18484212820783252,3.002837098522688,2.2256526526097673,0.7434874856299393
10,1.7976934929578923,1.6258567109704534,0.7258800396303126,4.805705757218649,1.759283626966366,1.3374018797991476,3.5000000000919247,0.9949218750499254,2.1287932594976104,-1.481284852871928,0.9141578717884666,3.0714185492613444,2.682826326304884,1.8424874856299391
11,1.3476786555360027,1.0774021940745737,0.7863325745913845,5.606898194553356,1.0211469054515825,1.4090168667469523,3.850000000091925,0.9974609375242758,1.5459275532363446,-0.947188228595483,-0.18484212821153334,3.105709274630672,1.7268038695306052,1.2686802226765383
12,1.1027536344064142,0.9058780112025872,0.6272303270894105,5.408235628086791,1.523486842989476,1.7447245104548357,4.200000000091925,0.764746911723777,2.164057570687713,-0.8774795916718315,0.16223467177888973,3.122854637315336,2.4334019347653024,2.2043401113382695
13,0.9256775809640082,0.6636802413034965,0.6394178967201819,5.938627724444822,1.3328488762554627,1.527760851440615,4.5500000000919245,0.8823734558618813,1.881347631977557,-0.4118953665456343,-0.9367653282211109,3.131427318657668,1.3825264179010193,1.8344607018512842
14,0.6887096095542764,0.5167589594903993,0.45505931154628726,5.789555249320708,1.485057667275454,1.8612462978362725,4.900000000091924,0.5323734558566088,2.4585703941817147,-0.7620328268787724,0.11564631491082655,3.135713659338372,2.26126320895051,2.487230350925642
15,0.5400670113865341,0.38110308943056564,0.3817731286569811,6.071720505413048,1.490323066207416,1.7316581292360902,5.250000000093596,0.6377892643899662,2.4484145913768693,-0.19668886948683384,-0.9833536850891701,3.1378568296800746,1.4660120539687398,2.4982578000931954
16,0.3763083989503686,0.30325116104743255,0.22270553992424938,6.063665129738486,1.4603706095224789,1.8576400140556293,5.510030771113106,0.2877892643899662,2.7942072956884347,-0.7692352876531192,0.10321820263609716,3.1389284148400374,1.9912351558262475,2.8191289000465978
17,0.3248393217874614,0.3032158720426913,0.11648477077612512,6.183998432397904,1.4287994830518502,1.8040108202732796,5.860030771113107,0.4678988618126889,2.9443651780891065,-0.11547074119065392,-0.995781797363903,3.1394642074200187,1.4487703996502652,2.979564450023299
18,0.07412566235707546,0.044605993311253575,0.0592018841994058,6.264089588115099,1.5560969430040894,2.02409176345021,6.049182078566637,0.7339494309063445,3.0421825890445535,-0.12055281231794646,-0.6871184783690697,3.1397321037100094,1.7324088566262694,3.0595644890080154
19,0.1333021939557523,0.1297255707039367,0.030663932885172367,6.2384045632127405,1.5547269463400624,1.924888761303428,6.046097716026423,0.3839494309063445,3.091091294522277,-0.6479357553137353,-0.03785117072282518,3.139866051855005,1.8473569474956766,3.0997120974335632
20,0.2704303055893156,0.26995965092908836,0.01594073441147358,6.258008485714131,1.446606110358988,1.8206649835153763,6.10149641858651,0.5482631618470191,3.1155456472611376,-1.0994679795632185,1.0611488292771787,3.1399330259275025,2.493048419828725,3.11873594621908
21,0.038302852702926694,0.03724100429105836,0.00895634469261054,6.25953089672239,1.5632720000139653,2.026038043748081,6.115495880547563,0.7741315809235101,3.127772823630569,-0.8111321705819264,0.7296164669781925,3.139966512964606,2.449392870558449,3.1290298227470013
22,0.006037915798709797,0.002815888307635005,0.005341085052366725,6.259880084365552,1.5939493698450693,2.0438888378946105,6.121313652757285,0.887065790461755,3.1338864118152854,-0.787624263620187,0.7823709940510113,3.1399832564828127,2.5255286920934417,3.1339727280530765
23,0.0038653692252950842,0.001635621171230944,0.0035022593803884705,6.259550652347275,1.5943060592154916,2.0450116272992998,6.123415827763244,0.9435328952308776,3.1369432059076425,-0.7837013723506457,0.8388936436274461,3.1399916282410723,2.585939006717839,3.1364319947476234
24,0.002610954386224905,0.0003708829225678243,0.0025844784021542165,6.259423833577003,1.5943073279709292,2.0462701620883967,6.124376725643374,0.9717664476154388,3.1384716029538215,-0.7788823797035936,0.8625138128463321,3.139995814120536,2.614367234546227,3.1376662753996176
25,0.002127431997707257,9.594743448690157e-05,0.0021252672755338493,6.259392047691686,1.5942992111615575,2.04654313420675,6.124856553003618,0.9858832238077194,3.1392358014769046,-0.7765913144850216,0.8745540607529618,3.139997907060268,2.628694762160262,3.1382831909309012
26,0.0018957947930356104,2.5965515163494972e-05,0.0018956169678547494,6.259384017855295,1.5942951891279318,2.0466126197089487,6.1250962539173095,0.9929416119038597,3.1396179007384504,-0.775441910506078,0.8805732670948242,3.1399989535301343,2.635861904563934,3.138591651301566
27,0.0017808019632051294,8.633101533900557e-06,0.0017807810370029365,6.25938200327048,1.5942940313432148,2.0466300728906974,6.125216084221279,0.9964708059519298,3.1398089503692246,-0.7748671283327266,0.8835833694407862,3.139999476765067,2.6394461612085354,3.138745880904654
28,0.0017233666253045486,4.594100195128012e-06,0.0017233605017851748,6.2593814988740695,1.5942937545369045,2.0466344770566103,6.125275997127719,0.998235402975965,3.1399044751846144,-0.7745797289214047,0.8850884852072382,3.1399997383825333,2.641238388974338,3.138822995576435
29,0.0016946536539350803,3.7029792242921035e-06,0.0016946496083023459,6.2593813726932455,1.5942937029114745,2.046635598903259,6.125305953318029,0.9991177014879824,3.13995223759231,-0.7744360282527986,0.8858410509259991,3.139999869191267,2.6421345182872313,3.138861552882348
30,0.0016802976255749376,3.4871848548390193e-06,0.0016802940070229947,6.259381341140072,1.5942937001963546,2.0466358898687846,6.1253209313814825,0.9995588507439911,3.1399761187961532,-0.7743641777481933,0.886217334589568,3.1399999345956333,2.642582585575795,3.138880831528239
31,0.0016731196789525947,3.427563760377927e-06,0.0016731161681301063,6.2593813332516595,1.5942937047886983,2.0466359678782773,6.125328420409323,0.9997794253719955,3.1399880593980765,-0.7743282524577082,0.8864054764702429,3.1399999672978165,2.6428066197219673,3.1388904708494754
32,0.0016695307195447285,3.4090356361314976e-06,0.0016695272391425396,6.259381331279965,1.5942937085938225,2.0466359900170157,6.125332164922762,0.9998897126859977,3.139994029699034,-0.7743102898030552,0.886499547403636,3.1399999836489085,2.6429186369009203,3.138895290509673
33,0.0016677362431214936,3.4025377162453436e-06,0.0016677327722454897,6.259381330787303,1.5942937108764799,2.0466359968701315,6.125334037179427,0.9999448563429987,3.139997014849523,-0.7743013084734534,0.8865465828660706,3.139999991824454,2.6429746455145224,3.1388977003396774
34,0.0016668390057235133,3.3999766048243353e-06,0.0016668355380939717,6.259381330664277,1.5942937121132688,2.0466359992427043,6.12533497330775,0.9999724281714991,3.1399985074247607,-0.7742968178080822,0.886570100595856,3.139999995912227,2.643002649826551,3.1388989052546497
35,0.0016663903872234428,3.3988678631964686e-06,0.0016663869210086944,6.259381330633591,1.5942937127554728,2.046636000165467,6.125335441371914,0.9999862140857495,3.139999253712384,-0.7742945724752475,0.8865818594604035,3.1399999979561137,2.6430166519842846,3.1388995077121313
36,0.0016661660780287449,3.3983562326331093e-06,0.001666162612213798,6.259381330625955,1.5942937130827848,2.0466360005609965,6.125335675403991,0.999993107042875,3.139999626856187,-0.7742934498087994,0.8865877388923187,3.139999998978057,2.6430236530632496,3.138899808940868
37,0.0016660539234411834,3.398111315239825e-06,0.001666050458019808,6.259381330624063,1.5942937132476933,2.046636000742293,6.125335792420031,0.9999965535214371,3.1399998134280933,-0.7742928884755529,0.8865906786085365,3.139999999489029,2.643027153602825,3.138899959555231
38,0.0016659978461518255,3.397991602847659e-06,0.001665994380890389,6.259381330623598,1.5942937133304433,2.0466360008288103,6.125335850928051,0.9999982767607186,3.1399999067140443,-0.7742926078089098,0.8865921484666655,3.1399999997445147,2.6430289038729473,3.138900034862415
39,0.0016659698075071469,3.397932190997563e-06,0.0016659663421509689,6.259381330623488,1.594293713372209,2.0466360008710653,6.125335880182062,0.9999991383803593,3.1399999533570213,-0.7742924674756073,0.8865928833954357,3.1399999998722574,2.6430297790076045,3.138900072516011
40,0.0016659557881829883,3.3979027100920547e-06,0.0016659523228708627,6.259381330623462,1.5942937133930566,2.0466360008919127,6.125335894809069,0.9999995691901797,3.139999976678513,-0.7742923973089865,0.8865932508599478,3.139999999936129,2.6430302165749624,3.138900091342808
41,0.0016659487785215528,3.3978881364160764e-06,0.0016659453133198534,6.259381330623456,1.5942937134032995,2.04663600090228,6.125335902122571,0.99999978459509,3.1399999883392584,-0.7742923622256168,0.8865934345922913,3.1399999999680643,2.643030435358976,3.138900100756203
42,0.001665945273691865,3.3978807746660043e-06,0.0016659418085999314,6.259381330623456,1.5942937134085533,2.046636000907439,6.125335905779322,0.9999998922975453,3.1399999941696293,-0.774292344683962,0.8865935264583619,3.139999999984032,2.6430305447508897,3.138900105462904
43,0.0016659435212744796,3.3978772194444625e-06,0.001665940056037278,6.259381330623454,1.594293713411009,2.04663600091001,6.125335907607698,0.9999999461487726,3.139999997084819,-0.7742923359131203,0.8865935723915777,3.139999999992016,2.6430305994469543,3.138900107816254
44,0.0016659426450686275,3.3978751926714857e-06,0.0016659391799551874,6.259381330623453,1.5942937134125794,2.046636000911309,6.125335908521884,0.9999999730743866,3.1399999985424087,-0.7742923315277382,0.8865935953578667,3.139999999996008,2.6430306267946015,3.138900108992931
45,0.001665942206963371,3.397874218614342e-06,0.001665938741980612,6.259381330623455,1.5942937134133268,2.0466360009119406,6.12533590897898,0.9999999865371929,3.139999999271208,-0.7742923293350562,0.8865936068410555,3.139999999998004,2.6430306404685697,3.1389001095812663
46,0.0016659419879130753,3.3978739763792774e-06,0.001665938522859996,6.259381330623454,1.5942937134133273,2.046636000912279,6.125335909207525,0.9999999932685965,3.139999999635603,-0.7742923282386346,0.8865936125829543,3.1399999999990023,2.6430306473057894,3.138900109875436
47,0.0016659418783888198,3.3978735608527313e-06,0.001665938413299677,6.259381330623455,1.5942937134137558,2.046636000912441,6.125335909321796,0.9999999966342983,3.139999999817799,-0.7742923276905019,0.8865936154535481,3.1399999999995014,2.6430306507239916,3.1389001100225147
48,0.0016659418236242723,3.397873631145798e-06,0.0016659383585195151,6.259381330623453,1.5942937134135922,2.046636000912503,6.125335909378934,0.999999998317149,3.1399999999089014,-0.7742923274164036,0.8865936168892217,3.139999999999751,2.643030652433481,3.138900110096061
49,0.0016659417962432291,3.3978734258367476e-06,0.0016659383310627907,6.259381330623457,1.5942937134138313,2.046636000912556,6.125335909407505,0.9999999991585744,3.139999999954451,-0.7742923272793758,0.886593617606732,3.1399999999998753,2.6430306532878634,3.138900110132834
50,0.0016659417825516905,3.3978735291781066e-06,0.0016659383173344285,6.259381330623455,1.5942937134136594,2.0466360009125797,6.125335909421788,0.9999999995792871,3.1399999999772272,-0.7742923272108058,0.8865936179657047,3.1399999999999375,2.643030653715472,3.1389001101512175
51,0.0016659417757059192,3.3978734897118566e-06,0.001665938310670175,6.259381330623455,1.5942937134136936,2.0466360009126014,6.125335909428931,0.9999999997896436,3.1399999999886155,-0.7742923271765347,0.886593618145091,3.1399999999999686,2.643030653929063,3.138900110160412
52,0.0016659417722828219,3.3978735078191917e-06,0.0016659383070714779,6.259381330623457,1.594293713413674,2.0466360009125952,6.125335909432503,0.9999999998948218,3.1399999999943096,-0.7742923271594231,0.8865936182348729,3.1399999999999846,2.6430306540358695,3.1389001101650087
53,0.0016659417705738198,3.3978732939934973e-06,0.001665938305338772,6.259381330623456,1.5942937134139572,2.0466360009126174,6.125335909434287,0.999999999947411,3.139999999997152,-0.7742923271508735,0.8865936182794355,3.1399999999999926,2.6430306540889936,3.1389001101673064
54,0.0016659417697194052,3.3978734319096308e-06,0.0016659383045390616,6.259381330623458,1.5942937134137631,2.0466360009126143,6.125335909435179,0.9999999999737057,3.1399999999985737,-0.7742923271465739,0.8865936183020696,3.139999999999996,2.643030654115818,3.1389001101684553
55,0.0016659417692892681,3.3978734068976474e-06,0.0016659383041392063,6.259381330623453,1.594293713413808,2.0466360009126054,6.125335909435625,0.9999999999868526,3.1399999999992896,-0.7742923271444416,0.8865936183132317,3.139999999999998,2.6430306541292494,3.1389001101690273
56,0.0016659417690757267,3.397873583762115e-06,0.001665938303872636,6.259381330623457,1.5942937134135569,2.0466360009126037,6.125335909435852,0.9999999999934261,3.139999999999645,-0.7742923271433502,0.8865936183191112,3.139999999999999,2.643030654136033,3.1389001101693172
57,0.001665941768968957,3.397873303406497e-06,0.0016659383037393512,6.259381330623457,1.59429371341395,2.046636000912611,6.125335909435961,0.9999999999967133,3.1399999999998225,-0.7742923271428627,0.8865936183215434,3.1399999999999992,2.643030654139012,3.13890011016946
58,0.0016659417689154656,3.3978733018609113e-06,0.0016659383040059212,6.259381330623455,1.5942937134139528,2.0466360009126108,6.125335909436016,0.9999999999983566,3.1399999999999113,-0.7742923271425866,0.8865936183229144,3.1399999999999997,2.6430306541407673,3.1389001101695295
59,0.0016659417688888252,3.397873352608694e-06,0.0016659383037393512,6.259381330623456,1.5942937134138788,2.046636000912612,6.125335909436045,0.9999999999991785,3.1399999999999557,-0.7742923271424432,0.88659361832369,3.1399999999999997,2.643030654141633,3.1389001101695655
60,0.0016659417688755058,3.3978733801378234e-06,0.0016659383037393512,6.259381330623456,1.5942937134138426,2.046636000912609,6.125335909436059,0.9999999999995896,3.139999999999978,-0.7742923271423736,0.8865936183240756,3.1399999999999997,2.643030654142102,3.1389001101695833
61,0.0016659417688688447,3.397873388994389e-06,0.0016659383037393512,6.259381330623456,1.5942937134138304,2.0466360009126086,6.125335909436066,0.9999999999997949,3.139999999999989,-0.7742923271423379,0.8865936183242584,3.1399999999999997,2.6430306541423363,3.138900110169592
62,0.0016659417688646256,3.397873511688464e-06,0.0016659383037393512,6.259381330623454,1.5942937134136577,2.046636000912606,6.125335909436069,0.9999999999998973,3.139999999999996,-0.7742923271423083,0.8865936183245356,3.1399999999999997,2.643030654142514,3.1389001101696006
63,0.001665941768862005,3.397873510360903e-06,0.0016659383037393512,6.259381330623455,1.594293713413664,2.0466360009126014,6.125335909436072,0.9999999999999485,3.1400000000000006,-0.7742923271423069,0.8865936183245832,3.1399999999999997,2.6430306541425694,3.1389001101696015
64,0.0016659417688634959,3.397873626520282e-06,0.0016659383037393512,6.259381330623453,1.5942937134134998,2.0466360009125997,6.125335909436069,0.9999999999999744,3.139999999999998,-0.774292327142272,0.8865936183247306,3.1399999999999997,2.643030654142825,3.138900110169601
65,0.0016659417688632233,3.397873360708082e-06,0.0016659383037393512,6.259381330623455,1.594293713413879,2.0466360009126006,6.125335909436071,0.999999999999987,3.1399999999999983,-0.7742923271423311,0.8865936183244163,3.1399999999999997,2.6430306541424455,3.138900110169605
66,0.0016659417688627048,3.3978732516119493e-06,0.0016659383037393512,6.259381330623457,1.5942937134140382,2.0466360009125975,6.125335909436073,0.9999999999999937,3.1399999999999992,-0.7742923271423525,0.8865936183242696,3.1399999999999997,2.6430306541423607,3.138900110169601
67,0.0016659417688614266,3.3978735159431444e-06,0.0016659383037393512,6.259381330623454,1.5942937134136557,2.046636000912602,6.125335909436072,0.9999999999999967,3.1400000000000015,-0.7742923271422977,0.886593618324632,3.1399999999999997,2.643030654142621,3.1389001101696046
68,0.001665941768861681,3.3978733403225484e-06,0.0016659383037393512,6.259381330623455,1.594293713413895,2.0466360009126134,6.125335909436072,0.9999999999999982,3.140000000000001,-0.7742923271423103,0.88659361832437,3.1399999999999997,2.6430306541424553,3.138900110169603
69,0.001665941768860915,3.397873605710826e-06,0.0016659383037393512,6.259381330623456,1.594293713413519,2.04663600091261,6.125335909436074,0.9999999999999989,3.1400000000000023,-0.7742923271422724,0.8865936183247586,3.1399999999999997,2.643030654142672,3.1389001101696055
70,0.0016659417688614244,3.397873263695838e-06,0.0016659383037393512,6.259381330623453,1.5942937134140092,2.046636000912609,6.125335909436071,0.9999999999999996,3.1400000000000015,-0.7742923271423315,0.8865936183242732,3.1399999999999997,2.643030654142379,3.1389001101696032
71,0.0016659417688616772,3.3978733273856613e-06,0.0016659383037393512,6.259381330623457,1.5942937134139203,2.046636000912607,6.125335909436074,0.9999999999999997,3.140000000000001,-0.7742923271423197,0.8865936183243543,3.1399999999999997,2.643030654142472,3.138900110169602
72,0.0016659417688619316,3.397873240475365e-06,0.0016659383037393512,6.259381330623455,1.594293713414057,2.046636000912595,6.125335909436072,0.9999999999999998,3.1400000000000006,-0.7742923271423536,0.8865936183242491,3.1399999999999997,2.6430306541424,3.138900110169602
73,0.0016659417688634605,3.3978736657861e-06,0.0016659383037393512,6.259381330623455,1.5942937134134427,2.0466360009126006,6.125335909436071,0.9999999999999999,3.139999999999998,-0.7742923271422613,0.8865936183248116,3.1399999999999997,2.643030654142867,3.1389001101696006
74,0.0016659417688652427,3.397873323148571e-06,0.0016659383037393512,6.259381330623456,1.5942937134139032,2.0466360009126294,6.125335909436069,0.9999999999999997,3.139999999999995,-0.7742923271423057,0.8865936183243796,3.1399999999999997,2.643030654142271,3.1389001101695992
75,0.0016659417688626968,3.397873637454614e-06,0.0016659383037393512,6.259381330623455,1.5942937134134683,2.046636000912615,6.125335909436072,0.9999999999999997,3.1399999999999992,-0.7742923271422503,0.8865936183247711,3.1399999999999997,2.643030654142776,3.1389001101696032
76,0.0016659417688609129,3.3978736005576594e-06,0.0016659383037393512,6.259381330623455,1.5942937134135347,2.046636000912602,6.125335909436073,0.9999999999999998,3.1400000000000023,-0.774292327142268,0.8865936183247101,3.1399999999999997,2.6430306541428297,3.138900110169604
77,0.0016659417688606583,3.397873546975241e-06,0.0016659383037393512,6.259381330623454,1.5942937134136,2.046636000912613,6.125335909436073,0.9999999999999997,3.140000000000003,-0.7742923271422735,0.8865936183246592,3.1399999999999997,2.6430306541426583,3.138900110169607
78,0.0016659417688619318,3.3978733060021824e-06,0.0016659383037393512,6.259381330623457,1.5942937134139537,2.046636000912604,6.125335909436074,0.9999999999999999,3.1400000000000006,-0.7742923271423336,0.8865936183243465,3.1399999999999997,2.6430306541424025,3.138900110169608
79,0.0016659417688611672,3.397873511046517e-06,0.0016659383037393512,6.259381330623456,1.5942937134136572,2.0466360009126072,6.125335909436074,0.9999999999999998,3.140000000000002,-0.7742923271422975,0.8865936183246433,3.1399999999999997,2.6430306541425512,3.1389001101696055
80,0.001665941768861676,3.397873266666625e-06,0.0016659383037393512,6.259381330623455,1.5942937134140063,2.0466360009126077,6.125335909436072,0.9999999999999999,3.140000000000001,-0.774292327142339,0.8865936183242987,3.1399999999999997,2.6430306541423256,3.1389001101696
81,0.0016659417688619316,3.397873328156788e-06,0.0016659383037393512,6.259381330623455,1.5942937134139088,2.046636000912617,6.125335909436072,0.9999999999999999,3.1400000000000006,-0.7742923271423051,0.8865936183243451,3.1399999999999997,2.6430306541424575,3.138900110169602
82,0.001665941768861931,3.3978734180184624e-06,0.0016659383037393512,6.259381330623457,1.5942937134137984,2.0466360009125992,6.125335909436074,1.0000000000000002,3.1400000000000006,-0.7742923271423234,0.8865936183245169,3.1399999999999997,2.6430306541424917,3.1389001101695997
83,0.0016659417688611674,3.3978735171363724e-06,0.0016659383037393512,6.259381330623455,1.5942937134136508,2.046636000912605,6.125335909436073,1.0,3.140000000000002,-0.7742923271422971,0.8865936183246479,3.1399999999999997,2.6430306541425774,3.138900110169606
84,0.0016659417688601485,3.3978735737681156e-06,0.0016659383037393512,6.259381330623455,1.5942937134135775,2.0466360009125975,6.125335909436074,0.9999999999999999,3.1400000000000037,-0.7742923271422929,0.8865936183247188,3.1399999999999997,2.6430306541426907,3.138900110169605
85,0.001665941768859639,3.3978735735361425e-06,0.0016659383037393512,6.259381330623454,1.5942937134135728,2.0466360009126023,6.125335909436074,0.9999999999999999,3.1400000000000046,-0.7742923271422789,0.8865936183246917,3.1399999999999997,2.6430306541427466,3.138900110169606
86,0.0016659417688609135,3.3978732458292723e-06,0.0016659383037393512,6.259381330623455,1.5942937134140238,2.0466360009126197,6.125335909436073,1.0,3.1400000000000023,-0.7742923271423271,0.8865936183242605,3.1399999999999997,2.6430306541422772,3.138900110169603
87,0.0016659417688606583,3.3978736125193452e-06,0.0016659383037393512,6.259381330623454,1.594293713413518,2.0466360009126014,6.125335909436073,0.9999999999999998,3.140000000000003,-0.7742923271422754,0.8865936183247539,3.1399999999999997,2.6430306541427653,3.1389001101696046
88,0.0016659417688604042,3.3978736629096233e-06,0.0016659383037393512,6.259381330623456,1.5942937134134314,2.0466360009126157,6.125335909436075,1.0,3.1400000000000032,-0.7742923271422449,0.8865936183248068,3.1399999999999997,2.6430306541427946,3.138900110169607
89,0.0016659417688611672,3.3978732822689406e-06,0.0016659383036060661,6.259381330623455,1.594293713413989,2.046636000912603,6.125335909436073,1.0000000000000002,3.140000000000002,-0.7742923271423456,0.8865936183243346,3.1399999999999997,2.643030654142321,3.1389001101696037
90,0.0016659417688632047,3.3978736024295273e-06,0.0016659383036060661,6.259381330623454,1.5942937134135224,2.046636000912611,6.125335909436071,1.0,3.1399999999999983,-0.7742923271422564,0.8865936183247095,3.1399999999999997,2.643030654142799,3.138900110169601
91,0.0016659417688616761,3.3978735732762724e-06,0.0016659383037393512,6.259381330623457,1.5942937134135664,2.046636000912609,6.125335909436074,0.9999999999999999,3.140000000000001,-0.7742923271422787,0.8865936183247137,3.1399999999999997,2.6430306541426485,3.1389001101696037
92,0.0016659417688634599,3.3978733868380865e-06,0.0016659383037393512,6.259381330623456,1.5942937134138548,2.0466360009125877,6.125335909436071,0.9999999999999999,3.139999999999998,-0.7742923271423366,0.8865936183244576,3.1399999999999997,2.6430306541425628,3.138900110169599
93,0.0016659417688609137,3.397873357039554e-06,0.0016659383036060661,6.259381330623455,1.594293713413878,2.046636000912607,6.125335909436073,0.9999999999999997,3.1400000000000023,-0.7742923271423181,0.8865936183244072,3.1399999999999997,2.6430306541424646,3.138900110169607
94,0.001665941768860149,3.3978735814890695e-06,0.0016659383037393512,6.259381330623457,1.5942937134135637,2.0466360009126,6.1253359094360755,0.9999999999999997,3.1400000000000037,-0.774292327142284,0.8865936183247148,3.1399999999999997,2.6430306541427293,3.1389001101696032
95,0.001665941768861677,3.397873259809285e-06,0.0016659383037393512,6.259381330623457,1.5942937134140043,2.046636000912619,6.125335909436074,0.9999999999999999,3.140000000000001,-0.774292327142334,0.8865936183243087,3.1399999999999997,2.6430306541422057,3.1389001101696086
96,0.001665941768860405,3.3978735585233098e-06,0.0016659383037393512,6.259381330623456,1.5942937134136075,2.0466360009125895,6.125335909436075,0.9999999999999999,3.1400000000000032,-0.7742923271422926,0.8865936183246629,3.1399999999999997,2.643030654142816,3.138900110169604
97,0.001665941768861168,3.397873279095898e-06,0.0016659383036060661,6.259381330623455,1.594293713413979,2.046636000912617,6.125335909436073,0.9999999999999998,3.140000000000002,-0.7742923271423245,0.8865936183243098,3.1399999999999997,2.643030654142311,3.138900110169602
98,0.001665941768861677,3.3978732966449773e-06,0.0016659383037393512,6.259381330623456,1.5942937134139643,2.046636000912607,6.125335909436073,0.9999999999999999,3.140000000000001,-0.7742923271423258,0.8865936183243138,3.1399999999999997,2.6430306541424353,3.1389001101696024
99,0.001665941768860913,3.397873500222265e-06,0.0016659383037393512,6.259381330623456,1.5942937134136654,2.0466360009126143,6.125335909436074,1.0,3.1400000000000023,-0.7742923271422847,0.8865936183246076,3.1399999999999997,2.643030654142568,3.1389001101696055
100,0.0016659417688601502,3.397873565335472e-06,0.0016659383037393512,6.259381330623455,1.5942937134135864,2.0466360009126006,6.125335909436074,0.9999999999999999,3.1400000000000037,-0.7742923271422864,0.8865936183246925,3.1399999999999997,2.6430306541427107,3.1389001101696037
101,0.0016659417688596394,3.3978735543838615e-06,0.0016659383036060661,6.259381330623454,1.5942937134135966,2.046636000912606,6.125335909436074,0.9999999999999999,3.1400000000000046,-0.7742923271422856,0.8865936183246874,3.1399999999999997,2.6430306541426467,3.1389001101696055
102,0.0016659417688598948,3.397873658736812e-06,0.0016659383037393512,6.259381330623455,1.5942937134134487,2.0466360009126046,6.125335909436075,0.9999999999999999,3.140000000000004,-0.7742923271422575,0.886593618324799,3.1399999999999997,2.6430306541428537,3.1389001101696077
103,0.0016659417688614214,3.3978732354950456e-06,0.0016659383036060661,6.259381330623456,1.5942937134140531,2.0466360009126054,6.125335909436074,1.0000000000000002,3.1400000000000015,-0.77429232714235,0.8865936183242636,3.1399999999999997,2.643030654142285,3.138900110169609
104,0.0016659417688616768,3.3978733106268104e-06,0.0016659383037393512,6.259381330623456,1.5942937134139348,2.046636000912616,6.125335909436073,1.0000000000000002,3.140000000000001,-0.7742923271423212,0.8865936183243576,3.1399999999999997,2.6430306541423345,3.1389001101696024
105,0.0016659417688604048,3.3978735459633447e-06,0.0016659383037393512,6.259381330623455,1.5942937134136164,2.0466360009125983,6.125335909436074,1.0,3.1400000000000032,-0.7742923271422847,0.8865936183246436,3.1399999999999997,2.643030654142765,3.138900110169603
106,0.0016659417688598933,3.397873512004129e-06,0.0016659383037393512,6.259381330623455,1.5942937134136677,2.0466360009125957,6.125335909436075,0.9999999999999999,3.140000000000004,-0.774292327142301,0.8865936183246186,3.1399999999999997,2.643030654142682,3.1389001101696055
107,0.00166594176886015,3.3978735669544437e-06,0.0016659383037393512,6.259381330623456,1.5942937134135682,2.046636000912616,6.125335909436075,0.9999999999999998,3.1400000000000037,-0.7742923271422555,0.8865936183246541,3.1399999999999997,2.6430306541427546,3.1389001101696072
108,0.0016659417688596409,3.3978735549054237e-06,0.0016659383037393512,6.259381330623454,1.5942937134135995,2.0466360009126023,6.125335909436074,0.9999999999999999,3.1400000000000046,-0.7742923271422907,0.8865936183246927,3.1399999999999997,2.6430306541426467,3.138900110169606
109,0.0016659417688624405,3.3978735419285105e-06,0.0016659383036060661,6.259381330623453,1.5942937134136121,2.046636000912608,6.125335909436071,0.9999999999999999,3.1399999999999997,-0.7742923271422836,0.886593618324664,3.1399999999999997,2.643030654142645,3.138900110169604
110,0.0016659417688609142,3.3978735258725533e-06,0.0016659383037393512,6.259381330623458,1.594293713413641,2.0466360009126023,6.1253359094360755,1.0,3.1400000000000023,-0.7742923271422906,0.8865936183246357,3.1399999999999997,2.6430306541426694,3.138900110169604
111,0.0016659417688601492,3.397873616123283e-06,0.0016659383037393512,6.259381330623454,1.594293713413525,2.0466360009125895,6.125335909436073,1.0,3.1400000000000037,-0.7742923271422854,0.886593618324751,3.1399999999999997,2.6430306541428497,3.1389001101696037
112,0.0016659417688611692,3.397873287723823e-06,0.0016659383037393512,6.259381330623454,1.5942937134139825,2.0466360009126014,6.125335909436072,1.0,3.140000000000002,-0.7742923271423389,0.8865936183243193,3.1399999999999997,2.643030654142398,3.1389001101696024
113,0.0016659417688606583,3.3978735814193265e-06,0.0016659383037393512,6.259381330623455,1.5942937134135593,2.0466360009126046,6.125335909436074,0.9999999999999999,3.140000000000003,-0.7742923271422759,0.8865936183247057,3.1399999999999997,2.6430306541427346,3.138900110169606
114,0.0016659417688598935,3.3978735692744876e-06,0.0016659383036060661,6.259381330623455,1.5942937134135744,2.046636000912607,6.125335909436075,0.9999999999999999,3.140000000000004,-0.7742923271422728,0.8865936183246798,3.1399999999999997,2.6430306541427413,3.1389001101696055
115,0.0016659417688596402,3.397873608390202e-06,0.0016659383037393512,6.259381330623454,1.594293713413528,2.0466360009125975,6.125335909436074,1.0,3.1400000000000046,-0.7742923271422774,0.886593618324739,3.1399999999999997,2.643030654142806,3.138900110169606
116,0.001665941768862442,3.3978735792875885e-06,0.0016659383036060661,6.2593813306234525,1.594293713413565,2.046636000912602,6.12533590943607,1.0,3.1399999999999997,-0.7742923271422659,0.8865936183246617,3.1399999999999997,2.643030654142869,3.138900110169603
117,0.0016659417688621857,3.3978733192774787e-06,0.0016659383037393512,6.259381330623456,1.5942937134139297,2.046636000912609,6.125335909436073,1.0000000000000002,3.14,-0.7742923271423193,0.8865936183243451,3.1399999999999997,2.643030654142449,3.1389001101696006
118,0.0016659417688621857,3.3978732646952973e-06,0.001665938303872636,6.259381330623455,1.5942937134140223,2.046636000912595,6.125335909436072,1.0000000000000002,3.14,-0.7742923271423513,0.8865936183242901,3.1399999999999997,2.6430306541424042,3.1389001101696006
119,0.0016659417688611687,3.3978735380959308e-06,0.0016659383037393512,6.259381330623455,1.5942937134136208,2.046636000912605,6.125335909436073,1.0,3.140000000000002,-0.7742923271422921,0.8865936183246732,3.1399999999999997,2.643030654142608,3.138900110169605
120,0.0016659417688616772,3.3978732617421e-06,0.0016659383037393512,6.259381330623455,1.594293713414006,2.0466360009126148,6.125335909436072,0.9999999999999999,3.140000000000001,-0.7742923271423309,0.8865936183242871,3.1399999999999997,2.643030654142302,3.138900110169603
121,0.001665941768861931,3.397873328339941e-06,0.0016659383037393512,6.259381330623455,1.5942937134139104,2.046636000912615,6.125335909436072,0.9999999999999999,3.1400000000000006,-0.774292327142308,0.8865936183243482,3.1399999999999997,2.643030654142458,3.138900110169601
122,0.001665941768861168,3.397873537856983e-06,0.0016659383037393512,6.259381330623455,1.5942937134136157,2.0466360009126103,6.125335909436073,0.9999999999999996,3.140000000000002,-0.7742923271422756,0.8865936183246382,3.1399999999999997,2.6430306541426867,3.1389001101696055
123,0.0016659417688601487,3.397873509788699e-06,0.0016659383036060661,6.259381330623455,1.594293713413668,2.0466360009125983,6.125335909436074,0.9999999999999996,3.1400000000000037,-0.7742923271422977,0.8865936183246119,3.1399999999999997,2.6430306541426782,3.138900110169605
124,0.0016659417688626957,3.3978735554409344e-06,0.0016659383037393512,6.259381330623454,1.5942937134136033,2.046636000912598,6.125335909436071,0.9999999999999997,3.1399999999999992,-0.774292327142291,0.8865936183246798,3.1399999999999997,2.643030654142713,3.1389001101696037
125,0.001665941768860913,3.3978735322101517e-06,0.0016659383036060661,6.259381330623455,1.5942937134136301,2.046636000912604,6.125335909436073,0.9999999999999998,3.1400000000000023,-0.7742923271422884,0.8865936183246464,3.1399999999999997,2.6430306541426627,3.138900110169603
126,0.0016659417688619314,3.397873363631869e-06,0.0016659383036060661,6.259381330623457,1.594293713413863,2.046636000912612,6.125335909436074,0.9999999999999999,3.1400000000000006,-0.7742923271423141,0.8865936183244256,3.1399999999999997,2.643030654142422,3.1389001101696077
127,0.0016659417688621875,3.397873278070055e-06,0.0016659383037393512,6.259381330623454,1.5942937134139945,2.0466360009126032,6.125335909436071,0.9999999999999999,3.14,-0.7742923271423434,0.8865936183243199,3.1399999999999997,2.6430306541423407,3.138900110169601
128,0.0016659417688611674,3.3978735196292636e-06,0.0016659383037393512,6.259381330623455,1.5942937134136377,2.0466360009126143,6.125335909436073,1.0,3.140000000000002,-0.7742923271422814,0.8865936183246361,3.1399999999999997,2.64303065414258,3.138900110169604
129,0.0016659417688632049,3.3978735540454523e-06,0.0016659383037393512,6.259381330623454,1.5942937134135953,2.0466360009126077,6.125335909436071,1.0,3.1399999999999983,-0.7742923271422796,0.8865936183246741,3.1399999999999997,2.6430306541426787,3.138900110169603
130,0.001665941768863204,3.397873355373584e-06,0.0016659383037393512,6.259381330623457,1.594293713413883,2.046636000912604,6.125335909436073,0.9999999999999999,3.1399999999999983,-0.7742923271423308,0.8865936183244343,3.1399999999999997,2.6430306541423945,3.1389001101696064
131,0.0016659417688611666,3.3978735848070615e-06,0.0016659383036060661,6.259381330623456,1.5942937134135526,2.0466360009126063,6.125335909436074,1.0,3.140000000000002,-0.7742923271422755,0.8865936183247158,3.1399999999999997,2.643030654142719,3.138900110169602
132,0.0016659417688616768,3.3978732538100968e-06,0.0016659383037393512,6.259381330623455,1.5942937134140165,2.0466360009126157,6.125335909436072,1.0,3.140000000000001,-0.7742923271423344,0.886593618324287,3.1399999999999997,2.643030654142257,3.138900110169602
133,0.0016659417688619314,3.3978733313455992e-06,0.0016659383037393512,6.259381330623455,1.5942937134139097,2.0466360009126117,6.125335909436072,1.0000000000000002,3.1400000000000006,-0.774292327142313,0.8865936183243581,3.1399999999999997,2.6430306541424624,3.138900110169601
134,0.0016659417688606572,3.397873549005696e-06,0.0016659383036060661,6.259381330623454,1.594293713413608,2.0466360009126023,6.125335909436073,1.0,3.140000000000003,-0.7742923271422799,0.8865936183246476,3.1399999999999997,2.6430306541427537,3.1389001101696015
135,0.0016659417688604033,3.3978736375853032e-06,0.0016659383036060661,6.259381330623454,1.5942937134134867,2.046636000912597,6.125335909436073,1.0,3.1400000000000032,-0.774292327142268,0.8865936183247666,3.1399999999999997,2.643030654142873,3.1389001101696055
136,0.0016659417688614224,3.397873337288993e-06,0.0016659383037393512,6.259381330623455,1.594293713413894,2.0466360009126188,6.125335909436073,1.0000000000000002,3.1400000000000015,-0.7742923271423104,0.8865936183243854,3.1399999999999997,2.643030654142373,3.1389001101696032
137,0.0016659417688609126,3.3978735813914295e-06,0.0016659383037393512,6.259381330623456,1.5942937134135575,2.0466360009126063,6.125335909436074,1.0,3.1400000000000023,-0.774292327142269,0.8865936183246899,3.1399999999999997,2.643030654142775,3.138900110169606
138,0.001665941768860658,3.3978735692675136e-06,0.0016659383036060661,6.259381330623454,1.594293713413574,2.0466360009126072,6.125335909436073,0.9999999999999999,3.140000000000003,-0.7742923271422797,0.8865936183247017,3.1399999999999997,2.6430306541426747,3.138900110169607
139,0.0016659417688598935,3.3978736291508376e-06,0.0016659383037393512,6.259381330623455,1.5942937134135056,2.0466360009125903,6.125335909436075,1.0,3.140000000000004,-0.7742923271422759,0.8865936183247515,3.1399999999999997,2.643030654142909,3.1389001101696055
140,0.00166594176886346,3.3978733612523882e-06,0.0016659383036060661,6.259381330623457,1.5942937134138733,2.0466360009126054,6.125335909436072,0.9999999999999998,3.139999999999998,-0.7742923271423229,0.8865936183244258,3.1399999999999997,2.643030654142441,3.138900110169603
141,0.0016659417688642231,3.3978735571069047e-06,0.0016659383037393512,6.259381330623454,1.5942937134135982,2.0466360009126006,6.125335909436069,0.9999999999999998,3.1399999999999966,-0.7742923271422867,0.886593618324679,3.1399999999999997,2.6430306541427107,3.1389001101695997
142,0.001665941768862186,3.3978736080815118e-06,0.0016659383037393512,6.259381330623455,1.5942937134135184,2.0466360009126072,6.125335909436073,0.9999999999999999,3.14,-0.7742923271422743,0.8865936183247606,3.1399999999999997,2.6430306541426996,3.138900110169603
143,0.0016659417688611685,3.3978736120972446e-06,0.0016659383037393512,6.259381330623456,1.5942937134135113,2.0466360009126086,6.125335909436074,0.9999999999999998,3.140000000000002,-0.7742923271422617,0.8865936183247347,3.1399999999999997,2.6430306541427857,3.1389001101696046
144,0.001665941768861676,3.3978733155076688e-06,0.0016659383037393512,6.259381330623455,1.5942937134139423,2.046636000912602,6.125335909436072,0.9999999999999999,3.140000000000001,-0.7742923271423306,0.8865936183243478,3.1399999999999997,2.6430306541424606,3.1389001101696032
145,0.0016659417688634607,3.3978736086746385e-06,0.0016659383037393512,6.259381330623455,1.5942937134135158,2.046636000912609,6.125335909436071,0.9999999999999997,3.139999999999998,-0.7742923271422621,0.8865936183247313,3.1399999999999997,2.6430306541427755,3.1389001101696006
146,0.0016659417688629499,3.3978732063924343e-06,0.0016659383037393512,6.259381330623454,1.5942937134140902,2.04663600091261,6.12533590943607,0.9999999999999999,3.139999999999999,-0.7742923271423509,0.8865936183242247,3.1399999999999997,2.6430306541422315,3.1389001101696
147,0.0016659417688626942,3.397873248367343e-06,0.0016659383036060661,6.259381330623456,1.5942937134140338,2.0466360009126063,6.125335909436072,0.9999999999999998,3.1399999999999992,-0.7742923271423394,0.8865936183242596,3.1399999999999997,2.6430306541423594,3.138900110169601
148,0.0016659417688649866,3.397873418056976e-06,0.0016659383037393512,6.259381330623456,1.5942937134137807,2.0466360009126165,6.12533590943607,0.9999999999999999,3.1399999999999952,-0.77429232714229,0.8865936183244725,3.1399999999999997,2.6430306541425406,3.1389001101696006
149,0.0016659417688621853,3.3978735285137266e-06,0.0016659383037393512,6.259381330623454,1.5942937134136272,2.046636000912612,6.125335909436071,1.0,3.14,-0.7742923271422769,0.8865936183246309,3.1399999999999997,2.6430306541426525,3.1389001101695997
150,0.0016659417688611672,3.397873544566041e-06,0.0016659383037393512,6.259381330623455,1.5942937134136184,2.0466360009125983,6.125335909436073,0.9999999999999998,3.140000000000002,-0.7742923271422905,0.8865936183246576,3.1399999999999997,2.6430306541427213,3.138900110169606
151,0.0016659417688601487,3.3978735535569396e-06,0.0016659383037393512,6.259381330623454,1.5942937134136046,2.0466360009125992,6.125335909436073,0.9999999999999998,3.1400000000000037,-0.7742923271422935,0.8865936183246864,3.1399999999999997,2.6430306541426773,3.1389001101696037
152,0.001665941768860149,3.3978736084059724e-06,0.0016659383037393512,6.259381330623455,1.5942937134135189,2.0466360009126063,6.125335909436074,0.9999999999999998,3.1400000000000037,-0.7742923271422748,0.8865936183247607,3.1399999999999997,2.6430306541426996,3.138900110169606
153,0.001665941768861167,3.397873264486067e-06,0.0016659383036060661,6.259381330623454,1.594293713414009,2.046636000912608,6.125335909436072,1.0,3.140000000000002,-0.7742923271423329,0.8865936183242765,3.1399999999999997,2.643030654142381,3.1389001101696024
154,0.0016659417688601509,3.397873656456792e-06,0.0016659383037393512,6.259381330623456,1.5942937134134552,2.0466360009126014,6.125335909436075,0.9999999999999999,3.1400000000000037,-0.7742923271422639,0.8865936183248041,3.1399999999999997,2.643030654142837,3.1389001101696046
155,0.001665941768860148,3.3978735408505145e-06,0.0016659383036060661,6.259381330623455,1.5942937134136042,2.0466360009126174,6.125335909436074,0.9999999999999999,3.1400000000000037,-0.7742923271422696,0.8865936183246503,3.1399999999999997,2.6430306541426316,3.138900110169606
156,0.0016659417688609554,3.3978733165107684e-06,0.0016659383037393512,6.259381330623454,1.5942937134139354,2.0466360009126072,6.125335909436072,1.0,3.140000000000002,-0.774292327142326,0.8865936183243538,3.14,2.643030654142418,3.1389001101696037
157,0.001665941768862993,3.3978735811594564e-06,0.0016659383037393512,6.259381330623454,1.5942937134135529,2.046636000912611,6.125335909436071,1.0,3.1399999999999983,-0.7742923271422613,0.8865936183246834,3.14,2.6430306541427684,3.1389001101696015
158,0.001665941768860446,3.3978733542798176e-06,0.0016659383037393512,6.259381330623454,1.5942937134138842,2.0466360009126046,6.125335909436073,1.0,3.140000000000003,-0.7742923271423174,0.8865936183243928,3.14,2.6430306541425064,3.1389001101696077
159,0.001665941768859682,3.397873552484096e-06,0.0016659383037393512,6.259381330623454,1.594293713413607,2.0466360009125983,6.125335909436074,0.9999999999999998,3.140000000000004,-0.7742923271422871,0.8865936183246635,3.14,2.6430306541427404,3.138900110169604
160,0.0016659417688594266,3.397873594982392e-06,0.0016659383036060661,6.259381330623455,1.5942937134135435,2.046636000912601,6.125335909436075,0.9999999999999998,3.1400000000000046,-0.7742923271422696,0.8865936183247006,3.14,2.643030654142835,3.138900110169606
161,0.0016659417688596812,3.397873599371406e-06,0.0016659383037393512,6.259381330623456,1.59429371341354,2.0466360009125983,6.1253359094360755,0.9999999999999997,3.140000000000004,-0.7742923271422739,0.8865936183247136,3.14,2.6430306541428314,3.1389001101696072
162,0.0016659417688606995,3.3978733089102e-06,0.0016659383037393512,6.259381330623455,1.5942937134139468,2.046636000912607,6.125335909436073,0.9999999999999999,3.1400000000000023,-0.7742923271423278,0.8865936183243424,3.14,2.643030654142418,3.1389001101696015
163,0.0016659417688599375,3.3978735599712554e-06,0.0016659383037393512,6.259381330623455,1.5942937134135986,2.046636000912596,6.125335909436074,1.0,3.1400000000000037,-0.7742923271422852,0.8865936183246649,3.14,2.6430306541427853,3.1389001101696037
164,0.0016659417688609545,3.397873241380824e-06,0.0016659383036060661,6.259381330623454,1.5942937134140438,2.0466360009126063,6.125335909436072,1.0,3.140000000000002,-0.7742923271423459,0.8865936183242654,3.14,2.643030654142305,3.1389001101696037
165,0.0016659417688599373,3.3978735526044807e-06,0.0016659383037393512,6.259381330623456,1.5942937134136046,2.0466360009126006,6.125335909436075,1.0,3.1400000000000037,-0.7742923271422878,0.8865936183246734,3.14,2.6430306541427018,3.1389001101696037
166,0.001665941768858409,3.3978733782101623e-06,0.0016659383037393512,6.259381330623456,1.5942937134138513,2.0466360009126032,6.125335909436076,0.9999999999999999,3.1400000000000063,-0.774292327142333,0.8865936183244814,3.14,2.6430306541423696,3.138900110169611
167,0.0016659417688586627,3.397873564278399e-06,0.0016659383037393512,6.259381330623454,1.5942937134135797,2.0466360009126086,6.1253359094360755,0.9999999999999998,3.140000000000006,-0.774292327142276,0.8865936183246853,3.14,2.643030654142688,3.1389001101696055
168,0.0016659417688601912,3.397873217832556e-06,0.0016659383037393512,6.259381330623458,1.5942937134140707,2.046636000912613,6.1253359094360755,0.9999999999999997,3.1400000000000032,-0.7742923271423385,0.88659361832422,3.14,2.6430306541422848,3.138900110169605
169,0.0016659417688601919,3.397873544314966e-06,0.0016659383037393512,6.259381330623455,1.5942937134136024,2.0466360009126143,6.125335909436074,0.9999999999999996,3.1400000000000032,-0.7742923271422723,0.8865936183246538,3.14,2.6430306541426543,3.1389001101696064
170,0.0016659417688601917,3.3978736030208325e-06,0.0016659383037393512,6.259381330623456,1.5942937134135298,2.0466360009126032,6.125335909436075,0.9999999999999997,3.1400000000000032,-0.77429232714228,0.8865936183247549,3.14,2.6430306541427075,3.1389001101696072
171,0.0016659417688601917,3.397873582732939e-06,0.0016659383037393512,6.259381330623456,1.594293713413552,2.04663600091261,6.125335909436075,0.9999999999999996,3.1400000000000032,-0.7742923271422716,0.886593618324713,3.14,2.6430306541426924,3.1389001101696072
172,0.0016659417688596814,3.397873597953179e-06,0.0016659383036060661,6.259381330623454,1.5942937134135406,2.0466360009125997,6.125335909436074,0.9999999999999998,3.140000000000004,-0.7742923271422654,0.8865936183246884,3.14,2.6430306541428963,3.138900110169606
173,0.0016659417688607006,3.397873318811711e-06,0.0016659383036060661,6.259381330623455,1.5942937134139303,2.046636000912609,6.125335909436073,0.9999999999999997,3.1400000000000023,-0.7742923271423218,0.8865936183243505,3.14,2.643030654142432,3.138900110169604
174,0.0016659417688589177,3.3978733203763985e-06,0.0016659383037393512,6.259381330623456,1.594293713413939,2.0466360009125983,6.1253359094360755,1.0,3.1400000000000055,-0.7742923271423464,0.8865936183243942,3.14,2.6430306541423603,3.13890011016961
175,0.001665941768859427,3.397873613501523e-06,0.0016659383037393512,6.259381330623454,1.5942937134135098,2.046636000912608,6.125335909436074,1.0,3.1400000000000046,-0.7742923271422602,0.8865936183247315,3.14,2.6430306541428057,3.1389001101696064
176,0.0016659417688607004,3.3978732517899486e-06,0.0016659383037393512,6.259381330623457,1.5942937134140294,2.046636000912606,6.125335909436074,0.9999999999999999,3.1400000000000023,-0.7742923271423358,0.8865936183242533,3.14,2.643030654142395,3.138900110169604
177,0.0016659417688612112,3.397873343291515e-06,0.0016659383037393512,6.259381330623454,1.5942937134139021,2.0466360009126023,6.125335909436072,1.0,3.1400000000000015,-0.7742923271423232,0.8865936183243808,3.14,2.6430306541424953,3.138900110169603
178,0.0016659417688617186,3.3978733218661897e-06,0.0016659383036060661,6.259381330623456,1.5942937134139328,2.0466360009126023,6.125335909436073,1.0000000000000002,3.1400000000000006,-0.774292327142337,0.8865936183243818,3.14,2.6430306541423887,3.1389001101696024
179,0.0016659417688632478,3.3978733938297595e-06,0.0016659383037393512,6.259381330623457,1.5942937134138553,2.0466360009125775,6.125335909436072,1.0,3.139999999999998,-0.7742923271423361,0.8865936183244368,3.14,2.6430306541427036,3.1389001101695997
180,0.001665941768864012,3.397873606769721e-06,0.0016659383037393512,6.259381330623454,1.5942937134135158,2.0466360009126117,6.125335909436069,1.0,3.1399999999999966,-0.7742923271422641,0.8865936183247434,3.14,2.6430306541427178,3.1389001101695997
181,0.0016659417688619745,3.397873551681741e-06,0.0016659383037393512,6.259381330623454,1.5942937134135964,2.04663600091261,6.125335909436071,1.0,3.14,-0.7742923271422754,0.8865936183246647,3.14,2.64303065414268,3.1389001101696032
182,0.0016659417688604473,3.397873614811492e-06,0.0016659383037393512,6.259381330623455,1.5942937134135224,2.046636000912594,6.125335909436074,1.0,3.140000000000003,-0.7742923271422679,0.8865936183247113,3.14,2.6430306541429367,3.1389001101696032
183,0.0016659417688627376,3.3978735497052585e-06,0.0016659383036060661,6.259381330623453,1.594293713413602,2.0466360009126072,6.12533590943607,1.0,3.139999999999999,-0.7742923271422747,0.8865936183246498,3.14,2.643030654142729,3.1389001101696037
184,0.0016659417688624821,3.397873252878561e-06,0.0016659383036060661,6.259381330623456,1.5942937134140178,2.0466360009126157,6.125335909436072,1.0000000000000002,3.1399999999999992,-0.7742923271423292,0.8865936183242695,3.14,2.643030654142306,3.138900110169602
185,0.0016659417688612112,3.3978735301639267e-06,0.0016659383037393512,6.259381330623455,1.5942937134136312,2.046636000912606,6.125335909436073,1.0,3.1400000000000015,-0.7742923271422907,0.8865936183246567,3.14,2.643030654142611,3.138900110169605
186,0.0016659417688607014,3.397873643415288e-06,0.0016659383037393512,6.259381330623455,1.5942937134134738,2.0466360009126014,6.125335909436073,0.9999999999999998,3.1400000000000023,-0.7742923271422599,0.8865936183247664,3.14,2.643030654142884,3.138900110169605
187,0.001665941768859937,3.3978735550537053e-06,0.0016659383037393512,6.259381330623454,1.5942937134135988,2.046636000912603,6.125335909436073,1.0,3.1400000000000037,-0.7742923271422804,0.8865936183246628,3.14,2.643030654142734,3.138900110169604
188,0.0016659417688609554,3.397873319720503e-06,0.0016659383036060661,6.259381330623456,1.5942937134139377,2.0466360009126006,6.125335909436074,0.9999999999999999,3.140000000000002,-0.7742923271423314,0.8865936183243545,3.14,2.6430306541424664,3.1389001101696037
189,0.0016659417688604464,3.3978735623158655e-06,0.0016659383037393512,6.259381330623453,1.5942937134135862,2.046636000912605,6.125335909436072,0.9999999999999997,3.140000000000003,-0.7742923271422795,0.8865936183246806,3.14,2.6430306541427058,3.138900110169605
190,0.0016659417688612102,3.3978732424903586e-06,0.0016659383036060661,6.259381330623455,1.5942937134140336,2.0466360009126148,6.125335909436073,1.0,3.1400000000000015,-0.7742923271423338,0.8865936183242584,3.14,2.6430306541422888,3.1389001101696037
191,0.0016659417688601917,3.3978736120238585e-06,0.0016659383037393512,6.259381330623456,1.5942937134135269,2.0466360009125935,6.125335909436075,0.9999999999999999,3.1400000000000032,-0.7742923271422791,0.8865936183247369,3.14,2.6430306541428537,3.1389001101696032
192,0.0016659417688601908,3.3978736646644367e-06,0.0016659383037393512,6.259381330623455,1.594293713413442,2.046636000912603,6.125335909436074,0.9999999999999998,3.1400000000000032,-0.7742923271422643,0.8865936183248252,3.14,2.6430306541428137,3.1389001101696055
193,0.0016659417688624826,3.3978735504536413e-06,0.0016659383037393512,6.259381330623453,1.594293713413599,2.046636000912609,6.12533590943607,0.9999999999999999,3.1399999999999992,-0.774292327142276,0.8865936183246608,3.14,2.643030654142691,3.1389001101696037
194,0.0016659417688607008,3.397873616885614e-06,0.0016659383037393512,6.259381330623456,1.594293713413523,2.0466360009125903,6.125335909436074,0.9999999999999998,3.1400000000000023,-0.7742923271422736,0.88659361832472,3.14,2.6430306541429394,3.138900110169604
195,0.00166594176886172,3.397873360399391e-06,0.0016659383037393512,6.259381330623456,1.5942937134138695,2.0466360009126103,6.125335909436073,0.9999999999999999,3.1400000000000006,-0.7742923271423112,0.8865936183244051,3.14,2.643030654142474,3.138900110169608
196,0.0016659417688609562,3.3978735965297997e-06,0.0016659383036060661,6.259381330623455,1.5942937134135309,2.046636000912611,6.125335909436073,0.9999999999999999,3.140000000000002,-0.7742923271422603,0.8865936183247101,3.14,2.6430306541427644,3.1389001101696046
197,0.0016659417688629928,3.397873611326117e-06,0.0016659383037393512,6.259381330623453,1.5942937134135229,2.0466360009125983,6.12533590943607,1.0,3.1399999999999983,-0.7742923271422671,0.886593618324717,3.14,2.643030654142883,3.1389001101696032
198,0.0016659417688614643,3.397873623732648e-06,0.0016659383037393512,6.259381330623456,1.5942937134135042,2.0466360009125992,6.125335909436074,0.9999999999999998,3.140000000000001,-0.7742923271422724,0.886593618324759,3.14,2.6430306541428186,3.138900110169605
199,0.0016659417688601908,3.3978735335289167e-06,0.0016659383036060661,6.259381330623454,1.5942937134136332,2.0466360009125992,6.125335909436073,0.9999999999999999,3.1400000000000032,-0.774292327142286,0.886593618324626,3.14,2.6430306541427515,3.1389001101696037
200,0.0016659417688612115,3.397873215714767e-06,0.0016659383037393512,6.259381330623453,1.5942937134140773,2.0466360009126094,6.125335909436071,1.0,3.1400000000000015,-0.7742923271423388,0.8865936183242051,3.14,2.6430306541423314,3.1389001101696024
201,0.001665941768860191,3.397873650536141e-06,0.0016659383036060661,6.259381330623455,1.5942937134134623,2.046636000912603,6.125335909436074,1.0,3.1400000000000032,-0.774292327142256,0.8865936183247727,3.14,2.6430306541428985,3.1389001101696032
202,0.0016659417688596827,3.397873485483252e-06,0.0016659383037393512,6.259381330623453,1.5942937134137074,2.046636000912594,6.125335909436073,1.0,3.140000000000004,-0.7742923271423013,0.8865936183245616,3.14,2.6430306541427253,3.138900110169606
203,0.0016659417688599366,3.397873620784606e-06,0.0016659383036060661,6.259381330623456,1.5942937134134985,2.046636000912609,6.125335909436075,0.9999999999999999,3.1400000000000037,-0.7742923271422587,0.886593618324744,3.14,2.6430306541428017,3.1389001101696072
204,0.001665941768859937,3.397873584336141e-06,0.0016659383037393512,6.259381330623455,1.5942937134135429,2.0466360009126165,6.125335909436074,0.9999999999999996,3.1400000000000037,-0.7742923271422624,0.8865936183247096,3.14,2.6430306541426782,3.138900110169606
205,0.001665941768859428,3.397873527883907e-06,0.0016659383037393512,6.259381330623453,1.5942937134136377,2.046636000912603,6.125335909436073,0.9999999999999998,3.1400000000000046,-0.7742923271422832,0.8865936183246179,3.14,2.6430306541427284,3.1389001101696064
206,0.0016659417688607008,3.3978732533215853e-06,0.0016659383037393512,6.259381330623457,1.5942937134140258,2.0466360009126072,6.125335909436074,1.0,3.1400000000000023,-0.7742923271423391,0.8865936183242715,3.14,2.643030654142338,3.138900110169604
207,0.0016659417688599373,3.397873554038478e-06,0.0016659383037393512,6.259381330623453,1.5942937134135948,2.046636000912608,6.125335909436072,0.9999999999999999,3.1400000000000037,-0.7742923271422771,0.8865936183246681,3.14,2.6430306541426876,3.1389001101696024
208,0.0016659417688594273,3.3978736578243767e-06,0.0016659383037393512,6.259381330623453,1.5942937134134614,2.0466360009125935,6.125335909436074,0.9999999999999999,3.1400000000000046,-0.7742923271422661,0.8865936183247869,3.14,2.6430306541429345,3.1389001101696046
209,0.0016659417688607,3.3978732557568605e-06,0.0016659383037393512,6.259381330623457,1.5942937134140192,2.0466360009126103,6.125335909436074,0.9999999999999999,3.1400000000000023,-0.7742923271423322,0.8865936183242648,3.14,2.64303065414236,3.138900110169604
210,0.0016659417688604454,3.39787360549098e-06,0.0016659383037393512,6.2593813306234525,1.5942937134135253,2.046636000912604,6.125335909436071,1.0,3.140000000000003,-0.7742923271422713,0.886593618324736,3.14,2.643030654142771,3.138900110169605
211,0.0016659417688596814,3.3978735527388138e-06,0.0016659383037393512,6.259381330623454,1.594293713413603,2.046636000912602,6.125335909436074,0.9999999999999999,3.140000000000004,-0.7742923271422841,0.8865936183246667,3.14,2.6430306541427173,3.138900110169606
212,0.0016659417688594284,3.397873544401989e-06,0.0016659383037393512,6.259381330623456,1.5942937134136281,2.046636000912589,6.1253359094360755,0.9999999999999999,3.1400000000000046,-0.774292327142298,0.8865936183246498,3.14,2.643030654142785,3.1389001101696064
213,0.0016659417688596819,3.3978735749613436e-06,0.0016659383037393512,6.259381330623453,1.5942937134135726,2.0466360009126006,6.125335909436073,0.9999999999999999,3.140000000000004,-0.7742923271422824,0.8865936183247004,3.14,2.6430306541427324,3.1389001101696064
214,0.001665941768859428,3.3978736229266493e-06,0.0016659383037393512,6.259381330623454,1.5942937134135136,2.0466360009125912,6.125335909436075,0.9999999999999998,3.1400000000000046,-0.774292327142274,0.8865936183247362,3.14,2.6430306541429154,3.1389001101696064
215,0.0016659417688586618,3.397873377341395e-06,0.0016659383036060661,6.259381330623453,1.5942937134138566,2.0466360009125992,6.125335909436074,0.9999999999999999,3.140000000000006,-0.7742923271423104,0.886593618324397,3.14,2.6430306541426374,3.1389001101696086
216,0.0016659417688601914,3.3978733283538894e-06,0.0016659383037393512,6.259381330623455,1.5942937134139112,2.0466360009126143,6.125335909436074,0.9999999999999998,3.1400000000000032,-0.7742923271423245,0.8865936183243953,3.14,2.643030654142325,3.1389001101696046
217,0.0016659417688601901,3.397873621185784e-06,0.0016659383037393512,6.259381330623456,1.5942937134135038,2.0466360009126032,6.125335909436075,0.9999999999999999,3.1400000000000032,-0.7742923271422705,0.8865936183247607,3.14,2.6430306541427844,3.1389001101696055
218,0.001665941768862483,3.397873560128333e-06,0.0016659383037393512,6.259381330623453,1.5942937134135884,2.046636000912606,6.12533590943607,0.9999999999999999,3.1399999999999992,-0.7742923271422743,0.8865936183246643,3.14,2.643030654142742,3.1389001101696037
219,0.001665941768862228,3.3978733240258247e-06,0.0016659383037393512,6.259381330623454,1.5942937134139288,2.0466360009126032,6.125335909436071,1.0,3.1399999999999997,-0.7742923271423274,0.8865936183243601,3.14,2.6430306541424557,3.1389001101695992
220,0.0016659417688622293,3.397873288112873e-06,0.0016659383037393512,6.259381330623455,1.594293713413977,2.0466360009126063,6.125335909436072,1.0,3.1399999999999997,-0.7742923271423303,0.8865936183243102,3.14,2.6430306541424056,3.1389001101696015
221,0.0016659417688635017,3.397873605004289e-06,0.0016659383037393512,6.259381330623454,1.5942937134135247,2.0466360009126054,6.12533590943607,0.9999999999999999,3.1399999999999975,-0.7742923271422654,0.8865936183247226,3.14,2.643030654142803,3.1389001101695992
222,0.0016659417688612093,3.397873556231163e-06,0.0016659383037393512,6.259381330623454,1.594293713413603,2.046636000912597,6.125335909436072,1.0,3.1400000000000015,-0.7742923271422915,0.8865936183246791,3.14,2.643030654142722,3.1389001101696024
223,0.0016659417688607012,3.3978736779955295e-06,0.0016659383037393512,6.259381330623453,1.5942937134134216,2.046636000912604,6.125335909436072,0.9999999999999999,3.1400000000000023,-0.774292327142255,0.8865936183248279,3.14,2.643030654142865,3.1389001101696037
224,0.0016659417688612093,3.397873258042034e-06,0.0016659383037393512,6.259381330623454,1.5942937134140232,2.0466360009126032,6.125335909436072,0.9999999999999999,3.1400000000000015,-0.7742923271423481,0.8865936183242944,3.14,2.643030654142318,3.1389001101696024
225,0.0016659417688601923,3.397873636053666e-06,0.0016659383037393512,6.259381330623456,1.5942937134134902,2.0466360009125957,6.125335909436075,1.0,3.1400000000000032,-0.7742923271422746,0.8865936183247782,3.14,2.6430306541428403,3.1389001101696032
226,0.0016659417688609538,3.3978732412395163e-06,0.0016659383036060661,6.259381330623455,1.594293713414045,2.0466360009126054,6.125335909436072,1.0000000000000002,3.140000000000002,-0.7742923271423399,0.8865936183242443,3.14,2.6430306541423714,3.1389001101696024
227,0.0016659417688619739,3.3978733044775197e-06,0.0016659383037393512,6.259381330623456,1.5942937134139576,2.0466360009126023,6.125335909436073,1.0000000000000002,3.14,-0.7742923271423363,0.8865936183243459,3.14,2.643030654142404,3.1389001101696077
228,0.0016659417688619745,3.3978732334330514e-06,0.0016659383037393512,6.259381330623456,1.5942937134140633,2.0466360009125983,6.125335909436073,1.0000000000000002,3.14,-0.7742923271423451,0.8865936183242227,3.14,2.643030654142424,3.138900110169602
229,0.0016659417688635015,3.3978735796608687e-06,0.001665938303872636,6.259381330623455,1.5942937134135686,2.046636000912598,6.125335909436071,1.0,3.1399999999999975,-0.7742923271422877,0.8865936183247167,3.14,2.6430306541427253,3.1389001101696006
230,0.0016659417688642654,3.3978735708479708e-06,0.0016659383036060661,6.259381330623455,1.5942937134135735,2.0466360009126054,6.12533590943607,1.0,3.139999999999996,-0.774292327142274,0.8865936183246833,3.14,2.6430306541427435,3.1389001101696015
231,0.0016659417688617193,3.3978735705426116e-06,0.0016659383037393512,6.259381330623455,1.5942937134135844,2.0466360009125952,6.125335909436072,1.0,3.1400000000000006,-0.7742923271422898,0.8865936183246952,3.14,2.6430306541427595,3.138900110169602
232,0.0016659417688617186,3.3978732978939994e-06,0.0016659383037393512,6.259381330623455,1.594293713413963,2.0466360009126063,6.125335909436072,0.9999999999999999,3.1400000000000006,-0.7742923271423254,0.886593618324313,3.14,2.6430306541424504,3.1389001101696024
233,0.0016659417688617186,3.397873210825114e-06,0.0016659383037393512,6.259381330623455,1.5942937134140793,2.0466360009126143,6.125335909436072,0.9999999999999998,3.1400000000000006,-0.7742923271423376,0.8865936183242085,3.14,2.6430306541422786,3.1389001101696024
234,0.0016659417688604475,3.397873609625276e-06,0.0016659383037393512,6.259381330623456,1.5942937134135258,2.046636000912598,6.125335909436075,0.9999999999999998,3.140000000000003,-0.774292327142284,0.8865936183247635,3.14,2.643030654142736,3.138900110169604
235,0.001665941768861211,3.397873296482747e-06,0.0016659383037393512,6.259381330623454,1.594293713413964,2.0466360009126072,6.125335909436072,0.9999999999999998,3.1400000000000015,-0.7742923271423295,0.8865936183243261,3.14,2.6430306541423945,3.1389001101696024
236,0.0016659417688614654,3.39787319536926e-06,0.0016659383036060661,6.259381330623457,1.594293713414106,2.04663600091261,6.125335909436073,0.9999999999999999,3.140000000000001,-0.7742923271423464,0.88659361832419,3.14,2.643030654142271,3.1389001101696024
237,0.0016659417688632472,3.3978737494220855e-06,0.0016659383037393512,6.259381330623455,1.59429371341331,2.0466360009126134,6.125335909436071,1.0,3.139999999999998,-0.7742923271422297,0.88659361832492,3.14,2.643030654142913,3.138900110169602
238,0.0016659417688627378,3.3978732977596667e-06,0.0016659383037393512,6.259381330623454,1.5942937134139645,2.046636000912605,6.12533590943607,0.9999999999999999,3.139999999999999,-0.7742923271423344,0.8865936183243364,3.14,2.643030654142386,3.1389001101695992
239,0.0016659417688624843,3.397873193612624e-06,0.0016659383037393512,6.259381330623456,1.5942937134141053,2.046636000912613,6.125335909436072,0.9999999999999998,3.1399999999999992,-0.7742923271423405,0.8865936183241814,3.14,2.643030654142269,3.1389001101696
240,0.001665941768862229,3.3978733931217106e-06,0.0016659383037393512,6.259381330623455,1.5942937134138304,2.046636000912603,6.125335909436072,0.9999999999999999,3.1399999999999997,-0.7742923271423123,0.8865936183244467,3.14,2.6430306541425517,3.1389001101696
241,0.0016659417688612102,3.3978736454405902e-06,0.0016659383037393512,6.259381330623455,1.5942937134134714,2.046636000912601,6.125335909436073,0.9999999999999998,3.1400000000000015,-0.7742923271422592,0.8865936183247665,3.14,2.643030654142895,3.138900110169605
242,0.0016659417688601914,3.3978735539459907e-06,0.0016659383036060661,6.259381330623454,1.594293713413599,2.046636000912604,6.125335909436073,0.9999999999999998,3.1400000000000032,-0.7742923271422791,0.8865936183246598,3.14,2.643030654142733,3.1389001101696037
243,0.0016659417688596825,3.397873580669122e-06,0.0016659383037393512,6.259381330623455,1.5942937134135722,2.046636000912593,6.125335909436075,0.9999999999999999,3.140000000000004,-0.7742923271422837,0.8865936183246902,3.14,2.64303065414283,3.1389001101696055
244,0.001665941768859937,3.397873636132205e-06,0.0016659383037393512,6.259381330623455,1.5942937134134851,2.0466360009126006,6.125335909436074,0.9999999999999996,3.1400000000000037,-0.7742923271422653,0.8865936183247659,3.14,2.6430306541428523,3.1389001101696072
245,0.0016659417688609558,3.3978732215132133e-06,0.0016659383036060661,6.259381330623455,1.5942937134140827,2.046636000912596,6.125335909436072,0.9999999999999997,3.140000000000002,-0.7742923271423556,0.8865936183242229,3.14,2.6430306541423745,3.1389001101696024
246,0.001665941768860447,3.397873685067563e-06,0.0016659383037393512,6.259381330623453,1.594293713413407,2.0466360009126086,6.125335909436073,0.9999999999999994,3.140000000000003,-0.7742923271422518,0.8865936183248456,3.14,2.643030654142827,3.1389001101696055
247,0.001665941768860192,3.397873645433616e-06,0.0016659383037393512,6.259381330623456,1.594293713413471,2.0466360009126014,6.125335909436075,0.9999999999999997,3.1400000000000032,-0.7742923271422619,0.8865936183247758,3.14,2.643030654142868,3.138900110169606
248,0.0016659417688596825,3.39787349565343e-06,0.0016659383037393512,6.259381330623454,1.5942937134136879,2.046636000912599,6.125335909436074,0.9999999999999999,3.140000000000004,-0.7742923271422916,0.8865936183245688,3.14,2.643030654142729,3.138900110169606
249,0.0016659417688599382,3.3978735448207583e-06,0.0016659383037393512,6.259381330623454,1.5942937134136144,2.046636000912602,6.125335909436073,0.9999999999999999,3.1400000000000037,-0.7742923271422765,0.8865936183246279,3.14,2.643030654142787,3.138900110169606
250,0.0016659417688594275,3.397873616815871e-06,0.0016659383036060661,6.259381330623454,1.5942937134135187,2.046636000912595,6.125335909436074,0.9999999999999999,3.1400000000000046,-0.7742923271422767,0.8865936183247433,3.14,2.6430306541428505,3.1389001101696055
251,0.0016659417688612108,3.39787333713707e-06,0.0016659383037393512,6.259381330623456,1.5942937134139146,2.046636000912599,6.125335909436074,0.9999999999999999,3.1400000000000015,-0.7742923271423338,0.8865936183243895,3.14,2.6430306541424553,3.138900110169609
252,0.0016659417688617197,3.3978733324881857e-06,0.0016659383037393512,6.259381330623456,1.5942937134139117,2.046636000912608,6.125335909436073,1.0,3.1400000000000006,-0.7742923271423262,0.8865936183243887,3.14,2.6430306541423927,3.138900110169601
253,0.0016659417688604467,3.397873526669756e-06,0.0016659383037393512,6.259381330623455,1.5942937134136412,2.046636000912601,6.125335909436074,0.9999999999999998,3.140000000000003,-0.7742923271422835,0.8865936183246109,3.14,2.6430306541427515,3.1389001101696032
254,0.0016659417688591734,3.3978733446312034e-06,0.0016659383037393512,6.259381330623454,1.5942937134139066,2.046636000912596,6.125335909436074,0.9999999999999998,3.140000000000005,-0.7742923271423239,0.8865936183243646,3.14,2.6430306541425774,3.138900110169608
255,0.001665941768860444,3.397873264212247e-06,0.0016659383036060661,6.259381330623457,1.5942937134140016,2.0466360009126157,6.125335909436075,1.0,3.140000000000003,-0.7742923271423359,0.88659361832431,3.14,2.6430306541422453,3.1389001101696037
256,0.0016659417688596812,3.397873494983586e-06,0.0016659383037393512,6.259381330623455,1.5942937134136856,2.046636000912602,6.125335909436075,0.9999999999999999,3.140000000000004,-0.7742923271422955,0.8865936183245884,3.14,2.643030654142659,3.138900110169604
257,0.0016659417688622297,3.397873610551659e-06,0.0016659383036060661,6.259381330623454,1.594293713413514,2.046636000912608,6.125335909436072,0.9999999999999998,3.1399999999999997,-0.7742923271422681,0.8865936183247507,3.14,2.6430306541427337,3.1389001101696037
258,0.0016659417688612102,3.3978735867068263e-06,0.0016659383037393512,6.259381330623456,1.5942937134135422,2.046636000912614,6.125335909436074,0.9999999999999998,3.1400000000000015,-0.7742923271422663,0.8865936183247173,3.14,2.643030654142682,3.1389001101696046
259,0.0016659417688601932,3.3978736054594395e-06,0.0016659383036060661,6.259381330623455,1.5942937134135435,2.0466360009125864,6.125335909436074,0.9999999999999999,3.1400000000000032,-0.7742923271422859,0.8865936183247228,3.14,2.64303065414289,3.138900110169605
260,0.0016659417688612093,3.397873247261448e-06,0.0016659383037393512,6.259381330623454,1.594293713414024,2.0466360009126174,6.125335909436072,1.0,3.1400000000000015,-0.7742923271423321,0.8865936183242715,3.14,2.6430306541422635,3.1389001101696024
261,0.0016659417688614643,3.397873310750528e-06,0.0016659383037393512,6.259381330623455,1.5942937134139528,2.0466360009125983,6.125335909436072,0.9999999999999999,3.140000000000001,-0.7742923271423391,0.8865936183243527,3.14,2.643030654142435,3.138900110169603
262,0.0016659417688632482,3.3978736016741704e-06,0.0016659383037393512,6.259381330623454,1.5942937134135249,2.04663600091261,6.12533590943607,0.9999999999999999,3.139999999999998,-0.7742923271422603,0.8865936183247156,3.14,2.6430306541427817,3.138900110169601
263,0.0016659417688612108,3.397873555927625e-06,0.0016659383037393512,6.259381330623453,1.594293713413604,2.0466360009125966,6.125335909436071,0.9999999999999998,3.1400000000000015,-0.7742923271422925,0.8865936183246795,3.14,2.6430306541427213,3.138900110169603
264,0.0016659417688607006,3.3978736023649372e-06,0.0016659383037393512,6.259381330623455,1.5942937134135284,2.0466360009126054,6.125335909436073,0.9999999999999998,3.1400000000000023,-0.7742923271422759,0.8865936183247498,3.14,2.6430306541427067,3.1389001101696055
265,0.0016659417688604473,3.397873547828238e-06,0.0016659383037393512,6.259381330623456,1.5942937134136037,2.046636000912608,6.125335909436075,0.9999999999999998,3.140000000000003,-0.7742923271422776,0.886593618324657,3.14,2.64303065414269,3.138900110169607
266,0.0016659417688612108,3.3978733323050326e-06,0.0016659383037393512,6.259381330623456,1.5942937134139101,2.04663600091261,6.125335909436074,0.9999999999999999,3.1400000000000015,-0.7742923271423148,0.8865936183243589,3.14,2.6430306541424677,3.1389001101696032
267,0.0016659417688601919,3.397873576091803e-06,0.0016659383037393512,6.259381330623455,1.5942937134135637,2.0466360009126077,6.125335909436074,1.0,3.1400000000000032,-0.7742923271422683,0.8865936183246823,3.14,2.6430306541427604,3.138900110169602
268,0.0016659417688601914,3.3978735638544767e-06,0.0016659383036060661,6.259381330623454,1.594293713413583,2.046636000912606,6.125335909436073,1.0,3.1400000000000032,-0.7742923271422807,0.8865936183246905,3.14,2.6430306541426827,3.138900110169606
269,0.0016659417688596819,3.39787363822725e-06,0.0016659383036060661,6.259381330623454,1.5942937134134871,2.0466360009125957,6.125335909436074,1.0,3.140000000000004,-0.7742923271422653,0.8865936183247538,3.14,2.643030654142922,3.1389001101696046
270,0.0016659417688599358,3.397873582741735e-06,0.0016659383036060661,6.259381330623456,1.5942937134135424,2.046636000912619,6.125335909436075,0.9999999999999998,3.1400000000000037,-0.7742923271422593,0.8865936183247051,3.14,2.6430306541426765,3.1389001101696072
271,0.0016659417688599366,3.397873679506244e-06,0.0016659383037393512,6.259381330623456,1.5942937134134167,2.046636000912607,6.125335909436075,0.9999999999999996,3.1400000000000037,-0.7742923271422563,0.8865936183248423,3.14,2.643030654142819,3.1389001101696072
272,0.001665941768859937,3.3978736481375584e-06,0.0016659383037393512,6.259381330623455,1.5942937134134612,2.0466360009126072,6.125335909436074,0.9999999999999998,3.1400000000000037,-0.7742923271422512,0.886593618324768,3.14,2.6430306541428767,3.1389001101696072
273,0.0016659417688624832,3.3978735141428415e-06,0.0016659383037393512,6.259381330623454,1.5942937134136623,2.046636000912598,6.12533590943607,0.9999999999999998,3.1399999999999992,-0.7742923271422929,0.8865936183246059,3.14,2.6430306541427186,3.1389001101696037
274,0.0016659417688612108,3.397873513120639e-06,0.0016659383036060661,6.259381330623454,1.5942937134136579,2.0466360009126037,6.125335909436072,0.9999999999999998,3.1400000000000015,-0.77429232714228,0.8865936183245822,3.14,2.6430306541427573,3.138900110169604
275,0.0016659417688601912,3.3978735209234635e-06,0.0016659383036060661,6.259381330623455,1.5942937134136594,2.0466360009125912,6.125335909436074,0.9999999999999999,3.1400000000000032,-0.7742923271423036,0.8865936183246272,3.14,2.643030654142727,3.138900110169605
276,0.0016659417688624839,3.3978735861834426e-06,0.0016659383037393512,6.259381330623453,1.5942937134135493,2.0466360009126077,6.12533590943607,0.9999999999999999,3.1399999999999992,-0.7742923271422735,0.8865936183247182,3.14,2.6430306541427093,3.1389001101696024
277,0.0016659417688612097,3.3978736261242567e-06,0.0016659383037393512,6.259381330623456,1.594293713413505,2.0466360009125952,6.125335909436074,0.9999999999999997,3.1400000000000015,-0.7742923271422784,0.8865936183247682,3.14,2.643030654142822,3.1389001101696055
278,0.0016659417688607012,3.3978735280898048e-06,0.0016659383037393512,6.259381330623456,1.5942937134136306,2.0466360009126094,6.125335909436074,0.9999999999999997,3.1400000000000023,-0.7742923271422786,0.8865936183246261,3.14,2.643030654142678,3.1389001101696064
279,0.001665941768861465,3.3978732346978423e-06,0.0016659383036060661,6.259381330623454,1.594293713414053,2.046636000912607,6.125335909436071,0.9999999999999998,3.140000000000001,-0.7742923271423426,0.8865936183242445,3.14,2.643030654142327,3.138900110169602
280,0.0016659417688617189,3.3978733176463808e-06,0.0016659383037393512,6.259381330623455,1.594293713413937,2.046636000912604,6.125335909436072,1.0,3.1400000000000006,-0.7742923271423211,0.886593618324331,3.14,2.643030654142507,3.138900110169602
281,0.0016659417688604451,3.3978735058305823e-06,0.0016659383036060661,6.259381330623455,1.5942937134136688,2.0466360009126032,6.125335909436074,1.0,3.140000000000003,-0.7742923271422962,0.8865936183246159,3.14,2.6430306541426263,3.138900110169603
282,0.0016659417688601919,3.397873645806897e-06,0.0016659383037393512,6.259381330623454,1.5942937134134745,2.0466360009125975,6.125335909436073,1.0000000000000002,3.1400000000000032,-0.7742923271422616,0.8865936183247644,3.14,2.6430306541429185,3.1389001101696055
283,0.0016659417688601919,3.3978735172776795e-06,0.0016659383037393512,6.259381330623454,1.5942937134136497,2.046636000912606,6.125335909436073,1.0000000000000002,3.1400000000000032,-0.7742923271422862,0.8865936183246178,3.14,2.643030654142662,3.138900110169606
284,0.0016659417688601908,3.3978736268656655e-06,0.0016659383037393512,6.259381330623455,1.5942937134135016,2.0466360009125975,6.125335909436074,1.0000000000000002,3.1400000000000032,-0.7742923271422644,0.8865936183247363,3.14,2.643030654142907,3.138900110169607
285,0.0016659417688596825,3.397873604177367e-06,0.0016659383037393512,6.259381330623455,1.5942937134135327,2.046636000912599,6.125335909436075,1.0,3.140000000000004,-0.7742923271422681,0.8865936183247072,3.14,2.6430306541428727,3.1389001101696055
286,0.0016659417688594269,3.397873532342663e-06,0.0016659383037393512,6.259381330623454,1.5942937134136386,2.0466360009125957,6.125335909436074,1.0,3.1400000000000046,-0.7742923271422941,0.8865936183246359,3.14,2.6430306541427355,3.138900110169605
287,0.001665941768859681,3.3978736239994928e-06,0.0016659383037393512,6.259381330623453,1.5942937134135111,2.046636000912592,6.125335909436073,0.9999999999999999,3.140000000000004,-0.7742923271422748,0.8865936183247435,3.14,2.6430306541428985,3.138900110169606
288,0.001665941768859428,3.3978736071830254e-06,0.0016659383037393512,6.259381330623454,1.594293713413532,2.0466360009125952,6.125335909436075,0.9999999999999999,3.1400000000000046,-0.7742923271422737,0.8865936183247174,3.14,2.6430306541428767,3.138900110169606
289,0.0016659417688632478,3.39787338228351e-06,0.0016659383037393512,6.259381330623457,1.5942937134138377,2.0466360009126108,6.125335909436072,0.9999999999999999,3.139999999999998,-0.7742923271423089,0.886593618324442,3.14,2.6430306541424713,3.1389001101696032
290,0.001665941768862737,3.397873336877199e-06,0.0016659383037393512,6.259381330623455,1.5942937134139081,2.0466360009126054,6.125335909436071,1.0000000000000002,3.139999999999999,-0.7742923271423191,0.8865936183243674,3.14,2.6430306541424917,3.138900110169601
291,0.0016659417688609547,3.3978735111144387e-06,0.0016659383036060661,6.259381330623455,1.5942937134136717,2.046636000912593,6.125335909436073,1.0000000000000002,3.140000000000002,-0.7742923271422968,0.8865936183245957,3.14,2.6430306541427586,3.138900110169601
292,0.0016659417688614636,3.397873295804108e-06,0.0016659383037393512,6.259381330623455,1.5942937134139714,2.046636000912601,6.125335909436072,1.0000000000000002,3.140000000000001,-0.7742923271423431,0.8865936183243454,3.14,2.643030654142368,3.1389001101696015
293,0.0016659417688601917,3.3978734677352497e-06,0.0016659383037393512,6.259381330623454,1.5942937134137296,2.046636000912597,6.125335909436073,1.0,3.1400000000000032,-0.7742923271423076,0.8865936183245565,3.14,2.6430306541426347,3.138900110169602
294,0.001665941768859682,3.3978735438037093e-06,0.0016659383037393512,6.259381330623453,1.5942937134136204,2.0466360009125975,6.125335909436073,0.9999999999999997,3.140000000000004,-0.7742923271422864,0.8865936183246415,3.14,2.643030654142767,3.138900110169604
295,0.001665941768860701,3.3978732322853108e-06,0.0016659383037393512,6.259381330623457,1.594293713414051,2.046636000912612,6.125335909436074,1.0,3.1400000000000023,-0.7742923271423348,0.8865936183242332,3.14,2.643030654142324,3.1389001101696037
296,0.0016659417688612093,3.3978732625672003e-06,0.0016659383036060661,6.259381330623454,1.594293713414008,2.0466360009126117,6.125335909436072,0.9999999999999999,3.1400000000000015,-0.7742923271423304,0.8865936183242784,3.14,2.6430306541423456,3.138900110169603
297,0.0016659417688629926,3.3978735972293625e-06,0.001665938303872636,6.259381330623455,1.5942937134135249,2.046636000912616,6.125335909436072,1.0,3.1399999999999983,-0.7742923271422628,0.8865936183247359,3.14,2.6430306541426702,3.1389001101696024
298,0.0016659417688629928,3.3978733672655255e-06,0.0016659383037393512,6.259381330623458,1.594293713413862,2.046636000912608,6.125335909436074,0.9999999999999998,3.1399999999999983,-0.7742923271423172,0.8865936183244284,3.14,2.6430306541424513,3.1389001101696064
299,0.0016659417688629915,3.3978732730093767e-06,0.0016659383037393512,6.259381330623457,1.5942937134140058,2.0466360009125992,6.125335909436073,0.9999999999999998,3.1399999999999983,-0.7742923271423434,0.8865936183242961,3.14,2.6430306541424082,3.1389001101696064
300,0.0016659417688614639,3.3978735137486374e-06,0.0016659383037393512,6.259381330623457,1.5942937134136574,2.0466360009126032,6.125335909436074,0.9999999999999998,3.140000000000001,-0.7742923271422976,0.8865936183246363,3.14,2.6430306541426036,3.1389001101696046
301,0.0016659417688607004,3.397873625567823e-06,0.0016659383036060661,6.259381330623455,1.5942937134134998,2.046636000912601,6.125335909436073,1.0,3.1400000000000023,-0.7742923271422594,0.8865936183247292,3.14,2.643030654142905,3.138900110169606
302,0.0016659417688599364,3.3978736046640582e-06,0.0016659383037393512,6.259381330623455,1.5942937134135333,2.0466360009125975,6.125335909436074,0.9999999999999999,3.1400000000000037,-0.77429232714227,0.8865936183247094,3.14,2.6430306541428727,3.1389001101696055
303,0.0016659417688609547,3.3978732436347658e-06,0.0016659383036060661,6.259381330623454,1.5942937134140256,2.046636000912621,6.125335909436072,1.0,3.140000000000002,-0.7742923271423269,0.8865936183242612,3.14,2.643030654142258,3.138900110169603
304,0.0016659417688614639,3.3978733418681345e-06,0.0016659383037393512,6.259381330623455,1.5942937134138924,2.046636000912614,6.125335909436072,0.9999999999999999,3.140000000000001,-0.7742923271423069,0.8865936183243666,3.14,2.643030654142477,3.1389001101696015
305,0.0016659417688601919,3.3978735254346826e-06,0.0016659383037393512,6.259381330623455,1.5942937134136435,2.0466360009126006,6.125335909436074,0.9999999999999997,3.1400000000000032,-0.7742923271422849,0.8865936183246106,3.14,2.6430306541427497,3.1389001101696032
306,0.0016659417688624821,3.39787352712855e-06,0.0016659383037393512,6.259381330623455,1.5942937134136401,2.0466360009126014,6.125335909436071,0.9999999999999999,3.1399999999999992,-0.7742923271422885,0.8865936183246286,3.14,2.6430306541427044,3.1389001101696024
307,0.0016659417688607,3.397873580318586e-06,0.0016659383037393512,6.259381330623453,1.59429371341356,2.0466360009126054,6.125335909436071,0.9999999999999998,3.1400000000000023,-0.7742923271422789,0.8865936183247146,3.14,2.6430306541427004,3.138900110169603
308,0.00166594176886121,3.3978733030104727e-06,0.0016659383037393512,6.259381330623454,1.5942937134139552,2.046636000912607,6.125335909436072,0.9999999999999998,3.1400000000000015,-0.7742923271423272,0.8865936183243289,3.14,2.643030654142425,3.1389001101696024
309,0.001665941768862991,3.3978735053526868e-06,0.0016659383037393512,6.259381330623453,1.5942937134136586,2.046636000912614,6.12533590943607,0.9999999999999997,3.1399999999999983,-0.774292327142279,0.8865936183245985,3.14,2.6430306541426263,3.1389001101696
310,0.0016659417688624821,3.397873262884687e-06,0.0016659383036060661,6.259381330623457,1.594293713414008,2.046636000912611,6.125335909436073,0.9999999999999998,3.1399999999999992,-0.7742923271423309,0.8865936183242779,3.14,2.6430306541423527,3.1389001101696015
311,0.0016659417688612106,3.397873591622555e-06,0.0016659383037393512,6.259381330623456,1.594293713413552,2.0466360009125975,6.125335909436074,0.9999999999999998,3.1400000000000015,-0.7742923271422835,0.8865936183247244,3.14,2.6430306541427653,3.138900110169605
312,0.0016659417688614652,3.397873244883788e-06,0.0016659383036060661,6.259381330623455,1.5942937134140243,2.0466360009126205,6.125335909436072,1.0,3.140000000000001,-0.7742923271423269,0.8865936183242624,3.14,2.64303065414226,3.1389001101696032
313,0.0016659417688607006,3.3978736247218005e-06,0.0016659383036060661,6.259381330623455,1.5942937134134965,2.0466360009126054,6.125335909436073,0.9999999999999997,3.1400000000000023,-0.7742923271422677,0.8865936183247669,3.14,2.64303065414277,3.1389001101696046
314,0.0016659417688604482,3.3978735115401824e-06,0.0016659383037393512,6.259381330623455,1.5942937134136583,2.0466360009126054,6.125335909436074,0.9999999999999997,3.140000000000003,-0.7742923271422865,0.886593618324605,3.14,2.643030654142669,3.138900110169607
315,0.0016659417688601927,3.397873588484385e-06,0.0016659383037393512,6.259381330623454,1.5942937134135442,2.0466360009126094,6.125335909436073,0.9999999999999997,3.1400000000000032,-0.7742923271422653,0.8865936183247025,3.14,2.6430306541427537,3.1389001101696055
316,0.0016659417688601904,3.3978736506722964e-06,0.0016659383036060661,6.259381330623455,1.5942937134134507,2.046636000912614,6.125335909436074,0.9999999999999997,3.1400000000000032,-0.7742923271422459,0.8865936183247791,3.14,2.6430306541428257,3.138900110169606
317,0.0016659417688612108,3.397873266807932e-06,0.0016659383037393512,6.259381330623453,1.5942937134140052,2.0466360009126086,6.125335909436071,0.9999999999999997,3.1400000000000015,-0.7742923271423348,0.886593618324289,3.14,2.643030654142346,3.138900110169601
318,0.0016659417688619732,3.3978732440480725e-06,0.0016659383036060661,6.259381330623456,1.5942937134140418,2.0466360009126046,6.125335909436073,0.9999999999999999,3.14,-0.7742923271423542,0.8865936183242913,3.14,2.6430306541422492,3.1389001101696064
319,0.0016659417688604458,3.39787360958343e-06,0.0016659383037393512,6.259381330623456,1.594293713413523,2.0466360009126006,6.125335909436075,1.0,3.140000000000003,-0.774292327142267,0.8865936183247212,3.14,2.6430306541428497,3.138900110169604
320,0.0016659417688601923,3.3978736770867385e-06,0.0016659383036060661,6.259381330623457,1.5942937134134143,2.0466360009126126,6.1253359094360755,0.9999999999999998,3.1400000000000032,-0.7742923271422473,0.8865936183248299,3.14,2.643030654142815,3.138900110169607
321,0.0016659417688596814,3.397873494277049e-06,0.0016659383037393512,6.259381330623454,1.5942937134136912,2.0466360009125975,6.125335909436074,0.9999999999999999,3.140000000000004,-0.7742923271423011,0.8865936183245893,3.14,2.643030654142674,3.138900110169606
322,0.00166594176886223,3.3978735898258947e-06,0.0016659383037393512,6.259381330623454,1.5942937134135386,2.046636000912613,6.125335909436072,1.0,3.1399999999999997,-0.7742923271422609,0.8865936183247055,3.14,2.6430306541427355,3.1389001101696037
323,0.0016659417688619739,3.3978733051003642e-06,0.0016659383037393512,6.259381330623456,1.5942937134139468,2.046636000912612,6.125335909436073,1.0000000000000002,3.14,-0.7742923271423195,0.8865936183243286,3.14,2.6430306541424122,3.138900110169601
324,0.0016659417688604469,3.3978735615796096e-06,0.0016659383037393512,6.259381330623456,1.5942937134136,2.0466360009125926,6.125335909436075,1.0,3.140000000000003,-0.7742923271422908,0.8865936183246731,3.14,2.643030654142788,3.138900110169604
325,0.0016659417688617204,3.397873246251374e-06,0.0016659383037393512,6.259381330623457,1.5942937134140305,2.0466360009126126,6.125335909436074,0.9999999999999999,3.1400000000000006,-0.7742923271423403,0.8865936183242801,3.14,2.64303065414225,3.138900110169608
326,0.001665941768860446,3.3978735730145803e-06,0.0016659383037393512,6.259381330623455,1.59429371341357,2.046636000912606,6.125335909436074,1.0,3.140000000000003,-0.7742923271422805,0.8865936183247076,3.14,2.643030654142684,3.138900110169604
327,0.0016659417688627389,3.3978735917098896e-06,0.0016659383037393512,6.259381330623454,1.5942937134135373,2.0466360009126117,6.125335909436071,0.9999999999999999,3.139999999999999,-0.7742923271422631,0.8865936183247102,3.14,2.6430306541427413,3.1389001101696037
328,0.001665941768861466,3.397873623598315e-06,0.0016659383037393512,6.259381330623456,1.5942937134135058,2.046636000912598,6.125335909436074,0.9999999999999998,3.140000000000001,-0.7742923271422739,0.8865936183247598,3.14,2.6430306541428186,3.1389001101696055
329,0.0016659417688601914,3.397873634600568e-06,0.0016659383037393512,6.259381330623454,1.5942937134134887,2.0466360009125992,6.125335909436073,1.0,3.1400000000000032,-0.7742923271422667,0.8865936183247626,3.14,2.643030654142864,3.138900110169605
330,0.0016659417688596823,3.3978736178887146e-06,0.0016659383037393512,6.259381330623454,1.5942937134135162,2.0466360009125957,6.125335909436074,1.0,3.140000000000004,-0.7742923271422743,0.8865936183247419,3.14,2.6430306541428554,3.138900110169606
331,0.0016659417688599377,3.3978736062900045e-06,0.0016659383037393512,6.259381330623456,1.5942937134135156,2.0466360009126126,6.125335909436075,0.9999999999999997,3.1400000000000037,-0.7742923271422656,0.8865936183247485,3.14,2.643030654142694,3.1389001101696072
332,0.0016659417688624826,3.3978735522800205e-06,0.0016659383037393512,6.2593813306234525,1.5942937134136042,2.0466360009126014,6.125335909436069,0.9999999999999999,3.1399999999999992,-0.7742923271422876,0.8865936183246748,3.14,2.6430306541426956,3.138900110169603
333,0.00166594176886121,3.397873678623528e-06,0.0016659383037393512,6.259381330623453,1.5942937134134212,2.0466360009126037,6.125335909436072,0.9999999999999998,3.1400000000000015,-0.7742923271422558,0.8865936183248296,3.14,2.643030654142866,3.138900110169604
334,0.0016659417688617182,3.397873256934319e-06,0.0016659383037393512,6.259381330623455,1.5942937134140234,2.0466360009126046,6.125335909436072,0.9999999999999998,3.1400000000000006,-0.7742923271423465,0.8865936183242914,3.14,2.643030654142317,3.1389001101696006
335,0.0016659417688609569,3.3978735293527754e-06,0.0016659383037393512,6.259381330623456,1.5942937134136301,2.046636000912608,6.125335909436074,0.9999999999999998,3.140000000000002,-0.7742923271422874,0.8865936183246521,3.14,2.64303065414261,3.1389001101696055
336,0.0016659417688599366,3.39787350961252e-06,0.0016659383036060661,6.259381330623454,1.594293713413667,2.0466360009125997,6.125335909436073,0.9999999999999998,3.1400000000000037,-0.7742923271422952,0.8865936183246094,3.14,2.6430306541426782,3.138900110169604
337,0.0016659417688624839,3.3978735810948663e-06,0.0016659383037393512,6.259381330623454,1.5942937134135589,2.0466360009126054,6.125335909436071,0.9999999999999998,3.1399999999999992,-0.7742923271422768,0.8865936183247103,3.14,2.6430306541427178,3.1389001101696037
338,0.0016659417688612108,3.3978736203606837e-06,0.0016659383037393512,6.259381330623455,1.5942937134135018,2.0466360009126063,6.125335909436073,0.9999999999999999,3.1400000000000015,-0.7742923271422596,0.886593618324737,3.14,2.6430306541428297,3.138900110169604
339,0.001665941768862993,3.3978736291893526e-06,0.0016659383036060661,6.259381330623453,1.5942937134134878,2.0466360009126077,6.12533590943607,0.9999999999999997,3.1399999999999983,-0.7742923271422535,0.8865936183247404,3.14,2.6430306541428608,3.138900110169603
340,0.0016659417688609556,3.3978736204634762e-06,0.0016659383036060661,6.259381330623455,1.5942937134135184,2.04663600091259,6.125335909436073,0.9999999999999998,3.140000000000002,-0.7742923271422828,0.8865936183247539,3.14,2.643030654142859,3.1389001101696037
341,0.0016659417688599373,3.3978735515892533e-06,0.0016659383037393512,6.259381330623455,1.5942937134136006,2.046636000912606,6.125335909436074,0.9999999999999999,3.1400000000000037,-0.7742923271422779,0.8865936183246584,3.14,2.6430306541427147,3.1389001101696055
342,0.001665941768860955,3.397873309367173e-06,0.0016659383037393512,6.259381330623454,1.5942937134139556,2.0466360009125975,6.125335909436072,0.9999999999999999,3.140000000000002,-0.7742923271423295,0.8865936183243182,3.14,2.6430306541425335,3.138900110169604
343,0.0016659417688614656,3.3978732665601894e-06,0.0016659383037393512,6.259381330623456,1.5942937134140096,2.0466360009126046,6.125335909436073,1.0,3.140000000000001,-0.7742923271423311,0.8865936183242641,3.14,2.64303065414244,3.1389001101696024
344,0.0016659417688601923,3.397873607882588e-06,0.0016659383037393512,6.259381330623454,1.594293713413526,2.0466360009126,6.125335909436073,1.0,3.1400000000000032,-0.7742923271422685,0.8865936183247198,3.14,2.643030654142847,3.1389001101696015
345,0.001665941768859682,3.397873526289501e-06,0.0016659383037393512,6.259381330623454,1.5942937134136372,2.0466360009126054,6.125335909436074,1.0,3.140000000000004,-0.7742923271422794,0.886593618324612,3.14,2.6430306541427266,3.138900110169606
346,0.001665941768862228,3.3978735666490845e-06,0.0016659383036060661,6.259381330623454,1.594293713413579,2.046636000912606,6.125335909436072,1.0,3.1399999999999997,-0.774292327142279,0.8865936183246917,3.14,2.6430306541426973,3.138900110169604
347,0.0016659417688612093,3.3978735655832155e-06,0.0016659383037393512,6.259381330623455,1.594293713413582,2.0466360009126046,6.125335909436073,1.0,3.1400000000000015,-0.7742923271422834,0.8865936183246965,3.14,2.643030654142686,3.1389001101696046
348,0.0016659417688607012,3.3978736214874997e-06,0.0016659383037393512,6.259381330623455,1.594293713413513,2.046636000912594,6.125335909436073,0.9999999999999997,3.1400000000000023,-0.7742923271422772,0.8865936183247527,3.14,2.643030654142847,3.138900110169605
349,0.001665941768859937,3.397873592997114e-06,0.0016659383037393512,6.259381330623455,1.5942937134135586,2.046636000912589,6.125335909436074,0.9999999999999998,3.1400000000000037,-0.7742923271422849,0.8865936183247035,3.14,2.643030654142872,3.1389001101696055
350,0.001665941768859427,3.3978735668740835e-06,0.0016659383036060661,6.259381330623454,1.5942937134135833,2.0466360009126014,6.125335909436074,1.0,3.1400000000000046,-0.77429232714228,0.8865936183246793,3.14,2.6430306541427533,3.138900110169606
351,0.0016659417688607,3.397873299502354e-06,0.0016659383037393512,6.259381330623456,1.5942937134139643,2.046636000912603,6.125335909436074,0.9999999999999999,3.1400000000000023,-0.7742923271423302,0.8865936183243195,3.14,2.6430306541424526,3.138900110169604
352,0.0016659417688627371,3.397873580022023e-06,0.0016659383037393512,6.259381330623454,1.5942937134135613,2.0466360009126046,6.125335909436071,1.0,3.139999999999999,-0.7742923271422689,0.8865936183246822,3.14,2.643030654142799,3.1389001101696015
353,0.001665941768860955,3.3978736436472614e-06,0.0016659383037393512,6.259381330623455,1.5942937134134785,2.0466360009125966,6.125335909436073,1.0,3.140000000000002,-0.7742923271422649,0.8865936183247658,3.14,2.643030654142915,3.138900110169603
354,0.001665941768864012,3.397873318206456e-06,0.0016659383037393512,6.259381330623456,1.5942937134139221,2.046636000912618,6.12533590943607,1.0,3.1399999999999966,-0.7742923271423201,0.8865936183243757,3.14,2.6430306541423123,3.138900110169601
355,0.0016659417688629915,3.3978732860178275e-06,0.0016659383037393512,6.259381330623455,1.594293713413975,2.046636000912611,6.125335909436071,1.0000000000000002,3.1399999999999983,-0.7742923271423252,0.886593618324306,3.14,2.6430306541423905,3.1389001101696006
356,0.001665941768861466,3.3978735720342243e-06,0.0016659383037393512,6.259381330623455,1.5942937134135682,2.046636000912609,6.125335909436072,0.9999999999999997,3.140000000000001,-0.7742923271422693,0.8865936183246818,3.14,2.643030654142737,3.1389001101696032
357,0.0016659417688617173,3.3978733004775566e-06,0.0016659383037393512,6.259381330623453,1.5942937134139556,2.04663600091261,6.12533590943607,1.0000000000000002,3.1400000000000006,-0.7742923271423207,0.8865936183243162,3.14,2.6430306541424384,3.1389001101696
358,0.0016659417688617195,3.3978732509630276e-06,0.0016659383037393512,6.259381330623455,1.5942937134140374,2.0466360009125992,6.125335909436072,1.0,3.1400000000000006,-0.7742923271423415,0.8865936183242487,3.14,2.6430306541424335,3.138900110169602
359,0.0016659417688617195,3.3978732596749516e-06,0.0016659383037393512,6.259381330623455,1.5942937134140058,2.046636000912618,6.125335909436072,0.9999999999999999,3.1400000000000006,-0.7742923271423212,0.8865936183242651,3.14,2.6430306541423416,3.138900110169601
360,0.0016659417688617189,3.397873307109897e-06,0.0016659383037393512,6.259381330623455,1.5942937134139534,2.046636000912603,6.125335909436072,0.9999999999999999,3.1400000000000006,-0.7742923271423325,0.886593618324341,3.14,2.64303065414243,3.1389001101696024
361,0.0016659417688604454,3.3978735083565235e-06,0.0016659383037393512,6.259381330623455,1.5942937134136679,2.0466360009126006,6.125335909436074,0.9999999999999999,3.140000000000003,-0.7742923271422997,0.8865936183246231,3.14,2.64303065414263,3.138900110169603
362,0.0016659417688601919,3.3978735887809483e-06,0.0016659383037393512,6.259381330623454,1.5942937134135429,2.0466360009126103,6.125335909436073,0.9999999999999998,3.1400000000000032,-0.7742923271422634,0.8865936183247014,3.14,2.643030654142754,3.1389001101696055
363,0.0016659417688612102,3.397873244276713e-06,0.0016659383037393512,6.259381330623454,1.594293713414026,2.0466360009126197,6.125335909436072,1.0000000000000002,3.1400000000000015,-0.7742923271423283,0.8865936183242631,3.14,2.643030654142259,3.1389001101696024
364,0.0016659417688601908,3.397873605977671e-06,0.0016659383037393512,6.259381330623455,1.594293713413526,2.046636000912603,6.125335909436074,1.0,3.1400000000000032,-0.7742923271422651,0.8865936183247142,3.14,2.6430306541428448,3.138900110169602
365,0.0016659417688612106,3.3978732836104497e-06,0.0016659383037393512,6.259381330623455,1.5942937134139834,2.0466360009126063,6.125335909436073,0.9999999999999998,3.1400000000000015,-0.7742923271423303,0.8865936183243001,3.14,2.643030654142413,3.1389001101696037
366,0.001665941768860701,3.3978735680673115e-06,0.0016659383037393512,6.259381330623457,1.5942937134135784,2.0466360009126046,6.125335909436075,0.9999999999999997,3.1400000000000023,-0.7742923271422755,0.8865936183246782,3.14,2.643030654142747,3.138900110169606
367,0.0016659417688604467,3.3978736374160982e-06,0.0016659383037393512,6.259381330623454,1.594293713413486,2.046636000912598,6.125335909436073,0.9999999999999996,3.140000000000003,-0.7742923271422689,0.886593618324771,3.14,2.6430306541428537,3.138900110169607
368,0.0016659417688601919,3.3978735656844986e-06,0.0016659383037393512,6.259381330623455,1.5942937134135682,2.046636000912618,6.125335909436074,0.9999999999999996,3.1400000000000032,-0.7742923271422633,0.8865936183246801,3.14,2.6430306541426676,3.1389001101696055
369,0.0016659417688596823,3.3978735659495216e-06,0.0016659383036060661,6.259381330623454,1.594293713413585,2.046636000912601,6.125335909436074,0.9999999999999998,3.140000000000004,-0.7742923271422811,0.8865936183246791,3.14,2.6430306541427524,3.1389001101696046
370,0.0016659417688599375,3.3978735856391354e-06,0.0016659383037393512,6.259381330623455,1.594293713413555,2.046636000912603,6.125335909436074,0.9999999999999999,3.1400000000000037,-0.7742923271422821,0.8865936183247272,3.14,2.6430306541426978,3.1389001101696077
371,0.0016659417688609564,3.3978733810972568e-06,0.0016659383037393512,6.259381330623454,1.594293713413843,2.0466360009126072,6.125335909436072,0.9999999999999998,3.140000000000002,-0.774292327142313,0.8865936183244396,3.14,2.6430306541424904,3.138900110169604
372,0.0016659417688604469,3.3978735736337825e-06,0.0016659383037393512,6.259381330623455,1.594293713413579,2.046636000912596,6.125335909436074,0.9999999999999996,3.140000000000003,-0.774292327142289,0.8865936183247027,3.14,2.643030654142742,3.1389001101696064
373,0.0016659417688627384,3.3978736109616326e-06,0.0016659383036060661,6.259381330623453,1.5942937134135098,2.0466360009126117,6.12533590943607,0.9999999999999997,3.139999999999999,-0.7742923271422606,0.8865936183247396,3.14,2.6430306541427533,3.1389001101696024
374,0.001665941768860955,3.397873624112903e-06,0.0016659383037393512,6.259381330623456,1.5942937134135082,2.046636000912595,6.125335909436074,1.0,3.140000000000002,-0.7742923271422735,0.8865936183247493,3.14,2.643030654142869,3.1389001101696037
375,0.0016659417688629926,3.3978735560707543e-06,0.0016659383037393512,6.2593813306234525,1.5942937134135928,2.0466360009126072,6.125335909436069,0.9999999999999999,3.1399999999999983,-0.7742923271422771,0.8865936183246692,3.14,2.643030654142706,3.1389001101696032
376,0.0016659417688624839,3.3978732596749516e-06,0.001665938303872636,6.259381330623455,1.5942937134140058,2.046636000912618,6.125335909436071,1.0000000000000002,3.1399999999999992,-0.774292327142326,0.8865936183242797,3.14,2.6430306541422977,3.1389001101695992
377,0.001665941768861211,3.397873596090107e-06,0.0016659383037393512,6.259381330623455,1.5942937134135433,2.0466360009125997,6.125335909436073,0.9999999999999999,3.1400000000000015,-0.7742923271422801,0.8865936183247312,3.14,2.6430306541427555,3.1389001101696037
378,0.0016659417688629924,3.3978735476102135e-06,0.0016659383037393512,6.259381330623454,1.5942937134136,2.046636000912612,6.125335909436071,1.0,3.1399999999999983,-0.7742923271422671,0.8865936183246389,3.14,2.6430306541427253,3.138900110169603
