jkpark150901/flame_robotics_drt/experiment/inspection_ik/session_20260716_141644/success/inspection_ik_20260716_141937_rb20_1900es_normalized_success.csv
iteration,err_norm,position_error,orientation_error,tcp_x,tcp_y,tcp_z,q0_rt_joint_linear_track,q1_rt_joint_carriage,q2_rt_base,q3_rt_shoulder,q4_rt_elbow,q5_rt_wrist1,q6_rt_wrist2,q7_rt_wrist3
0,2.1280907364916923,0.7834433017162282,1.9198667144946162,6.259381330623455,1.5942937134139117,2.0466360009126063,6.125335909436073,0.9999999999999998,3.140000000000002,-0.7742923271423207,0.8865936183243674,3.14,2.6430306541424704,3.1389001101696037
1,0.8641147197948454,0.8614102008551626,0.06629590633915146,6.257966895592475,0.8528681494648448,1.7017256672615177,6.124436910623703,0.650000000003123,3.140000000000001,-1.1185839811145923,1.985593618349354,3.14,1.5440306541424704,3.1394500550848017
2,0.3431107696289731,0.34308079678890346,0.004516848446204149,6.258685745134829,1.2735672032677257,1.1413839464211444,6.124785926578677,0.8250000000020977,3.1400000000000006,-2.01829054023548,2.517865482561669,3.14,1.1104422368337534,3.1397250275423993
3,0.04122463577650063,0.04096614840308307,0.004609173340814833,6.259401355999339,1.6101448511118108,1.225416783236572,6.125140995319714,0.9125000000010489,3.1400000000000006,-2.027574448050582,2.2223566968146367,3.1400000000000006,0.8056528243076271,3.1398625137711997
4,0.005704297295847931,0.003517968613030256,0.0044903122355763265,6.259375692175414,1.5933717220164727,1.2597981624259078,6.125198192835146,0.9562500000005244,3.140000000000057,-1.9585123825671242,2.2529869746151245,3.1399999999999997,0.9053421546678958,3.1399312568855997
5,0.004455100153887346,0.0003530793719436415,0.004441086840982876,6.2593822053682056,1.5943363166288147,1.2628419987569621,6.125234234389909,0.9781250000002623,3.1400000000000285,-1.9449276459497458,2.269512348247175,3.1399999999999997,0.9354525621500674,3.1399656284428
6,0.004417111553764778,9.247276352237823e-05,0.004416143483405471,6.25938230721897,1.5943117368760877,1.263101681106497,6.125249937557019,0.9890625000001311,3.1400000000000143,-1.9392662368367024,2.279127044651927,3.14,0.950728733260323,3.1399828142214004
7,0.004403658148939119,2.1709551215573882e-05,0.00440360463579441,6.259382303515748,1.5942967620066795,1.2631710324631402,6.125257749895103,0.9945312500000655,3.1400000000000063,-1.9364138796531032,2.2839430829421374,3.140000000000022,0.9583971650081179,3.1399914071107005
8,0.0043973256772458546,5.019725997290892e-06,0.004397322812164954,6.259382301617261,1.5942927000651708,1.2631884669202298,6.125261654172809,0.9972656250000329,3.140000000000004,-1.9349871421870515,2.286351569291876,3.1400000000000112,0.9622324070214058,3.1399957035553503
9,0.0043941805346977844,3.7678072351004914e-06,0.004394178919330766,6.259382300995285,1.5942916333865669,1.2631928209706857,6.1252636060274614,0.9986328125000165,3.140000000000002,-1.9342737586480845,2.2875559016715163,3.140000000000006,0.9641501320281628,3.139997851777675
10,0.004392608268450358,4.222597503408379e-06,0.004392606238878438,6.2593823008193175,1.5942913539022328,1.2631939098553473,6.125264581918545,0.9993164062500084,3.140000000000002,-1.933917065700077,2.288158079413992,3.140000000000024,0.9651090072599019,3.139998925888838
11,0.004391821899575196,4.378954118528494e-06,0.004391819716512418,6.259382300771952,1.594291279216819,1.2631941826972244,6.125265069859585,0.9996582031250042,3.140000000000001,-1.9337387191155815,2.288459169750224,3.140000000000012,0.9655884464504193,3.1399994629444192
12,0.004391428636591716,4.422206366950417e-06,0.0043914264100123985,6.259382300759233,1.5942912583365176,1.2631942512772523,6.125265313829502,0.9998291015625022,3.1399999999999997,-1.9336495458123144,2.2886097151036195,3.139999999999985,0.9658281662422624,3.13999973147221
13,0.004391231984216152,4.434212824135101e-06,0.004391229745397981,6.259382300755752,1.5942912520364847,1.263194268614798,6.125265435814413,0.9999145507812512,3.140000000000001,-1.9336049591596103,2.28868498780392,3.1399999999999717,0.9659480261618175,3.139999865736105
14,0.004391133652710875,4.437758148189658e-06,0.004391131410318754,6.259382300754743,1.5942912499241815,1.263194273046278,6.125265496806866,0.9999572753906255,3.1400000000000006,-1.933582665832975,2.2887226241576375,3.139999999999986,0.9660079561265208,3.1399999328680526
15,0.004391084485609264,4.438912634334939e-06,0.00439108224200391,6.25938230075438,1.5942912491282497,1.2631942742029658,6.12526552730305,0.9999786376953127,3.14,-1.9335715191697993,2.2887414423345103,3.140000000000014,0.9660379211078515,3.1399999664340266
16,0.004391059901762489,4.4393352535028105e-06,0.004391057657715883,6.259382300754275,1.5942912487952463,1.263194274516589,6.12526554255117,0.9999893188476564,3.140000000000001,-1.933565945838099,2.2887508514230124,3.1399999999999864,0.9660529035987194,3.139999983217013
17,0.004391047609755475,4.439507685273509e-06,0.0043910453655202535,6.259382300754235,1.5942912486451457,1.2631942746070468,6.125265550175229,0.999994659423828,3.1400000000000015,-1.9335631591724312,2.2887555559673123,3.1399999999999726,0.9660603948447574,3.139999991608507
18,0.004391041463731133,4.439584438160188e-06,0.004391039219409535,6.259382300754187,1.5942912485739726,1.2631942746358238,6.12526555398723,0.9999973297119139,3.140000000000002,-1.9335617658394373,2.2887579082395337,3.1399999999999655,0.9660641404675493,3.1399999958042537
19,0.004391038390677044,4.439620187242534e-06,0.0043910361463509505,6.259382300754218,1.5942912485396332,1.263194274646094,6.125265555893287,0.999998664855957,3.140000000000001,-1.9335610691730065,2.2887590843754304,3.1400000000000037,0.96606601327884,3.139999997902127
20,0.004391036854204739,4.439637760205195e-06,0.004391034609846135,6.2593823007542095,1.5942912485223788,1.263194274650156,6.125265556846285,0.9999993324279784,3.1400000000000015,-1.9335607208396768,2.2887596724437103,3.13999999999996,0.9660669496848843,3.1399999989510636
21,0.004391036085930025,4.439646315450937e-06,0.004391033841517674,6.259382300754225,1.5942912485139387,1.2631942746520284,6.125265557322809,0.9999996662139893,3.140000000000002,-1.9335605466729968,2.2887599664776435,3.13999999999998,0.9660674178873333,3.139999999475532
22,0.0043910357017929915,4.439650497419405e-06,0.004391033457403961,6.259382300754214,1.5942912485097396,1.2631942746527502,6.125265557561052,0.9999998331069947,3.140000000000002,-1.9335604595897344,2.28876011349476,3.1399999999999904,0.9660676519894772,3.139999999737766
23,0.004391035509707128,4.439652442540227e-06,0.004391033265296524,6.259382300754208,1.5942912485078247,1.2631942746531866,6.125265557680173,0.9999999165534972,3.14,-1.9335604160481576,2.2887601870030636,3.140000000000016,0.9660677690396836,3.1399999998688832
24,0.004391035413683105,4.439653832664291e-06,0.0043910331692680864,6.259382300754218,1.5942912485064022,1.2631942746533564,6.125265557739747,0.9999999582767486,3.1399999999999992,-1.9335603942771606,2.2887602237576696,3.140000000000008,0.9660678275656215,3.139999999934442
25,0.00439103536568931,4.439654401698681e-06,0.004391033121329719,6.259382300754231,1.594291248505837,1.2631942746534706,6.125265557769539,0.9999999791383744,3.1399999999999997,-1.9335603833917558,2.2887602421348068,3.1399999999999832,0.9660678568279569,3.139999999967221
26,0.004391035341654809,4.439654489233577e-06,0.004391033097259398,6.259382300754191,1.5942912485057463,1.2631942746534786,6.125265557784391,0.9999999895691872,3.1399999999999997,-1.9335603779492168,2.2887602513232497,3.1400000000000126,0.9660678714588687,3.1399999999836106
27,0.004391035329656472,4.4396545926289165e-06,0.004391033085274806,6.259382300754195,1.5942912485056924,1.2631942746536278,6.125265557791841,0.9999999947845936,3.1399999999999997,-1.9335603752277157,2.2887602559173565,3.1400000000000063,0.9660678787745846,3.1399999999918053
28,0.004391035323675079,4.439654878026511e-06,0.0043910330792572266,6.259382300754197,1.594291248505374,1.2631942746535931,6.125265557795564,0.9999999973922968,3.140000000000001,-1.9335603738669807,2.2887602582147593,3.1399999999999824,0.9660678824326893,3.1399999999959025
29,0.0043910353206476635,4.43965489304603e-06,0.004391033076273721,6.259382300754209,1.5942912485053136,1.2631942746534763,6.125265557797439,0.9999999986961485,3.1400000000000006,-1.9335603731867173,2.2887602593634764,3.140000000000012,0.9660678842621969,3.139999999997951
30,0.004391035319152658,4.439654584387292e-06,0.004391033074756683,6.25938230075425,1.5942912485056975,1.263194274653618,6.125265557798411,0.9999999993480743,3.1400000000000006,-1.9335603728466026,2.2887602599372805,3.140000000000006,0.9660678851758658,3.1399999999989756
31,0.0043910353184036756,4.439655025795462e-06,0.004391033073998165,6.259382300754188,1.5942912485051894,1.2631942746535234,6.125265557798816,0.9999999996740371,3.1400000000000015,-1.933560372676442,2.2887602602249384,3.1400000000000032,0.9660678856333779,3.139999999999488
32,0.004391035318032182,4.439654820206346e-06,0.00439103307364419,6.259382300754202,1.5942912485053984,1.2631942746534945,6.12526555779906,0.9999999998370185,3.1399999999999997,-1.9335603725915385,2.2887602603683503,3.1400000000000015,0.9660678858617843,3.139999999999744
33,0.004391035317846033,4.439654992225867e-06,0.004391033073441918,6.259382300754219,1.5942912485052307,1.2631942746535376,6.125265557799193,0.9999999999185093,3.139999999999999,-1.9335603725488668,2.2887602604402453,3.140000000000001,0.9660678859763746,3.139999999999872
34,0.004391035317752275,4.439654861231103e-06,0.00439103307339135,6.259382300754222,1.5942912485054006,1.263194274653616,6.125265557799254,0.9999999999592548,3.1399999999999992,-1.9335603725275887,2.288760260475919,3.1400000000000006,0.9660678860333055,3.1399999999999357
35,0.00439103531772477,4.439654978883794e-06,0.00439103307339135,6.25938230075419,1.594291248505247,1.2631942746535427,6.125265557799248,0.9999999999796275,3.139999999999999,-1.9335603725169697,2.2887602604940662,3.1399999999999797,0.9660678860621464,3.1399999999999677
36,0.004391035317672731,4.439654802629045e-06,0.004391033073239647,6.259382300754233,1.5942912485054348,1.263194274653541,6.12526555779931,0.9999999999898137,3.1399999999999992,-1.9335603725117605,2.2887602605028747,3.140000000000011,0.9660678860761324,3.1399999999999837
37,0.0043910353176641334,4.4396547443073e-06,0.004391033073340782,6.25938230075419,1.5942912485054936,1.2631942746535316,6.125265557799274,0.999999999994907,3.1400000000000006,-1.933560372509174,2.2887602605073125,3.1400000000000055,0.9660678860829895,3.139999999999992
38,0.0043910353176787155,4.439654740926698e-06,0.004391033073290215,6.259382300754218,1.5942912485055059,1.2631942746535543,6.125265557799304,0.9999999999974535,3.1400000000000015,-1.9335603725077362,2.28876026050954,3.139999999999982,0.9660678860871735,3.139999999999996
39,0.004391035317686943,4.43965478372284e-06,0.004391033073239647,6.259382300754202,1.5942912485054768,1.2631942746535982,6.125265557799287,0.9999999999987267,3.1400000000000006,-1.9335603725070116,2.288760260510646,3.1399999999999704,0.9660678860888988,3.1399999999999983
40,0.004391035317654712,4.439654820360893e-06,0.004391033073290215,6.259382300754202,1.5942912485054166,1.263194274653543,6.125265557799292,0.9999999999993633,3.1399999999999992,-1.9335603725067194,2.2887602605113093,3.140000000000006,0.9660678860898947,3.1399999999999992
41,0.004391035317674912,4.43965482992232e-06,0.004391033073290215,6.259382300754202,1.594291248505426,1.2631942746535945,6.12526555779929,0.9999999999996818,3.1399999999999997,-1.9335603725064752,2.2887602605115385,3.1399999999999824,0.9660678860904334,3.1399999999999997
42,0.004391035317684298,4.439654767078966e-06,0.004391033073239647,6.259382300754169,1.5942912485054936,1.2631942746535958,6.125265557799256,0.9999999999998409,3.140000000000001,-1.9335603725064208,2.2887602605116184,3.1399999999999704,0.9660678860905999,3.1399999999999997
43,0.004391035317689512,4.439654724540403e-06,0.004391033073290215,6.259382300754216,1.594291248505557,1.2631942746536426,6.1252655577993025,0.9999999999999204,3.1400000000000006,-1.9335603725063635,2.2887602605115887,3.1399999999999646,0.9660678860905195,3.14
44,0.004391035317692291,4.439654692960396e-06,0.004391033073290215,6.259382300754183,1.5942912485055607,1.2631942746535636,6.12526555779927,0.9999999999999601,3.1400000000000006,-1.9335603725064385,2.288760260511693,3.1399999999999615,0.9660678860906559,3.14
45,0.004391035317655174,4.439654520721151e-06,0.004391033073239647,6.259382300754187,1.5942912485057437,1.2631942746535603,6.1252655577992785,0.9999999999999801,3.1400000000000015,-1.933560372506484,2.28876026051156,3.1400000000000015,0.9660678860907531,3.14
46,0.004391035317655125,4.4396548861545175e-06,0.004391033073239647,6.259382300754173,1.5942912485053242,1.263194274653485,6.125265557799265,0.9999999999999901,3.140000000000002,-1.9335603725064514,2.2887602605119888,3.140000000000001,0.966067886090683,3.14
47,0.004391035317675319,4.439654577533679e-06,0.004391033073239647,6.2593823007541864,1.5942912485056768,1.2631942746535443,6.125265557799275,0.999999999999995,3.140000000000001,-1.9335603725065305,2.288760260511634,3.1399999999999797,0.9660678860903683,3.14
48,0.004391035317648477,4.439654533654092e-06,0.004391033073239647,6.259382300754226,1.5942912485057377,1.263194274653581,6.125265557799318,0.9999999999999976,3.1399999999999997,-1.933560372506509,2.288760260511551,3.140000000000011,0.9660678860903057,3.14
49,0.004391035317651092,4.4396547414040145e-06,0.004391033073290215,6.2593823007542415,1.5942912485055016,1.2631942746535445,6.125265557799333,0.9999999999999988,3.140000000000002,-1.9335603725064985,2.28876026051178,3.1400000000000055,0.9660678860901607,3.14
50,0.004391035317673303,4.439654958794153e-06,0.004391033073290215,6.259382300754224,1.5942912485052865,1.2631942746535902,6.125265557799312,0.9999999999999994,3.140000000000001,-1.9335603725062613,2.2887602605119413,3.139999999999982,0.9660678860909323,3.14
51,0.0043910353176661795,4.4396550087182216e-06,0.004391033073239647,6.259382300754214,1.5942912485052005,1.2631942746535045,6.125265557799303,0.9999999999999997,3.1399999999999997,-1.9335603725063322,2.288760260512093,3.1399999999999912,0.9660678860910455,3.14
52,0.00439103531766083,4.439654763634715e-06,0.004391033073239647,6.25938230075419,1.5942912485055187,1.2631942746536522,6.12526555779928,0.9999999999999998,3.140000000000001,-1.9335603725062986,2.2887602605116824,3.1399999999999957,0.9660678860906161,3.14
53,0.004391035317660144,4.4396547232160715e-06,0.004391033073290215,6.259382300754222,1.594291248505512,1.2631942746535207,6.125265557799311,0.9999999999999999,3.1399999999999997,-1.933560372506439,2.2887602605118103,3.139999999999998,0.9660678860908575,3.14
54,0.0043910353176567244,4.4396545022801455e-06,0.004391033073239647,6.259382300754214,1.5942912485057734,1.2631942746535867,6.125265557799304,1.0,3.140000000000002,-1.9335603725065102,2.288760260511518,3.1399999999999992,0.9660678860903243,3.14
55,0.004391035317657208,4.439654765025777e-06,0.004391033073290215,6.259382300754195,1.5942912485054632,1.2631942746535099,6.1252655577992865,0.9999999999999999,3.140000000000001,-1.933560372506484,2.288760260511853,3.1399999999999997,0.9660678860905137,3.14
56,0.00439103531765765,4.439654676865051e-06,0.004391033073290215,6.259382300754225,1.5942912485055842,1.2631942746535803,6.125265557799315,0.9999999999999999,3.1400000000000006,-1.93356037250641,2.2887602605116917,3.1399999999999997,0.9660678860906614,3.14
57,0.004391035317656765,4.4396548110131075e-06,0.004391033073239647,6.259382300754207,1.5942912485054284,1.2631942746535476,6.125265557799298,0.9999999999999999,3.1400000000000015,-1.9335603725064092,2.2887602605118516,3.1399999999999997,0.9660678860906099,3.14
58,0.004391035317637852,4.43965467866067e-06,0.004391033073290215,6.259382300754211,1.594291248505569,1.263194274653545,6.125265557799304,0.9999999999999999,3.1400000000000015,-1.9335603725064707,2.2887602605117325,3.1400000000000206,0.9660678860905249,3.14
59,0.0043910353176277546,4.4396547723279134e-06,0.004391033073239647,6.259382300754215,1.5942912485054794,1.2631942746535731,6.125265557799309,0.9999999999999999,3.140000000000002,-1.9335603725064616,2.2887602605117734,3.140000000000031,0.9660678860900948,3.14
60,0.004391035317624695,4.439654779775517e-06,0.004391033073290215,6.2593823007542,1.5942912485054992,1.2631942746536462,6.1252655577992945,0.9999999999999999,3.14,-1.9335603725063126,2.288760260511702,3.1400000000000365,0.9660678860905244,3.14
61,0.004391035317642078,4.439654651479521e-06,0.004391033073239647,6.259382300754215,1.5942912485055853,1.2631942746535116,6.125265557799307,0.9999999999999998,3.1399999999999992,-1.9335603725065706,2.2887602605117396,3.1400000000000183,0.9660678860901558,3.14
62,0.004391035317649682,4.439654763208944e-06,0.004391033073239647,6.259382300754206,1.594291248505479,1.2631942746535463,6.125265557799297,0.9999999999999999,3.1399999999999997,-1.9335603725064647,2.2887602605118036,3.1400000000000095,0.9660678860903359,3.14
63,0.004391035317653708,4.439654946623405e-06,0.004391033073290215,6.259382300754207,1.5942912485052856,1.2631942746535536,6.125265557799297,0.9999999999999999,3.1399999999999997,-1.9335603725063872,2.2887602605119612,3.140000000000005,0.9660678860903588,3.14
64,0.004391035317654793,4.439654892389887e-06,0.004391033073239647,6.259382300754229,1.5942912485053529,1.263194274653578,6.12526555779932,0.9999999999999999,3.140000000000001,-1.9335603725062993,2.288760260511896,3.1400000000000023,0.9660678860909345,3.14
65,0.004391035317655155,4.439654721641692e-06,0.004391033073290215,6.259382300754181,1.5942912485055145,1.2631942746535227,6.125265557799272,1.0,3.1400000000000015,-1.9335603725064958,2.288760260511796,3.1400000000000015,0.9660678860904256,3.14
66,0.004391035317656,4.439654668064294e-06,0.004391033073239647,6.259382300754215,1.5942912485055771,1.2631942746535367,6.125265557799306,1.0,3.140000000000001,-1.9335603725065305,2.288760260511725,3.140000000000001,0.9660678860901836,3.14
67,0.004391035317675757,4.439654432471048e-06,0.004391033073290215,6.2593823007542015,1.5942912485058245,1.2631942746535245,6.125265557799289,1.0,3.1400000000000006,-1.9335603725065917,2.288760260511533,3.1399999999999797,0.96606788609046,3.14
68,0.00439103531766783,4.43965497573654e-06,0.004391033073239647,6.259382300754201,1.5942912485052658,1.2631942746535836,6.12526555779929,1.0,3.1399999999999992,-1.9335603725063057,2.2887602605119577,3.13999999999999,0.9660678860906194,3.14
69,0.004391035317681469,4.439655061030349e-06,0.004391033073290215,6.259382300754185,1.5942912485051537,1.2631942746535285,6.125265557799272,1.0,3.1399999999999997,-1.9335603725062782,2.2887602605121127,3.1399999999999744,0.9660678860910891,3.14
70,0.0043910353176495635,4.439654714754715e-06,0.004391033073290215,6.259382300754212,1.594291248505544,1.2631942746535811,6.125265557799304,0.9999999999999999,3.140000000000001,-1.9335603725063661,2.2887602605117303,3.140000000000008,0.9660678860908819,3.14
71,0.004391035317654511,4.4396547823075845e-06,0.004391033073290215,6.25938230075423,1.594291248505447,1.2631942746535159,6.12526555779932,0.9999999999999999,3.1399999999999997,-1.9335603725064736,2.2887602605118613,3.140000000000004,0.9660678860904929,3.14
72,0.004391035317637611,4.4396549235441154e-06,0.004391033073290215,6.2593823007542255,1.594291248505321,1.2631942746535816,6.125265557799318,0.9999999999999999,3.1399999999999997,-1.933560372506322,2.2887602605119133,3.1400000000000228,0.9660678860906521,3.14
73,0.004391035317646746,4.439654701461133e-06,0.004391033073290215,6.259382300754176,1.5942912485055576,1.2631942746535794,6.125265557799269,1.0,3.140000000000001,-1.9335603725064199,2.288760260511712,3.1400000000000112,0.966067886090534,3.14
74,0.00439103531765113,4.439654859276375e-06,0.004391033073290215,6.259382300754226,1.594291248505425,1.2631942746536748,6.1252655577993185,1.0,3.1400000000000015,-1.9335603725062778,2.2887602605117343,3.140000000000006,0.9660678860903166,3.14
75,0.004391035317636806,4.439654586628414e-06,0.004391033073239647,6.259382300754237,1.5942912485056613,1.263194274653529,6.125265557799329,0.9999999999999999,3.1399999999999997,-1.9335603725065262,2.2887602605116686,3.1400000000000237,0.9660678860905,3.14
76,0.0043910353176459405,4.439654801657746e-06,0.004391033073239647,6.259382300754223,1.5942912485054395,1.2631942746535505,6.125265557799316,1.0,3.140000000000001,-1.933560372506414,2.2887602605118387,3.140000000000012,0.9660678860905693,3.14
77,0.004391035317652499,4.439655105902428e-06,0.004391033073239647,6.259382300754218,1.5942912485051224,1.2631942746535725,6.12526555779931,0.9999999999999999,3.1399999999999997,-1.9335603725062824,2.2887602605120874,3.1400000000000063,0.9660678860905475,3.14
78,0.0043910353176729,4.439654670138712e-06,0.004391033073290215,6.259382300754228,1.594291248505584,1.2631942746535607,6.125265557799318,1.0,3.140000000000001,-1.9335603725064188,2.2887602605117126,3.1399999999999824,0.9660678860907913,3.14
79,0.004391035317645498,4.439654910173267e-06,0.004391033073290215,6.259382300754219,1.5942912485053138,1.2631942746535252,6.125265557799312,1.0,3.1400000000000015,-1.9335603725064043,2.2887602605119675,3.140000000000012,0.9660678860905824,3.14
80,0.004391035317651614,4.439654833733249e-06,0.004391033073290215,6.25938230075421,1.5942912485054377,1.2631942746536362,6.125265557799302,1.0,3.1400000000000006,-1.9335603725063353,2.288760260511758,3.1400000000000063,0.9660678860903039,3.14
81,0.004391035317654431,4.439654778646655e-06,0.004391033073290215,6.2593823007542095,1.5942912485054577,1.2631942746535336,6.125265557799301,1.0,3.1400000000000006,-1.9335603725064647,2.2887602605118342,3.1400000000000032,0.9660678860904072,3.14
82,0.004391035317657369,4.439655017594722e-06,0.004391033073239647,6.259382300754212,1.5942912485052374,1.2631942746536267,6.125265557799303,1.0,3.1399999999999992,-1.9335603725062471,2.288760260511942,3.1400000000000015,0.9660678860905546,3.14
83,0.004391035317638817,4.4396546953621105e-06,0.004391033073239647,6.259382300754217,1.5942912485055756,1.2631942746536096,6.125265557799309,0.9999999999999999,3.1399999999999997,-1.9335603725063986,2.2887602605116677,3.1400000000000214,0.9660678860904365,3.14
84,0.004391035317667387,4.439654609165224e-06,0.004391033073290215,6.259382300754182,1.5942912485056406,1.263194274653538,6.1252655577992705,1.0,3.1399999999999997,-1.9335603725064727,2.2887602605116837,3.13999999999999,0.9660678860907522,3.14
85,0.00439103531768147,4.439654850722626e-06,0.004391033073340782,6.259382300754219,1.5942912485053888,1.2631942746535554,6.125265557799306,1.0,3.1399999999999997,-1.9335603725063395,2.2887602605118866,3.1399999999999744,0.9660678860909496,3.14
86,0.0043910353177071815,4.439654773506821e-06,0.004391033073340782,6.2593823007541936,1.5942912485054515,1.2631942746535028,6.1252655577992785,1.0,3.14,-1.9335603725064667,2.2887602605118738,3.1399999999999455,0.9660678860906827,3.14
87,0.004391035317682234,4.439654543986813e-06,0.004391033073239647,6.259382300754221,1.5942912485057201,1.2631942746535638,6.125265557799309,0.9999999999999999,3.14,-1.9335603725064872,2.2887602605115895,3.139999999999973,0.9660678860905892,3.14
88,0.004391035317670163,4.439654869186368e-06,0.004391033073290215,6.2593823007542095,1.5942912485053495,1.2631942746535039,6.125265557799299,0.9999999999999999,3.14,-1.933560372506371,2.2887602605119697,3.1399999999999864,0.9660678860911275,3.14
89,0.004391035317645215,4.4396549277566e-06,0.004391033073290215,6.259382300754217,1.5942912485053218,1.2631942746535958,6.125265557799309,0.9999999999999999,3.14,-1.9335603725063093,2.288760260511899,3.140000000000014,0.9660678860906088,3.14
90,0.004391035317670163,4.439654581288548e-06,0.004391033073239647,6.259382300754182,1.594291248505679,1.2631942746535607,6.125265557799271,0.9999999999999998,3.14,-1.9335603725065484,2.2887602605116144,3.1399999999999864,0.9660678860900652,3.14
91,0.004391035317664127,4.439654712669687e-06,0.004391033073290215,6.259382300754223,1.5942912485055432,1.263194274653573,6.125265557799313,0.9999999999999999,3.14,-1.9335603725064667,2.2887602605117223,3.139999999999993,0.966067886090212,3.14
92,0.004391035317660909,4.439654774425073e-06,0.004391033073290215,6.259382300754189,1.5942912485054652,1.2631942746535416,6.125265557799279,0.9999999999999999,3.14,-1.933560372506467,2.2887602605118187,3.1399999999999966,0.9660678860903295,3.14
93,0.0043910353176782125,4.439654855651839e-06,0.004391033073290215,6.259382300754179,1.5942912485053904,1.2631942746535734,6.125265557799268,0.9999999999999998,3.14,-1.9335603725064054,2.288760260511853,3.1399999999999775,0.9660678860902888,3.14
94,0.004391035317650125,4.439654937924157e-06,0.004391033073290215,6.2593823007542095,1.5942912485053036,1.2631942746535765,6.125265557799301,0.9999999999999999,3.1399999999999992,-1.933560372506351,2.2887602605119284,3.1400000000000095,0.9660678860904469,3.14
95,0.004391035317672618,4.439655004354194e-06,0.004391033073290215,6.259382300754188,1.594291248505221,1.263194274653546,6.125265557799277,0.9999999999999999,3.1399999999999997,-1.93356037250632,2.2887602605120323,3.139999999999984,0.9660678860907731,3.14
96,0.004391035317647348,4.439654837135087e-06,0.004391033073239647,6.259382300754181,1.5942912485053904,1.2631942746535212,6.125265557799273,0.9999999999999999,3.139999999999999,-1.9335603725064616,2.2887602605119017,3.140000000000013,0.9660678860903859,3.14
97,0.00439103531763403,4.439654657892189e-06,0.004391033073239647,6.259382300754239,1.5942912485055996,1.2631942746535672,6.125265557799332,0.9999999999999999,3.1399999999999992,-1.9335603725064536,2.288760260511687,3.140000000000027,0.9660678860905064,3.14
98,0.00439103531762715,4.439654867057375e-06,0.004391033073239647,6.259382300754225,1.5942912485053817,1.2631942746535827,6.125265557799318,0.9999999999999998,3.1399999999999997,-1.9335603725063661,2.288760260511857,3.1400000000000343,0.9660678860904671,3.14
99,0.004391035317641113,4.439654793560088e-06,0.004391033073290215,6.259382300754194,1.5942912485054226,1.2631942746534832,6.125265557799287,1.0,3.140000000000001,-1.9335603725064008,2.28876026051193,3.1400000000000174,0.9660678860912922,3.14
100,0.0043910353176496025,4.439654816219634e-06,0.004391033073239647,6.259382300754192,1.5942912485054035,1.2631942746534968,6.125265557799284,1.0,3.1400000000000006,-1.933560372506509,2.2887602605119106,3.1400000000000086,0.966067886090313,3.14
101,0.004391035317653626,4.4396546138701845e-06,0.004391033073239647,6.259382300754219,1.594291248505627,1.2631942746535156,6.1252655577993105,1.0,3.1400000000000006,-1.9335603725065593,2.288760260511704,3.140000000000004,0.9660678860903019,3.14
102,0.004391035317673263,4.439654780196801e-06,0.004391033073290215,6.259382300754195,1.5942912485054392,1.2631942746534894,6.125265557799285,1.0,3.1400000000000015,-1.9335603725065236,2.288760260511888,3.1399999999999815,0.9660678860903625,3.14
103,0.004391035317684166,4.439654835580373e-06,0.004391033073340782,6.2593823007542,1.5942912485054477,1.2631942746536677,6.125265557799287,1.0,3.140000000000001,-1.9335603725062653,2.2887602605117268,3.13999999999997,0.9660678860905346,3.14
104,0.004391035317670044,4.439654731110686e-06,0.004391033073239647,6.259382300754197,1.594291248505525,1.263194274653577,6.1252655577992865,1.0,3.1400000000000015,-1.9335603725064416,2.2887602605117365,3.139999999999985,0.9660678860903166,3.14
105,0.004391035317643848,4.439654380699867e-06,0.004391033073239647,6.259382300754191,1.5942912485058889,1.2631942746535483,6.125265557799283,1.0,3.140000000000002,-1.933560372506578,2.2887602605114576,3.1400000000000134,0.9660678860904831,3.14
106,0.004391035317668796,4.439655064104855e-06,0.004391033073239647,6.259382300754217,1.5942912485051561,1.2631942746535436,6.125265557799307,1.0,3.140000000000002,-1.9335603725063155,2.2887602605120874,3.139999999999986,0.9660678860906734,3.14
107,0.004391035317643447,4.439655013468608e-06,0.004391033073239647,6.259382300754223,1.5942912485052372,1.2631942746536144,6.125265557799316,1.0,3.140000000000002,-1.9335603725062596,2.2887602605119537,3.140000000000014,0.9660678860905852,3.14
108,0.004391035317650768,4.4396549421593695e-06,0.004391033073290215,6.259382300754222,1.5942912485053065,1.263194274653596,6.125265557799313,1.0,3.140000000000001,-1.933560372506272,2.2887602605119177,3.140000000000007,0.9660678860908455,3.14
109,0.004391035317673825,4.439654705881219e-06,0.004391033073290215,6.259382300754203,1.5942912485055467,1.2631942746535632,6.125265557799291,1.0,3.1399999999999997,-1.9335603725063941,2.2887602605117436,3.139999999999983,0.9660678860908579,3.14
110,0.004391035317665737,4.439654846929857e-06,0.004391033073290215,6.259382300754201,1.594291248505418,1.2631942746536213,6.12526555779929,1.0,3.14,-1.9335603725062687,2.288760260511802,3.1399999999999912,0.9660678860908923,3.14
111,0.004391035317660829,4.439654990263575e-06,0.004391033073239647,6.259382300754207,1.5942912485052314,1.2631942746535338,6.125265557799297,1.0,3.140000000000001,-1.9335603725062884,2.288760260512044,3.1399999999999957,0.9660678860911563,3.14
112,0.004391035317678171,4.4396547749554215e-06,0.004391033073340782,6.259382300754181,1.5942912485054657,1.2631942746535443,6.12526555779927,1.0,3.1400000000000006,-1.9335603725064394,2.2887602605118205,3.139999999999977,0.9660678860905082,3.14
113,0.004391035317650124,4.439654695753063e-06,0.004391033073290215,6.259382300754181,1.5942912485055591,1.2631942746535674,6.125265557799271,1.0,3.1399999999999992,-1.933560372506476,2.2887602605117143,3.1400000000000095,0.9660678860902364,3.14
114,0.004391035317653705,4.439654836915368e-06,0.004391033073290215,6.259382300754167,1.5942912485053942,1.2631942746535305,6.125265557799257,1.0,3.1399999999999997,-1.9335603725063994,2.2887602605119,3.140000000000005,0.9660678860907651,3.14
115,0.00439103531767463,4.4396549218651775e-06,0.004391033073340782,6.259382300754197,1.594291248505328,1.2631942746535956,6.125265557799285,1.0,3.1399999999999997,-1.9335603725063364,2.2887602605118893,3.139999999999982,0.966067886090424,3.14
116,0.004391035317666181,4.439654598415788e-06,0.004391033073290215,6.259382300754155,1.5942912485056793,1.2631942746536096,6.125265557799244,1.0,3.1399999999999997,-1.9335603725064252,2.2887602605115815,3.1399999999999912,0.9660678860904964,3.14
117,0.004391035317681067,4.439654530800816e-06,0.004391033073340782,6.259382300754205,1.594291248505734,1.263194274653563,6.125265557799292,1.0,3.1399999999999997,-1.9335603725064832,2.28876026051158,3.139999999999975,0.9660678860906587,3.14
118,0.004391035317689196,4.4396545336677425e-06,0.004391033073290215,6.259382300754212,1.5942912485057135,1.2631942746535172,6.125265557799298,1.0,3.139999999999999,-1.9335603725066104,2.2887602605116255,3.139999999999967,0.9660678860901205,3.14
119,0.004391035317673464,4.439654840724783e-06,0.004391033073340782,6.259382300754205,1.5942912485054035,1.2631942746535658,6.125265557799294,1.0,3.1399999999999992,-1.9335603725063135,2.288760260511868,3.1399999999999837,0.966067886091074,3.14
120,0.00439103531766626,4.439654774281109e-06,0.004391033073290215,6.25938230075416,1.5942912485054872,1.2631942746535991,6.125265557799247,1.0,3.139999999999999,-1.9335603725063941,2.28876026051175,3.139999999999992,0.9660678860903557,3.14
121,0.004391035317681109,4.439654923769918e-06,0.004391033073290215,6.259382300754185,1.5942912485052807,1.2631942746534763,6.125265557799272,1.0,3.1399999999999992,-1.9335603725064132,2.2887602605120474,3.1399999999999753,0.9660678860909185,3.14
122,0.004391035317668515,4.4396547564810705e-06,0.004391033073290215,6.259382300754175,1.594291248505511,1.2631942746536116,6.125265557799264,1.0,3.1400000000000006,-1.933560372506359,2.2887602605117237,3.1399999999999877,0.9660678860905524,3.14
123,0.004391035317644413,4.439654785319962e-06,0.004391033073290215,6.2593823007542095,1.5942912485054532,1.2631942746535407,6.125265557799302,1.0,3.14,-1.9335603725064656,2.2887602605118293,3.140000000000015,0.9660678860903188,3.14
124,0.0043910353176706465,4.439654837018405e-06,0.004391033073290215,6.259382300754183,1.5942912485053986,1.2631942746535425,6.125265557799271,1.0,3.1399999999999992,-1.9335603725064066,2.2887602605118813,3.139999999999987,0.9660678860906026,3.14
125,0.004391035317663283,4.439654764199936e-06,0.004391033073239647,6.2593823007542095,1.594291248505483,1.2631942746535596,6.1252655577993,1.0,3.1400000000000006,-1.9335603725064459,2.2887602605117885,3.1399999999999935,0.9660678860903508,3.14
126,0.004391035317660065,4.439654873295809e-06,0.004391033073239647,6.259382300754198,1.5942912485053575,1.2631942746535365,6.125265557799288,1.0,3.1400000000000006,-1.9335603725063908,2.288760260511923,3.139999999999997,0.9660678860906794,3.14
127,0.004391035317639945,4.439654704699292e-06,0.004391033073290215,6.259382300754227,1.5942912485055583,1.2631942746535902,6.12526555779932,0.9999999999999999,3.1400000000000006,-1.9335603725063826,2.2887602605117063,3.140000000000019,0.9660678860907049,3.14
128,0.004391035317666423,4.43965461511574e-06,0.004391033073290215,6.259382300754209,1.5942912485056373,1.263194274653546,6.125265557799298,0.9999999999999999,3.1400000000000015,-1.9335603725064507,2.2887602605116815,3.139999999999989,0.9660678860908326,3.14
129,0.004391035317681873,4.439655069015873e-06,0.004391033073340782,6.259382300754181,1.5942912485051746,1.263194274653606,6.125265557799269,0.9999999999999999,3.1399999999999997,-1.93356037250618,2.2887602605120265,3.139999999999974,0.9660678860911013,3.14
130,0.004391035317688713,4.439654809105369e-06,0.004391033073290215,6.25938230075422,1.5942912485054246,1.2631942746535323,6.125265557799306,0.9999999999999999,3.1399999999999997,-1.933560372506435,2.288760260511867,3.1399999999999664,0.9660678860905584,3.14
131,0.0043910353176932196,4.439654808332547e-06,0.004391033073290215,6.2593823007541936,1.594291248505472,1.2631942746536553,6.125265557799279,0.9999999999999999,3.139999999999999,-1.9335603725063022,2.288760260511715,3.1399999999999624,0.9660678860904434,3.14
132,0.0043910353176758775,4.439654773956869e-06,0.004391033073290215,6.259382300754187,1.594291248505438,1.2631942746534683,6.125265557799275,0.9999999999999999,3.1399999999999992,-1.9335603725065147,2.288760260511914,3.139999999999981,0.9660678860906312,3.14
133,0.0043910353176674684,4.439654687578101e-06,0.004391033073290215,6.259382300754184,1.5942912485055794,1.2631942746535976,6.125265557799271,0.9999999999999999,3.139999999999999,-1.9335603725064172,2.288760260511675,3.139999999999991,0.9660678860904258,3.14
134,0.00439103531768151,4.43965487215631e-06,0.004391033073290215,6.259382300754204,1.5942912485053682,1.2631942746535614,6.125265557799292,0.9999999999999999,3.1399999999999992,-1.933560372506322,2.2887602605118995,3.139999999999975,0.9660678860909692,3.14
135,0.004391035317687426,4.439654805947506e-06,0.004391033073340782,6.259382300754206,1.5942912485054495,1.263194274653589,6.125265557799293,0.9999999999999999,3.1400000000000006,-1.933560372506375,2.2887602605117943,3.139999999999967,0.9660678860905035,3.14
136,0.004391035317691047,4.439654579744472e-06,0.004391033073290215,6.259382300754196,1.5942912485056842,1.2631942746535698,6.125265557799282,0.9999999999999999,3.1400000000000006,-1.9335603725065194,2.288760260511605,3.139999999999963,0.9660678860902016,3.14
137,0.004391035317694388,4.439654926836833e-06,0.004391033073340782,6.2593823007542095,1.5942912485053056,1.2631942746535505,6.125265557799296,0.9999999999999999,3.1399999999999992,-1.933560372506348,2.2887602605119564,3.1399999999999606,0.9660678860907342,3.14
138,0.0043910353176758385,4.439655062097092e-06,0.004391033073290215,6.259382300754228,1.594291248505176,1.26319427465359,6.125265557799317,0.9999999999999998,3.1399999999999997,-1.9335603725062858,2.2887602605120247,3.1399999999999806,0.9660678860904831,3.14
139,0.004391035317665657,4.439654724043386e-06,0.004391033073239647,6.259382300754188,1.594291248505564,1.26319427465366,6.125265557799278,0.9999999999999999,3.140000000000001,-1.933560372506378,2.2887602605116237,3.1399999999999904,0.9660678860900646,3.14
140,0.004391035317681469,4.439654965728109e-06,0.004391033073290215,6.259382300754179,1.5942912485052518,1.2631942746535185,6.125265557799267,0.9999999999999999,3.1399999999999997,-1.9335603725063844,2.288760260512028,3.1399999999999744,0.9660678860906434,3.14
141,0.004391035317670686,4.4396549585926295e-06,0.004391033073239647,6.259382300754197,1.5942912485052734,1.2631942746535552,6.125265557799286,0.9999999999999999,3.139999999999999,-1.9335603725062847,2.2887602605119874,3.1399999999999872,0.966067886091074,3.14
142,0.004391035317682678,4.439655048029226e-06,0.004391033073290215,6.259382300754183,1.5942912485051537,1.2631942746534919,6.1252655577992705,0.9999999999999999,3.1399999999999997,-1.9335603725063044,2.288760260512149,3.139999999999973,0.9660678860912576,3.14
143,0.004391035317670605,4.4396547710338605e-06,0.004391033073290215,6.259382300754205,1.5942912485054834,1.26319427465358,6.125265557799294,1.0,3.1399999999999997,-1.9335603725063952,2.2887602605117743,3.1399999999999864,0.966067886090526,3.14
144,0.004391035317682637,4.439655025966682e-06,0.004391033073290215,6.259382300754188,1.5942912485051999,1.2631942746535514,6.125265557799277,1.0,3.14,-1.933560372506296,2.2887602605120474,3.1399999999999726,0.966067886090847,3.14
145,0.004391035317670163,4.439654559144185e-06,0.004391033073290215,6.259382300754202,1.5942912485057203,1.2631942746536071,6.125265557799291,1.0,3.14,-1.9335603725065265,2.2887602605115336,3.1399999999999864,0.9660678860898698,3.14
146,0.0043910353176646105,4.439654480869202e-06,0.004391033073239647,6.259382300754222,1.594291248505773,1.2631942746535252,6.125265557799311,1.0,3.1399999999999992,-1.9335603725066284,2.2887602605115664,3.1399999999999935,0.9660678860900532,3.14
147,0.004391035317660465,4.439655069844728e-06,0.004391033073239647,6.259382300754211,1.5942912485051828,1.26319427465363,6.125265557799302,0.9999999999999999,3.1400000000000006,-1.9335603725062294,2.2887602605119843,3.1399999999999966,0.9660678860905191,3.14
148,0.004391035317677768,4.4396547170155125e-06,0.004391033073340782,6.259382300754187,1.5942912485055512,1.2631942746536062,6.125265557799276,1.0,3.1400000000000006,-1.9335603725063797,2.288760260511694,3.1399999999999775,0.9660678860905477,3.14
149,0.0043910353176664215,4.439654917284468e-06,0.004391033073290215,6.259382300754209,1.5942912485053455,1.2631942746536289,6.125265557799299,0.9999999999999999,3.1400000000000015,-1.933560372506219,2.288760260511859,3.139999999999989,0.9660678860910105,3.14
150,0.004391035317681872,4.43965498344631e-06,0.004391033073290215,6.2593823007542255,1.5942912485052463,1.2631942746535538,6.125265557799313,1.0,3.1399999999999997,-1.9335603725063113,2.2887602605120057,3.139999999999974,0.9660678860908215,3.14
151,0.004391035317670205,4.439654815358919e-06,0.004391033073290215,6.25938230075424,1.5942912485054594,1.2631942746536418,6.125265557799328,1.0,3.1399999999999997,-1.9335603725062982,2.288760260511741,3.139999999999987,0.9660678860905766,3.14
152,0.00439103531766284,4.4396548240415085e-06,0.004391033073290215,6.259382300754239,1.5942912485054261,1.2631942746535785,6.12526555779933,1.0,3.140000000000001,-1.9335603725063475,2.2887602605118293,3.1399999999999935,0.9660678860907558,3.14
153,0.00439103531767809,4.439655150962409e-06,0.004391033073290215,6.2593823007541936,1.5942912485050822,1.2631942746535936,6.125265557799283,1.0,3.1400000000000015,-1.93356037250623,2.2887602605121042,3.139999999999976,0.9660678860906288,3.14
154,0.00439103531766767,4.439654691964843e-06,0.004391033073290215,6.259382300754183,1.594291248505584,1.2631942746536222,6.125265557799272,0.9999999999999999,3.140000000000001,-1.9335603725064312,2.288760260511641,3.139999999999988,0.9660678860900923,3.14
155,0.00439103531768139,4.439654850640818e-06,0.004391033073290215,6.259382300754173,1.5942912485053609,1.2631942746534814,6.125265557799261,0.9999999999999998,3.1400000000000006,-1.9335603725064103,2.288760260511979,3.1399999999999735,0.9660678860910895,3.14
156,0.004391035317670646,4.439654947791687e-06,0.004391033073239647,6.259382300754192,1.5942912485052867,1.2631942746535598,6.125265557799281,0.9999999999999998,3.1399999999999992,-1.9335603725063413,2.2887602605119617,3.139999999999987,0.9660678860906401,3.14
157,0.004391035317644371,4.439654632621821e-06,0.004391033073239647,6.2593823007542,1.5942912485056016,1.2631942746535012,6.125265557799292,1.0,3.1400000000000006,-1.9335603725065287,2.288760260511746,3.1400000000000143,0.9660678860906075,3.14
158,0.004391035317652137,4.439654817707637e-06,0.004391033073239647,6.259382300754224,1.594291248505412,1.2631942746535232,6.125265557799314,1.0,3.1399999999999992,-1.9335603725064652,2.288760260511882,3.1400000000000072,0.9660678860903961,3.14
159,0.0043910353176540295,4.43965515258528e-06,0.004391033073290215,6.259382300754211,1.594291248505077,1.2631942746535847,6.125265557799303,1.0,3.1400000000000006,-1.9335603725062416,2.2887602605121167,3.1400000000000037,0.9660678860906199,3.14
160,0.00439103531767455,4.439654730374272e-06,0.004391033073290215,6.259382300754201,1.594291248505504,1.2631942746535199,6.125265557799289,1.0,3.1400000000000006,-1.9335603725064534,2.288760260511815,3.139999999999981,0.9660678860907413,3.14
161,0.004391035317664812,4.439655203551843e-06,0.004391033073290215,6.259382300754209,1.5942912485050205,1.2631942746535791,6.125265557799299,1.0,3.1400000000000015,-1.9335603725061854,2.288760260512177,3.139999999999991,0.9660678860909481,3.14
162,0.004391035317678855,4.439654834374224e-06,0.004391033073290215,6.2593823007542175,1.5942912485054201,1.2631942746535918,6.125265557799306,1.0,3.140000000000002,-1.9335603725063868,2.2887602605118125,3.139999999999975,0.9660678860903188,3.14
163,0.004391035317686983,4.43965465414337e-06,0.004391033073290215,6.259382300754197,1.5942912485056187,1.263194274653607,6.125265557799285,1.0,3.140000000000001,-1.9335603725063681,2.288760260511642,3.139999999999967,0.9660678860907931,3.14
164,0.004391035317691047,4.43965490834885e-06,0.004391033073290215,6.2593823007541864,1.5942912485053404,1.2631942746535902,6.125265557799273,1.0,3.1400000000000006,-1.9335603725063506,2.288760260511883,3.139999999999963,0.9660678860904038,3.14
165,0.004391035317656562,4.439654724534374e-06,0.004391033073239647,6.259382300754209,1.594291248505501,1.2631942746534952,6.125265557799299,1.0,3.1399999999999992,-1.9335603725065968,2.28876026051182,3.1400000000000023,0.9660678860899142,3.14
166,0.004391035317656925,4.439654878572034e-06,0.004391033073290215,6.259382300754195,1.594291248505341,1.263194274653508,6.125265557799285,1.0,3.1399999999999997,-1.9335603725064099,2.288760260511965,3.1400000000000015,0.9660678860907784,3.14
167,0.004391035317637491,4.43965517820418e-06,0.004391033073290215,6.259382300754188,1.594291248505048,1.2631942746535803,6.125265557799281,1.0,3.140000000000001,-1.9335603725062565,2.288760260512142,3.1400000000000214,0.9660678860904811,3.14
168,0.004391035317647591,4.439654714245574e-06,0.004391033073239647,6.259382300754216,1.5942912485055547,1.2631942746536078,6.125265557799308,1.0,3.1400000000000006,-1.9335603725063322,2.2887602605116975,3.140000000000011,0.9660678860908934,3.14
169,0.004391035317652861,4.439654990860594e-06,0.004391033073239647,6.259382300754204,1.5942912485052354,1.263194274653546,6.125265557799295,1.0,3.14,-1.9335603725064026,2.2887602605120065,3.1400000000000055,0.9660678860901996,3.14
170,0.004391035317655274,4.43965500144788e-06,0.004391033073290215,6.259382300754206,1.594291248505224,1.263194274653546,6.125265557799297,1.0,3.14,-1.9335603725063317,2.288760260512028,3.140000000000003,0.9660678860906925,3.14
171,0.004391035317656483,4.439654578608001e-06,0.004391033073290215,6.2593823007541785,1.5942912485056997,1.2631942746536076,6.12526555779927,1.0,3.14,-1.9335603725064916,2.288760260511556,3.1400000000000015,0.9660678860900739,3.14
172,0.004391035317675798,4.439654656305685e-06,0.004391033073290215,6.259382300754238,1.5942912485056056,1.2631942746535785,6.1252655577993265,1.0,3.14,-1.9335603725064594,2.288760260511668,3.13999999999998,0.9660678860903652,3.14
173,0.004391035317686339,4.439654674828507e-06,0.004391033073340782,6.259382300754192,1.5942912485055922,1.2631942746535956,6.1252655577992785,0.9999999999999999,3.1399999999999992,-1.933560372506374,2.2887602605116752,3.1399999999999695,0.9660678860907991,3.14
174,0.004391035317671331,4.439654830199633e-06,0.004391033073290215,6.259382300754221,1.5942912485053995,1.2631942746535256,6.1252655577993105,0.9999999999999999,3.1400000000000006,-1.9335603725064687,2.288760260511889,3.1399999999999846,0.966067886090313,3.14
175,0.004391035317644692,4.439654914785787e-06,0.004391033073239647,6.259382300754201,1.594291248505313,1.2631942746535358,6.125265557799294,0.9999999999999999,3.1400000000000015,-1.9335603725063943,2.288760260511958,3.140000000000013,0.9660678860905513,3.14
176,0.004391035317650769,4.4396546096758595e-06,0.004391033073290215,6.25938230075424,1.594291248505667,1.2631942746536091,6.125265557799331,0.9999999999999999,3.140000000000001,-1.9335603725064492,2.288760260511587,3.140000000000007,0.9660678860902921,3.14
177,0.00439103531767294,4.439654726907298e-06,0.004391033073239647,6.259382300754168,1.5942912485055156,1.2631942746535405,6.125265557799256,0.9999999999999998,3.1400000000000006,-1.933560372506403,2.2887602605117916,3.139999999999983,0.9660678860909387,3.14
178,0.004391035317664409,4.439654762996823e-06,0.004391033073239647,6.259382300754192,1.5942912485054488,1.2631942746534661,6.125265557799282,0.9999999999999999,3.1400000000000015,-1.9335603725065018,2.2887602605119106,3.1399999999999912,0.9660678860907791,3.14
179,0.004391035317662157,4.439654780843817e-06,0.004391033073290215,6.25938230075422,1.5942912485054546,1.2631942746535316,6.12526555779931,0.9999999999999999,3.1399999999999997,-1.9335603725064328,2.2887602605118444,3.1399999999999957,0.9660678860906545,3.14
180,0.00439103531766103,4.439654814349754e-06,0.004391033073239647,6.259382300754209,1.5942912485054377,1.2631942746535816,6.125265557799298,1.0,3.139999999999999,-1.9335603725063542,2.288760260511816,3.139999999999998,0.9660678860907038,3.14
181,0.004391035317679176,4.439655088102382e-06,0.004391033073290215,6.259382300754202,1.5942912485051577,1.2631942746536153,6.12526555779929,1.0,3.1399999999999983,-1.9335603725062454,2.288760260512018,3.1399999999999784,0.9660678860904878,3.14
182,0.004391035317649723,4.439654671991891e-06,0.004391033073239647,6.259382300754205,1.5942912485056038,1.263194274653618,6.125265557799296,1.0,3.1399999999999992,-1.9335603725064556,2.288760260511626,3.14000000000001,0.9660678860899997,3.14
183,0.004391035317672619,4.4396548099039196e-06,0.004391033073239647,6.259382300754193,1.5942912485054301,1.2631942746535492,6.12526555779928,0.9999999999999999,3.1399999999999997,-1.9335603725064179,2.288760260511847,3.139999999999984,0.9660678860905364,3.14
184,0.0043910353176640484,4.439654872733629e-06,0.004391033073290215,6.259382300754194,1.594291248505375,1.2631942746535811,6.125265557799285,0.9999999999999998,3.140000000000001,-1.933560372506349,2.288760260511866,3.139999999999992,0.9660678860905901,3.14
185,0.00439103531767978,4.439654694739317e-06,0.004391033073290215,6.259382300754188,1.5942912485055993,1.2631942746536704,6.125265557799276,0.9999999999999999,3.1400000000000006,-1.9335603725063095,2.288760260511596,3.1399999999999753,0.966067886090551,3.14
186,0.00439103531766763,4.439654574609179e-06,0.004391033073239647,6.25938230075421,1.5942912485056853,1.2631942746535583,6.1252655577993,0.9999999999999999,3.1400000000000015,-1.933560372506496,2.288760260511622,3.1399999999999877,0.966067886090496,3.14
187,0.004391035317661553,4.439654804241306e-06,0.004391033073290215,6.259382300754221,1.5942912485054357,1.2631942746535478,6.125265557799311,1.0,3.140000000000002,-1.9335603725064379,2.2887602605118404,3.139999999999994,0.9660678860904125,3.14
188,0.004391035317659621,4.439654731619827e-06,0.004391033073290215,6.259382300754221,1.5942912485055143,1.2631942746535503,6.125265557799312,1.0,3.140000000000001,-1.9335603725064554,2.2887602605117725,3.139999999999997,0.9660678860904527,3.14
189,0.0043910353176782515,4.439655055252599e-06,0.004391033073340782,6.2593823007542015,1.5942912485051237,1.2631942746534333,6.12526555779929,1.0,3.1399999999999997,-1.9335603725063883,2.288760260512224,3.139999999999978,0.9660678860911424,3.14
190,0.004391035317649281,4.439654634700774e-06,0.004391033073290215,6.259382300754215,1.5942912485056273,1.263194274653575,6.125265557799305,1.0,3.1399999999999997,-1.9335603725064385,2.288760260511659,3.14000000000001,0.9660678860906106,3.14
191,0.004391035317653264,4.439654704990235e-06,0.004391033073290215,6.259382300754215,1.5942912485055423,1.263194274653549,6.125265557799306,1.0,3.14,-1.9335603725064254,2.2887602605117574,3.140000000000005,0.9660678860907549,3.14
192,0.0043910353176556775,4.439654885339272e-06,0.004391033073239647,6.259382300754193,1.594291248505361,1.2631942746535798,6.125265557799284,0.9999999999999999,3.14,-1.9335603725063253,2.2887602605118835,3.1400000000000023,0.9660678860907458,3.14
193,0.004391035317656885,4.439654817536381e-06,0.004391033073340782,6.259382300754209,1.5942912485054592,1.2631942746536473,6.1252655577993,0.9999999999999998,3.14,-1.9335603725063288,2.288760260511729,3.140000000000001,0.9660678860902915,3.14
194,0.0043910353176762,4.439654868701468e-06,0.004391033073340782,6.259382300754176,1.5942912485053646,1.2631942746535423,6.125265557799264,0.9999999999999999,3.14,-1.9335603725063613,2.288760260511916,3.1399999999999797,0.9660678860908601,3.14
195,0.00439103531766606,4.4396546126139914e-06,0.004391033073290215,6.259382300754207,1.594291248505669,1.2631942746536227,6.125265557799296,0.9999999999999998,3.140000000000001,-1.9335603725064527,2.288760260511569,3.13999999999999,0.9660678860901356,3.14
196,0.004391035317662077,4.439654633194578e-06,0.004391033073290215,6.259382300754205,1.5942912485056357,1.263194274653593,6.125265557799295,0.9999999999999998,3.1400000000000006,-1.933560372506458,2.288760260511628,3.139999999999995,0.9660678860903086,3.14
197,0.004391035317678572,4.439654996397429e-06,0.004391033073290215,6.259382300754223,1.5942912485052465,1.263194274653591,6.125265557799311,0.9999999999999999,3.1400000000000006,-1.9335603725063177,2.2887602605119626,3.1399999999999766,0.9660678860904105,3.14
198,0.004391035317685735,4.439654536337653e-06,0.004391033073239647,6.259382300754191,1.594291248505745,1.2631942746536078,6.1252655577992785,0.9999999999999998,3.1400000000000015,-1.933560372506462,2.2887602605115247,3.1399999999999677,0.9660678860904032,3.14
199,0.004391035317670808,4.439654440486886e-06,0.004391033073290215,6.259382300754208,1.5942912485058365,1.2631942746535787,6.125265557799297,0.9999999999999999,3.140000000000002,-1.933560372506554,2.2887602605114687,3.1399999999999837,0.966067886090232,3.14
200,0.004391035317663162,4.43965503066711e-06,0.004391033073239647,6.259382300754222,1.5942912485051675,1.2631942746534792,6.125265557799312,0.9999999999999999,3.140000000000002,-1.9335603725063535,2.2887602605121433,3.139999999999992,0.9660678860910531,3.14
201,0.0043910353176604255,4.439654830931499e-06,0.004391033073290215,6.259382300754207,1.5942912485054246,1.2631942746535938,6.125265557799297,1.0,3.140000000000001,-1.933560372506291,2.2887602605118236,3.139999999999996,0.9660678860910185,3.14
202,0.00439103531765926,4.439654916776876e-06,0.004391033073239647,6.259382300754219,1.594291248505301,1.2631942746535099,6.12526555779931,1.0,3.1400000000000006,-1.9335603725063804,2.2887602605119994,3.139999999999998,0.9660678860908819,3.14
203,0.004391035317657569,4.439654862250893e-06,0.004391033073239647,6.2593823007542015,1.5942912485053933,1.2631942746535996,6.125265557799293,1.0,3.1400000000000015,-1.9335603725063666,2.288760260511828,3.139999999999999,0.966067886090323,3.14
204,0.0043910353176572076,4.439654948675081e-06,0.004391033073290215,6.259382300754217,1.5942912485053136,1.263194274653633,6.125265557799308,0.9999999999999999,3.140000000000001,-1.9335603725062989,2.2887602605118653,3.1399999999999997,0.9660678860902993,3.14
205,0.004391035317656364,4.4396548245309495e-06,0.004391033073239647,6.259382300754217,1.5942912485054184,1.2631942746535594,6.125265557799309,0.9999999999999999,3.1400000000000015,-1.9335603725064112,2.288760260511846,3.14,0.9660678860904534,3.14
206,0.004391035317677044,4.4396548119389366e-06,0.004391033073290215,6.2593823007541936,1.5942912485054428,1.2631942746535882,6.125265557799281,0.9999999999999999,3.1399999999999997,-1.9335603725064527,2.2887602605117867,3.1399999999999793,0.9660678860899196,3.14
207,0.004391035317703883,4.439654613377715e-06,0.004391033073290215,6.2593823007541936,1.59429124850563,1.2631942746535219,6.1252655577992785,0.9999999999999998,3.140000000000001,-1.9335603725065211,2.2887602605117014,3.139999999999948,0.9660678860905306,3.14
208,0.004391035317699497,4.439654682173093e-06,0.004391033073290215,6.259382300754184,1.594291248505573,1.2631942746535654,6.12526555779927,0.9999999999999999,3.1400000000000006,-1.933560372506459,2.288760260511709,3.1399999999999535,0.9660678860904192,3.14
209,0.004391035317658777,4.439654759673766e-06,0.004391033073239647,6.259382300754225,1.5942912485055192,1.2631942746536422,6.125265557799315,0.9999999999999999,3.1400000000000015,-1.9335603725063693,2.2887602605116806,3.1399999999999975,0.9660678860901916,3.14
210,0.004391035317677367,4.4396548058444625e-06,0.004391033073290215,6.259382300754202,1.5942912485054566,1.2631942746536073,6.125265557799291,0.9999999999999999,3.1400000000000006,-1.9335603725063648,2.28876026051177,3.139999999999978,0.9660678860904149,3.14
211,0.004391035317667307,4.439654840662668e-06,0.004391033073290215,6.259382300754208,1.5942912485053842,1.2631942746535147,6.125265557799297,0.9999999999999998,3.1400000000000006,-1.9335603725064354,2.2887602605119186,3.139999999999989,0.9660678860906303,3.14
212,0.004391035317661594,4.439654907097232e-06,0.004391033073290215,6.259382300754189,1.594291248505332,1.2631942746535645,6.12526555779928,0.9999999999999998,3.1400000000000015,-1.9335603725063404,2.2887602605119204,3.1399999999999944,0.9660678860907158,3.14
213,0.004391035317678574,4.439654975375921e-06,0.004391033073290215,6.259382300754178,1.5942912485052387,1.2631942746535112,6.125265557799266,0.9999999999999998,3.1400000000000006,-1.9335603725063928,2.2887602605120447,3.1399999999999766,0.9660678860906217,3.14
214,0.004391035317667227,4.439654864805699e-06,0.004391033073290215,6.259382300754213,1.5942912485053315,1.2631942746534441,6.125265557799303,0.9999999999999999,3.1400000000000015,-1.93356037250647,2.288760260512033,3.139999999999988,0.9660678860909427,3.14
215,0.004391035317680947,4.43965482935257e-06,0.004391033073290215,6.259382300754186,1.5942912485054312,1.263194274653607,6.125265557799273,0.9999999999999999,3.140000000000001,-1.9335603725063095,2.2887602605118,3.1399999999999735,0.9660678860907651,3.14
216,0.004391035317669319,4.439654827544841e-06,0.004391033073290215,6.259382300754212,1.594291248505427,1.2631942746535907,6.125265557799302,0.9999999999999999,3.1400000000000006,-1.9335603725062915,2.2887602605118254,3.139999999999987,0.9660678860910522,3.14
217,0.004391035317663726,4.43965461796296e-06,0.004391033073290215,6.259382300754206,1.5942912485056313,1.2631942746535383,6.125265557799295,0.9999999999999999,3.14,-1.9335603725064736,2.288760260511691,3.1399999999999935,0.9660678860907236,3.14
218,0.004391035317678534,4.439654687787216e-06,0.004391033073290215,6.2593823007542255,1.59429124850557,1.2631942746535736,6.125265557799314,0.9999999999999999,3.140000000000001,-1.9335603725064785,2.288760260511698,3.139999999999976,0.9660678860901873,3.14
219,0.004391035317687024,4.439654714665324e-06,0.004391033073290215,6.259382300754186,1.594291248505527,1.2631942746535358,6.125265557799272,0.9999999999999998,3.1400000000000006,-1.9335603725064565,2.2887602605117783,3.1399999999999673,0.9660678860906168,3.14
220,0.004391035317672136,4.439654865714838e-06,0.004391033073290215,6.2593823007542255,1.5942912485053768,1.263194274653566,6.125265557799314,0.9999999999999999,3.1400000000000006,-1.9335603725063597,2.2887602605118804,3.1399999999999837,0.9660678860906659,3.14
221,0.004391035317682517,4.439654721605312e-06,0.004391033073340782,6.259382300754234,1.5942912485055367,1.2631942746535811,6.125265557799322,0.9999999999999999,3.1400000000000015,-1.9335603725064352,2.288760260511723,3.1399999999999713,0.966067886090349,3.14
222,0.0043910353176700835,4.439654904651569e-06,0.004391033073290215,6.259382300754202,1.594291248505327,1.2631942746535447,6.125265557799293,0.9999999999999999,3.140000000000001,-1.9335603725063448,2.2887602605119457,3.1399999999999855,0.9660678860908639,3.14
223,0.004391035317664973,4.439654545265715e-06,0.004391033073290215,6.259382300754187,1.5942912485057148,1.2631942746535534,6.125265557799276,0.9999999999999999,3.1399999999999997,-1.933560372506492,2.288760260511605,3.1399999999999926,0.9660678860906436,3.14
224,0.004391035317660908,4.43965485654585e-06,0.004391033073290215,6.259382300754168,1.5942912485053997,1.2631942746536005,6.125265557799258,0.9999999999999999,3.14,-1.9335603725063037,2.2887602605118333,3.1399999999999966,0.9660678860907946,3.14
225,0.004391035317677327,4.439654757516005e-06,0.004391033073290215,6.259382300754188,1.5942912485055165,1.263194274653629,6.125265557799278,1.0,3.140000000000001,-1.9335603725063248,2.2887602605117054,3.1399999999999775,0.9660678860906461,3.14
226,0.004391035317668192,4.43965462976097e-06,0.004391033073239647,6.2593823007542015,1.5942912485055971,1.2631942746534814,6.12526555779929,1.0,3.1399999999999997,-1.933560372506534,2.2887602605117716,3.139999999999989,0.966067886090756,3.14
227,0.004391035317661634,4.439654986288981e-06,0.004391033073340782,6.259382300754211,1.5942912485052445,1.2631942746535572,6.125265557799302,1.0,3.140000000000001,-1.933560372506287,2.2887602605120074,3.139999999999995,0.9660678860909634,3.14
228,0.004391035317640749,4.439654859405216e-06,0.004391033073290215,6.2593823007542255,1.5942912485053555,1.263194274653492,6.125265557799318,0.9999999999999999,3.1400000000000006,-1.9335603725063875,2.288760260511975,3.1400000000000183,0.9660678860911368,3.14
229,0.004391035317630288,4.439654786247312e-06,0.004391033073290215,6.259382300754216,1.5942912485054586,1.2631942746535574,6.12526555779931,1.0,3.1400000000000006,-1.933560372506396,2.288760260511819,3.14000000000003,0.9660678860906858,3.14
230,0.0043910353176624785,4.439654858005069e-06,0.004391033073290215,6.259382300754203,1.5942912485053964,1.2631942746535958,6.125265557799294,0.9999999999999999,3.1400000000000006,-1.933560372506311,2.28876026051184,3.1399999999999944,0.9660678860907806,3.14
231,0.004391035317678573,4.439654854371438e-06,0.004391033073290215,6.259382300754187,1.5942912485053702,1.2631942746535165,6.125265557799276,0.9999999999999999,3.1400000000000006,-1.9335603725064316,2.288760260511928,3.1399999999999766,0.966067886090603,3.14
232,0.004391035317685737,4.439654966955463e-06,0.004391033073340782,6.259382300754204,1.5942912485052905,1.2631942746536238,6.125265557799293,0.9999999999999999,3.1400000000000015,-1.9335603725063233,2.2887602605118893,3.1399999999999677,0.9660678860901507,3.14
233,0.004391035317690645,4.439654648117086e-06,0.004391033073290215,6.2593823007541936,1.5942912485056269,1.2631942746536116,6.12526555779928,0.9999999999999999,3.1400000000000006,-1.9335603725064225,2.288760260511621,3.1399999999999633,0.9660678860903668,3.14
234,0.004391035317673745,4.439655045535056e-06,0.004391033073290215,6.259382300754174,1.5942912485051746,1.2631942746535398,6.125265557799263,0.9999999999999998,3.1400000000000006,-1.933560372506257,2.2887602605120874,3.139999999999982,0.9660678860911903,3.14
235,0.004391035317646784,4.439654732977524e-06,0.004391033073290215,6.259382300754179,1.594291248505509,1.26319427465354,6.125265557799271,0.9999999999999999,3.1400000000000006,-1.9335603725064412,2.2887602605117907,3.1400000000000117,0.9660678860906432,3.14
236,0.004391035317633105,4.4396547404721164e-06,0.004391033073290215,6.259382300754234,1.5942912485055005,1.263194274653539,6.125265557799328,0.9999999999999998,3.1400000000000006,-1.933560372506447,2.288760260511798,3.1400000000000268,0.966067886090593,3.14
237,0.004391035317682115,4.439654845719182e-06,0.004391033073340782,6.259382300754194,1.59429124850536,1.2631942746534652,6.125265557799283,0.9999999999999999,3.1400000000000015,-1.9335603725064614,2.2887602605119883,3.1399999999999717,0.9660678860908648,3.14
238,0.004391035317650769,4.439654725675373e-06,0.004391033073290215,6.259382300754207,1.5942912485055158,1.2631942746535376,6.125265557799299,0.9999999999999999,3.140000000000001,-1.9335603725064776,2.288760260511782,3.140000000000007,0.966067886090418,3.14
239,0.004391035317673825,4.4396549102399155e-06,0.004391033073290215,6.259382300754183,1.594291248505352,1.263194274653626,6.1252655577992705,0.9999999999999999,3.1399999999999997,-1.9335603725062636,2.2887602605118493,3.139999999999983,0.9660678860907227,3.14
240,0.00439103531766445,4.43965479000975e-06,0.004391033073290215,6.259382300754175,1.594291248505473,1.263194274653606,6.125265557799264,1.0,3.140000000000001,-1.9335603725062953,2.288760260511771,3.1399999999999917,0.9660678860909858,3.14
241,0.004391035317678896,4.439654801006154e-06,0.004391033073340782,6.259382300754207,1.5942912485054745,1.263194274653641,6.125265557799296,1.0,3.1400000000000015,-1.9335603725063317,2.288760260511723,3.1399999999999753,0.9660678860903683,3.14
242,0.004391035317686982,4.4396544323786025e-06,0.004391033073290215,6.259382300754208,1.5942912485058487,1.263194274653588,6.1252655577992945,1.0,3.140000000000001,-1.933560372506536,2.2887602605114523,3.139999999999967,0.966067886090307,3.14
243,0.004391035317673423,4.439654895153763e-06,0.004391033073340782,6.259382300754181,1.594291248505351,1.2631942746535811,6.125265557799269,1.0,3.1399999999999997,-1.9335603725063668,2.2887602605118826,3.1399999999999832,0.9660678860903981,3.14
244,0.004391035317684247,4.4396549005769805e-06,0.004391033073239647,6.259382300754229,1.5942912485053176,1.263194274653508,6.125265557799317,1.0,3.14,-1.9335603725064117,2.288760260511983,3.139999999999971,0.9660678860907085,3.14
245,0.004391035317671853,4.439654575041046e-06,0.004391033073290215,6.259382300754184,1.5942912485056655,1.2631942746535074,6.125265557799271,1.0,3.1399999999999992,-1.9335603725065322,2.288760260511688,3.1399999999999855,0.9660678860906758,3.14
246,0.0043910353176640875,4.439654757763e-06,0.004391033073290215,6.259382300754217,1.5942912485055105,1.263194274653614,6.125265557799306,1.0,3.1400000000000006,-1.9335603725063482,2.288760260511723,3.1399999999999926,0.9660678860906075,3.14
247,0.004391035317660869,4.439654778073851e-06,0.004391033073290215,6.259382300754198,1.5942912485055043,1.2631942746536549,6.125265557799288,0.9999999999999999,3.1400000000000006,-1.9335603725063673,2.2887602605116784,3.139999999999996,0.9660678860900448,3.14
248,0.0043910353176593005,4.439654751857946e-06,0.004391033073290215,6.259382300754199,1.5942912485055063,1.2631942746535862,6.125265557799289,0.9999999999999998,3.14,-1.9335603725063972,2.2887602605117485,3.1399999999999983,0.9660678860905084,3.14
249,0.004391035317658495,4.439654628951788e-06,0.004391033073290215,6.259382300754193,1.5942912485056322,1.2631942746535716,6.125265557799283,0.9999999999999999,3.14,-1.9335603725065302,2.2887602605116424,3.1399999999999992,0.9660678860899742,3.14
250,0.0043910353176580905,4.439654615761243e-06,0.004391033073290215,6.259382300754211,1.5942912485056502,1.2631942746535818,6.125265557799302,0.9999999999999999,3.14,-1.9335603725064456,2.2887602605116317,3.1399999999999997,0.9660678860905448,3.14
251,0.004391035317657691,4.4396546909768846e-06,0.004391033073239647,6.259382300754196,1.5942912485055734,1.2631942746535914,6.1252655577992865,0.9999999999999999,3.14,-1.9335603725064705,2.288760260511677,3.14,0.9660678860900777,3.14
252,0.004391035317658575,4.439654812567787e-06,0.004391033073239647,6.25938230075419,1.5942912485054288,1.2631942746535532,6.125265557799279,0.9999999999999999,3.1399999999999992,-1.9335603725063923,2.2887602605118484,3.14,0.9660678860906783,3.14
253,0.004391035317677044,4.439654991303059e-06,0.004391033073290215,6.259382300754179,1.5942912485052327,1.2631942746535403,6.125265557799268,0.9999999999999998,3.1399999999999997,-1.933560372506383,2.2887602605120185,3.1399999999999793,0.9660678860903907,3.14
254,0.004391035317667386,4.43965499539734e-06,0.004391033073239647,6.259382300754194,1.594291248505251,1.2631942746535998,6.125265557799284,0.9999999999999998,3.1399999999999997,-1.933560372506297,2.288760260511953,3.13999999999999,0.9660678860904858,3.14
255,0.004391035317644934,4.439654553895251e-06,0.004391033073239647,6.259382300754199,1.5942912485057115,1.263194274653569,6.12526555779929,0.9999999999999999,3.139999999999999,-1.933560372506472,2.2887602605115935,3.1400000000000157,0.9660678860906294,3.14
256,0.004391035317670244,4.439654769323105e-06,0.004391033073290215,6.259382300754188,1.5942912485054854,1.2631942746535805,6.125265557799277,0.9999999999999999,3.1399999999999992,-1.9335603725063888,2.2887602605117734,3.1399999999999872,0.9660678860905744,3.14
257,0.004391035317664168,4.439654718112604e-06,0.004391033073239647,6.259382300754228,1.5942912485055067,1.2631942746534923,6.125265557799318,0.9999999999999998,3.1399999999999997,-1.9335603725065553,2.2887602605118262,3.1399999999999935,0.9660678860902682,3.14
258,0.004391035317680745,4.439654780740759e-06,0.004391033073340782,6.259382300754215,1.5942912485054848,1.263194274653611,6.125265557799301,0.9999999999999998,3.139999999999999,-1.9335603725063486,2.2887602605117463,3.139999999999976,0.9660678860905662,3.14
259,0.004391035317668998,4.439654791335635e-06,0.004391033073239647,6.259382300754233,1.594291248505451,1.2631942746535518,6.125265557799321,0.9999999999999999,3.1399999999999997,-1.9335603725064798,2.2887602605118165,3.139999999999988,0.9660678860900999,3.14
260,0.004391035317662439,4.439654778076899e-06,0.004391033073290215,6.259382300754208,1.5942912485054745,1.2631942746535765,6.125265557799299,0.9999999999999999,3.140000000000001,-1.9335603725064145,2.288760260511782,3.139999999999994,0.9660678860903981,3.14
261,0.0043910353176798604,4.4396550957757935e-06,0.004391033073290215,6.2593823007541705,1.5942912485051257,1.2631942746535527,6.125265557799258,0.9999999999999999,3.1399999999999997,-1.9335603725062673,2.2887602605121096,3.139999999999976,0.9660678860908626,3.14
262,0.004391035317650086,4.439654559342689e-06,0.004391033073239647,6.2593823007542,1.594291248505717,1.263194274653599,6.12526555779929,0.9999999999999998,3.1399999999999997,-1.9335603725064259,2.2887602605115633,3.140000000000009,0.9660678860906874,3.14
263,0.004391035317673906,4.439654986214742e-06,0.004391033073290215,6.2593823007541864,1.5942912485052287,1.2631942746535154,6.125265557799274,1.0,3.139999999999999,-1.9335603725063584,2.288760260512054,3.1399999999999837,0.9660678860908104,3.14
264,0.004391035317665778,4.439654537281676e-06,0.004391033073290215,6.2593823007541785,1.5942912485057426,1.263194274653604,6.125265557799267,1.0,3.1399999999999997,-1.9335603725064727,2.288760260511529,3.1399999999999917,0.9660678860903525,3.14
265,0.004391035317679337,4.439654552110256e-06,0.004391033073290215,6.259382300754168,1.5942912485056977,1.2631942746535276,6.125265557799255,1.0,3.140000000000001,-1.9335603725065196,2.2887602605116424,3.1399999999999753,0.966067886090653,3.14
266,0.0043910353176685145,4.439654862247865e-06,0.004391033073239647,6.25938230075418,1.5942912485053884,1.2631942746535867,6.12526555779927,0.9999999999999999,3.1400000000000006,-1.9335603725063466,2.28876026051185,3.1399999999999877,0.9660678860905875,3.14
267,0.004391035317681793,4.439654601658507e-06,0.004391033073340782,6.2593823007542,1.5942912485056526,1.2631942746535485,6.125265557799287,0.9999999999999999,3.1400000000000006,-1.9335603725064907,2.2887602605116593,3.139999999999973,0.9660678860905486,3.14
268,0.004391035317669721,4.439654857962662e-06,0.004391033073239647,6.259382300754213,1.5942912485053626,1.2631942746535068,6.1252655577993025,0.9999999999999999,3.1400000000000006,-1.9335603725064185,2.2887602605119475,3.1399999999999864,0.9660678860907815,3.14
269,0.004391035317644774,4.439654978495868e-06,0.004391033073239647,6.259382300754219,1.5942912485052683,1.2631942746535978,6.125265557799311,1.0,3.1400000000000006,-1.9335603725062789,2.2887602605119444,3.140000000000014,0.9660678860906843,3.14
270,0.0043910353176512115,4.4396547224947815e-06,0.004391033073239647,6.2593823007542415,1.5942912485055387,1.263194274653589,6.125265557799333,1.0,3.1400000000000006,-1.9335603725063935,2.288760260511721,3.140000000000007,0.9660678860905901,3.14
271,0.004391035317653545,4.439654582408347e-06,0.004391033073290215,6.259382300754174,1.5942912485056713,1.2631942746535434,6.125265557799265,0.9999999999999999,3.1400000000000015,-1.933560372506513,2.2887602605116464,3.1400000000000032,0.9660678860904824,3.14
272,0.004391035317674108,4.4396547873640755e-06,0.004391033073290215,6.259382300754195,1.5942912485054574,1.2631942746535576,6.125265557799285,0.9999999999999999,3.140000000000001,-1.933560372506422,2.2887602605118147,3.139999999999981,0.9660678860904871,3.14
273,0.004391035317664812,4.43965478997187e-06,0.004391033073290215,6.259382300754187,1.5942912485054697,1.2631942746535971,6.125265557799278,1.0,3.1400000000000015,-1.9335603725063655,2.2887602605117707,3.139999999999991,0.9660678860905417,3.14
274,0.004391035317661232,4.439654884304317e-06,0.004391033073239647,6.259382300754196,1.5942912485053902,1.2631942746536535,6.1252655577992865,0.9999999999999999,3.140000000000001,-1.9335603725062893,2.2887602605117836,3.1399999999999952,0.9660678860903554,3.14
275,0.004391035317679056,4.439654888947169e-06,0.004391033073290215,6.2593823007542,1.5942912485053458,1.2631942746535496,6.125265557799287,0.9999999999999998,3.1399999999999997,-1.9335603725064092,2.2887602605119146,3.139999999999977,0.9660678860903867,3.14
276,0.004391035317668595,4.439654808646232e-06,0.004391033073290215,6.259382300754175,1.594291248505435,1.2631942746535585,6.125265557799263,1.0,3.1399999999999997,-1.9335603725064425,2.288760260511828,3.1399999999999886,0.9660678860902671,3.14
277,0.004391035317663363,4.439654760952674e-06,0.004391033073239647,6.259382300754177,1.5942912485055023,1.2631942746536013,6.125265557799266,1.0,3.1399999999999997,-1.9335603725063926,2.2887602605117365,3.1399999999999944,0.9660678860903834,3.14
278,0.004391035317660104,4.439654947528034e-06,0.004391033073290215,6.2593823007542175,1.5942912485052774,1.2631942746535345,6.125265557799308,0.9999999999999999,3.14,-1.9335603725064354,2.288760260511981,3.1399999999999975,0.9660678860901714,3.14
279,0.004391035317658897,4.439654554484707e-06,0.004391033073290215,6.259382300754193,1.5942912485056917,1.2631942746535185,6.125265557799283,0.9999999999999999,3.14,-1.9335603725065276,2.2887602605116557,3.139999999999999,0.9660678860906681,3.14
280,0.004391035317657608,4.439654805455044e-06,0.004391033073239647,6.259382300754178,1.5942912485054408,1.2631942746535647,6.125265557799269,0.9999999999999999,3.140000000000001,-1.9335603725064001,2.2887602605118245,3.1399999999999992,0.96606788609054,3.14
281,0.004391035317657649,4.4396545682571e-06,0.004391033073239647,6.259382300754197,1.594291248505711,1.2631942746536082,6.125265557799287,0.9999999999999999,3.1400000000000006,-1.9335603725064163,2.2887602605115593,3.1399999999999997,0.966067886090651,3.14
282,0.004391035317676601,4.439654630120077e-06,0.004391033073290215,6.259382300754189,1.5942912485056218,1.2631942746535474,6.125265557799278,0.9999999999999999,3.14,-1.9335603725064403,2.288760260511694,3.1399999999999793,0.966067886090857,3.14
283,0.004391035317704767,4.439654655813223e-06,0.004391033073340782,6.259382300754195,1.594291248505597,1.2631942746535543,6.12526555779928,0.9999999999999999,3.14,-1.9335603725065125,2.288760260511693,3.139999999999948,0.9660678860901911,3.14
284,0.004391035317680143,4.439654865407229e-06,0.004391033073290215,6.259382300754182,1.594291248505389,1.2631942746535973,6.12526555779927,0.9999999999999999,3.140000000000001,-1.9335603725062829,2.288760260511849,3.1399999999999744,0.9660678860909565,3.14
285,0.004391035317668917,4.43965467014326e-06,0.004391033073239647,6.259382300754215,1.5942912485055798,1.2631942746535496,6.125265557799304,0.9999999999999998,3.1400000000000006,-1.933560372506487,2.288760260511716,3.1399999999999872,0.9660678860903874,3.14
286,0.00439103531766288,4.439654667861229e-06,0.004391033073290215,6.259382300754223,1.5942912485056078,1.2631942746536169,6.125265557799313,1.0,3.1400000000000006,-1.9335603725064376,2.2887602605116273,3.139999999999994,0.9660678860901565,3.14
287,0.004391035317660064,4.439654821570082e-06,0.004391033073290215,6.259382300754179,1.594291248505426,1.263194274653571,6.12526555779927,1.0,3.1400000000000006,-1.9335603725063981,2.2887602605118293,3.139999999999997,0.9660678860904525,3.14
288,0.004391035317677365,4.439655107651071e-06,0.004391033073239647,6.2593823007542015,1.5942912485051122,1.2631942746535505,6.125265557799291,1.0,3.1400000000000006,-1.9335603725062702,2.288760260512122,3.139999999999978,0.9660678860908304,3.14
289,0.004391035317667307,4.4396546671536035e-06,0.004391033073290215,6.259382300754229,1.5942912485055871,1.2631942746535605,6.1252655577993185,1.0,3.1400000000000006,-1.9335603725064807,2.2887602605116992,3.139999999999989,0.9660678860903443,3.14
290,0.0043910353176625175,4.439654930264385e-06,0.004391033073239647,6.2593823007542015,1.5942912485053344,1.2631942746536362,6.125265557799292,1.0,3.14,-1.933560372506305,2.2887602605118444,3.139999999999995,0.966067886090273,3.14
291,0.0043910353176609875,4.439654941556281e-06,0.004391033073239647,6.259382300754208,1.5942912485053158,1.2631942746536189,6.125265557799298,1.0,3.1399999999999992,-1.9335603725062833,2.2887602605118826,3.1399999999999975,0.9660678860905568,3.14
292,0.0043910353176593395,4.439654652940254e-06,0.004391033073290215,6.259382300754209,1.5942912485055845,1.2631942746535134,6.125265557799298,1.0,3.1399999999999997,-1.9335603725064805,2.2887602605117547,3.139999999999999,0.9660678860908029,3.14
293,0.004391035317658093,4.4396548668255475e-06,0.004391033073290215,6.259382300754181,1.594291248505366,1.2631942746535405,6.125265557799271,0.9999999999999999,3.14,-1.9335603725063695,2.288760260511916,3.1399999999999997,0.9660678860908211,3.14
294,0.004391035317658575,4.4396548478360124e-06,0.004391033073290215,6.259382300754185,1.594291248505389,1.2631942746535478,6.125265557799274,1.0,3.1399999999999992,-1.9335603725064012,2.288760260511884,3.14,0.9660678860905677,3.14
295,0.004391035317677044,4.4396548921459415e-06,0.004391033073290215,6.259382300754216,1.594291248505329,1.2631942746535147,6.125265557799303,1.0,3.1399999999999997,-1.933560372506371,2.288760260511974,3.1399999999999793,0.9660678860909727,3.14
296,0.004391035317684971,4.43965489118069e-06,0.004391033073290215,6.259382300754198,1.594291248505355,1.2631942746535805,6.1252655577992865,1.0,3.140000000000001,-1.933560372506377,2.288760260511878,3.139999999999969,0.9660678860903401,3.14
297,0.004391035317671332,4.439654589089229e-06,0.004391033073290215,6.259382300754178,1.5942912485056675,1.2631942746535523,6.125265557799266,0.9999999999999999,3.1400000000000006,-1.9335603725064583,2.288760260511649,3.1399999999999846,0.9660678860907869,3.14
298,0.004391035317685211,4.439654525665511e-06,0.004391033073340782,6.259382300754189,1.594291248505758,1.2631942746536122,6.125265557799275,1.0,3.1399999999999983,-1.9335603725064963,2.288760260511504,3.1399999999999717,0.9660678860901338,3.14
299,0.0043910353176714505,4.439654603505651e-06,0.004391033073290215,6.2593823007541545,1.594291248505628,1.2631942746534888,6.125265557799243,0.9999999999999999,3.1399999999999992,-1.9335603725065784,2.2887602605117303,3.139999999999986,0.9660678860904278,3.14
300,0.004391035317645658,4.439654988687681e-06,0.004391033073239647,6.2593823007542255,1.5942912485052314,1.2631942746535294,6.125265557799318,0.9999999999999999,3.1399999999999997,-1.93356037250634,2.2887602605120394,3.140000000000014,0.9660678860908151,3.14
301,0.004391035317669279,4.439655013679244e-06,0.004391033073290215,6.259382300754181,1.5942912485052187,1.2631942746535665,6.125265557799271,0.9999999999999998,3.140000000000001,-1.9335603725063428,2.288760260512007,3.1399999999999864,0.9660678860903978,3.14
302,0.004391035317663283,4.439654942594273e-06,0.004391033073290215,6.259382300754231,1.59429124850528,1.2631942746535276,6.125265557799321,0.9999999999999999,3.1400000000000006,-1.9335603725064126,2.2887602605119906,3.1399999999999935,0.9660678860904174,3.14
303,0.004391035317660507,4.439654607024136e-06,0.004391033073290215,6.259382300754207,1.5942912485056302,1.2631942746535045,6.125265557799297,0.9999999999999998,3.14,-1.9335603725065251,2.28876026051172,3.139999999999997,0.9660678860906727,3.14
304,0.004391035317659782,4.4396545508237655e-06,0.004391033073239647,6.259382300754239,1.5942912485057255,1.2631942746535971,6.125265557799328,0.9999999999999998,3.1399999999999992,-1.9335603725065247,2.288760260511541,3.139999999999999,0.9660678860899924,3.14
305,0.004391035317659822,4.439654770048923e-06,0.004391033073290215,6.259382300754217,1.5942912485054892,1.2631942746535925,6.125265557799306,0.9999999999999999,3.139999999999999,-1.9335603725063433,2.288760260511765,3.1399999999999992,0.9660678860908009,3.14
306,0.004391035317640065,4.439654995914058e-06,0.004391033073290215,6.259382300754208,1.594291248505241,1.263194274653575,6.125265557799301,0.9999999999999999,3.1399999999999992,-1.9335603725063248,2.288760260511984,3.1400000000000206,0.9660678860905006,3.14
307,0.004391035317629966,4.439654915776752e-06,0.004391033073239647,6.25938230075422,1.594291248505363,1.2631942746536708,6.125265557799313,1.0,3.1399999999999997,-1.9335603725062536,2.2887602605117925,3.140000000000031,0.9660678860903792,3.14
308,0.004391035317662961,4.439654970705812e-06,0.004391033073239647,6.259382300754179,1.5942912485052507,1.2631942746535296,6.12526555779927,0.9999999999999999,3.1399999999999997,-1.9335603725063657,2.2887602605120194,3.139999999999995,0.9660678860906718,3.14
309,0.004391035317659219,4.439654955130211e-06,0.004391033073290215,6.25938230075418,1.5942912485052692,1.2631942746535343,6.125265557799271,0.9999999999999999,3.140000000000001,-1.933560372506387,2.288760260511996,3.1399999999999975,0.9660678860905126,3.14
310,0.004391035317659341,4.439654792296337e-06,0.004391033073290215,6.259382300754226,1.5942912485054292,1.2631942746534972,6.125265557799316,0.9999999999999999,3.1399999999999997,-1.9335603725064647,2.2887602605118973,3.139999999999999,0.966067886090696,3.14
311,0.004391035317657609,4.439654969636033e-06,0.004391033073290215,6.259382300754228,1.5942912485052352,1.2631942746534857,6.125265557799319,0.9999999999999999,3.140000000000001,-1.9335603725064243,2.2887602605120705,3.1399999999999992,0.9660678860906339,3.14
312,0.0043910353176396235,4.439654884993796e-06,0.004391033073239647,6.259382300754228,1.5942912485053469,1.2631942746535414,6.12526555779932,0.9999999999999998,3.1399999999999997,-1.9335603725063615,2.288760260511931,3.1400000000000206,0.9660678860908226,3.14
313,0.004391035317648878,4.439654532832806e-06,0.004391033073239647,6.259382300754212,1.5942912485057417,1.2631942746535891,6.125265557799303,0.9999999999999999,3.1399999999999997,-1.9335603725064765,2.288760260511546,3.1400000000000103,0.9660678860904705,3.14
314,0.0043910353176708885,4.439654684641497e-06,0.004391033073239647,6.259382300754186,1.5942912485055567,1.2631942746535296,6.125265557799275,0.9999999999999999,3.140000000000001,-1.933560372506442,2.288760260511765,3.1399999999999846,0.9660678860908624,3.14
315,0.004391035317664088,4.439654732695684e-06,0.004391033073239647,6.259382300754203,1.594291248505505,1.2631942746535287,6.125265557799293,0.9999999999999999,3.1400000000000006,-1.9335603725064654,2.2887602605118023,3.1399999999999926,0.966067886090569,3.14
316,0.004391035317659984,4.43965499739602e-06,0.004391033073290215,6.259382300754207,1.5942912485052165,1.2631942746535147,6.125265557799298,1.0,3.1400000000000015,-1.9335603725063342,2.2887602605120687,3.139999999999996,0.9660678860909683,3.14
317,0.004391035317660144,4.439654604507234e-06,0.004391033073239647,6.259382300754169,1.5942912485056606,1.2631942746535776,6.125265557799258,1.0,3.1399999999999997,-1.933560372506503,2.2887602605116184,3.139999999999998,0.9660678860901898,3.14
318,0.0043910353176404284,4.439654870913775e-06,0.004391033073239647,6.2593823007541936,1.5942912485053744,1.2631942746535743,6.125265557799286,1.0,3.1399999999999997,-1.933560372506304,2.288760260511883,3.1400000000000197,0.9660678860909916,3.14
319,0.004391035317649281,4.4396548625221585e-06,0.004391033073239647,6.259382300754217,1.5942912485053455,1.2631942746534746,6.125265557799307,0.9999999999999999,3.1399999999999997,-1.9335603725064332,2.288760260511995,3.14000000000001,0.9660678860909514,3.14
320,0.004391035317672618,4.439654606825632e-06,0.004391033073290215,6.259382300754193,1.5942912485056335,1.2631942746535127,6.12526555779928,1.0,3.1399999999999997,-1.9335603725065273,2.288760260511708,3.139999999999984,0.9660678860905835,3.14
321,0.004391035317685172,4.4396547719945695e-06,0.004391033073290215,6.259382300754193,1.5942912485054501,1.263194274653495,6.12526555779928,1.0,3.139999999999999,-1.9335603725064772,2.2887602605118818,3.1399999999999713,0.9660678860906792,3.14
322,0.004391035317690363,4.439654946355211e-06,0.004391033073290215,6.259382300754231,1.594291248505269,1.263194274653509,6.125265557799318,1.0,3.1399999999999992,-1.9335603725064059,2.2887602605120216,3.139999999999965,0.9660678860906241,3.14
323,0.004391035317673826,4.439655035071998e-06,0.004391033073290215,6.259382300754201,1.5942912485052245,1.263194274653642,6.125265557799289,1.0,3.1399999999999997,-1.9335603725062176,2.2887602605119404,3.139999999999983,0.9660678860905939,3.14
324,0.004391035317685574,4.439654690087421e-06,0.004391033073290215,6.259382300754165,1.5942912485055598,1.2631942746535532,6.125265557799252,1.0,3.139999999999999,-1.933560372506539,2.2887602605117188,3.139999999999971,0.9660678860899149,3.14
325,0.004391035317671853,4.439654644774359e-06,0.004391033073239647,6.259382300754195,1.594291248505654,1.2631942746536735,6.125265557799284,1.0,3.1399999999999992,-1.9335603725064003,2.288760260511534,3.1399999999999855,0.9660678860899851,3.14
326,0.0043910353176645715,4.439654922221271e-06,0.004391033073290215,6.259382300754203,1.5942912485053247,1.2631942746535878,6.125265557799293,1.0,3.1399999999999997,-1.9335603725063666,2.288760260511896,3.139999999999993,0.9660678860902735,3.14
327,0.004391035317681149,4.439654576744193e-06,0.004391033073340782,6.259382300754195,1.5942912485057206,1.2631942746536573,6.125265557799281,1.0,3.139999999999999,-1.9335603725063781,2.2887602605115034,3.1399999999999757,0.9660678860904744,3.14
328,0.0043910353176685145,4.439654867593801e-06,0.004391033073290215,6.259382300754176,1.5942912485053573,1.2631942746535199,6.125265557799265,1.0,3.1400000000000006,-1.9335603725064296,2.288760260511935,3.1399999999999877,0.9660678860905555,3.14
329,0.004391035317644411,4.439654376576786e-06,0.004391033073239647,6.259382300754213,1.594291248505882,1.2631942746535185,6.125265557799304,0.9999999999999999,3.14,-1.9335603725066728,2.28876026051148,3.140000000000015,0.9660678860900592,3.14
330,0.004391035317650849,4.439654636393355e-06,0.004391033073290215,6.259382300754213,1.5942912485056076,1.2631942746535276,6.125265557799304,0.9999999999999998,3.14,-1.9335603725065578,2.2887602605117063,3.1400000000000077,0.9660678860901476,3.14
331,0.00439103531765447,4.439654774243216e-06,0.004391033073290215,6.2593823007542095,1.594291248505507,1.263194274653651,6.125265557799301,1.0,3.14,-1.9335603725063335,2.288760260511687,3.1400000000000037,0.9660678860903412,3.14
332,0.004391035317656081,4.439655046322988e-06,0.004391033073290215,6.259382300754233,1.5942912485051977,1.263194274653603,6.125265557799325,1.0,3.14,-1.933560372506219,2.2887602605120048,3.140000000000002,0.9660678860909001,3.14
333,0.0043910353176388585,4.4396549378271975e-06,0.004391033073239647,6.259382300754214,1.5942912485052743,1.263194274653499,6.125265557799307,1.0,3.1399999999999992,-1.9335603725064066,2.2887602605120283,3.140000000000022,0.9660678860907276,3.14
334,0.004391035317648474,4.439654452956143e-06,0.004391033073239647,6.259382300754215,1.5942912485058451,1.2631942746536367,6.125265557799305,1.0,3.1399999999999997,-1.933560372506511,2.2887602605114052,3.140000000000011,0.9660678860900002,3.14
335,0.004391035317672215,4.439655053134214e-06,0.004391033073239647,6.25938230075419,1.59429124850515,1.2631942746534963,6.125265557799279,1.0,3.1399999999999997,-1.9335603725064223,2.288760260512127,3.1399999999999846,0.9660678860903323,3.14
336,0.004391035317664932,4.439654565870551e-06,0.004391033073239647,6.259382300754244,1.5942912485056744,1.263194274653505,6.125265557799334,1.0,3.14,-1.933560372506538,2.288760260511683,3.139999999999992,0.9660678860906825,3.14
337,0.004391035317679338,4.439654857470172e-06,0.004391033073290215,6.259382300754187,1.5942912485054002,1.2631942746536042,6.125265557799276,1.0,3.140000000000001,-1.9335603725063417,2.2887602605118222,3.1399999999999753,0.96606788609048,3.14
338,0.0043910353176685145,4.439654956698522e-06,0.004391033073239647,6.259382300754185,1.59429124850528,1.2631942746535674,6.125265557799274,0.9999999999999999,3.1400000000000006,-1.9335603725063748,2.2887602605119524,3.1399999999999877,0.9660678860903019,3.14
339,0.004391035317643084,4.4396548937642564e-06,0.004391033073290215,6.259382300754237,1.5942912485053398,1.2631942746535474,6.12526555779933,0.9999999999999999,3.1400000000000015,-1.9335603725063957,2.288760260511924,3.140000000000015,0.9660678860904951,3.14
340,0.004391035317668877,4.439654606002819e-06,0.004391033073239647,6.259382300754193,1.5942912485056582,1.2631942746535754,6.125265557799282,1.0,3.140000000000001,-1.9335603725063977,2.2887602605116415,3.139999999999987,0.966067886090986,3.14
341,0.004391035317681309,4.439654739628089e-06,0.004391033073290215,6.259382300754218,1.5942912485055256,1.2631942746536027,6.125265557799307,1.0,3.1400000000000015,-1.9335603725063448,2.2887602605117245,3.1399999999999726,0.9660678860907818,3.14
342,0.0043910353176706066,4.439654670143247e-06,0.004391033073239647,6.259382300754205,1.5942912485056029,1.2631942746536104,6.125265557799294,1.0,3.1399999999999997,-1.9335603725064625,2.288760260511634,3.1399999999999864,0.9660678860900221,3.14
343,0.004391035317664167,4.439654756747779e-06,0.004391033073239647,6.259382300754194,1.594291248505479,1.263194274653528,6.125265557799284,1.0,3.1399999999999997,-1.9335603725064627,2.2887602605118245,3.1399999999999935,0.9660678860905306,3.14
344,0.0043910353176785325,4.439654645809312e-06,0.004391033073290215,6.259382300754209,1.5942912485056249,1.2631942746535998,6.125265557799296,1.0,3.140000000000001,-1.9335603725063986,2.2887602605116397,3.139999999999976,0.9660678860906536,3.14
345,0.004391035317667227,4.439654974780393e-06,0.004391033073290215,6.2593823007542015,1.5942912485052718,1.2631942746535967,6.125265557799292,1.0,3.1400000000000015,-1.9335603725063177,2.288760260511936,3.139999999999988,0.9660678860904154,3.14
346,0.0043910353176611515,4.4396547397963095e-06,0.004391033073290215,6.259382300754205,1.594291248505485,1.263194274653496,6.125265557799295,0.9999999999999999,3.140000000000002,-1.9335603725064925,2.2887602605118498,3.1399999999999944,0.9660678860906416,3.14
347,0.004391035317659621,4.439654792084174e-06,0.004391033073239647,6.2593823007541936,1.5942912485054683,1.2631942746535996,6.125265557799285,0.9999999999999999,3.140000000000001,-1.9335603725063637,2.2887602605117694,3.139999999999997,0.9660678860905315,3.14
348,0.004391035317658455,4.439654665889868e-06,0.004391033073290215,6.259382300754229,1.5942912485055707,1.2631942746535136,6.125265557799319,0.9999999999999999,3.1400000000000006,-1.9335603725064767,2.288760260511766,3.139999999999999,0.9660678860907962,3.14
349,0.004391035317677004,4.439654839471623e-06,0.004391033073290215,6.259382300754179,1.5942912485054388,1.2631942746536553,6.125265557799268,0.9999999999999998,3.14,-1.9335603725062132,2.288760260511757,3.139999999999979,0.9660678860910218,3.14
350,0.004391035317667347,4.439654817400026e-06,0.004391033073239647,6.259382300754183,1.5942912485054241,1.2631942746535545,6.125265557799272,0.9999999999999999,3.14,-1.9335603725064023,2.2887602605118484,3.1399999999999895,0.9660678860905819,3.14
351,0.004391035317661634,4.439654729277181e-06,0.004391033073239647,6.259382300754182,1.5942912485055485,1.2631942746536338,6.125265557799273,0.9999999999999999,3.140000000000001,-1.9335603725063313,2.2887602605116735,3.139999999999995,0.9660678860906274,3.14
352,0.004391035317677688,4.439654883140597e-06,0.004391033073290215,6.259382300754182,1.5942912485053617,1.2631942746535754,6.125265557799271,0.9999999999999999,3.1400000000000015,-1.9335603725063828,2.2887602605118773,3.1399999999999766,0.966067886090365,3.14
353,0.004391035317647871,4.439654690629894e-06,0.004391033073290215,6.259382300754201,1.5942912485055567,1.2631942746535465,6.125265557799293,0.9999999999999999,3.140000000000002,-1.9335603725065489,2.2887602605117263,3.140000000000009,0.9660678860898996,3.14
354,0.0043910353176716925,4.439654858012646e-06,0.004391033073239647,6.259382300754181,1.594291248505397,1.2631942746535976,6.12526555779927,0.9999999999999999,3.140000000000001,-1.9335603725063102,2.2887602605118373,3.1399999999999837,0.9660678860907713,3.14
355,0.004391035317664893,4.439654963055144e-06,0.004391033073290215,6.259382300754216,1.5942912485052616,1.2631942746535367,6.125265557799305,0.9999999999999998,3.1400000000000006,-1.9335603725063457,2.288760260512006,3.1399999999999917,0.9660678860907755,3.14
356,0.004391035317662196,4.439654868731779e-06,0.004391033073239647,6.259382300754241,1.5942912485053558,1.263194274653519,6.125265557799331,0.9999999999999999,3.1399999999999992,-1.9335603725064112,2.288760260511941,3.139999999999996,0.9660678860906967,3.14
357,0.0043910353176412325,4.43965505763762e-06,0.004391033073239647,6.259382300754199,1.5942912485051695,1.2631942746535605,6.125265557799292,0.9999999999999998,3.1399999999999997,-1.9335603725063253,2.288760260512056,3.1400000000000188,0.9660678860904642,3.14
358,0.004391035317648354,4.439654974633429e-06,0.004391033073290215,6.259382300754221,1.5942912485052427,1.2631942746535196,6.125265557799314,1.0,3.140000000000001,-1.9335603725063495,2.28876026051204,3.1400000000000095,0.9660678860908672,3.14
359,0.004391035317652821,4.439654887178849e-06,0.004391033073239647,6.259382300754172,1.5942912485053242,1.2631942746534879,6.125265557799263,1.0,3.1400000000000006,-1.9335603725064658,2.2887602605119906,3.140000000000005,0.9660678860905235,3.14
360,0.0043910353176367664,4.439655141102462e-06,0.004391033073239647,6.259382300754218,1.5942912485050882,1.2631942746535816,6.125265557799312,1.0,3.14,-1.9335603725062362,2.2887602605121122,3.140000000000023,0.9660678860907156,3.14
361,0.0043910353176661405,4.43965451740117e-06,0.004391033073290215,6.259382300754193,1.5942912485057381,1.2631942746535363,6.125265557799281,1.0,3.14,-1.9335603725065489,2.2887602605115953,3.139999999999991,0.966067886090448,3.14
362,0.004391035317662599,4.439654836959304e-06,0.004391033073239647,6.259382300754207,1.5942912485054073,1.2631942746535652,6.125265557799296,1.0,3.1399999999999992,-1.9335603725063988,2.28876026051185,3.1399999999999957,0.9660678860904596,3.14
363,0.0043910353176790555,4.439654918089102e-06,0.004391033073239647,6.259382300754185,1.5942912485053147,1.2631942746535498,6.125265557799272,1.0,3.1399999999999997,-1.9335603725063482,2.2887602605119497,3.139999999999977,0.9660678860907584,3.14
364,0.004391035317668151,4.43965486077198e-06,0.004391033073239647,6.25938230075419,1.594291248505388,1.2631942746535814,6.125265557799279,1.0,3.14,-1.9335603725063284,2.28876026051186,3.1399999999999886,0.9660678860907738,3.14
365,0.0043910353176638064,4.439654882257197e-06,0.004391033073239647,6.259382300754179,1.5942912485053464,1.2631942746535325,6.12526555779927,0.9999999999999999,3.1399999999999992,-1.9335603725063772,2.288760260511939,3.1399999999999944,0.966067886090794,3.14
366,0.004391035317660949,4.439655039269353e-06,0.004391033073290215,6.25938230075421,1.5942912485051894,1.2631942746535614,6.125265557799301,0.9999999999999999,3.1399999999999997,-1.933560372506292,2.288760260512045,3.139999999999997,0.9660678860907524,3.14
367,0.0043910353176593005,4.43965471573816e-06,0.004391033073290215,6.259382300754189,1.5942912485055012,1.263194274653471,6.125265557799279,0.9999999999999999,3.14,-1.9335603725064763,2.2887602605118684,3.1399999999999983,0.966067886091048,3.14
368,0.004391035317658495,4.4396547368627125e-06,0.004391033073290215,6.259382300754233,1.5942912485055019,1.2631942746535323,6.125265557799323,0.9999999999999999,3.14,-1.9335603725065116,2.288760260511793,3.1399999999999992,0.9660678860901833,3.14
369,0.004391035317657207,4.439654882837536e-06,0.004391033073290215,6.259382300754191,1.5942912485053697,1.2631942746535956,6.125265557799281,0.9999999999999999,3.140000000000001,-1.9335603725062953,2.288760260511864,3.1399999999999997,0.9660678860908328,3.14
370,0.004391035317639623,4.439654710175539e-06,0.004391033073239647,6.259382300754195,1.5942912485055294,1.2631942746535296,6.125265557799287,1.0,3.1399999999999997,-1.9335603725065311,2.2887602605117707,3.1400000000000206,0.9660678860901314,3.14
371,0.004391035317647551,4.439654903969701e-06,0.004391033073290215,6.2593823007541936,1.5942912485053133,1.2631942746535065,6.1252655577992865,1.0,3.140000000000001,-1.9335603725064114,2.288760260511988,3.1400000000000103,0.9660678860907143,3.14
372,0.00439103531767133,4.4396549483523256e-06,0.004391033073290215,6.259382300754202,1.594291248505313,1.2631942746536304,6.125265557799292,0.9999999999999999,3.1400000000000006,-1.9335603725062984,2.288760260511869,3.1399999999999846,0.9660678860903252,3.14
373,0.004391035317701027,4.4396547884399116e-06,0.004391033073340782,6.259382300754206,1.5942912485054828,1.2631942746536273,6.125265557799292,0.9999999999999999,3.1400000000000015,-1.9335603725062653,2.288760260511744,3.139999999999951,0.9660678860910196,3.14
374,0.004391035317659541,4.439654855823081e-06,0.004391033073239647,6.2593823007541936,1.5942912485053662,1.26319427465351,6.125265557799285,0.9999999999999998,3.140000000000002,-1.9335603725064154,2.2887602605119413,3.139999999999996,0.9660678860907791,3.14
375,0.004391035317677324,4.439654608643952e-06,0.004391033073290215,6.25938230075417,1.5942912485056664,1.2631942746536045,6.125265557799258,1.0,3.140000000000001,-1.9335603725064576,2.2887602605115913,3.1399999999999775,0.9660678860902722,3.14
376,0.004391035317647913,4.439654730083321e-06,0.004391033073239647,6.259382300754192,1.5942912485055316,1.2631942746535916,6.125265557799284,1.0,3.1400000000000015,-1.9335603725063657,2.2887602605117285,3.1400000000000095,0.9660678860907529,3.14
377,0.004391035317672618,4.439654768154836e-06,0.004391033073290215,6.2593823007542015,1.5942912485054612,1.2631942746535134,6.125265557799289,0.9999999999999999,3.1399999999999997,-1.9335603725064245,2.2887602605118613,3.139999999999984,0.9660678860909143,3.14
378,0.004391035317665375,4.439655041133149e-06,0.004391033073290215,6.259382300754204,1.5942912485051917,1.2631942746535725,6.125265557799294,1.0,3.1399999999999997,-1.933560372506262,2.2887602605120363,3.139999999999992,0.9660678860908684,3.14
379,0.004391035317680665,4.439654737559747e-06,0.004391033073290215,6.259382300754182,1.5942912485054939,1.2631942746535132,6.125265557799269,1.0,3.1399999999999997,-1.933560372506479,2.2887602605118262,3.1399999999999753,0.9660678860905906,3.14
380,0.0043910353176694,4.439654665830773e-06,0.004391033073290215,6.259382300754188,1.5942912485055678,1.2631942746535059,6.125265557799277,1.0,3.1399999999999997,-1.9335603725064823,2.2887602605117756,3.1399999999999877,0.9660678860908231,3.14
381,0.004391035317663766,4.439654703934066e-06,0.004391033073290215,6.259382300754203,1.5942912485055718,1.2631942746536238,6.125265557799293,1.0,3.1399999999999997,-1.9335603725063617,2.2887602605116615,3.139999999999994,0.9660678860905617,3.14
382,0.0043910353176609485,4.439654663794222e-06,0.004391033073290215,6.259382300754207,1.5942912485055873,1.2631942746535516,6.125265557799296,1.0,3.1399999999999997,-1.9335603725064079,2.2887602605117223,3.139999999999997,0.9660678860909696,3.14
383,0.0043910353176580125,4.4396547275300595e-06,0.004391033073239647,6.259382300754193,1.5942912485055496,1.2631942746536318,6.125265557799284,1.0,3.140000000000001,-1.933560372506359,2.2887602605116704,3.139999999999999,0.9660678860904478,3.14
384,0.004391035317677447,4.439654761414845e-06,0.004391033073290215,6.259382300754176,1.5942912485054852,1.2631942746535576,6.125265557799263,1.0,3.1399999999999997,-1.9335603725064072,2.288760260511796,3.139999999999979,0.9660678860906639,3.14
385,0.004391035317649763,4.4396548391246614e-06,0.004391033073290215,6.259382300754198,1.594291248505376,1.2631942746534888,6.125265557799288,0.9999999999999999,3.139999999999999,-1.9335603725064063,2.2887602605119595,3.1400000000000103,0.9660678860910815,3.14
386,0.004391035317653708,4.439654948150823e-06,0.004391033073239647,6.259382300754176,1.5942912485052652,1.263194274653504,6.125265557799267,0.9999999999999999,3.1399999999999997,-1.9335603725063732,2.288760260512036,3.140000000000005,0.9660678860909043,3.14
387,0.004391035317656121,4.439654703962884e-06,0.004391033073239647,6.259382300754195,1.5942912485055258,1.2631942746535028,6.125265557799286,0.9999999999999998,3.1399999999999997,-1.9335603725065282,2.288760260511804,3.1400000000000023,0.9660678860904118,3.14
388,0.004391035317655599,4.439654844434203e-06,0.004391033073290215,6.25938230075421,1.5942912485053902,1.2631942746535412,6.125265557799302,0.9999999999999999,3.140000000000001,-1.9335603725063422,2.288760260511901,3.1400000000000015,0.9660678860910769,3.14
389,0.00439103531767447,4.439654845485796e-06,0.004391033073290215,6.259382300754173,1.594291248505411,1.2631942746535991,6.1252655577992625,0.9999999999999999,3.1400000000000015,-1.9335603725063122,2.2887602605118245,3.13999999999998,0.9660678860907769,3.14
390,0.004391035317665659,4.439654539765232e-06,0.004391033073290215,6.2593823007542255,1.5942912485057277,1.2631942746535718,6.125265557799315,0.9999999999999999,3.140000000000001,-1.9335603725065142,2.2887602605115696,3.1399999999999904,0.9660678860903283,3.14
391,0.004391035317679701,4.439655031273218e-06,0.004391033073290215,6.259382300754207,1.5942912485051746,1.2631942746534996,6.125265557799295,0.9999999999999998,3.1400000000000015,-1.9335603725063712,2.288760260512112,3.1399999999999744,0.9660678860907389,3.14
392,0.004391035317650889,4.439654955634797e-06,0.004391033073290215,6.259382300754221,1.5942912485052743,1.2631942746535492,6.125265557799312,0.9999999999999999,3.1399999999999997,-1.9335603725063295,2.2887602605119857,3.140000000000008,0.9660678860908029,3.14
393,0.004391035317654511,4.439654721626526e-06,0.004391033073239647,6.259382300754193,1.5942912485055363,1.26319427465358,6.125265557799283,0.9999999999999998,3.1399999999999997,-1.9335603725063384,2.2887602605117428,3.140000000000004,0.9660678860910795,3.14
