jkpark150901/flame_robotics_drt/experiment/inspection_ik/session_20260722_152253/success/inspection_ik_20260722_152420_rb20_1900es_normalized_success.csv
iteration,err_norm,position_error,orientation_error,tcp_x,tcp_y,tcp_z,q0_rt_joint_linear_track,q1_rt_joint_carriage,q2_rt_base,q3_rt_shoulder,q4_rt_elbow,q5_rt_wrist1,q6_rt_wrist2,q7_rt_wrist3
0,2.304510276051165,0.7951064650135268,2.0943742283654503,6.034308257859648,1.6723755644598781,1.3135450695957314,4.749630320241178,0.41996923331755615,-0.6872903588355629,1.536185141532356,-0.6089593990425398,2.7108602359816776,0.4408515450249726,0.9862767618696702
1,1.7747261120727948,0.763351112913544,1.5615134014116328,6.024632628985597,1.2774577025928657,1.4555352548506633,4.586357634675563,0.09499127199529978,-0.7855031619775142,1.165156891195669,-0.07835637644562055,1.3491532092572731,0.22033338892014162,2.145791763913013
2,1.3035850315583057,0.8255010742923352,0.9801221460589008,5.868308184162876,1.0564202298344956,1.5848690209346274,4.645525219089791,0.13101707425969275,-0.8261429803257925,0.46097044324164416,0.9179896866958881,0.9427081823751622,0.5425611492936868,2.3188346506810475
3,1.0324767137681639,0.6419514771921018,0.7958461042357384,5.9700837430237295,1.0969995241393071,1.8315491507378803,4.956712751459204,0.30415494586111635,-0.7502258282864489,0.2516881533858753,0.8671573771950739,0.1258016173850618,0.8784333236811205,2.9966172538915536
4,0.7395159731025139,0.4851866601735281,0.5531000279490623,6.024302992139595,1.204847011754904,1.9797477884346548,5.227906739000536,0.3701293454128308,-0.5524244564430322,0.2641313466951126,0.6229064787945817,-0.021303613086855938,1.295389049239139,3.0304644441240933
5,0.5148792730431015,0.3517060747913247,0.3742612565488109,6.048731127337733,1.3258858806712435,2.050723012872136,5.436032609489924,0.44487187984554244,-0.3538320754740836,0.32899794627598633,0.399456089286147,-0.11463259601865236,1.5939958462660608,3.04996767522154
6,0.3504442588100654,0.24664663212640914,0.24837246379156636,6.056491214905854,1.4282294243482938,2.0825665954883887,5.585222426901895,0.5281744500357217,-0.19765853580413995,0.3911502144412058,0.22914229176660525,-0.17670322452525142,1.8028500904784686,3.0620879621902777
7,0.23365922618121945,0.1675870536079674,0.16264848235998236,6.056527433845113,1.5067536091899791,2.097504257187815,5.678933058314573,0.6119713352601235,-0.09419970237629374,0.42485681732581254,0.13010624529486925,-0.21278425550609043,1.9359750256027384,3.0659301621787254
8,0.1534017121165011,0.11101550597738341,0.10581668749279516,6.052544006662455,1.563061145908581,2.104398956233305,5.725458497290927,0.6794616922599401,-0.03800052315582564,0.43590779840542176,0.08773749094590659,-0.2265869225997578,2.0106815164326033,3.0636423598243883
9,0.1000810870338834,0.07271986115413175,0.06874704825172151,6.047745798014654,1.6010317975236146,2.107252351295022,5.746568385538101,0.7252636239446544,-0.009114891114588453,0.4391487680943691,0.0705400789448429,-0.22930049281631412,2.0521582185746876,3.060149458389207
10,0.06515813516679748,0.04743895702281646,0.04466306576457135,6.0436948987672645,1.625985472103102,2.1083280550354297,5.756693702958527,0.754720857616846,0.006617895601675614,0.44042109090849024,0.06265435393212168,-0.22851992558375217,2.0763884717380003,3.0573494794335647
11,0.04238816174380245,0.030894694992293803,0.029020915879352627,6.040683029700769,1.6422553580017611,2.1086874521809986,5.761941136977152,0.7735161598820012,0.015722944724615155,0.44110397521661043,0.05859724361213805,-0.22704945546348315,2.0911176340826425,3.055402020600838
12,0.027565812277995382,0.020104291145229845,0.018859498201195465,6.038569831752043,1.6528380507459197,2.108777014871755,5.764842583582178,0.7855423125748976,0.021217286930835015,0.4415321686643486,0.05633565367978015,-0.22572153695871414,2.100296819644622,3.05410544651797
13,0.017923500312270413,0.01307721155978229,0.012257098774354689,6.037131752121095,1.6597168329911947,2.1087749050435836,5.766527751382587,0.793270644783545,0.02462302828841795,0.4418138186260989,0.05500591744628511,-0.22471079183586057,2.106106464696964,3.0532551808982764
14,0.011652921310411558,0.008504367840330847,0.007966552447756155,6.036170056708441,1.6641874411184039,2.1087485023403896,5.767542153957564,0.7982554406133713,0.026770507496143285,0.44200043893407637,0.05419610577811716,-0.22399414014903726,2.1098195385120797,3.052700653753695
15,0.007575718704663404,0.005529815113323388,0.0051780881739658694,6.035533651688508,1.6670930156564026,2.1087210739496896,5.768168389559316,0.8014794211414114,0.02813944476326848,0.44212361671097244,0.05369140308032822,-0.22350391277607026,2.112207466810779,3.0523397300097956
16,0.004924919674651945,0.0035953719205953456,0.0033657277906451208,6.035115234483261,1.6689815443873508,2.1086991096072465,5.7685617706022025,0.8035685342372102,0.02901821808456375,0.4422044677070209,0.05337205598721017,-0.22317522722170394,2.1137493302100108,3.052104984534355
17,0.0032015924008974854,0.00233751867661113,0.002187738186985985,6.034841260742843,1.6702090965793004,2.1086832164078935,5.768811802467104,0.8049240029170281,0.029584884567006916,0.4422572846304359,0.05316798091427878,-0.2229574510618968,2.114747469611647,3.0519523408213165
18,0.002081266359262946,0.0015196813515023552,0.0014220541117916318,6.034662333522869,1.6710070464783477,2.108672288037441,5.768971974804092,0.8058042176495176,0.02995135831239961,0.44229166624904886,0.053036723738780385,-0.2228142052619982,2.115394703906556,3.0518530894099785
19,0.001352963129250484,0.0009879641592060288,0.0009243570665096907,6.034545674739496,1.6715257570745148,2.108664987372376,5.769075117139839,0.8063761345589909,0.030188811008527387,0.44231399178835606,0.052951945395629495,-0.22272041115295305,2.1158148513042767,3.051788554352436
20,0.000879512758565284,0.0006422797470010131,0.000600848905313871,6.034469696348637,1.6718629544187,2.108660194605291,5.769141762749807,0.8067478734909722,0.030342854150524085,0.442328464187623,0.05289703716924945,-0.22265917423841244,2.116087778382249,3.0517465917504953
21,0.000571737898333976,0.0004175453652186665,0.00039056381047841823,6.034420247082794,1.6720821589802568,2.1086570827195406,5.769184922536902,0.8069895576883732,0.030442866198782333,0.4423378350784636,0.05286141138122418,-0.2226192674818226,2.1162651521659503,3.051719305934334
22,0.00037166440031089593,0.0002714443489161783,0.0002538747551963923,6.0343880783944535,1.6722246604337514,2.1086550766649705,5.769212913833543,0.8071467122517273,0.030507832204265613,0.4423438980488709,0.05283826968632068,-0.2225932921503746,2.1163804605091308,3.051701563314945
23,0.00024160416175117428,0.00017646414447458928,0.00016502416907914302,6.034367157534005,1.6723172989979636,2.1086537896796047,5.769231084950828,0.8072489121263375,0.030550047078401824,0.442347818742206,0.05282322603925307,-0.22257639784323952,2.116455435342356,3.0516900260449322
24,0.00015705708223803262,0.00011471790791300521,0.00010726941794332068,6.034353554271756,1.6723775225252218,2.1086529667445966,5.769242888445284,0.807315378618687,0.030577484254531995,0.4423503531999029,0.05281344187582489,-0.22256541531965465,2.116504190944264,3.0516825237952006
25,0.00010209640238434849,7.457708167086854e-05,6.972757282880974e-05,6.034344710186887,1.6724166734278603,2.108652441776865,5.769250558802856,0.8073586075035231,0.030595319324691995,0.44235199114456036,0.0528070763795862,-0.22255827820737037,2.116535898939297,3.0516776453424974
26,6.636868895012615e-05,4.848185198458898e-05,4.5324526696770895e-05,6.034338960716542,1.6724421252086448,2.1086521074740747,5.769255544606799,0.8073867237648825,0.030606913776845362,0.442353049511643,0.05280293418640289,-0.2225536410602617,2.116556521184483,3.0516744730436076
