jkpark150901/flame_robotics_drt/experiment/inspection_ik/session_20260722_152253/success/inspection_ik_20260722_152342_rb20_1900es_normalized_success.csv
iteration,err_norm,position_error,orientation_error,tcp_x,tcp_y,tcp_z,q0_rt_joint_linear_track,q1_rt_joint_carriage,q2_rt_base,q3_rt_shoulder,q4_rt_elbow,q5_rt_wrist1,q6_rt_wrist2,q7_rt_wrist3
0,5.289090691343661,2.8974086497953424,3.018257663660071,0.267,-3.2807478955731993e-13,2.541,0.0,0.0,0.0,0.0,0.0,0.0,0.0,0.0
1,4.2968626509219385,2.5891632150381336,2.584424439082357,1.3531174312025236,-0.723582848139306,2.394818223724849,0.9370554220882015,-0.0430060993494478,0.22957657966996858,-0.39700630034462386,-0.02174600097314306,0.25798611645854397,0.35351429839833765,0.25798611645854397
2,3.3940452563862125,1.7617377273929486,2.569112138640441,2.433189732250888,-0.27206047474299544,2.1893806039811046,2.3012094896195308,-1.0,0.06866919038961874,0.057735224394467544,0.8185370300646192,-0.8423852150976858,-1.0660258864540266,1.9097026798328745
3,2.368762165437111,1.5433474653987764,1.6468196852936292,2.7853208599663066,0.002287494345747574,2.3102857448865297,2.567054646587145,-0.7267470244770723,0.05791595179067655,0.7207136137267315,-0.5689467167041192,-0.5478941212156238,-0.09710606178845349,2.7959719537718057
4,1.6296253873357678,1.1687740796122115,1.0829590066299586,2.854622099364035,0.5244520616443017,2.4094675825047287,2.4564055671831,-0.10560339395118024,-0.20903785972869188,0.4434534267699344,-0.20841305243738412,0.08634951378025024,0.3502273237729071,2.6277179487862954
5,1.0853346640889936,0.810501126984309,0.7052352811280821,2.9181452150620046,0.8968698024021501,2.2363464695754782,2.3403848779968293,-0.04794222642725593,-0.31638139994464676,0.5258688325575687,0.030892920602518137,0.041973317104025076,0.3651406305925677,2.8993386175294233
6,0.7066840806895578,0.5334680105343709,0.4588016953942246,2.8681704197015025,1.1203955664205782,2.0573783259058245,2.2373471060136705,-0.047393235259613614,-0.30208949322826567,0.6344518213960548,0.11019716672326618,0.06053207002931288,0.4081182584681937,2.9568265739512136
7,0.45865931825576345,0.3471818301239937,0.29843338528269403,2.809256602725371,1.2394320302597486,1.9214884784198132,2.1622630452041216,-0.06102155851830567,-0.28571549437207167,0.7024125259757883,0.1681505032026544,0.08570686734223705,0.4313315712545403,2.979659164552059
8,0.2976460023995814,0.2253521575820679,0.1940937997257662,2.7602865460652706,1.3036553979401075,1.828883994723269,2.1117601959025905,-0.07368969571837737,-0.27265078543704835,0.7425678454216191,0.20951103470178936,0.10610873185179158,0.44613169944968856,2.990892610723856
9,0.19322537993176045,0.14622333657785272,0.12621560807357,2.724099639143142,1.3394296888612798,1.7679053259502013,2.0784908358415843,-0.08335071127673356,-0.26320117235064944,0.7664556148262718,0.2381755452383546,0.12095694628909305,0.4558782802060475,2.9970159392435143
10,0.12548364051565242,0.09490554842551227,0.08206543512378761,2.698788088920597,1.3600737725332146,1.728218969830473,2.0567477083439547,-0.09020069886107791,-0.25665687381608443,0.780912956285671,0.25763188831431405,0.1312577273339647,0.4623164933067019,3.000573905249761
11,0.08151436107282488,0.0616212736136793,0.0533538699411429,2.6815952115468673,1.372371381194069,1.7024795973702904,2.0425847259830676,-0.09488584068296069,-0.2522311474922415,0.7898209858119508,0.2706488731374181,0.13822191935026845,0.4665562058645178,3.002728177676076
12,0.05296265814230481,0.04002319311280449,0.03468499863790261,2.6701118258873064,1.3798869603816633,1.6857944632901751,2.0333719762613525,-0.09802715815590508,-0.2492807128412977,0.7953941334443275,0.279272833844397,0.14286052511488584,0.46933796655239135,3.0040670505793265
13,0.03441646013587862,0.02600158142452341,0.022547413840980725,2.662518876459585,1.3845691534694464,1.674974207721643,2.0273824878619404,-0.10010895194688302,-0.24733140452377406,0.7989220918772645,0.28494911486189134,0.1459224621026365,0.47115773372913544,3.0049128772710145
14,0.022366777904565167,0.016895204652121583,0.01465675342547126,2.6575294524910538,1.387526550984265,1.6679532265538686,2.023489277074033,-0.10147886086359428,-0.24605091717624714,0.8011745045376699,0.28866913381423603,0.1479324315277231,0.47234562882580966,3.0054527204712103
15,0.014536762860696661,0.01097940774981191,0.009527292169725744,2.65426361431136,1.389412414543759,1.6633951544727763,2.0209587923330528,-0.10237636935959003,-0.24521289148277464,0.8026211295042585,0.29110018942567023,0.14924724533284855,0.47311990322178255,3.005799496636574
16,0.009448215598275788,0.0071355771350373,0.006192913454081488,2.652131249949813,1.3906227859561988,1.6604348613333861,2.0193140472194107,-0.10296275473280427,-0.24466575586661157,0.8035540032954308,0.29268595577302503,0.15010541630489188,0.47362407260480743,3.006023163725901
17,0.006141063008526458,0.004637696591851684,0.004025468945120963,2.650741175484893,1.3914029821966347,1.6585117273703265,2.018244995292012,-0.10334519346949282,-0.24430909532666684,0.8041572128380708,0.2937190928454566,0.1506647425063342,0.4739521441801283,3.006167802615231
18,0.003991580908709802,0.0030143295324788475,0.0026165876946557553,2.6498359214959355,1.3919073316418533,1.657262136808964,2.0175501229886104,-0.10359433693079434,-0.24407683494080581,0.8045479589761766,0.29439165782909815,0.15102895813149997,0.4741655321062138,3.0062614926084907
19,0.0025944857721219403,0.0019592464395016143,0.0017007965826422915,2.649246785092015,1.3922339770986096,1.6564500881391166,2.017098458232942,-0.10375652567883387,-0.24392568451746563,0.8048013758438053,0.29482926822289907,0.15126598359330878,0.4743042862004579,3.006322245721612
20,0.001686401151233829,0.0012734851979719288,0.0011055243784512752,2.6488635409709613,1.3924457923294928,1.6559223315279128,2.0168048750822085,-0.10386205849323013,-0.2438273609043964,0.8049658559873362,0.29511390824042183,0.15142017675635944,0.47439449311275034,3.0063616683660737
21,0.0010961565816437762,0.000827757215589739,0.0007185939169279903,2.6486143027095834,1.3925832558973237,1.6555793190657744,2.0166140441925506,-0.10393070555847561,-0.2437634190019824,0.8050726659535319,0.29529900974442247,0.15152045978689668,0.4744531312707083,3.006387261202334
22,0.0007125013214685565,0.0005380403056270757,0.0004670875269944889,2.6484522427299946,1.3926725137052187,1.6553563717490887,2.0164900024046193,-0.10397535033408982,-0.24372184375885958,0.8051420490726027,0.29541936431667604,0.15158567063761433,0.4744912453931395,3.0064038806956526
23,0.000463126514306299,0.0003497264217355297,0.00030360763721412913,2.6483468802196204,1.392730490401793,1.655211459481704,2.0164093739073254,-0.10400438144541137,-0.24369481456917624,0.805187129654649,0.29549761269709274,0.15162807073974569,0.47451601783333036,3.0064146751160887
24,0.00030103306284031545,0.00022732293168081072,0.00019734535571453576,2.648278384491866,1.3927681570933097,1.6551172672818795,2.0163569644195167,-0.10402325790550182,-0.24367724350395928,0.805216424160798,0.29554848275056067,0.15165563742038657,0.47453211823964064,3.006421686991889
25,0.00019567219959906634,0.00014776065708010876,0.00012827469517691194,2.648233857900652,1.3927926321912123,1.6550560422223435,2.016322897583955,-0.10403553099756088,-0.24366582151868574,0.8052354622133113,0.2955815525969732,0.15167355927342624,0.4745425821793957,3.006426242152672
26,0.000127187462394175,9.604502514265747e-05,8.337867752308585e-05,2.64820491370401,1.3928085371425543,1.6550162455815176,2.0163007536885758,-0.10404351043356745,-0.2436583969524629,0.8052478354883262,0.29560305025785033,0.15168521042680738,0.4745493827810108,3.006429201498082
27,8.267222721760005e-05,6.242970141948363e-05,5.419621772305323e-05,2.6481860991247763,1.3928188734846847,1.6549903774227586,2.016286359855041,-0.10404869820108532,-0.24365357090640063,0.8052558774795282,0.2956170249779476,0.1516927848026997,0.47455380250690127,3.00643112415661
